P3
400 225
255
204 226 255
204 226 255
204 226 255
204 226 255
204 226 255
203 226 255
203 226 255
203 226 255
203 226 255
203 226 255
203 226 255
203 226 255
203 226 255
203 225 255
203 225 255
203 225 255
203 225 255
203 225 255
203 225 255
203 225 255
203 225 255
202 225 255
202 225 255
202 225 255
202 225 255
202 225 255
202 225 255
202 225 255
202 225 255
202 225 255
202 225 255
202 225 255
202 225 255
202 225 255
202 225 255
202 225 255
201 225 255
201 225 255
201 225 255
201 225 255
201 224 255
201 224 255
201 224 255
201 224 255
201 224 255
201 224 255
201 224 255
201 224 255
201 224 255
201 224 255
200 224 255
200 224 255
200 224 255
200 224 255
200 224 255
200 224 255
200 224 255
200 224 255
200 224 255
200 224 255
200 224 255
200 224 255
200 224 255
199 224 255
199 224 255
199 223 255
199 223 255
199 223 255
199 223 255
199 223 255
199 223 255
199 223 255
199 223 255
199 223 255
199 223 255
199 223 255
198 223 255
198 223 255
198 223 255
198 223 255
198 223 255
198 223 255
198 223 255
198 223 255
198 223 255
198 223 255
198 223 255
198 223 255
197 222 255
197 222 255
197 222 255
197 222 255
197 222 255
197 222 255
197 222 255
197 222 255
197 222 255
197 222 255
197 222 255
197 222 255
196 222 255
196 222 255
196 222 255
196 222 255
196 222 255
196 222 255
196 222 255
196 222 255
196 222 255
196 222 255
196 222 255
196 221 255
195 221 255
195 221 255
195 221 255
195 221 255
195 221 255
195 221 255
195 221 255
195 221 255
195 221 255
195 221 255
195 221 255
195 221 255
194 221 255
194 221 255
194 221 255
194 221 255
194 221 255
194 221 255
194 221 255
194 221 255
194 221 255
194 221 255
194 221 255
194 220 255
194 220 255
193 220 255
193 220 255
193 220 255
193 220 255
193 220 255
193 220 255
193 220 255
193 220 255
193 220 255
193 220 255
193 220 255
193 220 255
193 220 255
193 220 255
193 220 255
192 220 255
192 220 255
192 220 255
192 220 255
192 220 255
192 220 255
192 220 255
192 220 255
192 220 255
192 220 255
192 220 255
192 220 255
192 220 255
192 219 255
192 219 255
192 219 255
192 219 255
192 219 255
192 219 255
191 219 255
191 219 255
191 219 255
191 219 255
191 219 255
191 219 255
191 219 255
191 219 255
191 219 255
191 219 255
191 219 255
191 219 255
191 219 255
191 219 255
191 219 255
191 219 255
191 219 255
191 219 255
191 219 255
191 219 255
191 219 255
191 219 255
191 219 255
191 219 255
191 219 255
191 219 255
191 219 255
191 219 255
191 219 255
191 219 255
191 219 255
191 219 255
191 219 255
191 219 255
191 219 255
191 219 255
191 219 255
191 219 255
191 219 255
191 219 255
191 219 255
191 219 255
191 219 255
191 219 255
191 219 255
191 219 255
191 219 255
191 219 255
191 219 255
191 219 255
191 219 255
191 219 255
191 219 255
191 219 255
191 219 255
191 219 255
191 219 255
191 219 255
192 219 255
192 219 255
192 219 255
192 219 255
192 219 255
192 219 255
192 220 255
192 220 255
192 220 255
192 220 255
192 220 255
192 220 255
192 220 255
192 220 255
192 220 255
192 220 255
192 220 255
192 220 255
192 220 255
193 220 255
193 220 255
193 220 255
193 220 255
193 220 255
193 220 255
193 220 255
193 220 255
193 220 255
193 220 255
193 220 255
193 220 255
193 220 255
193 220 255
193 220 255
194 220 255
194 220 255
194 221 255
194 221 255
194 221 255
194 221 255
194 221 255
194 221 255
194 221 255
194 221 255
194 221 255
194 221 255
194 221 255
195 221 255
195 221 255
195 221 255
195 221 255
195 221 255
195 221 255
195 221 255
195 221 255
195 221 255
195 221 255
195 221 255
195 221 255
196 221 255
196 222 255
196 222 255
196 222 255
196 222 255
196 222 255
196 222 255
196 222 255
196 222 255
196 222 255
196 222 255
196 222 255
197 222 255
197 222 255
197 222 255
197 222 255
197 222 255
197 222 255
197 222 255
197 222 255
197 222 255
197 222 255
197 222 255
197 222 255
198 223 255
198 223 255
198 223 255
198 223 255
198 223 255
198 223 255
198 223 255
198 223 255
198 223 255
198 223 255
198 223 255
198 223 255
199 223 255
199 223 255
199 223 255
199 223 255
199 223 255
199 223 255
199 223 255
199 223 255
199 223 255
199 223 255
199 223 255
199 224 255
199 224 255
200 224 255
200 224 255
200 224 255
200 224 255
200 224 255
200 224 255
200 224 255
200 224 255
200 224 255
200 224 255
200 224 255
200 224 255
200 224 255
201 224 255
201 224 255
201 224 255
201 224 255
201 224 255
201 224 255
201 224 255
201 224 255
201 224 255
201 224 255
201 225 255
201 225 255
201 225 255
201 225 255
202 225 255
202 225 255
202 225 255
202 225 255
202 225 255
202 225 255
202 225 255
202 225 255
202 225 255
202 225 255
202 225 255
202 225 255
202 225 255
202 225 255
202 225 255
203 225 255
203 225 255
203 225 255
203 225 255
203 225 255
203 225 255
203 225 255
203 225 255
203 226 255
203 226 255
203 226 255
203 226 255
203 226 255
203 226 255
203 226 255
204 226 255
204 226 255
204 226 255
204 226 255
204 226 255
204 226 255
204 226 255
204 226 255
204 226 255
204 226 255
204 226 255
204 226 255
204 226 255
204 226 255
203 226 255
203 226 255
203 226 255
203 226 255
203 226 255
203 226 255
203 226 255
203 225 255
203 225 255
203 225 255
203 225 255
203 225 255
203 225 255
203 225 255
203 225 255
203 225 255
202 225 255
202 225 255
202 225 255
202 225 255
202 225 255
202 225 255
202 225 255
202 225 255
202 225 255
202 225 255
202 225 255
202 225 255
202 225 255
202 225 255
201 225 255
201 225 255
201 225 255
201 225 255
201 224 255
201 224 255
201 224 255
201 224 255
201 224 255
201 224 255
201 224 255
201 224 255
201 224 255
201 224 255
200 224 255
200 224 255
200 224 255
200 224 255
200 224 255
200 224 255
200 224 255
200 224 255
200 224 255
200 224 255
200 224 255
200 224 255
200 224 255
199 224 255
199 224 255
199 223 255
199 223 255
199 223 255
199 223 255
199 223 255
199 223 255
199 223 255
199 223 255
199 223 255
199 223 255
198 223 255
198 223 255
198 223 255
198 223 255
198 223 255
198 223 255
198 223 255
198 223 255
198 223 255
198 223 255
198 223 255
198 223 255
197 223 255
197 222 255
197 222 255
197 222 255
197 222 255
197 222 255
197 222 255
197 222 255
197 222 255
197 222 255
197 222 255
197 222 255
197 222 255
196 222 255
196 222 255
196 222 255
196 222 255
196 222 255
196 222 255
196 222 255
196 222 255
196 222 255
196 222 255
196 222 255
196 221 255
195 221 255
195 221 255
195 221 255
195 221 255
195 221 255
195 221 255
195 221 255
195 221 255
195 221 255
195 221 255
195 221 255
195 221 255
194 221 255
194 221 255
194 221 255
194 221 255
194 221 255
194 221 255
194 221 255
194 221 255
194 221 255
194 221 255
194 220 255
194 220 255
194 220 255
193 220 255
193 220 255
193 220 255
193 220 255
193 220 255
193 220 255
193 220 255
193 220 255
193 220 255
193 220 255
193 220 255
193 220 255
193 220 255
193 220 255
193 220 255
192 220 255
192 220 255
192 220 255
192 220 255
192 220 255
192 220 255
192 220 255
192 220 255
192 220 255
192 220 255
192 220 255
192 220 255
192 220 255
192 219 255
192 219 255
192 219 255
192 219 255
192 219 255
192 219 255
192 219 255
191 219 255
191 219 255
191 219 255
191 219 255
191 219 255
191 219 255
191 219 255
191 219 255
191 219 255
191 219 255
191 219 255
191 219 255
191 219 255
191 219 255
191 219 255
191 219 255
191 219 255
191 219 255
191 219 255
191 219 255
191 219 255
191 219 255
191 219 255
191 219 255
191 219 255
191 219 255
191 219 255
191 219 255
191 219 255
191 219 255
191 219 255
191 219 255
191 219 255
191 219 255
191 219 255
191 219 255
191 219 255
191 219 255
191 219 255
191 219 255
191 219 255
191 219 255
191 219 255
191 219 255
191 219 255
191 219 255
191 219 255
191 219 255
191 219 255
191 219 255
191 219 255
191 219 255
192 219 255
192 219 255
192 219 255
192 219 255
192 219 255
192 219 255
192 219 255
192 220 255
192 220 255
192 220 255
192 220 255
192 220 255
192 220 255
192 220 255
192 220 255
192 220 255
192 220 255
192 220 255
192 220 255
192 220 255
193 220 255
193 220 255
193 220 255
193 220 255
193 220 255
193 220 255
193 220 255
193 220 255
193 220 255
193 220 255
193 220 255
193 220 255
193 220 255
193 220 255
193 220 255
194 220 255
194 220 255
194 220 255
194 221 255
194 221 255
194 221 255
194 221 255
194 221 255
194 221 255
194 221 255
194 221 255
194 221 255
194 221 255
195 221 255
195 221 255
195 221 255
195 221 255
195 221 255
195 221 255
195 221 255
195 221 255
195 221 255
195 221 255
195 221 255
195 221 255
196 221 255
196 222 255
196 222 255
196 222 255
196 222 255
196 222 255
196 222 255
196 222 255
196 222 255
196 222 255
196 222 255
196 222 255
197 222 255
197 222 255
197 222 255
197 222 255
197 222 255
197 222 255
197 222 255
197 222 255
197 222 255
197 222 255
197 222 255
197 222 255
198 223 255
198 223 255
198 223 255
198 223 255
198 223 255
198 223 255
198 223 255
198 223 255
198 223 255
198 223 255
198 223 255
198 223 255
198 223 255
199 223 255
199 223 255
199 223 255
199 223 255
199 223 255
199 223 255
199 223 255
199 223 255
199 223 255
199 223 255
199 224 255
199 224 255
200 224 255
200 224 255
200 224 255
200 224 255
200 224 255
200 224 255
200 224 255
200 224 255
200 224 255
200 224 255
200 224 255
200 224 255
200 224 255
201 224 255
201 224 255
201 224 255
201 224 255
201 224 255
201 224 255
201 224 255
201 224 255
201 224 255
201 224 255
201 225 255
201 225 255
201 225 255
201 225 255
202 225 255
202 225 255
202 225 255
202 225 255
202 225 255
202 225 255
202 225 255
202 225 255
202 225 255
202 225 255
202 225 255
202 225 255
202 225 255
202 225 255
202 225 255
203 225 255
203 225 255
203 225 255
203 225 255
203 225 255
203 225 255
203 225 255
203 225 255
203 226 255
203 226 255
203 226 255
203 226 255
203 226 255
203 226 255
203 226 255
204 226 255
204 226 255
204 226 255
204 226 255
204 226 255
204 226 255
204 226 255
204 226 255
204 226 255
204 226 255
204 226 255
204 226 255
204 226 255
204 226 255
204 226 255
204 226 255
204 226 255
204 226 255
203 226 255
203 226 255
203 226 255
203 226 255
203 226 255
203 226 255
203 226 255
203 225 255
203 225 255
203 225 255
203 225 255
203 225 255
203 225 255
203 225 255
203 225 255
202 225 255
202 225 255
202 225 255
202 225 255
202 225 255
202 225 255
202 225 255
202 225 255
202 225 255
202 225 255
202 225 255
202 225 255
202 225 255
202 225 255
202 225 255
201 225 255
201 225 255
201 225 255
201 225 255
201 224 255
201 224 255
201 224 255
201 224 255
201 224 255
201 224 255
201 224 255
201 224 255
201 224 255
201 224 255
200 224 255
200 224 255
200 224 255
200 224 255
200 224 255
200 224 255
200 224 255
200 224 255
200 224 255
200 224 255
200 224 255
200 224 255
200 224 255
199 224 255
199 224 255
199 223 255
199 223 255
199 223 255
199 223 255
199 223 255
199 223 255
199 223 255
199 223 255
199 223 255
199 223 255
198 223 255
198 223 255
198 223 255
198 223 255
198 223 255
198 223 255
198 223 255
198 223 255
198 223 255
198 223 255
198 223 255
198 223 255
197 223 255
197 222 255
197 222 255
197 222 255
197 222 255
197 222 255
197 222 255
197 222 255
197 222 255
197 222 255
197 222 255
197 222 255
196 222 255
196 222 255
196 222 255
196 222 255
196 222 255
196 222 255
196 222 255
196 222 255
196 222 255
196 222 255
196 222 255
196 221 255
195 221 255
195 221 255
195 221 255
195 221 255
195 221 255
195 221 255
195 221 255
195 221 255
195 221 255
195 221 255
195 221 255
195 221 255
195 221 255
194 221 255
194 221 255
194 221 255
194 221 255
194 221 255
194 221 255
194 221 255
194 221 255
194 221 255
194 221 255
194 220 255
194 220 255
194 220 255
193 220 255
193 220 255
193 220 255
193 220 255
193 220 255
193 220 255
193 220 255
193 220 255
193 220 255
193 220 255
193 220 255
193 220 255
193 220 255
193 220 255
193 220 255
192 220 255
192 220 255
192 220 255
192 220 255
192 220 255
192 220 255
192 220 255
192 220 255
192 220 255
192 220 255
192 220 255
192 220 255
192 220 255
192 220 255
192 219 255
192 219 255
192 219 255
192 219 255
192 219 255
192 219 255
192 219 255
192 219 255
191 219 255
191 219 255
191 219 255
191 219 255
191 219 255
191 219 255
191 219 255
191 219 255
191 219 255
191 219 255
191 219 255
191 219 255
191 219 255
191 219 255
191 219 255
191 219 255
191 219 255
191 219 255
191 219 255
191 219 255
191 219 255
191 219 255
191 219 255
191 219 255
191 219 255
191 219 255
191 219 255
191 219 255
191 219 255
191 219 255
191 219 255
191 219 255
191 219 255
191 219 255
191 219 255
191 219 255
191 219 255
191 219 255
191 219 255
191 219 255
191 219 255
191 219 255
191 219 255
191 219 255
192 219 255
192 219 255
192 219 255
192 219 255
192 219 255
192 219 255
192 219 255
192 219 255
192 220 255
192 220 255
192 220 255
192 220 255
192 220 255
192 220 255
192 220 255
192 220 255
192 220 255
192 220 255
192 220 255
192 220 255
192 220 255
192 220 255
193 220 255
193 220 255
193 220 255
193 220 255
193 220 255
193 220 255
193 220 255
193 220 255
193 220 255
193 220 255
193 220 255
193 220 255
193 220 255
193 220 255
193 220 255
194 220 255
194 220 255
194 220 255
194 221 255
194 221 255
194 221 255
194 221 255
194 221 255
194 221 255
194 221 255
194 221 255
194 221 255
194 221 255
195 221 255
195 221 255
195 221 255
195 221 255
195 221 255
195 221 255
195 221 255
195 221 255
195 221 255
195 221 255
195 221 255
195 221 255
195 221 255
196 221 255
196 222 255
196 222 255
196 222 255
196 222 255
196 222 255
196 222 255
196 222 255
196 222 255
196 222 255
196 222 255
196 222 255
197 222 255
197 222 255
197 222 255
197 222 255
197 222 255
197 222 255
197 222 255
197 222 255
197 222 255
197 222 255
197 222 255
197 223 255
198 223 255
198 223 255
198 223 255
198 223 255
198 223 255
198 223 255
198 223 255
198 223 255
198 223 255
198 223 255
198 223 255
198 223 255
199 223 255
199 223 255
199 223 255
199 223 255
199 223 255
199 223 255
199 223 255
199 223 255
199 223 255
199 223 255
199 224 255
199 224 255
200 224 255
200 224 255
200 224 255
200 224 255
200 224 255
200 224 255
200 224 255
200 224 255
200 224 255
200 224 255
200 224 255
200 224 255
200 224 255
201 224 255
201 224 255
201 224 255
201 224 255
201 224 255
201 224 255
201 224 255
201 224 255
201 224 255
201 224 255
201 225 255
201 225 255
201 225 255
201 225 255
202 225 255
202 225 255
202 225 255
202 225 255
202 225 255
202 225 255
202 225 255
202 225 255
202 225 255
202 225 255
202 225 255
202 225 255
202 225 255
202 225 255
202 225 255
203 225 255
203 225 255
203 225 255
203 225 255
203 225 255
203 225 255
203 225 255
203 225 255
203 226 255
203 226 255
203 226 255
203 226 255
203 226 255
203 226 255
203 226 255
204 226 255
204 226 255
204 226 255
204 226 255
204 226 255
204 226 255
204 226 255
204 226 255
204 226 255
204 226 255
204 226 255
204 226 255
204 226 255
204 226 255
204 226 255
204 226 255
204 226 255
204 226 255
204 226 255
204 226 255
204 226 255
204 226 255
203 226 255
203 226 255
203 226 255
203 226 255
203 226 255
203 226 255
203 226 255
203 225 255
203 225 255
203 225 255
203 225 255
203 225 255
203 225 255
203 225 255
203 225 255
202 225 255
202 225 255
202 225 255
202 225 255
202 225 255
202 225 255
202 225 255
202 225 255
202 225 255
202 225 255
202 225 255
202 225 255
202 225 255
202 225 255
202 225 255
201 225 255
201 225 255
201 225 255
201 225 255
201 224 255
201 224 255
201 224 255
201 224 255
201 224 255
201 224 255
201 224 255
201 224 255
201 224 255
201 224 255
200 224 255
200 224 255
200 224 255
200 224 255
200 224 255
200 224 255
200 224 255
200 224 255
200 224 255
200 224 255
200 224 255
200 224 255
200 224 255
199 224 255
199 224 255
199 223 255
199 223 255
199 223 255
199 223 255
199 223 255
199 223 255
199 223 255
199 223 255
199 223 255
199 223 255
198 223 255
198 223 255
198 223 255
198 223 255
198 223 255
198 223 255
198 223 255
198 223 255
198 223 255
198 223 255
198 223 255
198 223 255
197 222 255
197 222 255
197 222 255
197 222 255
197 222 255
197 222 255
197 222 255
197 222 255
197 222 255
197 222 255
197 222 255
197 222 255
196 222 255
196 222 255
196 222 255
196 222 255
196 222 255
196 222 255
196 222 255
196 222 255
196 222 255
196 222 255
196 222 255
196 221 255
195 221 255
195 221 255
195 221 255
195 221 255
195 221 255
195 221 255
195 221 255
195 221 255
195 221 255
195 221 255
195 221 255
195 221 255
195 221 255
194 221 255
194 221 255
194 221 255
194 221 255
194 221 255
194 221 255
194 221 255
194 221 255
194 221 255
194 221 255
194 220 255
194 220 255
194 220 255
193 220 255
193 220 255
193 220 255
193 220 255
193 220 255
193 220 255
193 220 255
193 220 255
193 220 255
193 220 255
193 220 255
193 220 255
193 220 255
193 220 255
193 220 255
193 220 255
192 220 255
192 220 255
192 220 255
192 220 255
192 220 255
192 220 255
192 220 255
192 220 255
192 220 255
192 220 255
192 220 255
192 220 255
192 220 255
192 220 255
192 219 255
192 219 255
192 219 255
192 219 255
192 219 255
192 219 255
192 219 255
192 219 255
192 219 255
191 219 255
191 219 255
191 219 255
191 219 255
191 219 255
191 219 255
191 219 255
191 219 255
191 219 255
191 219 255
191 219 255
191 219 255
191 219 255
191 219 255
191 219 255
191 219 255
191 219 255
191 219 255
191 219 255
191 219 255
191 219 255
191 219 255
191 219 255
191 219 255
191 219 255
191 219 255
191 219 255
191 219 255
191 219 255
191 219 255
191 219 255
191 219 255
191 219 255
191 219 255
191 219 255
191 219 255
192 219 255
192 219 255
192 219 255
192 219 255
192 219 255
192 219 255
192 219 255
192 219 255
192 219 255
192 220 255
192 220 255
192 220 255
192 220 255
192 220 255
192 220 255
192 220 255
192 220 255
192 220 255
192 220 255
192 220 255
192 220 255
192 220 255
192 220 255
193 220 255
193 220 255
193 220 255
193 220 255
193 220 255
193 220 255
193 220 255
193 220 255
193 220 255
193 220 255
193 220 255
193 220 255
193 220 255
193 220 255
193 220 255
193 220 255
194 220 255
194 220 255
194 220 255
194 221 255
194 221 255
194 221 255
194 221 255
194 221 255
194 221 255
194 221 255
194 221 255
194 221 255
194 221 255
195 221 255
195 221 255
195 221 255
195 221 255
195 221 255
195 221 255
195 221 255
195 221 255
195 221 255
195 221 255
195 221 255
195 221 255
195 221 255
196 221 255
196 222 255
196 222 255
196 222 255
196 222 255
196 222 255
196 222 255
196 222 255
196 222 255
196 222 255
196 222 255
196 222 255
197 222 255
197 222 255
197 222 255
197 222 255
197 222 255
197 222 255
197 222 255
197 222 255
197 222 255
197 222 255
197 222 255
197 222 255
198 223 255
198 223 255
198 223 255
198 223 255
198 223 255
198 223 255
198 223 255
198 223 255
198 223 255
198 223 255
198 223 255
198 223 255
199 223 255
199 223 255
199 223 255
199 223 255
199 223 255
199 223 255
199 223 255
199 223 255
199 223 255
199 223 255
199 224 255
199 224 255
199 224 255
200 224 255
200 224 255
200 224 255
200 224 255
200 224 255
200 224 255
200 224 255
200 224 255
200 224 255
200 224 255
200 224 255
200 224 255
201 224 255
201 224 255
201 224 255
201 224 255
201 224 255
201 224 255
201 224 255
201 224 255
201 224 255
201 224 255
201 225 255
201 225 255
201 225 255
201 225 255
202 225 255
202 225 255
202 225 255
202 225 255
202 225 255
202 225 255
202 225 255
202 225 255
202 225 255
202 225 255
202 225 255
202 225 255
202 225 255
202 225 255
202 225 255
203 225 255
203 225 255
203 225 255
203 225 255
203 225 255
203 225 255
203 225 255
203 225 255
203 226 255
203 226 255
203 226 255
203 226 255
203 226 255
203 226 255
203 226 255
204 226 255
204 226 255
204 226 255
204 226 255
204 226 255
204 226 255
204 226 255
204 226 255
204 226 255
204 226 255
204 226 255
204 226 255
204 226 255
204 226 255
204 226 255
204 226 255
204 226 255
204 226 255
204 226 255
204 226 255
204 226 255
204 226 255
204 226 255
204 226 255
204 226 255
204 226 255
203 226 255
203 226 255
203 226 255
203 226 255
203 226 255
203 226 255
203 226 255
203 225 255
203 225 255
203 225 255
203 225 255
203 225 255
203 225 255
203 225 255
203 225 255
203 225 255
202 225 255
202 225 255
202 225 255
202 225 255
202 225 255
202 225 255
202 225 255
202 225 255
202 225 255
202 225 255
202 225 255
202 225 255
202 225 255
202 225 255
201 225 255
201 225 255
201 225 255
201 225 255
201 224 255
201 224 255
201 224 255
201 224 255
201 224 255
201 224 255
201 224 255
201 224 255
201 224 255
200 224 255
200 224 255
200 224 255
200 224 255
200 224 255
200 224 255
200 224 255
200 224 255
200 224 255
200 224 255
200 224 255
200 224 255
200 224 255
199 224 255
199 224 255
199 223 255
199 223 255
199 223 255
199 223 255
199 223 255
199 223 255
199 223 255
199 223 255
199 223 255
199 223 255
199 223 255
198 223 255
198 223 255
198 223 255
198 223 255
198 223 255
198 223 255
198 223 255
198 223 255
198 223 255
198 223 255
198 223 255
198 223 255
197 222 255
197 222 255
197 222 255
197 222 255
197 222 255
197 222 255
197 222 255
197 222 255
197 222 255
197 222 255
197 222 255
197 222 255
196 222 255
196 222 255
196 222 255
196 222 255
196 222 255
196 222 255
196 222 255
196 222 255
196 222 255
196 222 255
196 222 255
196 221 255
195 221 255
195 221 255
195 221 255
195 221 255
195 221 255
195 221 255
195 221 255
195 221 255
195 221 255
195 221 255
195 221 255
195 221 255
194 221 255
194 221 255
194 221 255
194 221 255
194 221 255
194 221 255
194 221 255
194 221 255
194 221 255
194 221 255
194 221 255
194 220 255
194 220 255
194 220 255
193 220 255
193 220 255
193 220 255
193 220 255
193 220 255
193 220 255
193 220 255
193 220 255
193 220 255
193 220 255
193 220 255
193 220 255
193 220 255
193 220 255
193 220 255
193 220 255
192 220 255
192 220 255
192 220 255
192 220 255
192 220 255
192 220 255
192 220 255
192 220 255
192 220 255
192 220 255
192 220 255
192 220 255
192 220 255
192 220 255
192 220 255
192 220 255
192 219 255
192 219 255
192 219 255
192 219 255
192 219 255
192 219 255
192 219 255
192 219 255
192 219 255
192 219 255
191 219 255
191 219 255
191 219 255
191 219 255
191 219 255
191 219 255
191 219 255
191 219 255
191 219 255
191 219 255
191 219 255
191 219 255
191 219 255
191 219 255
191 219 255
191 219 255
191 219 255
191 219 255
191 219 255
191 219 255
191 219 255
191 219 255
191 219 255
191 219 255
191 219 255
191 219 255
192 219 255
192 219 255
192 219 255
192 219 255
192 219 255
192 219 255
192 219 255
192 219 255
192 219 255
192 219 255
192 220 255
192 220 255
192 220 255
192 220 255
192 220 255
192 220 255
192 220 255
192 220 255
192 220 255
192 220 255
192 220 255
192 220 255
192 220 255
192 220 255
192 220 255
192 220 255
193 220 255
193 220 255
193 220 255
193 220 255
193 220 255
193 220 255
193 220 255
193 220 255
193 220 255
193 220 255
193 220 255
193 220 255
193 220 255
193 220 255
193 220 255
193 220 255
194 220 255
194 220 255
194 220 255
194 221 255
194 221 255
194 221 255
194 221 255
194 221 255
194 221 255
194 221 255
194 221 255
194 221 255
194 221 255
194 221 255
195 221 255
195 221 255
195 221 255
195 221 255
195 221 255
195 221 255
195 221 255
195 221 255
195 221 255
195 221 255
195 221 255
195 221 255
196 221 255
196 222 255
196 222 255
196 222 255
196 222 255
196 222 255
196 222 255
196 222 255
196 222 255
196 222 255
196 222 255
196 222 255
197 222 255
197 222 255
197 222 255
197 222 255
197 222 255
197 222 255
197 222 255
197 222 255
197 222 255
197 222 255
197 222 255
197 222 255
198 223 255
198 223 255
198 223 255
198 223 255
198 223 255
198 223 255
198 223 255
198 223 255
198 223 255
198 223 255
198 223 255
198 223 255
199 223 255
199 223 255
199 223 255
199 223 255
199 223 255
199 223 255
199 223 255
199 223 255
199 223 255
199 223 255
199 223 255
199 224 255
199 224 255
200 224 255
200 224 255
200 224 255
200 224 255
200 224 255
200 224 255
200 224 255
200 224 255
200 224 255
200 224 255
200 224 255
200 224 255
200 224 255
201 224 255
201 224 255
201 224 255
201 224 255
201 224 255
201 224 255
201 224 255
201 224 255
201 224 255
201 225 255
201 225 255
201 225 255
201 225 255
202 225 255
202 225 255
202 225 255
202 225 255
202 225 255
202 225 255
202 225 255
202 225 255
202 225 255
202 225 255
202 225 255
202 225 255
202 225 255
202 225 255
203 225 255
203 225 255
203 225 255
203 225 255
203 225 255
203 225 255
203 225 255
203 225 255
203 225 255
203 226 255
203 226 255
203 226 255
203 226 255
203 226 255
203 226 255
203 226 255
204 226 255
204 226 255
204 226 255
204 226 255
204 226 255
204 226 255
204 226 255
204 226 255
204 226 255
204 226 255
204 226 255
204 226 255
204 226 255
204 226 255
204 226 255
204 226 255
204 226 255
204 226 255
204 226 255
204 226 255
204 226 255
204 226 255
204 226 255
204 226 255
204 226 255
204 226 255
204 226 255
204 226 255
204 226 255
204 226 255
203 226 255
203 226 255
203 226 255
203 226 255
203 226 255
203 226 255
203 226 255
203 225 255
203 225 255
203 225 255
203 225 255
203 225 255
203 225 255
203 225 255
203 225 255
203 225 255
202 225 255
202 225 255
202 225 255
202 225 255
202 225 255
202 225 255
202 225 255
202 225 255
202 225 255
202 225 255
202 225 255
202 225 255
202 225 255
202 225 255
201 225 255
201 225 255
201 225 255
201 225 255
201 224 255
201 224 255
201 224 255
201 224 255
201 224 255
201 224 255
201 224 255
201 224 255
201 224 255
200 224 255
200 224 255
200 224 255
200 224 255
200 224 255
200 224 255
200 224 255
200 224 255
200 224 255
200 224 255
200 224 255
200 224 255
200 224 255
199 224 255
199 224 255
199 223 255
199 223 255
199 223 255
199 223 255
199 223 255
199 223 255
199 223 255
199 223 255
199 223 255
199 223 255
199 223 255
198 223 255
198 223 255
198 223 255
198 223 255
198 223 255
198 223 255
198 223 255
198 223 255
198 223 255
198 223 255
198 223 255
198 223 255
197 222 255
197 222 255
197 222 255
197 222 255
197 222 255
197 222 255
197 222 255
197 222 255
197 222 255
197 222 255
197 222 255
197 222 255
196 222 255
196 222 255
196 222 255
196 222 255
196 222 255
196 222 255
196 222 255
196 222 255
196 222 255
196 222 255
196 221 255
196 221 255
195 221 255
195 221 255
195 221 255
195 221 255
195 221 255
195 221 255
195 221 255
195 221 255
195 221 255
195 221 255
195 221 255
195 221 255
194 221 255
194 221 255
194 221 255
194 221 255
194 221 255
194 221 255
194 221 255
194 221 255
194 221 255
194 221 255
194 221 255
194 220 255
194 220 255
194 220 255
193 220 255
193 220 255
193 220 255
193 220 255
193 220 255
193 220 255
193 220 255
193 220 255
193 220 255
193 220 255
193 220 255
193 220 255
193 220 255
193 220 255
193 220 255
193 220 255
193 220 255
192 220 255
192 220 255
192 220 255
192 220 255
192 220 255
192 220 255
192 220 255
192 220 255
192 220 255
192 220 255
192 220 255
192 220 255
192 220 255
192 220 255
192 220 255
192 220 255
192 220 255
192 219 255
192 219 255
192 219 255
192 219 255
192 219 255
192 219 255
192 219 255
192 219 255
192 219 255
192 219 255
192 219 255
192 219 255
192 219 255
192 219 255
192 219 255
192 219 255
192 219 255
192 219 255
192 219 255
192 219 255
192 219 255
192 219 255
192 219 255
192 219 255
192 219 255
192 219 255
192 219 255
192 219 255
192 219 255
192 219 255
192 219 255
192 219 255
192 219 255
192 219 255
192 219 255
192 219 255
192 219 255
192 219 255
192 220 255
192 220 255
192 220 255
192 220 255
192 220 255
192 220 255
192 220 255
192 220 255
192 220 255
192 220 255
192 220 255
192 220 255
192 220 255
192 220 255
192 220 255
192 220 255
192 220 255
192 220 255
193 220 255
193 220 255
193 220 255
193 220 255
193 220 255
193 220 255
193 220 255
193 220 255
193 220 255
193 220 255
193 220 255
193 220 255
193 220 255
193 220 255
193 220 255
193 220 255
194 220 255
194 220 255
194 220 255
194 221 255
194 221 255
194 221 255
194 221 255
194 221 255
194 221 255
194 221 255
194 221 255
194 221 255
194 221 255
194 221 255
195 221 255
195 221 255
195 221 255
195 221 255
195 221 255
195 221 255
195 221 255
195 221 255
195 221 255
195 221 255
195 221 255
195 221 255
196 221 255
196 222 255
196 222 255
196 222 255
196 222 255
196 222 255
196 222 255
196 222 255
196 222 255
196 222 255
196 222 255
196 222 255
197 222 255
197 222 255
197 222 255
197 222 255
197 222 255
197 222 255
197 222 255
197 222 255
197 222 255
197 222 255
197 222 255
197 222 255
198 223 255
198 223 255
198 223 255
198 223 255
198 223 255
198 223 255
198 223 255
198 223 255
198 223 255
198 223 255
198 223 255
198 223 255
199 223 255
199 223 255
199 223 255
199 223 255
199 223 255
199 223 255
199 223 255
199 223 255
199 223 255
199 223 255
199 223 255
199 224 255
199 224 255
200 224 255
200 224 255
200 224 255
200 224 255
200 224 255
200 224 255
200 224 255
200 224 255
200 224 255
200 224 255
200 224 255
200 224 255
200 224 255
201 224 255
201 224 255
201 224 255
201 224 255
201 224 255
201 224 255
201 224 255
201 224 255
201 224 255
201 225 255
201 225 255
201 225 255
201 225 255
202 225 255
202 225 255
202 225 255
202 225 255
202 225 255
202 225 255
202 225 255
202 225 255
202 225 255
202 225 255
202 225 255
202 225 255
202 225 255
202 225 255
203 225 255
203 225 255
203 225 255
203 225 255
203 225 255
203 225 255
203 225 255
203 225 255
203 225 255
203 226 255
203 226 255
203 226 255
203 226 255
203 226 255
203 226 255
203 226 255
204 226 255
204 226 255
204 226 255
204 226 255
204 226 255
204 226 255
204 226 255
204 226 255
204 226 255
204 226 255
204 226 255
204 226 255
204 226 255
204 226 255
204 226 255
204 226 255
205 226 255
205 226 255
204 226 255
204 226 255
204 226 255
204 226 255
204 226 255
204 226 255
204 226 255
204 226 255
204 226 255
204 226 255
204 226 255
204 226 255
204 226 255
204 226 255
204 226 255
204 226 255
203 226 255
203 226 255
203 226 255
203 226 255
203 226 255
203 226 255
203 226 255
203 225 255
203 225 255
203 225 255
203 225 255
203 225 255
203 225 255
203 225 255
203 225 255
203 225 255
202 225 255
202 225 255
202 225 255
202 225 255
202 225 255
202 225 255
202 225 255
202 225 255
202 225 255
202 225 255
202 225 255
202 225 255
202 225 255
202 225 255
201 225 255
201 225 255
201 225 255
201 225 255
201 224 255
201 224 255
201 224 255
201 224 255
201 224 255
201 224 255
201 224 255
201 224 255
201 224 255
200 224 255
200 224 255
200 224 255
200 224 255
200 224 255
200 224 255
200 224 255
200 224 255
200 224 255
200 224 255
200 224 255
200 224 255
200 224 255
199 224 255
199 224 255
199 223 255
199 223 255
199 223 255
199 223 255
199 223 255
199 223 255
199 223 255
199 223 255
199 223 255
199 223 255
198 223 255
198 223 255
198 223 255
198 223 255
198 223 255
198 223 255
198 223 255
198 223 255
198 223 255
198 223 255
198 223 255
198 223 255
197 223 255
197 222 255
197 222 255
197 222 255
197 222 255
197 222 255
197 222 255
197 222 255
197 222 255
197 222 255
197 222 255
197 222 255
196 222 255
196 222 255
196 222 255
196 222 255
196 222 255
196 222 255
196 222 255
196 222 255
196 222 255
196 222 255
196 222 255
196 221 255
195 221 255
195 221 255
195 221 255
195 221 255
195 221 255
195 221 255
195 221 255
195 221 255
195 221 255
195 221 255
195 221 255
195 221 255
195 221 255
194 221 255
194 221 255
194 221 255
194 221 255
194 221 255
194 221 255
194 221 255
194 221 255
194 221 255
194 221 255
194 221 255
194 220 255
194 220 255
194 220 255
193 220 255
193 220 255
193 220 255
193 220 255
193 220 255
193 220 255
193 220 255
193 220 255
193 220 255
193 220 255
193 220 255
193 220 255
193 220 255
193 220 255
193 220 255
193 220 255
193 220 255
192 220 255
192 220 255
192 220 255
192 220 255
192 220 255
192 220 255
192 220 255
192 220 255
192 220 255
192 220 255
192 220 255
192 220 255
192 220 255
192 220 255
192 220 255
192 220 255
192 220 255
192 220 255
192 220 255
192 220 255
192 219 255
192 219 255
192 219 255
192 219 255
192 219 255
192 219 255
192 219 255
192 219 255
192 219 255
192 219 255
192 219 255
192 219 255
192 219 255
192 219 255
192 219 255
192 219 255
192 219 255
192 219 255
192 219 255
192 219 255
192 219 255
192 219 255
192 219 255
192 219 255
192 219 255
192 219 255
192 219 255
192 219 255
192 220 255
192 220 255
192 220 255
192 220 255
192 220 255
192 220 255
192 220 255
192 220 255
192 220 255
192 220 255
192 220 255
192 220 255
192 220 255
192 220 255
192 220 255
192 220 255
192 220 255
192 220 255
192 220 255
192 220 255
193 220 255
193 220 255
193 220 255
193 220 255
193 220 255
193 220 255
193 220 255
193 220 255
193 220 255
193 220 255
193 220 255
193 220 255
193 220 255
193 220 255
193 220 255
193 220 255
193 220 255
194 220 255
194 220 255
194 220 255
194 221 255
194 221 255
194 221 255
194 221 255
194 221 255
194 221 255
194 221 255
194 221 255
194 221 255
194 221 255
194 221 255
195 221 255
195 221 255
195 221 255
195 221 255
195 221 255
195 221 255
195 221 255
195 221 255
195 221 255
195 221 255
195 221 255
195 221 255
195 221 255
196 221 255
196 222 255
196 222 255
196 222 255
196 222 255
196 222 255
196 222 255
196 222 255
196 222 255
196 222 255
196 222 255
196 222 255
197 222 255
197 222 255
197 222 255
197 222 255
197 222 255
197 222 255
197 222 255
197 222 255
197 222 255
197 222 255
197 222 255
197 223 255
198 223 255
198 223 255
198 223 255
198 223 255
198 223 255
198 223 255
198 223 255
198 223 255
198 223 255
198 223 255
198 223 255
198 223 255
199 223 255
199 223 255
199 223 255
199 223 255
199 223 255
199 223 255
199 223 255
199 223 255
199 223 255
199 223 255
199 224 255
199 224 255
200 224 255
200 224 255
200 224 255
200 224 255
200 224 255
200 224 255
200 224 255
200 224 255
200 224 255
200 224 255
200 224 255
200 224 255
200 224 255
201 224 255
201 224 255
201 224 255
201 224 255
201 224 255
201 224 255
201 224 255
201 224 255
201 224 255
201 225 255
201 225 255
201 225 255
201 225 255
202 225 255
202 225 255
202 225 255
202 225 255
202 225 255
202 225 255
202 225 255
202 225 255
202 225 255
202 225 255
202 225 255
202 225 255
202 225 255
202 225 255
203 225 255
203 225 255
203 225 255
203 225 255
203 225 255
203 225 255
203 225 255
203 225 255
203 225 255
203 226 255
203 226 255
203 226 255
203 226 255
203 226 255
203 226 255
204 226 255
204 226 255
204 226 255
204 226 255
204 226 255
204 226 255
204 226 255
204 226 255
204 226 255
204 226 255
204 226 255
204 226 255
204 226 255
204 226 255
204 226 255
204 226 255
204 226 255
205 226 255
205 226 255
205 226 255
205 226 255
205 226 255
205 226 255
204 226 255
204 226 255
204 226 255
204 226 255
204 226 255
204 226 255
204 226 255
204 226 255
204 226 255
204 226 255
204 226 255
204 226 255
204 226 255
204 226 255
204 226 255
204 226 255
204 226 255
203 226 255
203 226 255
203 226 255
203 226 255
203 226 255
203 226 255
203 225 255
203 225 255
203 225 255
203 225 255
203 225 255
203 225 255
203 225 255
203 225 255
203 225 255
202 225 255
202 225 255
202 225 255
202 225 255
202 225 255
202 225 255
202 225 255
202 225 255
202 225 255
202 225 255
202 225 255
202 225 255
202 225 255
202 225 255
201 225 255
201 225 255
201 225 255
201 225 255
201 224 255
201 224 255
201 224 255
201 224 255
201 224 255
201 224 255
201 224 255
201 224 255
201 224 255
200 224 255
200 224 255
200 224 255
200 224 255
200 224 255
200 224 255
200 224 255
200 224 255
200 224 255
200 224 255
200 224 255
200 224 255
200 224 255
199 224 255
199 224 255
199 223 255
199 223 255
199 223 255
199 223 255
199 223 255
199 223 255
199 223 255
199 223 255
199 223 255
199 223 255
198 223 255
198 223 255
198 223 255
198 223 255
198 223 255
198 223 255
198 223 255
198 223 255
198 223 255
198 223 255
198 223 255
198 223 255
197 223 255
197 222 255
197 222 255
197 222 255
197 222 255
197 222 255
197 222 255
197 222 255
197 222 255
197 222 255
197 222 255
197 222 255
196 222 255
196 222 255
196 222 255
196 222 255
196 222 255
196 222 255
196 222 255
196 222 255
196 222 255
196 222 255
196 222 255
196 221 255
195 221 255
195 221 255
195 221 255
195 221 255
195 221 255
195 221 255
195 221 255
195 221 255
195 221 255
195 221 255
195 221 255
195 221 255
195 221 255
194 221 255
194 221 255
194 221 255
194 221 255
194 221 255
194 221 255
194 221 255
194 221 255
194 221 255
194 221 255
194 221 255
194 220 255
194 220 255
194 220 255
193 220 255
193 220 255
193 220 255
193 220 255
193 220 255
193 220 255
193 220 255
193 220 255
193 220 255
193 220 255
193 220 255
193 220 255
193 220 255
193 220 255
193 220 255
193 220 255
193 220 255
193 220 255
192 220 255
192 220 255
192 220 255
192 220 255
192 220 255
192 220 255
192 220 255
192 220 255
192 220 255
192 220 255
192 220 255
192 220 255
192 220 255
192 220 255
192 220 255
192 220 255
192 220 255
192 220 255
192 220 255
192 220 255
192 220 255
192 220 255
192 220 255
192 220 255
192 220 255
192 220 255
192 219 255
192 219 255
192 219 255
192 219 255
192 219 255
192 219 255
192 219 255
192 219 255
192 219 255
192 219 255
192 220 255
192 220 255
192 220 255
192 220 255
192 220 255
192 220 255
192 220 255
192 220 255
192 220 255
192 220 255
192 220 255
192 220 255
192 220 255
192 220 255
192 220 255
192 220 255
192 220 255
192 220 255
192 220 255
192 220 255
192 220 255
192 220 255
192 220 255
192 220 255
192 220 255
192 220 255
193 220 255
193 220 255
193 220 255
193 220 255
193 220 255
193 220 255
193 220 255
193 220 255
193 220 255
193 220 255
193 220 255
193 220 255
193 220 255
193 220 255
193 220 255
193 220 255
193 220 255
193 220 255
194 220 255
194 220 255
194 220 255
194 221 255
194 221 255
194 221 255
194 221 255
194 221 255
194 221 255
194 221 255
194 221 255
194 221 255
194 221 255
194 221 255
195 221 255
195 221 255
195 221 255
195 221 255
195 221 255
195 221 255
195 221 255
195 221 255
195 221 255
195 221 255
195 221 255
195 221 255
195 221 255
196 221 255
196 222 255
196 222 255
196 222 255
196 222 255
196 222 255
196 222 255
196 222 255
196 222 255
196 222 255
196 222 255
196 222 255
197 222 255
197 222 255
197 222 255
197 222 255
197 222 255
197 222 255
197 222 255
197 222 255
197 222 255
197 222 255
197 222 255
197 223 255
198 223 255
198 223 255
198 223 255
198 223 255
198 223 255
198 223 255
198 223 255
198 223 255
198 223 255
198 223 255
198 223 255
198 223 255
199 223 255
199 223 255
199 223 255
199 223 255
199 223 255
199 223 255
199 223 255
199 223 255
199 223 255
199 223 255
199 224 255
199 224 255
200 224 255
200 224 255
200 224 255
200 224 255
200 224 255
200 224 255
200 224 255
200 224 255
200 224 255
200 224 255
200 224 255
200 224 255
200 224 255
201 224 255
201 224 255
201 224 255
201 224 255
201 224 255
201 224 255
201 224 255
201 224 255
201 224 255
201 225 255
201 225 255
201 225 255
201 225 255
202 225 255
202 225 255
202 225 255
202 225 255
202 225 255
202 225 255
202 225 255
202 225 255
202 225 255
202 225 255
202 225 255
202 225 255
202 225 255
202 225 255
203 225 255
203 225 255
203 225 255
203 225 255
203 225 255
203 225 255
203 225 255
203 225 255
203 225 255
203 226 255
203 226 255
203 226 255
203 226 255
203 226 255
203 226 255
204 226 255
204 226 255
204 226 255
204 226 255
204 226 255
204 226 255
204 226 255
204 226 255
204 226 255
204 226 255
204 226 255
204 226 255
204 226 255
204 226 255
204 226 255
204 226 255
204 226 255
205 226 255
205 226 255
205 226 255
205 226 255
205 226 255
205 226 255
205 226 255
205 226 255
205 226 255
205 226 255
204 226 255
204 226 255
204 226 255
204 226 255
204 226 255
204 226 255
204 226 255
204 226 255
204 226 255
204 226 255
204 226 255
204 226 255
204 226 255
204 226 255
204 226 255
204 226 255
204 226 255
203 226 255
203 226 255
203 226 255
203 226 255
203 226 255
203 226 255
203 226 255
203 225 255
203 225 255
203 225 255
203 225 255
203 225 255
203 225 255
203 225 255
203 225 255
202 225 255
202 225 255
202 225 255
202 225 255
202 225 255
202 225 255
202 225 255
202 225 255
202 225 255
202 225 255
202 225 255
202 225 255
202 225 255
202 225 255
201 225 255
201 225 255
201 225 255
201 225 255
201 224 255
201 224 255
201 224 255
201 224 255
201 224 255
201 224 255
201 224 255
201 224 255
201 224 255
200 224 255
200 224 255
200 224 255
200 224 255
200 224 255
200 224 255
200 224 255
200 224 255
200 224 255
200 224 255
200 224 255
200 224 255
200 224 255
199 224 255
199 224 255
199 223 255
199 223 255
199 223 255
199 223 255
199 223 255
199 223 255
199 223 255
199 223 255
199 223 255
199 223 255
198 223 255
198 223 255
198 223 255
198 223 255
198 223 255
198 223 255
198 223 255
198 223 255
198 223 255
198 223 255
198 223 255
198 223 255
197 222 255
197 222 255
197 222 255
197 222 255
197 222 255
197 222 255
197 222 255
197 222 255
197 222 255
197 222 255
197 222 255
197 222 255
196 222 255
196 222 255
196 222 255
196 222 255
196 222 255
196 222 255
196 222 255
196 222 255
196 222 255
196 222 255
196 222 255
196 221 255
195 221 255
195 221 255
195 221 255
195 221 255
195 221 255
195 221 255
195 221 255
195 221 255
195 221 255
195 221 255
195 221 255
195 221 255
195 221 255
194 221 255
194 221 255
194 221 255
194 221 255
194 221 255
194 221 255
194 221 255
194 221 255
194 221 255
194 221 255
194 221 255
194 221 255
194 220 255
194 220 255
193 220 255
193 220 255
193 220 255
193 220 255
193 220 255
193 220 255
193 220 255
193 220 255
193 220 255
193 220 255
193 220 255
193 220 255
193 220 255
193 220 255
193 220 255
193 220 255
193 220 255
193 220 255
193 220 255
192 220 255
192 220 255
192 220 255
192 220 255
192 220 255
192 220 255
192 220 255
192 220 255
192 220 255
192 220 255
192 220 255
192 220 255
192 220 255
192 220 255
192 220 255
192 220 255
192 220 255
192 220 255
192 220 255
192 220 255
192 220 255
192 220 255
192 220 255
192 220 255
192 220 255
192 220 255
192 220 255
192 220 255
192 220 255
192 220 255
192 220 255
192 220 255
192 220 255
192 220 255
192 220 255
192 220 255
192 220 255
192 220 255
192 220 255
192 220 255
192 220 255
192 220 255
192 220 255
192 220 255
192 220 255
192 220 255
192 220 255
192 220 255
192 220 255
192 220 255
192 220 255
192 220 255
192 220 255
192 220 255
192 220 255
192 220 255
193 220 255
193 220 255
193 220 255
193 220 255
193 220 255
193 220 255
193 220 255
193 220 255
193 220 255
193 220 255
193 220 255
193 220 255
193 220 255
193 220 255
193 220 255
193 220 255
193 220 255
193 220 255
194 220 255
194 220 255
194 220 255
194 220 255
194 221 255
194 221 255
194 221 255
194 221 255
194 221 255
194 221 255
194 221 255
194 221 255
194 221 255
194 221 255
194 221 255
195 221 255
195 221 255
195 221 255
195 221 255
195 221 255
195 221 255
195 221 255
195 221 255
195 221 255
195 221 255
195 221 255
195 221 255
195 221 255
196 221 255
196 222 255
196 222 255
196 222 255
196 222 255
196 222 255
196 222 255
196 222 255
196 222 255
196 222 255
196 222 255
196 222 255
197 222 255
197 222 255
197 222 255
197 222 255
197 222 255
197 222 255
197 222 255
197 222 255
197 222 255
197 222 255
197 222 255
197 222 255
198 223 255
198 223 255
198 223 255
198 223 255
198 223 255
198 223 255
198 223 255
198 223 255
198 223 255
198 223 255
198 223 255
198 223 255
199 223 255
199 223 255
199 223 255
199 223 255
199 223 255
199 223 255
199 223 255
199 223 255
199 223 255
199 223 255
199 224 255
199 224 255
200 224 255
200 224 255
200 224 255
200 224 255
200 224 255
200 224 255
200 224 255
200 224 255
200 224 255
200 224 255
200 224 255
200 224 255
200 224 255
201 224 255
201 224 255
201 224 255
201 224 255
201 224 255
201 224 255
201 224 255
201 224 255
201 224 255
201 225 255
201 225 255
201 225 255
201 225 255
202 225 255
202 225 255
202 225 255
202 225 255
202 225 255
202 225 255
202 225 255
202 225 255
202 225 255
202 225 255
202 225 255
202 225 255
202 225 255
202 225 255
203 225 255
203 225 255
203 225 255
203 225 255
203 225 255
203 225 255
203 225 255
203 225 255
203 226 255
203 226 255
203 226 255
203 226 255
203 226 255
203 226 255
203 226 255
204 226 255
204 226 255
204 226 255
204 226 255
204 226 255
204 226 255
204 226 255
204 226 255
204 226 255
204 226 255
204 226 255
204 226 255
204 226 255
204 226 255
204 226 255
204 226 255
204 226 255
205 226 255
205 226 255
205 226 255
205 226 255
205 226 255
205 226 255
205 227 255
205 227 255
205 226 255
205 226 255
205 226 255
205 226 255
205 226 255
205 226 255
205 226 255
204 226 255
204 226 255
204 226 255
204 226 255
204 226 255
204 226 255
204 226 255
204 226 255
204 226 255
204 226 255
204 226 255
204 226 255
204 226 255
204 226 255
204 226 255
204 226 255
203 226 255
203 226 255
203 226 255
203 226 255
203 226 255
203 226 255
203 226 255
203 225 255
203 225 255
203 225 255
203 225 255
203 225 255
203 225 255
203 225 255
203 225 255
202 225 255
202 225 255
202 225 255
202 225 255
202 225 255
202 225 255
202 225 255
202 225 255
202 225 255
202 225 255
202 225 255
202 225 255
202 225 255
202 225 255
201 225 255
201 225 255
201 225 255
201 225 255
201 224 255
201 224 255
201 224 255
201 224 255
201 224 255
201 224 255
201 224 255
201 224 255
201 224 255
200 224 255
200 224 255
200 224 255
200 224 255
200 224 255
200 224 255
200 224 255
200 224 255
200 224 255
200 224 255
200 224 255
200 224 255
200 224 255
199 224 255
199 224 255
199 223 255
199 223 255
199 223 255
199 223 255
199 223 255
199 223 255
199 223 255
199 223 255
199 223 255
199 223 255
198 223 255
198 223 255
198 223 255
198 223 255
198 223 255
198 223 255
198 223 255
198 223 255
198 223 255
198 223 255
198 223 255
198 223 255
197 222 255
197 222 255
197 222 255
197 222 255
197 222 255
197 222 255
197 222 255
197 222 255
197 222 255
197 222 255
197 222 255
197 222 255
196 222 255
196 222 255
196 222 255
196 222 255
196 222 255
196 222 255
196 222 255
196 222 255
196 222 255
196 222 255
196 222 255
196 221 255
195 221 255
195 221 255
195 221 255
195 221 255
195 221 255
195 221 255
195 221 255
195 221 255
195 221 255
195 221 255
195 221 255
195 221 255
195 221 255
194 221 255
194 221 255
194 221 255
194 221 255
194 221 255
194 221 255
194 221 255
194 221 255
194 221 255
194 221 255
194 221 255
194 221 255
194 220 255
194 220 255
194 220 255
193 220 255
193 220 255
193 220 255
193 220 255
193 220 255
193 220 255
193 220 255
193 220 255
193 220 255
193 220 255
193 220 255
193 220 255
193 220 255
193 220 255
193 220 255
193 220 255
193 220 255
193 220 255
193 220 255
193 220 255
192 220 255
192 220 255
192 220 255
192 220 255
192 220 255
192 220 255
192 220 255
192 220 255
192 220 255
192 220 255
192 220 255
192 220 255
192 220 255
192 220 255
192 220 255
192 220 255
192 220 255
192 220 255
192 220 255
192 220 255
192 220 255
192 220 255
192 220 255
192 220 255
192 220 255
192 220 255
192 220 255
192 220 255
192 220 255
192 220 255
192 220 255
192 220 255
192 220 255
192 220 255
192 220 255
192 220 255
192 220 255
192 220 255
192 220 255
192 220 255
192 220 255
192 220 255
192 220 255
192 220 255
192 220 255
192 220 255
192 220 255
192 220 255
193 220 255
193 220 255
193 220 255
193 220 255
193 220 255
193 220 255
193 220 255
193 220 255
193 220 255
193 220 255
193 220 255
193 220 255
193 220 255
193 220 255
193 220 255
193 220 255
193 220 255
193 220 255
193 220 255
193 220 255
194 220 255
194 220 255
194 220 255
194 221 255
194 221 255
194 221 255
194 221 255
194 221 255
194 221 255
194 221 255
194 221 255
194 221 255
194 221 255
194 221 255
194 221 255
195 221 255
195 221 255
195 221 255
195 221 255
195 221 255
195 221 255
195 221 255
195 221 255
195 221 255
195 221 255
195 221 255
195 221 255
195 221 255
196 221 255
196 222 255
196 222 255
196 222 255
196 222 255
196 222 255
196 222 255
196 222 255
196 222 255
196 222 255
196 222 255
196 222 255
197 222 255
197 222 255
197 222 255
197 222 255
197 222 255
197 222 255
197 222 255
197 222 255
197 222 255
197 222 255
197 222 255
197 222 255
198 223 255
198 223 255
198 223 255
198 223 255
198 223 255
198 223 255
198 223 255
198 223 255
198 223 255
198 223 255
198 223 255
198 223 255
199 223 255
199 223 255
199 223 255
199 223 255
199 223 255
199 223 255
199 223 255
199 223 255
199 223 255
199 223 255
199 224 255
199 224 255
200 224 255
200 224 255
200 224 255
200 224 255
200 224 255
200 224 255
200 224 255
200 224 255
200 224 255
200 224 255
200 224 255
200 224 255
200 224 255
201 224 255
201 224 255
201 224 255
201 224 255
201 224 255
201 224 255
201 224 255
201 224 255
201 224 255
201 225 255
201 225 255
201 225 255
201 225 255
202 225 255
202 225 255
202 225 255
202 225 255
202 225 255
202 225 255
202 225 255
202 225 255
202 225 255
202 225 255
202 225 255
202 225 255
202 225 255
202 225 255
203 225 255
203 225 255
203 225 255
203 225 255
203 225 255
203 225 255
203 225 255
203 225 255
203 226 255
203 226 255
203 226 255
203 226 255
203 226 255
203 226 255
203 226 255
204 226 255
204 226 255
204 226 255
204 226 255
204 226 255
204 226 255
204 226 255
204 226 255
204 226 255
204 226 255
204 226 255
204 226 255
204 226 255
204 226 255
204 226 255
204 226 255
205 226 255
205 226 255
205 226 255
205 226 255
205 226 255
205 226 255
205 226 255
205 227 255
205 227 255
205 227 255
205 227 255
205 227 255
205 227 255
205 226 255
205 226 255
205 226 255
205 226 255
205 226 255
205 226 255
205 226 255
204 226 255
204 226 255
204 226 255
204 226 255
204 226 255
204 226 255
204 226 255
204 226 255
204 226 255
204 226 255
204 226 255
204 226 255
204 226 255
204 226 255
204 226 255
204 226 255
203 226 255
203 226 255
203 226 255
203 226 255
203 226 255
203 226 255
203 226 255
203 225 255
203 225 255
203 225 255
203 225 255
203 225 255
203 225 255
203 225 255
203 225 255
202 225 255
202 225 255
202 225 255
202 225 255
202 225 255
202 225 255
202 225 255
202 225 255
202 225 255
202 225 255
202 225 255
202 225 255
202 225 255
202 225 255
201 225 255
201 225 255
201 225 255
201 225 255
201 224 255
201 224 255
201 224 255
201 224 255
201 224 255
201 224 255
201 224 255
201 224 255
201 224 255
200 224 255
200 224 255
200 224 255
200 224 255
200 224 255
200 224 255
200 224 255
200 224 255
200 224 255
200 224 255
200 224 255
200 224 255
200 224 255
199 224 255
199 224 255
199 223 255
199 223 255
199 223 255
199 223 255
199 223 255
199 223 255
199 223 255
199 223 255
199 223 255
199 223 255
198 223 255
198 223 255
198 223 255
198 223 255
198 223 255
198 223 255
198 223 255
198 223 255
198 223 255
198 223 255
198 223 255
198 223 255
197 222 255
197 222 255
197 222 255
197 222 255
197 222 255
197 222 255
197 222 255
197 222 255
197 222 255
197 222 255
197 222 255
197 222 255
196 222 255
196 222 255
196 222 255
196 222 255
196 222 255
196 222 255
196 222 255
196 222 255
196 222 255
196 222 255
196 222 255
196 221 255
195 221 255
195 221 255
195 221 255
195 221 255
195 221 255
195 221 255
195 221 255
195 221 255
195 221 255
195 221 255
195 221 255
195 221 255
195 221 255
194 221 255
194 221 255
194 221 255
194 221 255
194 221 255
194 221 255
194 221 255
194 221 255
194 221 255
194 221 255
194 221 255
194 221 255
194 220 255
194 220 255
194 220 255
193 220 255
193 220 255
193 220 255
193 220 255
193 220 255
193 220 255
193 220 255
193 220 255
193 220 255
193 220 255
193 220 255
193 220 255
193 220 255
193 220 255
193 220 255
193 220 255
193 220 255
193 220 255
193 220 255
193 220 255
193 220 255
193 220 255
192 220 255
192 220 255
192 220 255
192 220 255
192 220 255
192 220 255
192 220 255
192 220 255
192 220 255
192 220 255
192 220 255
192 220 255
192 220 255
192 220 255
192 220 255
192 220 255
192 220 255
192 220 255
192 220 255
192 220 255
192 220 255
192 220 255
192 220 255
192 220 255
192 220 255
192 220 255
192 220 255
192 220 255
192 220 255
192 220 255
192 220 255
192 220 255
192 220 255
192 220 255
192 220 255
192 220 255
192 220 255
192 220 255
192 220 255
192 220 255
193 220 255
193 220 255
193 220 255
193 220 255
193 220 255
193 220 255
193 220 255
193 220 255
193 220 255
193 220 255
193 220 255
193 220 255
193 220 255
193 220 255
193 220 255
193 220 255
193 220 255
193 220 255
193 220 255
193 220 255
193 220 255
193 220 255
194 220 255
194 220 255
194 220 255
194 221 255
194 221 255
194 221 255
194 221 255
194 221 255
194 221 255
194 221 255
194 221 255
194 221 255
194 221 255
194 221 255
194 221 255
195 221 255
195 221 255
195 221 255
195 221 255
195 221 255
195 221 255
195 221 255
195 221 255
195 221 255
195 221 255
195 221 255
195 221 255
195 221 255
196 221 255
196 222 255
196 222 255
196 222 255
196 222 255
196 222 255
196 222 255
196 222 255
196 222 255
196 222 255
196 222 255
196 222 255
197 222 255
197 222 255
197 222 255
197 222 255
197 222 255
197 222 255
197 222 255
197 222 255
197 222 255
197 222 255
197 222 255
197 222 255
198 223 255
198 223 255
198 223 255
198 223 255
198 223 255
198 223 255
198 223 255
198 223 255
198 223 255
198 223 255
198 223 255
198 223 255
199 223 255
199 223 255
199 223 255
199 223 255
199 223 255
199 223 255
199 223 255
199 223 255
199 223 255
199 223 255
199 224 255
199 224 255
200 224 255
200 224 255
200 224 255
200 224 255
200 224 255
200 224 255
200 224 255
200 224 255
200 224 255
200 224 255
200 224 255
200 224 255
200 224 255
201 224 255
201 224 255
201 224 255
201 224 255
201 224 255
201 224 255
201 224 255
201 224 255
201 224 255
201 225 255
201 225 255
201 225 255
201 225 255
202 225 255
202 225 255
202 225 255
202 225 255
202 225 255
202 225 255
202 225 255
202 225 255
202 225 255
202 225 255
202 225 255
202 225 255
202 225 255
202 225 255
203 225 255
203 225 255
203 225 255
203 225 255
203 225 255
203 225 255
203 225 255
203 225 255
203 226 255
203 226 255
203 226 255
203 226 255
203 226 255
203 226 255
203 226 255
204 226 255
204 226 255
204 226 255
204 226 255
204 226 255
204 226 255
204 226 255
204 226 255
204 226 255
204 226 255
204 226 255
204 226 255
204 226 255
204 226 255
204 226 255
204 226 255
205 226 255
205 226 255
205 226 255
205 226 255
205 226 255
205 226 255
205 226 255
205 227 255
205 227 255
205 227 255
205 227 255
205 227 255
205 227 255
205 227 255
205 227 255
205 227 255
205 227 255
205 227 255
205 226 255
205 226 255
205 226 255
205 226 255
205 226 255
205 226 255
205 226 255
204 226 255
204 226 255
204 226 255
204 226 255
204 226 255
204 226 255
204 226 255
204 226 255
204 226 255
204 226 255
204 226 255
204 226 255
204 226 255
204 226 255
204 226 255
203 226 255
203 226 255
203 226 255
203 226 255
203 226 255
203 226 255
203 226 255
203 225 255
203 225 255
203 225 255
203 225 255
203 225 255
203 225 255
203 225 255
203 225 255
202 225 255
202 225 255
202 225 255
202 225 255
202 225 255
202 225 255
202 225 255
202 225 255
202 225 255
202 225 255
202 225 255
202 225 255
202 225 255
202 225 255
201 225 255
201 225 255
201 225 255
201 225 255
201 224 255
201 224 255
201 224 255
201 224 255
201 224 255
201 224 255
201 224 255
201 224 255
201 224 255
200 224 255
200 224 255
200 224 255
200 224 255
200 224 255
200 224 255
200 224 255
200 224 255
200 224 255
200 224 255
200 224 255
200 224 255
200 224 255
199 224 255
199 223 255
199 223 255
199 223 255
199 223 255
199 223 255
199 223 255
199 223 255
199 223 255
199 223 255
199 223 255
199 223 255
198 223 255
198 223 255
198 223 255
198 223 255
198 223 255
198 223 255
198 223 255
198 223 255
198 223 255
198 223 255
198 223 255
198 223 255
197 222 255
197 222 255
197 222 255
197 222 255
197 222 255
197 222 255
197 222 255
197 222 255
197 222 255
197 222 255
197 222 255
196 222 255
196 222 255
196 222 255
196 222 255
196 222 255
196 222 255
196 222 255
196 222 255
196 222 255
196 222 255
196 222 255
196 222 255
196 221 255
195 221 255
195 221 255
195 221 255
195 221 255
195 221 255
195 221 255
195 221 255
195 221 255
195 221 255
195 221 255
195 221 255
195 221 255
195 221 255
194 221 255
194 221 255
194 221 255
194 221 255
194 221 255
194 221 255
194 221 255
194 221 255
194 221 255
194 221 255
194 221 255
194 221 255
194 220 255
194 220 255
194 220 255
194 220 255
193 220 255
193 220 255
193 220 255
193 220 255
193 220 255
193 220 255
193 220 255
193 220 255
193 220 255
193 220 255
193 220 255
193 220 255
193 220 255
193 220 255
193 220 255
193 220 255
193 220 255
193 220 255
193 220 255
193 220 255
193 220 255
193 220 255
193 220 255
193 220 255
192 220 255
192 220 255
192 220 255
192 220 255
192 220 255
192 220 255
192 220 255
192 220 255
192 220 255
192 220 255
192 220 255
192 220 255
192 220 255
192 220 255
192 220 255
192 220 255
192 220 255
192 220 255
192 220 255
192 220 255
192 220 255
192 220 255
192 220 255
192 220 255
192 220 255
192 220 255
192 220 255
192 220 255
192 220 255
192 220 255
193 220 255
193 220 255
193 220 255
193 220 255
193 220 255
193 220 255
193 220 255
193 220 255
193 220 255
193 220 255
193 220 255
193 220 255
193 220 255
193 220 255
193 220 255
193 220 255
193 220 255
193 220 255
193 220 255
193 220 255
193 220 255
193 220 255
193 220 255
193 220 255
194 220 255
194 220 255
194 220 255
194 220 255
194 221 255
194 221 255
194 221 255
194 221 255
194 221 255
194 221 255
194 221 255
194 221 255
194 221 255
194 221 255
194 221 255
194 221 255
195 221 255
195 221 255
195 221 255
195 221 255
195 221 255
195 221 255
195 221 255
195 221 255
195 221 255
195 221 255
195 221 255
195 221 255
195 221 255
196 221 255
196 222 255
196 222 255
196 222 255
196 222 255
196 222 255
196 222 255
196 222 255
196 222 255
196 222 255
196 222 255
196 222 255
196 222 255
197 222 255
197 222 255
197 222 255
197 222 255
197 222 255
197 222 255
197 222 255
197 222 255
197 222 255
197 222 255
197 222 255
197 223 255
198 223 255
198 223 255
198 223 255
198 223 255
198 223 255
198 223 255
198 223 255
198 223 255
198 223 255
198 223 255
198 223 255
199 223 255
199 223 255
199 223 255
199 223 255
199 223 255
199 223 255
199 223 255
199 223 255
199 223 255
199 223 255
199 223 255
199 224 255
199 224 255
200 224 255
200 224 255
200 224 255
200 224 255
200 224 255
200 224 255
200 224 255
200 224 255
200 224 255
200 224 255
200 224 255
200 224 255
201 224 255
201 224 255
201 224 255
201 224 255
201 224 255
201 224 255
201 224 255
201 224 255
201 224 255
201 225 255
201 225 255
201 225 255
201 225 255
202 225 255
202 225 255
202 225 255
202 225 255
202 225 255
202 225 255
202 225 255
202 225 255
202 225 255
202 225 255
202 225 255
202 225 255
202 225 255
202 225 255
203 225 255
203 225 255
203 225 255
203 225 255
203 225 255
203 225 255
203 225 255
203 225 255
203 226 255
203 226 255
203 226 255
203 226 255
203 226 255
203 226 255
203 226 255
204 226 255
204 226 255
204 226 255
204 226 255
204 226 255
204 226 255
204 226 255
204 226 255
204 226 255
204 226 255
204 226 255
204 226 255
204 226 255
204 226 255
204 226 255
204 226 255
205 226 255
205 226 255
205 226 255
205 226 255
205 226 255
205 226 255
205 227 255
205 227 255
205 227 255
205 227 255
205 227 255
205 227 255
205 227 255
205 227 255
205 227 255
205 227 255
205 227 255
205 227 255
205 227 255
205 227 255
205 227 255
205 227 255
205 226 255
205 226 255
205 226 255
205 226 255
205 226 255
205 226 255
205 226 255
204 226 255
204 226 255
204 226 255
204 226 255
204 226 255
204 226 255
204 226 255
204 226 255
204 226 255
204 226 255
204 226 255
204 226 255
204 226 255
204 226 255
204 226 255
204 226 255
203 226 255
203 226 255
203 226 255
203 226 255
203 226 255
203 226 255
203 225 255
203 225 255
203 225 255
203 225 255
203 225 255
203 225 255
203 225 255
203 225 255
202 225 255
202 225 255
202 225 255
202 225 255
202 225 255
202 225 255
202 225 255
202 225 255
202 225 255
202 225 255
202 225 255
202 225 255
202 225 255
202 225 255
201 225 255
201 225 255
201 225 255
201 225 255
201 224 255
201 224 255
201 224 255
201 224 255
201 224 255
201 224 255
201 224 255
201 224 255
201 224 255
200 224 255
200 224 255
200 224 255
200 224 255
200 224 255
200 224 255
200 224 255
200 224 255
200 224 255
200 224 255
200 224 255
200 224 255
199 224 255
199 224 255
199 223 255
199 223 255
199 223 255
199 223 255
199 223 255
199 223 255
199 223 255
199 223 255
199 223 255
199 223 255
199 223 255
198 223 255
198 223 255
198 223 255
198 223 255
198 223 255
198 223 255
198 223 255
198 223 255
198 223 255
198 223 255
198 223 255
197 223 255
197 222 255
197 222 255
197 222 255
197 222 255
197 222 255
197 222 255
197 222 255
197 222 255
197 222 255
197 222 255
197 222 255
196 222 255
196 222 255
196 222 255
196 222 255
196 222 255
196 222 255
196 222 255
196 222 255
196 222 255
196 222 255
196 222 255
196 222 255
196 221 255
195 221 255
195 221 255
195 221 255
195 221 255
195 221 255
195 221 255
195 221 255
195 221 255
195 221 255
195 221 255
195 221 255
195 221 255
195 221 255
194 221 255
194 221 255
194 221 255
194 221 255
194 221 255
194 221 255
194 221 255
194 221 255
194 221 255
194 221 255
194 221 255
194 221 255
194 221 255
194 220 255
194 220 255
194 220 255
193 220 255
193 220 255
193 220 255
193 220 255
193 220 255
193 220 255
193 220 255
193 220 255
193 220 255
193 220 255
193 220 255
193 220 255
193 220 255
193 220 255
193 220 255
193 220 255
193 220 255
193 220 255
193 220 255
193 220 255
193 220 255
193 220 255
193 220 255
193 220 255
193 220 255
193 220 255
193 220 255
193 220 255
193 220 255
193 220 255
193 220 255
193 220 255
192 220 255
192 220 255
192 220 255
192 220 255
192 220 255
192 220 255
192 220 255
192 220 255
192 220 255
192 220 255
192 220 255
193 220 255
193 220 255
193 220 255
193 220 255
193 220 255
193 220 255
193 220 255
193 220 255
193 220 255
193 220 255
193 220 255
193 220 255
193 220 255
193 220 255
193 220 255
193 220 255
193 220 255
193 220 255
193 220 255
193 220 255
193 220 255
193 220 255
193 220 255
193 220 255
193 220 255
193 220 255
193 220 255
193 220 255
193 220 255
193 220 255
193 220 255
194 220 255
194 220 255
194 220 255
194 221 255
194 221 255
194 221 255
194 221 255
194 221 255
194 221 255
194 221 255
194 221 255
194 221 255
194 221 255
194 221 255
194 221 255
194 221 255
195 221 255
195 221 255
195 221 255
195 221 255
195 221 255
195 221 255
195 221 255
195 221 255
195 221 255
195 221 255
195 221 255
195 221 255
195 221 255
196 221 255
196 222 255
196 222 255
196 222 255
196 222 255
196 222 255
196 222 255
196 222 255
196 222 255
196 222 255
196 222 255
196 222 255
196 222 255
197 222 255
197 222 255
197 222 255
197 222 255
197 222 255
197 222 255
197 222 255
197 222 255
197 222 255
197 222 255
197 222 255
197 223 255
198 223 255
198 223 255
198 223 255
198 223 255
198 223 255
198 223 255
198 223 255
198 223 255
198 223 255
198 223 255
198 223 255
199 223 255
199 223 255
199 223 255
199 223 255
199 223 255
199 223 255
199 223 255
199 223 255
199 223 255
199 223 255
199 223 255
199 224 255
199 224 255
200 224 255
200 224 255
200 224 255
200 224 255
200 224 255
200 224 255
200 224 255
200 224 255
200 224 255
200 224 255
200 224 255
200 224 255
201 224 255
201 224 255
201 224 255
201 224 255
201 224 255
201 224 255
201 224 255
201 224 255
201 224 255
201 225 255
201 225 255
201 225 255
201 225 255
202 225 255
202 225 255
202 225 255
202 225 255
202 225 255
202 225 255
202 225 255
202 225 255
202 225 255
202 225 255
202 225 255
202 225 255
202 225 255
202 225 255
203 225 255
203 225 255
203 225 255
203 225 255
203 225 255
203 225 255
203 225 255
203 225 255
203 226 255
203 226 255
203 226 255
203 226 255
203 226 255
203 226 255
204 226 255
204 226 255
204 226 255
204 226 255
204 226 255
204 226 255
204 226 255
204 226 255
204 226 255
204 226 255
204 226 255
204 226 255
204 226 255
204 226 255
204 226 255
204 226 255
205 226 255
205 226 255
205 226 255
205 226 255
205 226 255
205 226 255
205 226 255
205 227 255
205 227 255
205 227 255
205 227 255
205 227 255
205 227 255
205 227 255
205 227 255
205 227 255
206 227 255
205 227 255
205 227 255
205 227 255
205 227 255
205 227 255
205 227 255
205 227 255
205 227 255
205 227 255
205 227 255
205 226 255
205 226 255
205 226 255
205 226 255
205 226 255
205 226 255
205 226 255
204 226 255
204 226 255
204 226 255
204 226 255
204 226 255
204 226 255
204 226 255
204 226 255
204 226 255
204 226 255
204 226 255
204 226 255
204 226 255
204 226 255
204 226 255
204 226 255
203 226 255
203 226 255
203 226 255
203 226 255
203 226 255
203 226 255
203 225 255
203 225 255
203 225 255
203 225 255
203 225 255
203 225 255
203 225 255
203 225 255
202 225 255
202 225 255
202 225 255
202 225 255
202 225 255
202 225 255
202 225 255
202 225 255
202 225 255
202 225 255
202 225 255
202 225 255
202 225 255
202 225 255
201 225 255
201 225 255
201 225 255
201 225 255
201 224 255
201 224 255
201 224 255
201 224 255
201 224 255
201 224 255
201 224 255
201 224 255
201 224 255
200 224 255
200 224 255
200 224 255
200 224 255
200 224 255
200 224 255
200 224 255
200 224 255
200 224 255
200 224 255
200 224 255
200 224 255
199 224 255
199 224 255
199 223 255
199 223 255
199 223 255
199 223 255
199 223 255
199 223 255
199 223 255
199 223 255
199 223 255
199 223 255
198 223 255
198 223 255
198 223 255
198 223 255
198 223 255
198 223 255
198 223 255
198 223 255
198 223 255
198 223 255
198 223 255
198 223 255
197 223 255
197 222 255
197 222 255
197 222 255
197 222 255
197 222 255
197 222 255
197 222 255
197 222 255
197 222 255
197 222 255
197 222 255
196 222 255
196 222 255
196 222 255
196 222 255
196 222 255
196 222 255
196 222 255
196 222 255
196 222 255
196 222 255
196 222 255
196 222 255
196 221 255
195 221 255
195 221 255
195 221 255
195 221 255
195 221 255
195 221 255
195 221 255
195 221 255
195 221 255
195 221 255
195 221 255
195 221 255
195 221 255
195 221 255
194 221 255
194 221 255
194 221 255
194 221 255
194 221 255
194 221 255
194 221 255
194 221 255
194 221 255
194 221 255
194 221 255
194 221 255
194 221 255
194 220 255
194 220 255
194 220 255
193 220 255
193 220 255
193 220 255
193 220 255
193 220 255
193 220 255
193 220 255
193 220 255
193 220 255
193 220 255
193 220 255
193 220 255
193 220 255
193 220 255
193 220 255
193 220 255
193 220 255
193 220 255
193 220 255
193 220 255
193 220 255
193 220 255
193 220 255
193 220 255
193 220 255
193 220 255
193 220 255
193 220 255
193 220 255
193 220 255
193 220 255
193 220 255
193 220 255
193 220 255
193 220 255
193 220 255
193 220 255
193 220 255
193 220 255
193 220 255
193 220 255
193 220 255
193 220 255
193 220 255
193 220 255
193 220 255
193 220 255
193 220 255
193 220 255
193 220 255
193 220 255
193 220 255
193 220 255
193 220 255
193 220 255
193 220 255
193 220 255
193 220 255
193 220 255
193 220 255
193 220 255
193 220 255
193 220 255
193 220 255
193 220 255
193 220 255
193 220 255
193 220 255
194 220 255
194 220 255
194 220 255
194 221 255
194 221 255
194 221 255
194 221 255
194 221 255
194 221 255
194 221 255
194 221 255
194 221 255
194 221 255
194 221 255
194 221 255
194 221 255
195 221 255
195 221 255
195 221 255
195 221 255
195 221 255
195 221 255
195 221 255
195 221 255
195 221 255
195 221 255
195 221 255
195 221 255
195 221 255
195 221 255
196 221 255
196 222 255
196 222 255
196 222 255
196 222 255
196 222 255
196 222 255
196 222 255
196 222 255
196 222 255
196 222 255
196 222 255
196 222 255
197 222 255
197 222 255
197 222 255
197 222 255
197 222 255
197 222 255
197 222 255
197 222 255
197 222 255
197 222 255
197 222 255
197 223 255
198 223 255
198 223 255
198 223 255
198 223 255
198 223 255
198 223 255
198 223 255
198 223 255
198 223 255
198 223 255
198 223 255
198 223 255
199 223 255
199 223 255
199 223 255
199 223 255
199 223 255
199 223 255
199 223 255
199 223 255
199 223 255
199 223 255
199 224 255
199 224 255
200 224 255
200 224 255
200 224 255
200 224 255
200 224 255
200 224 255
200 224 255
200 224 255
200 224 255
200 224 255
200 224 255
200 224 255
201 224 255
201 224 255
201 224 255
201 224 255
201 224 255
201 224 255
201 224 255
201 224 255
201 224 255
201 225 255
201 225 255
201 225 255
201 225 255
202 225 255
202 225 255
202 225 255
202 225 255
202 225 255
202 225 255
202 225 255
202 225 255
202 225 255
202 225 255
202 225 255
202 225 255
202 225 255
202 225 255
203 225 255
203 225 255
203 225 255
203 225 255
203 225 255
203 225 255
203 225 255
203 225 255
203 226 255
203 226 255
203 226 255
203 226 255
203 226 255
203 226 255
204 226 255
204 226 255
204 226 255
204 226 255
204 226 255
204 226 255
204 226 255
204 226 255
204 226 255
204 226 255
204 226 255
204 226 255
204 226 255
204 226 255
204 226 255
204 226 255
205 226 255
205 226 255
205 226 255
205 226 255
205 226 255
205 226 255
205 226 255
205 227 255
205 227 255
205 227 255
205 227 255
205 227 255
205 227 255
205 227 255
205 227 255
205 227 255
205 227 255
206 227 255
206 227 255
206 227 255
206 227 255
205 227 255
205 227 255
205 227 255
205 227 255
205 227 255
205 227 255
205 227 255
205 227 255
205 227 255
205 227 255
205 227 255
205 226 255
205 226 255
205 226 255
205 226 255
205 226 255
205 226 255
204 226 255
204 226 255
204 226 255
204 226 255
204 226 255
204 226 255
204 226 255
204 226 255
204 226 255
204 226 255
204 226 255
204 226 255
204 226 255
204 226 255
204 226 255
204 226 255
203 226 255
203 226 255
203 226 255
203 226 255
203 226 255
203 226 255
203 226 255
203 225 255
203 225 255
203 225 255
203 225 255
203 225 255
203 225 255
203 225 255
203 225 255
202 225 255
202 225 255
202 225 255
202 225 255
202 225 255
202 225 255
202 225 255
202 225 255
202 225 255
202 225 255
202 225 255
202 225 255
202 225 255
201 225 255
201 225 255
201 225 255
201 225 255
201 224 255
201 224 255
201 224 255
201 224 255
201 224 255
201 224 255
201 224 255
201 224 255
201 224 255
200 224 255
200 224 255
200 224 255
200 224 255
200 224 255
200 224 255
200 224 255
200 224 255
200 224 255
200 224 255
200 224 255
200 224 255
199 224 255
199 224 255
199 223 255
199 223 255
199 223 255
199 223 255
199 223 255
199 223 255
199 223 255
199 223 255
199 223 255
199 223 255
198 223 255
198 223 255
198 223 255
198 223 255
198 223 255
198 223 255
198 223 255
198 223 255
198 223 255
198 223 255
198 223 255
198 223 255
197 223 255
197 222 255
197 222 255
197 222 255
197 222 255
197 222 255
197 222 255
197 222 255
197 222 255
197 222 255
197 222 255
197 222 255
196 222 255
196 222 255
196 222 255
196 222 255
196 222 255
196 222 255
196 222 255
196 222 255
196 222 255
196 222 255
196 222 255
196 222 255
196 221 255
195 221 255
195 221 255
195 221 255
195 221 255
195 221 255
195 221 255
195 221 255
195 221 255
195 221 255
195 221 255
195 221 255
195 221 255
195 221 255
195 221 255
194 221 255
194 221 255
194 221 255
194 221 255
194 221 255
194 221 255
194 221 255
194 221 255
194 221 255
194 221 255
194 221 255
194 221 255
194 221 255
194 221 255
194 220 255
194 220 255
194 220 255
193 220 255
193 220 255
193 220 255
193 220 255
193 220 255
193 220 255
193 220 255
193 220 255
193 220 255
193 220 255
193 220 255
193 220 255
193 220 255
193 220 255
193 220 255
193 220 255
193 220 255
193 220 255
193 220 255
193 220 255
193 220 255
193 220 255
193 220 255
193 220 255
193 220 255
193 220 255
193 220 255
193 220 255
193 220 255
193 220 255
193 220 255
193 220 255
193 220 255
193 220 255
193 220 255
193 220 255
193 220 255
193 220 255
193 220 255
193 220 255
193 220 255
193 220 255
193 220 255
193 220 255
193 220 255
193 220 255
193 220 255
193 220 255
193 220 255
193 220 255
193 220 255
193 220 255
193 220 255
193 220 255
193 220 255
193 220 255
193 220 255
193 220 255
193 220 255
193 220 255
193 220 255
194 220 255
194 220 255
194 220 255
194 220 255
194 221 255
194 221 255
194 221 255
194 221 255
194 221 255
194 221 255
194 221 255
194 221 255
194 221 255
194 221 255
194 221 255
194 221 255
194 221 255
194 221 255
195 221 255
195 221 255
195 221 255
195 221 255
195 221 255
195 221 255
195 221 255
195 221 255
195 221 255
195 221 255
195 221 255
195 221 255
195 221 255
195 221 255
196 221 255
196 222 255
196 222 255
196 222 255
196 222 255
196 222 255
196 222 255
196 222 255
196 222 255
196 222 255
196 222 255
196 222 255
196 222 255
197 222 255
197 222 255
197 222 255
197 222 255
197 222 255
197 222 255
197 222 255
197 222 255
197 222 255
197 222 255
197 222 255
197 223 255
198 223 255
198 223 255
198 223 255
198 223 255
198 223 255
198 223 255
198 223 255
198 223 255
198 223 255
198 223 255
198 223 255
198 223 255
199 223 255
199 223 255
199 223 255
199 223 255
199 223 255
199 223 255
199 223 255
199 223 255
199 223 255
199 223 255
199 224 255
199 224 255
200 224 255
200 224 255
200 224 255
200 224 255
200 224 255
200 224 255
200 224 255
200 224 255
200 224 255
200 224 255
200 224 255
200 224 255
201 224 255
201 224 255
201 224 255
201 224 255
201 224 255
201 224 255
201 224 255
201 224 255
201 224 255
201 225 255
201 225 255
201 225 255
201 225 255
202 225 255
202 225 255
202 225 255
202 225 255
202 225 255
202 225 255
202 225 255
202 225 255
202 225 255
202 225 255
202 225 255
202 225 255
202 225 255
203 225 255
203 225 255
203 225 255
203 225 255
203 225 255
203 225 255
203 225 255
203 225 255
203 226 255
203 226 255
203 226 255
203 226 255
203 226 255
203 226 255
203 226 255
204 226 255
204 226 255
204 226 255
204 226 255
204 226 255
204 226 255
204 226 255
204 226 255
204 226 255
204 226 255
204 226 255
204 226 255
204 226 255
204 226 255
204 226 255
204 226 255
205 226 255
205 226 255
205 226 255
205 226 255
205 226 255
205 226 255
205 227 255
205 227 255
205 227 255
205 227 255
205 227 255
205 227 255
205 227 255
205 227 255
205 227 255
205 227 255
205 227 255
206 227 255
206 227 255
206 227 255
206 227 255
206 227 255
206 227 255
206 227 255
206 227 255
206 227 255
205 227 255
205 227 255
205 227 255
205 227 255
205 227 255
205 227 255
205 227 255
205 227 255
205 227 255
205 227 255
205 226 255
205 226 255
205 226 255
205 226 255
205 226 255
205 226 255
205 226 255
204 226 255
204 226 255
204 226 255
204 226 255
204 226 255
204 226 255
204 226 255
204 226 255
204 226 255
204 226 255
204 226 255
204 226 255
204 226 255
204 226 255
204 226 255
203 226 255
203 226 255
203 226 255
203 226 255
203 226 255
203 226 255
203 226 255
203 225 255
203 225 255
203 225 255
203 225 255
203 225 255
203 225 255
203 225 255
203 225 255
202 225 255
202 225 255
202 225 255
202 225 255
202 225 255
202 225 255
202 225 255
202 225 255
202 225 255
202 225 255
202 225 255
202 225 255
202 225 255
201 225 255
201 225 255
201 225 255
201 225 255
201 224 255
201 224 255
201 224 255
201 224 255
201 224 255
201 224 255
201 224 255
201 224 255
201 224 255
200 224 255
200 224 255
200 224 255
200 224 255
200 224 255
200 224 255
200 224 255
200 224 255
200 224 255
200 224 255
200 224 255
200 224 255
199 224 255
199 224 255
199 223 255
199 223 255
199 223 255
199 223 255
199 223 255
199 223 255
199 223 255
199 223 255
199 223 255
199 223 255
198 223 255
198 223 255
198 223 255
198 223 255
198 223 255
198 223 255
198 223 255
198 223 255
198 223 255
198 223 255
198 223 255
198 223 255
197 223 255
197 222 255
197 222 255
197 222 255
197 222 255
197 222 255
197 222 255
197 222 255
197 222 255
197 222 255
197 222 255
197 222 255
196 222 255
196 222 255
196 222 255
196 222 255
196 222 255
196 222 255
196 222 255
196 222 255
196 222 255
196 222 255
196 222 255
196 222 255
196 221 255
195 221 255
195 221 255
195 221 255
195 221 255
195 221 255
195 221 255
195 221 255
195 221 255
195 221 255
195 221 255
195 221 255
195 221 255
195 221 255
195 221 255
194 221 255
194 221 255
194 221 255
194 221 255
194 221 255
194 221 255
194 221 255
194 221 255
194 221 255
194 221 255
194 221 255
194 221 255
194 221 255
194 221 255
194 221 255
194 220 255
194 220 255
194 220 255
194 220 255
193 220 255
193 220 255
193 220 255
193 220 255
193 220 255
193 220 255
193 220 255
193 220 255
193 220 255
193 220 255
193 220 255
193 220 255
193 220 255
193 220 255
193 220 255
193 220 255
193 220 255
193 220 255
193 220 255
193 220 255
193 220 255
193 220 255
193 220 255
193 220 255
193 220 255
193 220 255
193 220 255
193 220 255
193 220 255
193 220 255
193 220 255
193 220 255
193 220 255
193 220 255
193 220 255
193 220 255
193 220 255
193 220 255
193 220 255
193 220 255
193 220 255
193 220 255
193 220 255
193 220 255
193 220 255
193 220 255
193 220 255
193 220 255
193 220 255
193 220 255
193 220 255
193 220 255
193 220 255
193 220 255
194 220 255
194 220 255
194 220 255
194 220 255
194 221 255
194 221 255
194 221 255
194 221 255
194 221 255
194 221 255
194 221 255
194 221 255
194 221 255
194 221 255
194 221 255
194 221 255
194 221 255
194 221 255
195 221 255
195 221 255
195 221 255
195 221 255
195 221 255
195 221 255
195 221 255
195 221 255
195 221 255
195 221 255
195 221 255
195 221 255
195 221 255
195 221 255
195 221 255
196 221 255
196 222 255
196 222 255
196 222 255
196 222 255
196 222 255
196 222 255
196 222 255
196 222 255
196 222 255
196 222 255
196 222 255
196 222 255
197 222 255
197 222 255
197 222 255
197 222 255
197 222 255
197 222 255
197 222 255
197 222 255
197 222 255
197 222 255
197 222 255
197 223 255
198 223 255
198 223 255
198 223 255
198 223 255
198 223 255
198 223 255
198 223 255
198 223 255
198 223 255
198 223 255
198 223 255
198 223 255
199 223 255
199 223 255
199 223 255
199 223 255
199 223 255
199 223 255
199 223 255
199 223 255
199 223 255
199 223 255
199 224 255
199 224 255
200 224 255
200 224 255
200 224 255
200 224 255
200 224 255
200 224 255
200 224 255
200 224 255
200 224 255
200 224 255
200 224 255
200 224 255
201 224 255
201 224 255
201 224 255
201 224 255
201 224 255
201 224 255
201 224 255
201 224 255
201 224 255
201 225 255
201 225 255
201 225 255
201 225 255
202 225 255
202 225 255
202 225 255
202 225 255
202 225 255
202 225 255
202 225 255
202 225 255
202 225 255
202 225 255
202 225 255
202 225 255
202 225 255
203 225 255
203 225 255
203 225 255
203 225 255
203 225 255
203 225 255
203 225 255
203 225 255
203 226 255
203 226 255
203 226 255
203 226 255
203 226 255
203 226 255
203 226 255
204 226 255
204 226 255
204 226 255
204 226 255
204 226 255
204 226 255
204 226 255
204 226 255
204 226 255
204 226 255
204 226 255
204 226 255
204 226 255
204 226 255
204 226 255
205 226 255
205 226 255
205 226 255
205 226 255
205 226 255
205 226 255
205 226 255
205 227 255
205 227 255
205 227 255
205 227 255
205 227 255
205 227 255
205 227 255
205 227 255
205 227 255
205 227 255
206 227 255
206 227 255
206 227 255
206 227 255
206 227 255
206 227 255
206 227 255
206 227 255
206 227 255
206 227 255
206 227 255
206 227 255
206 227 255
206 227 255
205 227 255
205 227 255
205 227 255
205 227 255
205 227 255
205 227 255
205 227 255
205 227 255
205 227 255
205 227 255
205 227 255
205 226 255
205 226 255
205 226 255
205 226 255
205 226 255
205 226 255
204 226 255
204 226 255
204 226 255
204 226 255
204 226 255
204 226 255
204 226 255
204 226 255
204 226 255
204 226 255
204 226 255
204 226 255
204 226 255
204 226 255
204 226 255
204 226 255
203 226 255
203 226 255
203 226 255
203 226 255
203 226 255
203 226 255
203 225 255
203 225 255
203 225 255
203 225 255
203 225 255
203 225 255
203 225 255
203 225 255
202 225 255
202 225 255
202 225 255
202 225 255
202 225 255
202 225 255
202 225 255
202 225 255
202 225 255
202 225 255
202 225 255
202 225 255
202 225 255
201 225 255
201 225 255
201 225 255
201 225 255
201 224 255
201 224 255
201 224 255
201 224 255
201 224 255
201 224 255
201 224 255
201 224 255
201 224 255
200 224 255
200 224 255
200 224 255
200 224 255
200 224 255
200 224 255
200 224 255
200 224 255
200 224 255
200 224 255
200 224 255
200 224 255
199 224 255
199 224 255
199 223 255
199 223 255
199 223 255
199 223 255
199 223 255
199 223 255
199 223 255
199 223 255
199 223 255
199 223 255
198 223 255
198 223 255
198 223 255
198 223 255
198 223 255
198 223 255
198 223 255
198 223 255
198 223 255
198 223 255
198 223 255
198 223 255
197 222 255
197 222 255
197 222 255
197 222 255
197 222 255
197 222 255
197 222 255
197 222 255
197 222 255
197 222 255
197 222 255
197 222 255
196 222 255
196 222 255
196 222 255
196 222 255
196 222 255
196 222 255
196 222 255
196 222 255
196 222 255
196 222 255
196 222 255
196 222 255
196 221 255
195 221 255
195 221 255
195 221 255
195 221 255
195 221 255
195 221 255
195 221 255
195 221 255
195 221 255
195 221 255
195 221 255
195 221 255
195 221 255
195 221 255
195 221 255
194 221 255
194 221 255
194 221 255
194 221 255
194 221 255
194 221 255
194 221 255
194 221 255
194 221 255
194 221 255
194 221 255
194 221 255
194 221 255
194 221 255
194 221 255
194 220 255
194 220 255
194 220 255
194 220 255
194 220 255
193 220 255
193 220 255
193 220 255
193 220 255
193 220 255
193 220 255
193 220 255
193 220 255
193 220 255
193 220 255
193 220 255
193 220 255
193 220 255
193 220 255
193 220 255
193 220 255
193 220 255
193 220 255
193 220 255
193 220 255
193 220 255
193 220 255
193 220 255
193 220 255
193 220 255
193 220 255
193 220 255
193 220 255
193 220 255
193 220 255
193 220 255
193 220 255
193 220 255
193 220 255
193 220 255
193 220 255
193 220 255
193 220 255
193 220 255
193 220 255
193 220 255
193 220 255
193 220 255
193 220 255
193 220 255
193 220 255
194 220 255
194 220 255
194 220 255
194 220 255
194 220 255
194 221 255
194 221 255
194 221 255
194 221 255
194 221 255
194 221 255
194 221 255
194 221 255
194 221 255
194 221 255
194 221 255
194 221 255
194 221 255
194 221 255
194 221 255
195 221 255
195 221 255
195 221 255
195 221 255
195 221 255
195 221 255
195 221 255
195 221 255
195 221 255
195 221 255
195 221 255
195 221 255
195 221 255
195 221 255
195 221 255
196 221 255
196 222 255
196 222 255
196 222 255
196 222 255
196 222 255
196 222 255
196 222 255
196 222 255
196 222 255
196 222 255
196 222 255
196 222 255
197 222 255
197 222 255
197 222 255
197 222 255
197 222 255
197 222 255
197 222 255
197 222 255
197 222 255
197 222 255
197 222 255
197 222 255
198 223 255
198 223 255
198 223 255
198 223 255
198 223 255
198 223 255
198 223 255
198 223 255
198 223 255
198 223 255
198 223 255
198 223 255
199 223 255
199 223 255
199 223 255
199 223 255
199 223 255
199 223 255
199 223 255
199 223 255
199 223 255
199 223 255
199 224 255
199 224 255
200 224 255
200 224 255
200 224 255
200 224 255
200 224 255
200 224 255
200 224 255
200 224 255
200 224 255
200 224 255
200 224 255
200 224 255
201 224 255
201 224 255
201 224 255
201 224 255
201 224 255
201 224 255
201 224 255
201 224 255
201 224 255
201 225 255
201 225 255
201 225 255
201 225 255
202 225 255
202 225 255
202 225 255
202 225 255
202 225 255
202 225 255
202 225 255
202 225 255
202 225 255
202 225 255
202 225 255
202 225 255
202 225 255
203 225 255
203 225 255
203 225 255
203 225 255
203 225 255
203 225 255
203 225 255
203 225 255
203 226 255
203 226 255
203 226 255
203 226 255
203 226 255
203 226 255
204 226 255
204 226 255
204 226 255
204 226 255
204 226 255
204 226 255
204 226 255
204 226 255
204 226 255
204 226 255
204 226 255
204 226 255
204 226 255
204 226 255
204 226 255
204 226 255
205 226 255
205 226 255
205 226 255
205 226 255
205 226 255
205 226 255
205 227 255
205 227 255
205 227 255
205 227 255
205 227 255
205 227 255
205 227 255
205 227 255
205 227 255
205 227 255
205 227 255
206 227 255
206 227 255
206 227 255
206 227 255
206 227 255
206 227 255
206 227 255
206 227 255
206 227 255
206 227 255
206 227 255
206 227 255
206 227 255
206 227 255
206 227 255
206 227 255
206 227 255
206 227 255
206 227 255
205 227 255
205 227 255
205 227 255
205 227 255
205 227 255
205 227 255
205 227 255
205 227 255
205 227 255
205 227 255
205 226 255
205 226 255
205 226 255
205 226 255
205 226 255
205 226 255
205 226 255
204 226 255
204 226 255
204 226 255
204 226 255
204 226 255
204 226 255
204 226 255
204 226 255
204 226 255
204 226 255
204 226 255
204 226 255
204 226 255
204 226 255
204 226 255
203 226 255
203 226 255
203 226 255
203 226 255
203 226 255
203 226 255
203 225 255
203 225 255
203 225 255
203 225 255
203 225 255
203 225 255
203 225 255
203 225 255
202 225 255
202 225 255
202 225 255
202 225 255
202 225 255
202 225 255
202 225 255
202 225 255
202 225 255
202 225 255
202 225 255
202 225 255
202 225 255
201 225 255
201 225 255
201 225 255
201 225 255
201 224 255
201 224 255
201 224 255
201 224 255
201 224 255
201 224 255
201 224 255
201 224 255
201 224 255
200 224 255
200 224 255
200 224 255
200 224 255
200 224 255
200 224 255
200 224 255
200 224 255
200 224 255
200 224 255
200 224 255
200 224 255
199 224 255
199 224 255
199 223 255
199 223 255
199 223 255
199 223 255
199 223 255
199 223 255
199 223 255
199 223 255
199 223 255
199 223 255
198 223 255
198 223 255
198 223 255
198 223 255
198 223 255
198 223 255
198 223 255
198 223 255
198 223 255
198 223 255
198 223 255
198 223 255
197 222 255
197 222 255
197 222 255
197 222 255
197 222 255
197 222 255
197 222 255
197 222 255
197 222 255
197 222 255
197 222 255
197 222 255
196 222 255
196 222 255
196 222 255
196 222 255
196 222 255
196 222 255
196 222 255
196 222 255
196 222 255
196 222 255
196 222 255
196 222 255
196 221 255
195 221 255
195 221 255
195 221 255
195 221 255
195 221 255
195 221 255
195 221 255
195 221 255
195 221 255
195 221 255
195 221 255
195 221 255
195 221 255
195 221 255
195 221 255
195 221 255
194 221 255
194 221 255
194 221 255
194 221 255
194 221 255
194 221 255
194 221 255
194 221 255
194 221 255
194 221 255
194 221 255
194 221 255
194 221 255
194 221 255
194 221 255
194 221 255
194 220 255
194 220 255
194 220 255
194 220 255
194 220 255
194 220 255
193 220 255
193 220 255
193 220 255
193 220 255
193 220 255
193 220 255
193 220 255
193 220 255
193 220 255
193 220 255
193 220 255
193 220 255
193 220 255
193 220 255
193 220 255
193 220 255
193 220 255
193 220 255
193 220 255
193 220 255
193 220 255
193 220 255
193 220 255
193 220 255
193 220 255
193 220 255
193 220 255
193 220 255
193 220 255
193 220 255
193 220 255
193 220 255
193 220 255
193 220 255
193 220 255
193 220 255
194 220 255
194 220 255
194 220 255
194 220 255
194 220 255
194 220 255
194 221 255
194 221 255
194 221 255
194 221 255
194 221 255
194 221 255
194 221 255
194 221 255
194 221 255
194 221 255
194 221 255
194 221 255
194 221 255
194 221 255
194 221 255
194 221 255
195 221 255
195 221 255
195 221 255
195 221 255
195 221 255
195 221 255
195 221 255
195 221 255
195 221 255
195 221 255
195 221 255
195 221 255
195 221 255
195 221 255
195 221 255
195 221 255
196 221 255
196 222 255
196 222 255
196 222 255
196 222 255
196 222 255
196 222 255
196 222 255
196 222 255
196 222 255
196 222 255
196 222 255
196 222 255
197 222 255
197 222 255
197 222 255
197 222 255
197 222 255
197 222 255
197 222 255
197 222 255
197 222 255
197 222 255
197 222 255
197 222 255
198 223 255
198 223 255
198 223 255
198 223 255
198 223 255
198 223 255
198 223 255
198 223 255
198 223 255
198 223 255
198 223 255
198 223 255
199 223 255
199 223 255
199 223 255
199 223 255
199 223 255
199 223 255
199 223 255
199 223 255
199 223 255
199 223 255
199 224 255
199 224 255
200 224 255
200 224 255
200 224 255
200 224 255
200 224 255
200 224 255
200 224 255
200 224 255
200 224 255
200 224 255
200 224 255
200 224 255
201 224 255
201 224 255
201 224 255
201 224 255
201 224 255
201 224 255
201 224 255
201 224 255
201 224 255
201 225 255
201 225 255
201 225 255
201 225 255
202 225 255
202 225 255
202 225 255
202 225 255
202 225 255
202 225 255
202 225 255
202 225 255
202 225 255
202 225 255
202 225 255
202 225 255
202 225 255
203 225 255
203 225 255
203 225 255
203 225 255
203 225 255
203 225 255
203 225 255
203 225 255
203 226 255
203 226 255
203 226 255
203 226 255
203 226 255
203 226 255
204 226 255
204 226 255
204 226 255
204 226 255
204 226 255
204 226 255
204 226 255
204 226 255
204 226 255
204 226 255
204 226 255
204 226 255
204 226 255
204 226 255
204 226 255
204 226 255
205 226 255
205 226 255
205 226 255
205 226 255
205 226 255
205 226 255
205 227 255
205 227 255
205 227 255
205 227 255
205 227 255
205 227 255
205 227 255
205 227 255
205 227 255
205 227 255
206 227 255
206 227 255
206 227 255
206 227 255
206 227 255
206 227 255
206 227 255
206 227 255
206 227 255
206 227 255
206 227 255
206 227 255
206 227 255
206 227 255
206 227 255
206 227 255
206 227 255
206 227 255
206 227 255
206 227 255
206 227 255
206 227 255
206 227 255
206 227 255
205 227 255
205 227 255
205 227 255
205 227 255
205 227 255
205 227 255
205 227 255
205 227 255
205 227 255
205 227 255
205 226 255
205 226 255
205 226 255
205 226 255
205 226 255
205 226 255
205 226 255
204 226 255
204 226 255
204 226 255
204 226 255
204 226 255
204 226 255
204 226 255
204 226 255
204 226 255
204 226 255
204 226 255
204 226 255
204 226 255
204 226 255
204 226 255
203 226 255
203 226 255
203 226 255
197 219 255
195 216 255
179 199 255
176 195 255
167 186 255
153 170 255
149 165 255
130 144 255
113 125 255
126 140 255
114 127 255
123 137 255
95 105 255
103 115 255
70 78 255
78 87 255
57 63 255
70 78 255
75 84 255
53 59 255
53 59 255
72 81 255
63 71 255
80 90 255
83 92 255
96 107 255
112 125 255
98 110 255
115 129 255
114 127 255
148 165 255
138 154 255
154 172 255
171 192 255
174 194 255
194 217 255
195 218 255
200 224 255
200 224 255
200 224 255
200 224 255
200 224 255
200 224 255
200 224 255
200 224 255
200 224 255
200 224 255
200 224 255
200 224 255
199 224 255
199 224 255
199 223 255
199 223 255
199 223 255
199 223 255
199 223 255
199 223 255
199 223 255
199 223 255
199 223 255
199 223 255
198 223 255
198 223 255
198 223 255
198 223 255
198 223 255
198 223 255
198 223 255
198 223 255
198 223 255
198 223 255
198 223 255
198 223 255
197 223 255
197 222 255
197 222 255
197 222 255
197 222 255
197 222 255
197 222 255
197 222 255
197 222 255
197 222 255
197 222 255
197 222 255
197 222 255
196 222 255
196 222 255
196 222 255
196 222 255
196 222 255
196 222 255
196 222 255
196 222 255
196 222 255
196 222 255
196 222 255
196 222 255
196 221 255
195 221 255
195 221 255
195 221 255
195 221 255
195 221 255
195 221 255
195 221 255
195 221 255
195 221 255
195 221 255
195 221 255
195 221 255
195 221 255
195 221 255
195 221 255
195 221 255
194 221 255
194 221 255
194 221 255
194 221 255
194 221 255
194 221 255
194 221 255
194 221 255
194 221 255
194 221 255
194 221 255
194 221 255
194 221 255
194 221 255
194 221 255
194 221 255
194 221 255
194 221 255
194 220 255
194 220 255
194 220 255
194 220 255
194 220 255
194 220 255
194 220 255
193 220 255
193 220 255
193 220 255
193 220 255
193 220 255
193 220 255
193 220 255
193 220 255
193 220 255
193 220 255
193 220 255
193 220 255
193 220 255
193 220 255
193 220 255
193 220 255
193 220 255
193 220 255
193 220 255
193 220 255
193 220 255
193 220 255
193 220 255
194 220 255
194 220 255
194 220 255
194 220 255
194 220 255
194 220 255
194 220 255
194 220 255
194 221 255
194 221 255
194 221 255
194 221 255
194 221 255
194 221 255
194 221 255
194 221 255
194 221 255
194 221 255
194 221 255
194 221 255
194 221 255
194 221 255
194 221 255
194 221 255
194 221 255
194 221 255
194 221 255
195 221 255
195 221 255
195 221 255
195 221 255
195 221 255
195 221 255
195 221 255
195 221 255
195 221 255
195 221 255
195 221 255
195 221 255
195 221 255
195 221 255
195 221 255
196 221 255
196 222 255
196 222 255
196 222 255
196 222 255
196 222 255
196 222 255
196 222 255
196 222 255
196 222 255
196 222 255
196 222 255
196 222 255
197 222 255
197 222 255
197 222 255
197 222 255
197 222 255
197 222 255
197 222 255
197 222 255
197 222 255
197 222 255
197 222 255
197 222 255
197 223 255
198 223 255
198 223 255
198 223 255
198 223 255
198 223 255
198 223 255
198 223 255
198 223 255
198 223 255
198 223 255
198 223 255
198 223 255
199 223 255
199 223 255
199 223 255
199 223 255
199 223 255
199 223 255
199 223 255
199 223 255
199 223 255
199 223 255
199 224 255
199 224 255
200 224 255
200 224 255
200 224 255
200 224 255
200 224 255
200 224 255
200 224 255
200 224 255
200 224 255
200 224 255
200 224 255
200 224 255
200 222 253
201 213 242
200 204 233
202 181 206
201 179 204
201 169 193
202 155 177
199 152 173
203 112 128
202 131 149
200 110 125
203 121 137
202 103 117
202 87 99
205 74 84
204 67 76
205 84 95
201 71 80
205 55 62
204 50 57
203 67 76
204 87 99
204 71 80
205 95 108
201 100 114
204 100 114
205 117 133
204 121 137
203 123 140
202 153 173
206 169 191
205 170 193
203 186 211
202 184 209
204 203 230
203 207 234
203 224 254
203 226 255
203 226 255
203 226 255
204 226 255
204 226 255
204 226 255
204 226 255
204 226 255
204 226 255
204 226 255
204 226 255
204 226 255
204 226 255
204 226 255
204 226 255
204 226 255
204 226 255
204 226 255
205 226 255
205 226 255
205 226 255
205 226 255
205 226 255
205 226 255
205 226 255
205 227 255
205 227 255
205 227 255
205 227 255
205 227 255
205 227 255
205 227 255
205 227 255
205 227 255
205 227 255
206 227 255
206 227 255
206 227 255
206 227 255
206 227 255
206 227 255
206 227 255
206 227 255
206 227 255
206 227 255
206 227 255
206 227 255
206 227 255
206 227 255
206 227 255
206 227 255
206 227 255
206 227 255
206 227 255
206 227 255
206 227 255
206 227 255
206 227 255
206 227 255
206 227 255
206 227 255
206 227 255
206 227 255
206 227 255
205 227 255
205 227 255
205 227 255
205 227 255
205 227 255
205 227 255
205 227 255
205 227 255
205 227 255
205 227 255
205 226 255
205 226 255
205 226 255
205 226 255
205 226 255
205 226 255
204 226 255
204 226 255
204 226 255
204 226 255
204 226 255
204 226 255
204 226 255
204 226 255
193 214 255
170 189 255
162 179 255
130 144 255
135 150 255
111 123 255
86 95 255
45 50 255
0 0 255
0 0 255
0 0 255
0 0 255
0 0 255
0 0 255
0 0 255
0 0 255
0 0 255
0 0 255
0 0 255
0 0 255
0 0 255
0 0 255
0 0 255
0 0 255
0 0 255
0 0 255
0 0 255
0 0 255
0 0 255
0 0 255
0 0 255
0 0 255
0 0 255
0 0 255
0 0 255
0 0 255
0 0 255
0 0 255
0 0 255
0 0 255
0 0 255
0 0 255
0 0 255
0 0 255
0 0 254
60 67 255
82 92 255
111 125 255
127 142 255
146 163 255
156 175 255
174 195 255
189 211 255
200 224 255
200 224 255
200 224 255
200 224 255
200 224 255
200 224 255
199 224 255
199 224 255
199 223 255
199 223 255
199 223 255
199 223 255
199 223 255
199 223 255
199 223 255
199 223 255
199 223 255
199 223 255
198 223 255
198 223 255
198 223 255
198 223 255
198 223 255
198 223 255
198 223 255
198 223 255
198 223 255
198 223 255
198 223 255
198 223 255
197 223 255
197 222 255
197 222 255
197 222 255
197 222 255
197 222 255
197 222 255
197 222 255
197 222 255
197 222 255
197 222 255
197 222 255
197 222 255
196 222 255
196 222 255
196 222 255
196 222 255
196 222 255
196 222 255
196 222 255
196 222 255
196 222 255
196 222 255
196 222 255
196 222 255
196 221 255
195 221 255
195 221 255
195 221 255
195 221 255
195 221 255
195 221 255
195 221 255
195 221 255
195 221 255
195 221 255
195 221 255
195 221 255
195 221 255
195 221 255
195 221 255
195 221 255
194 221 255
194 221 255
194 221 255
194 221 255
194 221 255
194 221 255
194 221 255
194 221 255
194 221 255
194 221 255
194 221 255
194 221 255
194 221 255
194 221 255
194 221 255
194 221 255
194 221 255
194 221 255
194 221 255
194 221 255
194 221 255
194 221 255
194 220 255
194 220 255
194 220 255
194 220 255
194 220 255
194 220 255
194 220 255
194 220 255
194 220 255
194 220 255
194 220 255
194 220 255
194 220 255
194 220 255
194 220 255
194 220 255
194 220 255
194 220 255
194 220 255
194 220 255
194 220 255
194 220 255
194 220 255
194 220 255
194 220 255
194 220 255
194 221 255
194 221 255
194 221 255
194 221 255
194 221 255
194 221 255
194 221 255
194 221 255
194 221 255
194 221 255
194 221 255
194 221 255
194 221 255
194 221 255
194 221 255
194 221 255
194 221 255
194 221 255
194 221 255
194 221 255
194 221 255
194 221 255
195 221 255
195 221 255
195 221 255
195 221 255
195 221 255
195 221 255
195 221 255
195 221 255
195 221 255
195 221 255
195 221 255
195 221 255
195 221 255
195 221 255
195 221 255
195 221 255
196 221 255
196 222 255
196 222 255
196 222 255
196 222 255
196 222 255
196 222 255
196 222 255
196 222 255
196 222 255
196 222 255
196 222 255
196 222 255
197 222 255
197 222 255
197 222 255
197 222 255
197 222 255
197 222 255
197 222 255
197 222 255
197 222 255
197 222 255
197 222 255
197 222 255
197 223 255
198 223 255
198 223 255
198 223 255
198 223 255
198 223 255
198 223 255
198 223 255
198 223 255
198 223 255
198 223 255
198 223 255
198 223 255
199 223 255
199 223 255
199 223 255
199 223 255
199 223 255
199 223 255
199 223 255
199 223 255
199 223 255
199 223 255
199 224 255
199 224 255
200 224 255
200 224 255
200 224 255
200 224 255
200 224 255
200 224 255
199 212 242
200 203 231
200 186 212
202 155 177
201 136 155
202 112 128
203 86 99
203 63 72
204 0 0
204 0 0
203 0 0
202 0 0
203 0 0
202 0 0
204 0 0
203 0 0
204 0 0
206 0 0
203 0 0
204 0 0
204 0 0
206 0 0
204 0 0
206 0 0
206 0 0
207 0 0
205 0 0
204 0 0
205 0 0
206 0 0
207 0 0
202 0 0
205 0 0
203 0 0
205 0 0
207 0 0
204 0 0
203 0 0
206 0 0
205 0 0
208 0 0
206 0 0
204 0 0
203 0 0
201 0 0
204 71 80
206 103 117
205 127 144
205 126 142
207 161 182
206 182 206
204 202 228
203 217 245
204 226 255
204 226 255
204 226 255
204 226 255
204 226 255
204 226 255
204 226 255
204 226 255
205 226 255
205 226 255
205 226 255
205 226 255
205 226 255
205 226 255
205 227 255
205 227 255
205 227 255
205 227 255
205 227 255
205 227 255
205 227 255
205 227 255
205 227 255
205 227 255
206 227 255
206 227 255
206 227 255
206 227 255
206 227 255
206 227 255
206 227 255
206 227 255
206 227 255
206 227 255
206 227 255
206 227 255
206 227 255
206 227 255
206 227 255
206 227 255
207 227 255
206 227 255
206 227 255
206 227 255
206 227 255
206 227 255
206 227 255
206 227 255
206 227 255
206 227 255
206 227 255
206 227 255
206 227 255
206 227 255
206 227 255
206 227 255
206 227 255
206 227 255
205 227 255
205 227 255
205 227 255
205 227 255
205 227 255
205 227 255
205 227 255
205 227 255
205 227 255
205 227 255
205 226 255
205 226 255
205 226 255
205 226 255
205 226 255
204 225 255
194 215 255
162 179 255
138 153 255
114 126 255
106 117 255
50 55 255
0 0 255
0 0 255
0 0 255
0 0 255
0 0 255
0 0 255
0 0 255
0 0 255
0 0 255
0 0 255
0 0 255
0 0 255
0 0 255
0 0 255
0 0 255
0 0 255
0 0 255
0 0 255
0 0 255
0 0 255
0 0 255
0 0 255
0 0 255
0 0 255
0 0 255
0 0 255
0 0 255
0 0 255
0 0 255
0 0 255
0 0 255
0 0 255
0 0 255
0 0 255
0 0 254
0 0 254
0 0 255
0 0 255
0 0 255
0 0 255
0 0 255
0 0 255
0 0 255
0 0 255
0 0 255
0 0 255
0 0 255
0 0 255
0 0 254
0 0 254
0 0 255
0 0 255
0 0 254
40 44 255
91 102 255
118 132 255
152 170 255
184 206 255
185 207 255
199 223 255
200 224 255
199 224 255
199 224 255
199 223 255
199 223 255
199 223 255
199 223 255
199 223 255
199 223 255
199 223 255
199 223 255
199 223 255
199 223 255
198 223 255
198 223 255
198 223 255
198 223 255
198 223 255
198 223 255
198 223 255
198 223 255
198 223 255
198 223 255
198 223 255
198 223 255
197 223 255
197 222 255
197 222 255
197 222 255
197 222 255
197 222 255
197 222 255
197 222 255
197 222 255
197 222 255
197 222 255
197 222 255
197 222 255
196 222 255
196 222 255
196 222 255
196 222 255
196 222 255
196 222 255
196 222 255
196 222 255
196 222 255
196 222 255
196 222 255
196 222 255
196 221 255
196 221 255
195 221 255
195 221 255
195 221 255
195 221 255
195 221 255
195 221 255
195 221 255
195 221 255
195 221 255
195 221 255
195 221 255
195 221 255
195 221 255
195 221 255
195 221 255
195 221 255
195 221 255
194 221 255
194 221 255
194 221 255
194 221 255
194 221 255
194 221 255
194 221 255
194 221 255
194 221 255
194 221 255
194 221 255
194 221 255
194 221 255
194 221 255
194 221 255
194 221 255
194 221 255
194 221 255
194 221 255
194 221 255
194 221 255
194 221 255
194 221 255
194 221 255
194 221 255
194 221 255
194 221 255
194 221 255
194 221 255
194 221 255
194 221 255
194 221 255
194 221 255
194 221 255
194 221 255
194 221 255
194 221 255
194 221 255
194 221 255
194 221 255
194 221 255
194 221 255
194 221 255
194 221 255
194 221 255
194 221 255
194 221 255
194 221 255
194 221 255
194 221 255
194 221 255
194 221 255
194 221 255
194 221 255
194 221 255
194 221 255
194 221 255
194 221 255
194 221 255
194 221 255
194 221 255
194 221 255
195 221 255
195 221 255
195 221 255
195 221 255
195 221 255
195 221 255
195 221 255
195 221 255
195 221 255
195 221 255
195 221 255
195 221 255
195 221 255
195 221 255
195 221 255
195 221 255
195 221 255
196 221 255
196 221 255
196 222 255
196 222 255
196 222 255
196 222 255
196 222 255
196 222 255
196 222 255
196 222 255
196 222 255
196 222 255
196 222 255
196 222 255
197 222 255
197 222 255
197 222 255
197 222 255
197 222 255
197 222 255
197 222 255
197 222 255
197 222 255
197 222 255
197 222 255
197 222 255
197 223 255
198 223 255
198 223 255
198 223 255
198 223 255
198 223 255
198 223 255
198 223 255
198 223 255
198 223 255
198 223 255
198 223 255
198 223 255
199 223 255
199 223 255
199 223 255
199 223 255
199 223 255
199 223 255
199 223 255
199 223 255
199 223 255
199 223 255
199 224 255
199 224 255
200 224 255
200 224 255
200 203 231
200 190 217
203 161 184
201 114 130
202 100 114
205 44 51
199 0 0
203 0 0
202 0 0
202 0 0
201 0 0
200 0 0
205 0 0
208 0 0
204 0 0
202 0 0
202 0 0
206 0 0
203 0 0
204 0 0
203 0 0
205 0 0
202 0 0
204 0 0
204 0 0
207 0 0
206 0 0
204 0 0
203 0 0
206 0 0
203 0 0
205 0 0
208 0 0
206 0 0
204 0 0
203 0 0
208 0 0
205 0 0
207 0 0
203 0 0
206 0 0
206 0 0
202 0 0
206 0 0
208 0 0
206 0 0
207 0 0
207 0 0
202 0 0
205 0 0
205 0 0
205 0 0
205 0 0
205 0 0
208 0 0
206 0 0
206 0 0
205 0 0
203 0 0
207 50 57
206 96 108
205 128 144
206 143 161
204 191 215
203 209 236
205 226 255
205 226 255
205 226 255
205 226 255
205 226 255
205 226 255
205 227 255
205 227 255
205 227 255
205 227 255
205 227 255
205 227 255
205 227 255
205 227 255
205 227 255
205 227 255
206 227 255
206 227 255
206 227 255
206 227 255
206 227 255
206 227 255
206 227 255
206 227 255
206 227 255
206 227 255
206 227 255
206 227 255
206 227 255
206 227 255
206 227 255
206 227 255
206 227 255
207 227 255
207 227 255
207 227 255
207 227 255
206 227 255
206 227 255
206 227 255
206 227 255
206 227 255
206 227 255
206 227 255
206 227 255
206 227 255
206 227 255
206 227 255
206 227 255
206 227 255
206 227 255
206 227 255
206 227 255
206 227 255
206 227 255
205 227 255
205 227 255
205 227 255
205 227 255
205 227 255
205 227 255
205 227 255
201 222 255
194 215 255
153 169 255
119 132 255
96 106 255
35 39 255
0 0 255
0 0 255
0 0 255
0 0 255
0 0 255
0 0 255
0 0 255
0 0 255
0 0 255
0 0 255
0 0 255
0 0 255
0 0 255
0 0 255
0 0 255
0 0 255
0 0 255
0 0 255
0 0 255
0 0 255
0 0 255
0 0 255
0 0 255
0 0 255
0 0 255
0 0 255
0 0 255
0 0 255
0 0 255
0 0 255
0 0 255
0 0 255
0 0 255
0 0 255
0 0 255
0 0 254
0 0 255
0 0 254
0 0 255
0 0 255
0 0 255
0 0 255
0 0 255
0 0 255
0 0 255
0 0 255
0 0 255
0 0 255
0 0 255
0 0 254
0 0 254
0 0 255
0 0 255
0 0 254
0 0 255
0 0 255
0 0 255
0 0 255
0 0 255
0 0 255
0 0 254
0 0 254
0 0 255
0 0 255
0 0 254
0 0 254
89 100 255
116 130 254
161 180 255
173 194 255
196 220 255
199 223 255
199 223 255
199 223 255
199 223 255
199 223 255
199 223 255
199 223 255
199 223 255
199 223 255
199 223 255
198 223 255
198 223 255
198 223 255
198 223 255
198 223 255
198 223 255
198 223 255
198 223 255
198 223 255
198 223 255
198 223 255
198 223 255
197 223 255
197 222 255
197 222 255
197 222 255
197 222 255
197 222 255
197 222 255
197 222 255
197 222 255
197 222 255
197 222 255
197 222 255
197 222 255
196 222 255
196 222 255
196 222 255
196 222 255
196 222 255
196 222 255
196 222 255
196 222 255
196 222 255
196 222 255
196 222 255
196 222 255
196 222 255
196 221 255
195 221 255
195 221 255
195 221 255
195 221 255
195 221 255
195 221 255
195 221 255
195 221 255
195 221 255
195 221 255
195 221 255
195 221 255
195 221 255
195 221 255
195 221 255
195 221 255
195 221 255
195 221 255
194 221 255
194 221 255
194 221 255
194 221 255
194 221 255
194 221 255
194 221 255
194 221 255
194 221 255
194 221 255
194 221 255
194 221 255
194 221 255
194 221 255
194 221 255
194 221 255
194 221 255
194 221 255
194 221 255
194 221 255
194 221 255
194 221 255
194 221 255
194 221 255
194 221 255
194 221 255
194 221 255
194 221 255
194 221 255
194 221 255
194 221 255
194 221 255
194 221 255
194 221 255
194 221 255
194 221 255
194 221 255
194 221 255
194 221 255
194 221 255
194 221 255
194 221 255
194 221 255
194 221 255
194 221 255
194 221 255
194 221 255
194 221 255
194 221 255
194 221 255
194 221 255
194 221 255
194 221 255
194 221 255
194 221 255
194 221 255
195 221 255
195 221 255
195 221 255
195 221 255
195 221 255
195 221 255
195 221 255
195 221 255
195 221 255
195 221 255
195 221 255
195 221 255
195 221 255
195 221 255
195 221 255
195 221 255
195 221 255
195 221 255
196 221 255
196 222 255
196 222 255
196 222 255
196 222 255
196 222 255
196 222 255
196 222 255
196 222 255
196 222 255
196 222 255
196 222 255
196 222 255
196 222 255
197 222 255
197 222 255
197 222 255
197 222 255
197 222 255
197 222 255
197 222 255
197 222 255
197 222 255
197 222 255
197 222 255
197 222 255
197 223 255
198 223 255
198 223 255
198 223 255
198 223 255
198 223 255
198 223 255
198 223 255
198 223 255
198 223 255
198 223 255
198 223 255
198 223 255
199 223 255
199 223 255
199 223 255
199 223 255
199 223 255
199 223 255
199 223 255
199 223 255
199 223 255
199 223 255
199 224 255
200 197 226
200 180 206
202 134 153
202 114 130
200 44 51
201 0 0
203 0 0
203 0 0
202 0 0
204 0 0
197 0 0
205 0 0
203 0 0
205 0 0
200 0 0
205 0 0
203 0 0
203 0 0
205 0 0
203 0 0
203 0 0
204 0 0
204 0 0
205 0 0
207 0 0
207 0 0
206 0 0
203 0 0
208 0 0
202 0 0
209 0 0
205 0 0
204 0 0
207 0 0
207 0 0
207 0 0
205 0 0
206 0 0
205 0 0
207 0 0
206 0 0
206 0 0
204 0 0
204 0 0
207 0 0
208 0 0
207 0 0
206 0 0
206 0 0
207 0 0
207 0 0
207 0 0
204 0 0
208 0 0
208 0 0
207 0 0
207 0 0
209 0 0
207 0 0
205 0 0
207 0 0
207 0 0
204 0 0
208 0 0
205 0 0
205 0 0
205 0 0
207 0 0
208 0 0
205 0 0
206 50 57
207 90 102
205 155 175
207 171 193
206 206 233
205 227 255
205 227 255
205 227 255
205 227 255
205 227 255
205 227 255
205 227 255
205 227 255
206 227 255
206 227 255
206 227 255
206 227 255
206 227 255
206 227 255
206 227 255
206 227 255
206 227 255
206 227 255
206 227 255
206 227 255
206 227 255
206 227 255
206 227 255
206 227 255
206 227 255
206 227 255
207 227 255
207 227 255
207 227 255
207 228 255
207 227 255
207 227 255
207 227 255
207 227 255
207 227 255
206 227 255
206 227 255
206 227 255
206 227 255
206 227 255
206 227 255
206 227 255
206 227 255
206 227 255
206 227 255
206 227 255
206 227 255
206 227 255
206 227 255
206 227 255
206 227 255
206 227 255
205 227 255
192 211 255
160 177 255
134 148 255
89 99 255
29 32 255
0 0 255
0 0 255
0 0 255
0 0 255
0 0 255
0 0 255
0 0 255
0 0 255
0 0 255
0 0 255
0 0 255
0 0 255
0 0 255
0 0 255
0 0 255
0 0 255
0 0 255
0 0 255
0 0 255
0 0 255
0 0 255
0 0 255
0 0 255
0 0 255
0 0 255
0 0 255
0 0 255
0 0 255
0 0 255
0 0 255
0 0 255
0 0 255
0 0 255
0 0 255
0 0 254
0 0 255
0 0 255
0 0 255
0 0 255
0 0 255
0 0 255
0 0 255
0 0 255
0 0 255
0 0 255
0 0 255
0 0 255
0 0 255
0 0 255
0 0 255
0 0 255
0 0 254
0 0 254
0 0 255
0 0 255
0 0 254
0 0 254
0 0 255
0 0 255
0 0 255
0 0 255
0 0 253
0 0 254
0 0 255
0 0 254
0 0 255
0 0 254
0 0 254
0 0 255
0 0 254
0 0 254
0 0 254
0 0 255
0 0 253
0 0 255
44 50 255
99 112 254
132 148 255
167 187 254
189 212 255
199 223 255
199 223 255
199 223 255
199 223 255
199 223 255
199 223 255
199 223 255
199 223 255
198 223 255
198 223 255
198 223 255
198 223 255
198 223 255
198 223 255
198 223 255
198 223 255
198 223 255
198 223 255
198 223 255
198 223 255
198 223 255
197 222 255
197 222 255
197 222 255
197 222 255
197 222 255
197 222 255
197 222 255
197 222 255
197 222 255
197 222 255
197 222 255
197 222 255
196 222 255
196 222 255
196 222 255
196 222 255
196 222 255
196 222 255
196 222 255
196 222 255
196 222 255
196 222 255
196 222 255
196 222 255
196 222 255
196 222 255
196 221 255
195 221 255
195 221 255
195 221 255
195 221 255
195 221 255
195 221 255
195 221 255
195 221 255
195 221 255
195 221 255
195 221 255
195 221 255
195 221 255
195 221 255
195 221 255
195 221 255
195 221 255
195 221 255
195 221 255
195 221 255
194 221 255
194 221 255
194 221 255
194 221 255
194 221 255
194 221 255
194 221 255
194 221 255
194 221 255
194 221 255
194 221 255
194 221 255
194 221 255
194 221 255
194 221 255
194 221 255
194 221 255
194 221 255
194 221 255
194 221 255
194 221 255
194 221 255
194 221 255
194 221 255
194 221 255
194 221 255
194 221 255
194 221 255
194 221 255
194 221 255
194 221 255
194 221 255
194 221 255
194 221 255
194 221 255
194 221 255
194 221 255
194 221 255
194 221 255
194 221 255
194 221 255
194 221 255
194 221 255
194 221 255
194 221 255
194 221 255
194 221 255
195 221 255
195 221 255
195 221 255
195 221 255
195 221 255
195 221 255
195 221 255
195 221 255
195 221 255
195 221 255
195 221 255
195 221 255
195 221 255
195 221 255
195 221 255
195 221 255
195 221 255
195 221 255
195 221 255
196 221 255
196 222 255
196 222 255
196 222 255
196 222 255
196 222 255
196 222 255
196 222 255
196 222 255
196 222 255
196 222 255
196 222 255
196 222 255
196 222 255
196 222 255
197 222 255
197 222 255
197 222 255
197 222 255
197 222 255
197 222 255
197 222 255
197 222 255
197 222 255
197 222 255
197 222 255
197 222 255
198 223 255
198 223 255
198 223 255
198 223 255
198 223 255
198 223 255
198 223 255
198 223 255
198 223 255
198 223 255
198 223 255
198 223 255
198 223 255
199 223 255
199 223 255
199 223 255
199 223 255
199 223 255
199 223 255
199 223 255
199 223 255
199 207 237
199 184 211
201 139 159
201 114 130
202 38 44
204 0 0
203 0 0
203 0 0
202 0 0
204 0 0
200 0 0
205 0 0
206 0 0
206 0 0
205 0 0
206 0 0
207 0 0
204 0 0
205 0 0
203 0 0
206 0 0
207 0 0
203 0 0
205 0 0
204 0 0
208 0 0
205 0 0
204 0 0
208 0 0
201 0 0
202 0 0
207 0 0
205 0 0
205 0 0
205 0 0
203 0 0
208 0 0
204 0 0
205 0 0
207 0 0
208 0 0
203 0 0
205 0 0
204 0 0
205 0 0
209 0 0
207 0 0
207 0 0
207 0 0
208 0 0
208 0 0
205 0 0
207 0 0
208 0 0
206 0 0
205 0 0
205 0 0
208 0 0
207 0 0
209 0 0
209 0 0
203 0 0
209 0 0
208 0 0
205 0 0
210 0 0
204 0 0
205 0 0
207 0 0
207 0 0
208 0 0
206 0 0
207 0 0
205 0 0
208 0 0
207 0 0
205 0 0
207 0 0
208 0 0
210 0 0
207 39 44
207 93 105
205 128 144
205 183 206
205 217 245
205 227 255
206 227 255
206 227 255
206 227 255
206 227 255
206 227 255
206 227 255
206 227 255
206 227 255
206 227 255
206 227 255
206 227 255
206 227 255
206 227 255
206 227 255
206 227 255
206 227 255
206 227 255
207 227 255
207 227 255
207 227 255
207 227 255
207 227 255
207 228 255
207 228 255
207 228 255
207 228 255
207 228 255
207 227 255
207 227 255
207 227 255
207 227 255
206 227 255
206 227 255
206 227 255
206 227 255
206 227 255
206 227 255
206 227 255
206 227 255
206 227 255
206 227 255
206 227 255
206 227 255
197 218 255
171 188 255
120 132 255
71 78 255
0 0 255
0 0 255
0 0 255
0 0 255
0 0 255
0 0 255
0 0 255
0 0 255
0 0 255
0 0 255
0 0 255
0 0 255
0 0 255
0 0 255
0 0 255
0 0 255
0 0 255
0 0 255
0 0 255
0 0 255
0 0 255
0 0 255
0 0 255
0 0 255
0 0 255
0 0 255
0 0 255
0 0 255
0 0 255
0 0 255
0 0 255
0 0 255
0 0 255
0 0 255
0 0 255
0 0 255
0 0 255
0 0 255
0 0 255
0 0 254
0 0 255
0 0 255
0 0 255
0 0 255
0 0 254
0 0 255
0 0 254
0 0 254
0 0 255
0 0 253
0 0 254
0 0 255
0 0 255
0 0 255
0 0 255
0 0 255
0 0 255
0 0 254
0 0 255
0 0 254
0 0 254
0 0 255
0 0 255
0 0 255
0 0 253
0 0 255
0 0 254
0 0 253
0 0 254
0 0 255
0 0 254
0 0 254
0 0 252
0 0 254
0 0 255
0 0 254
0 0 255
0 0 255
0 0 254
0 0 255
0 0 253
0 0 254
0 0 255
0 0 255
0 0 255
74 83 255
101 114 254
158 177 255
189 212 255
199 223 255
199 223 255
199 223 255
199 223 255
199 223 255
199 223 255
198 223 255
198 223 255
198 223 255
198 223 255
198 223 255
198 223 255
198 223 255
198 223 255
198 223 255
198 223 255
198 223 255
198 223 255
198 223 255
197 222 255
197 222 255
197 222 255
197 222 255
197 222 255
197 222 255
197 222 255
197 222 255
197 222 255
197 222 255
197 222 255
197 222 255
197 222 255
196 222 255
196 222 255
196 222 255
196 222 255
196 222 255
196 222 255
196 222 255
196 222 255
196 222 255
196 222 255
196 222 255
196 222 255
196 222 255
196 221 255
196 221 255
195 221 255
195 221 255
195 221 255
195 221 255
195 221 255
195 221 255
195 221 255
195 221 255
195 221 255
195 221 255
195 221 255
195 221 255
195 221 255
195 221 255
195 221 255
195 221 255
195 221 255
195 221 255
195 221 255
195 221 255
195 221 255
194 221 255
194 221 255
194 221 255
194 221 255
194 221 255
194 221 255
194 221 255
194 221 255
194 221 255
194 221 255
194 221 255
194 221 255
194 221 255
194 221 255
194 221 255
194 221 255
194 221 255
194 221 255
194 221 255
194 221 255
194 221 255
194 221 255
194 221 255
194 221 255
194 221 255
194 221 255
194 221 255
194 221 255
194 221 255
194 221 255
194 221 255
194 221 255
194 221 255
194 221 255
194 221 255
194 221 255
194 221 255
194 221 255
195 221 255
195 221 255
195 221 255
195 221 255
195 221 255
195 221 255
195 221 255
195 221 255
195 221 255
195 221 255
195 221 255
195 221 255
195 221 255
195 221 255
195 221 255
195 221 255
195 221 255
195 221 255
195 221 255
195 221 255
195 221 255
196 221 255
196 221 255
196 222 255
196 222 255
196 222 255
196 222 255
196 222 255
196 222 255
196 222 255
196 222 255
196 222 255
196 222 255
196 222 255
196 222 255
196 222 255
197 222 255
197 222 255
197 222 255
197 222 255
197 222 255
197 222 255
197 222 255
197 222 255
197 222 255
197 222 255
197 222 255
197 222 255
197 222 255
198 223 255
198 223 255
198 223 255
198 223 255
198 223 255
198 223 255
198 223 255
198 223 255
198 223 255
198 223 255
198 223 255
198 223 255
199 223 255
199 223 255
199 223 255
199 223 255
199 223 255
199 223 255
199 223 255
199 211 241
198 181 207
198 139 159
202 83 95
201 0 0
203 0 0
198 0 0
201 0 0
204 0 0
201 0 0
203 0 0
203 0 0
206 0 0
206 0 0
204 0 0
205 0 0
205 0 0
205 0 0
205 0 0
205 0 0
200 0 0
204 0 0
205 0 0
206 0 0
204 0 0
204 0 0
206 0 0
206 0 0
204 0 0
205 0 0
207 0 0
208 0 0
208 0 0
206 0 0
208 0 0
206 0 0
205 0 0
206 0 0
205 0 0
207 0 0
206 0 0
206 0 0
204 0 0
204 0 0
207 0 0
206 0 0
204 0 0
210 0 0
206 0 0
204 0 0
206 0 0
205 0 0
209 0 0
207 0 0
207 0 0
207 0 0
206 0 0
208 0 0
208 0 0
209 0 0
206 0 0
206 0 0
207 0 0
211 0 0
210 0 0
206 0 0
209 0 0
208 0 0
206 0 0
206 0 0
211 0 0
209 0 0
204 0 0
207 0 0
209 0 0
208 0 0
208 0 0
205 0 0
206 0 0
204 0 0
208 0 0
212 0 0
210 0 0
205 0 0
210 0 0
209 0 0
209 0 0
205 0 0
206 0 0
210 75 84
207 128 144
207 177 199
205 219 246
206 227 255
206 227 255
206 227 255
206 227 255
206 227 255
206 227 255
206 227 255
206 227 255
206 227 255
206 227 255
206 227 255
207 227 255
207 227 255
207 227 255
207 227 255
207 227 255
207 228 255
207 228 255
207 228 255
207 228 255
207 228 255
207 228 255
207 228 255
207 228 255
207 228 255
207 228 255
207 228 255
207 227 255
207 227 255
207 227 255
207 227 255
206 227 255
206 227 255
206 227 255
206 227 255
206 227 255
201 221 255
171 189 255
140 154 255
74 82 255
0 0 255
0 0 255
0 0 255
0 0 255
0 0 255
0 0 255
0 0 255
0 0 255
0 0 255
0 0 255
0 0 255
0 0 255
0 0 255
0 0 255
0 0 255
0 0 255
0 0 255
0 0 255
0 0 255
0 0 255
0 0 255
0 0 255
0 0 255
0 0 255
0 0 255
0 0 255
0 0 255
0 0 255
0 0 255
0 0 255
0 0 255
0 0 254
0 0 255
0 0 255
0 0 255
0 0 255
0 0 255
0 0 255
0 0 255
0 0 255
0 0 255
0 0 255
0 0 255
0 0 255
0 0 255
0 0 255
0 0 255
0 0 255
0 0 255
0 0 253
0 0 255
0 0 255
0 0 254
0 0 254
0 0 255
0 0 255
0 0 254
0 0 255
0 0 254
0 0 254
0 0 255
0 0 253
0 0 254
0 0 255
0 0 255
0 0 255
0 0 255
0 0 255
0 0 254
0 0 254
0 0 254
0 0 255
0 0 255
0 0 254
0 0 253
0 0 255
0 0 255
0 0 255
0 0 255
0 0 255
0 0 255
0 0 254
0 0 254
0 0 254
0 0 255
0 0 254
0 0 254
0 0 250
0 0 254
0 0 254
0 0 255
0 0 254
0 0 255
74 83 255
123 137 255
165 185 255
192 215 255
199 223 255
199 223 255
199 223 255
199 223 255
199 223 255
198 223 255
198 223 255
198 223 255
198 223 255
198 223 255
198 223 255
198 223 255
198 223 255
198 223 255
198 223 255
198 223 255
198 223 255
197 222 255
197 222 255
197 222 255
197 222 255
197 222 255
197 222 255
197 222 255
197 222 255
197 222 255
197 222 255
197 222 255
197 222 255
197 222 255
196 222 255
196 222 255
196 222 255
196 222 255
196 222 255
196 222 255
196 222 255
196 222 255
196 222 255
196 222 255
196 222 255
196 222 255
196 222 255
196 222 255
196 221 255
196 221 255
195 221 255
195 221 255
195 221 255
195 221 255
195 221 255
195 221 255
195 221 255
195 221 255
195 221 255
195 221 255
195 221 255
195 221 255
195 221 255
195 221 255
195 221 255
195 221 255
195 221 255
195 221 255
195 221 255
195 221 255
195 221 255
195 221 255
195 221 255
195 221 255
195 221 255
194 221 255
194 221 255
194 221 255
194 221 255
194 221 255
194 221 255
194 221 255
194 221 255
194 221 255
194 221 255
194 221 255
194 221 255
194 221 255
194 221 255
194 221 255
194 221 255
194 221 255
194 221 255
194 221 255
194 221 255
194 221 255
194 221 255
194 221 255
194 221 255
195 221 255
195 221 255
195 221 255
195 221 255
195 221 255
195 221 255
195 221 255
195 221 255
195 221 255
195 221 255
195 221 255
195 221 255
195 221 255
195 221 255
195 221 255
195 221 255
195 221 255
195 221 255
195 221 255
195 221 255
195 221 255
195 221 255
195 221 255
195 221 255
195 221 255
196 221 255
196 221 255
196 222 255
196 222 255
196 222 255
196 222 255
196 222 255
196 222 255
196 222 255
196 222 255
196 222 255
196 222 255
196 222 255
196 222 255
196 222 255
196 222 255
197 222 255
197 222 255
197 222 255
197 222 255
197 222 255
197 222 255
197 222 255
197 222 255
197 222 255
197 222 255
197 222 255
197 222 255
197 223 255
198 223 255
198 223 255
198 223 255
198 223 255
198 223 255
198 223 255
198 223 255
198 223 255
198 223 255
198 223 255
198 223 255
198 223 255
199 223 255
199 223 255
199 223 255
199 223 255
199 223 255
199 218 249
199 193 221
203 128 147
198 97 111
202 0 0
200 0 0
200 0 0
204 0 0
203 0 0
202 0 0
205 0 0
201 0 0
202 0 0
199 0 0
205 0 0
202 0 0
205 0 0
204 0 0
200 0 0
203 0 0
205 0 0
207 0 0
199 0 0
206 0 0
205 0 0
204 0 0
204 0 0
206 0 0
207 0 0
206 0 0
208 0 0
205 0 0
205 0 0
203 0 0
208 0 0
207 0 0
204 0 0
208 0 0
208 0 0
206 0 0
208 0 0
204 0 0
207 0 0
205 0 0
206 0 0
207 0 0
209 0 0
205 0 0
208 0 0
210 0 0
209 0 0
205 0 0
207 0 0
205 0 0
207 0 0
208 0 0
205 0 0
208 0 0
209 0 0
207 0 0
210 0 0
206 0 0
208 0 0
207 0 0
207 0 0
207 0 0
208 0 0
208 0 0
209 0 0
206 0 0
205 0 0
211 0 0
210 0 0
209 0 0
208 0 0
208 0 0
208 0 0
206 0 0
207 0 0
209 0 0
208 0 0
206 0 0
208 0 0
209 0 0
208 0 0
211 0 0
211 0 0
210 0 0
207 0 0
210 0 0
208 0 0
209 0 0
205 0 0
208 0 0
211 0 0
209 0 0
208 0 0
206 82 92
207 134 151
206 189 212
206 225 253
206 227 255
206 227 255
206 227 255
206 227 255
206 227 255
207 227 255
207 227 255
207 227 255
207 227 255
207 228 255
207 228 255
207 228 255
207 228 255
207 228 255
207 228 255
207 228 255
207 228 255
207 228 255
207 228 255
207 228 255
207 228 255
207 228 255
207 228 255
207 228 255
207 228 255
207 227 255
207 227 255
207 227 255
207 227 255
195 214 255
162 179 255
101 111 255
0 0 255
0 0 255
0 0 255
0 0 255
0 0 255
0 0 255
0 0 255
0 0 255
0 0 255
0 0 255
0 0 255
0 0 255
0 0 255
0 0 255
0 0 255
0 0 255
0 0 255
0 0 255
0 0 255
0 0 255
0 0 255
0 0 255
0 0 255
0 0 255
0 0 255
0 0 255
0 0 255
0 0 255
0 0 255
0 0 255
0 0 255
0 0 255
0 0 255
0 0 255
0 0 255
0 0 255
0 0 255
0 0 255
0 0 255
0 0 255
0 0 255
0 0 255
0 0 255
0 0 255
0 0 255
0 0 255
0 0 255
0 0 255
0 0 255
0 0 255
0 0 255
0 0 255
0 0 255
0 0 255
0 0 255
0 0 255
0 0 254
0 0 254
0 0 255
0 0 255
0 0 255
0 0 255
0 0 255
0 0 255
0 0 254
0 0 253
0 0 254
0 0 255
0 0 255
0 0 254
0 0 254
0 0 255
0 0 255
0 0 255
0 0 253
0 0 253
0 0 255
0 0 254
0 0 254
0 0 253
0 0 253
0 0 253
0 0 255
0 0 253
0 0 254
0 0 255
0 0 253
0 0 255
0 0 255
0 0 254
0 0 255
0 0 254
0 0 253
0 0 255
0 0 255
0 0 255
0 0 253
0 0 254
0 0 254
0 0 255
34 38 254
101 114 255
140 158 255
179 201 255
199 223 255
199 223 255
199 223 255
199 223 255
198 223 255
198 223 255
198 223 255
198 223 255
198 223 255
198 223 255
198 223 255
198 223 255
198 223 255
198 223 255
198 223 255
198 223 255
197 223 255
197 222 255
197 222 255
197 222 255
197 222 255
197 222 255
197 222 255
197 222 255
197 222 255
197 222 255
197 222 255
197 222 255
197 222 255
197 222 255
196 222 255
196 222 255
196 222 255
196 222 255
196 222 255
196 222 255
196 222 255
196 222 255
196 222 255
196 222 255
196 222 255
196 222 255
196 222 255
196 222 255
196 221 255
196 221 255
195 221 255
195 221 255
195 221 255
195 221 255
195 221 255
195 221 255
195 221 255
195 221 255
195 221 255
195 221 255
195 221 255
195 221 255
195 221 255
195 221 255
195 221 255
195 221 255
195 221 255
195 221 255
195 221 255
195 221 255
195 221 255
195 221 255
195 221 255
195 221 255
195 221 255
195 221 255
195 221 255
195 221 255
195 221 255
195 221 255
195 221 255
195 221 255
195 221 255
195 221 255
195 221 255
195 221 255
195 221 255
195 221 255
195 221 255
195 221 255
195 221 255
195 221 255
195 221 255
195 221 255
195 221 255
195 221 255
195 221 255
195 221 255
195 221 255
195 221 255
195 221 255
195 221 255
195 221 255
195 221 255
195 221 255
195 221 255
195 221 255
195 221 255
195 221 255
195 221 255
195 221 255
195 221 255
195 221 255
195 221 255
195 221 255
195 221 255
195 221 255
195 221 255
196 221 255
196 221 255
196 222 255
196 222 255
196 222 255
196 222 255
196 222 255
196 222 255
196 222 255
196 222 255
196 222 255
196 222 255
196 222 255
196 222 255
196 222 255
196 222 255
197 222 255
197 222 255
197 222 255
197 222 255
197 222 255
197 222 255
197 222 255
197 222 255
197 222 255
197 222 255
197 222 255
197 222 255
197 222 255
197 223 255
198 223 255
198 223 255
198 223 255
198 223 255
198 223 255
198 223 255
198 223 255
198 223 255
198 223 255
198 223 255
198 223 255
198 223 255
199 223 255
199 223 255
199 223 255
199 223 255
198 207 237
199 161 184
200 111 128
201 31 36
199 0 0
200 0 0
205 0 0
203 0 0
201 0 0
204 0 0
203 0 0
201 0 0
203 0 0
199 0 0
207 0 0
205 0 0
202 0 0
204 0 0
204 0 0
203 0 0
204 0 0
205 0 0
203 0 0
206 0 0
205 0 0
205 0 0
202 0 0
202 0 0
208 0 0
203 0 0
208 0 0
203 0 0
204 0 0
205 0 0
206 0 0
203 0 0
204 0 0
207 0 0
207 0 0
203 0 0
208 0 0
203 0 0
208 0 0
206 0 0
209 0 0
205 0 0
207 0 0
209 0 0
203 0 0
208 0 0
208 0 0
210 0 0
206 0 0
207 0 0
207 0 0
207 0 0
209 0 0
210 0 0
206 0 0
204 0 0
207 0 0
206 0 0
207 0 0
209 0 0
209 0 0
206 0 0
207 0 0
210 0 0
207 0 0
203 0 0
210 0 0
206 0 0
208 0 0
207 0 0
210 0 0
208 0 0
208 0 0
207 0 0
208 0 0
214 0 0
208 0 0
209 0 0
209 0 0
209 0 0
211 0 0
206 0 0
207 0 0
209 0 0
206 0 0
208 0 0
208 0 0
203 0 0
212 0 0
205 0 0
208 0 0
207 0 0
207 0 0
206 0 0
209 0 0
204 0 0
204 0 0
207 0 0
210 0 0
211 39 44
206 116 130
208 172 193
206 212 238
207 227 255
207 227 255
207 227 255
207 227 255
207 228 255
207 228 255
207 228 255
207 228 255
207 228 255
207 228 255
207 228 255
207 228 255
207 228 255
207 228 255
207 228 255
207 228 255
207 228 255
207 228 255
207 228 255
207 228 255
207 228 255
207 228 255
207 228 255
177 194 255
146 161 255
80 88 255
0 0 255
0 0 255
0 0 255
0 0 255
0 0 255
0 0 255
0 0 255
0 0 255
0 0 255
0 0 255
0 0 255
0 0 255
0 0 255
0 0 255
0 0 255
0 0 255
0 0 255
0 0 255
0 0 255
0 0 255
0 0 255
0 0 255
0 0 255
0 0 255
0 0 255
0 0 255
0 0 255
0 0 255
0 0 255
0 0 255
0 0 255
0 0 255
0 0 255
0 0 255
0 0 254
0 0 255
0 0 255
0 0 255
0 0 255
0 0 255
0 0 255
0 0 255
0 0 255
0 0 255
0 0 255
0 0 255
0 0 255
0 0 255
0 0 255
0 0 255
0 0 255
0 0 255
0 0 255
0 0 255
0 0 254
0 0 255
0 0 255
0 0 255
0 0 253
0 0 255
0 0 255
0 0 255
0 0 255
0 0 254
0 0 254
0 0 253
0 0 255
0 0 255
0 0 253
0 0 255
0 0 255
0 0 255
0 0 254
0 0 255
0 0 255
0 0 254
0 0 255
0 0 254
0 0 253
0 0 255
0 0 254
0 0 253
0 0 255
0 0 254
0 0 252
0 0 254
0 0 253
0 0 255
0 0 254
0 0 255
0 0 254
0 0 253
0 0 255
0 0 254
0 0 255
0 0 254
0 0 254
0 0 252
0 0 254
0 0 253
0 0 252
0 0 255
0 0 254
0 0 254
0 0 253
0 0 255
0 0 255
79 89 254
126 141 255
175 197 255
199 223 255
199 223 255
199 223 255
198 223 255
198 223 255
198 223 255
198 223 255
198 223 255
198 223 255
198 223 255
198 223 255
198 223 255
198 223 255
198 223 255
198 223 255
198 223 255
197 222 255
197 222 255
197 222 255
197 222 255
197 222 255
197 222 255
197 222 255
197 222 255
197 222 255
197 222 255
197 222 255
197 222 255
197 222 255
196 222 255
196 222 255
196 222 255
196 222 255
196 222 255
196 222 255
196 222 255
196 222 255
196 222 255
196 222 255
196 222 255
196 222 255
196 222 255
196 222 255
196 222 255
196 222 255
196 221 255
196 221 255
195 221 255
195 221 255
195 221 255
195 221 255
195 221 255
195 221 255
195 221 255
195 221 255
195 221 255
195 221 255
195 221 255
195 221 255
195 221 255
195 221 255
195 221 255
195 221 255
195 221 255
195 221 255
195 221 255
195 221 255
195 221 255
195 221 255
195 221 255
195 221 255
195 221 255
195 221 255
195 221 255
195 221 255
195 221 255
195 221 255
195 221 255
195 221 255
195 221 255
195 221 255
195 221 255
195 221 255
195 221 255
195 221 255
195 221 255
195 221 255
195 221 255
195 221 255
195 221 255
195 221 255
195 221 255
195 221 255
195 221 255
195 221 255
195 221 255
195 221 255
195 221 255
195 221 255
195 221 255
195 221 255
195 221 255
195 221 255
195 221 255
195 221 255
195 221 255
195 221 255
196 221 255
196 221 255
196 222 255
196 222 255
196 222 255
196 222 255
196 222 255
196 222 255
196 222 255
196 222 255
196 222 255
196 222 255
196 222 255
196 222 255
196 222 255
196 222 255
196 222 255
197 222 255
197 222 255
197 222 255
197 222 255
197 222 255
197 222 255
197 222 255
197 222 255
197 222 255
197 222 255
197 222 255
197 222 255
197 222 255
197 222 255
198 223 255
198 223 255
198 223 255
198 223 255
198 223 255
198 223 255
198 223 255
198 223 255
198 223 255
198 223 255
198 223 255
198 223 255
198 223 255
199 223 255
199 223 255
199 223 255
199 207 237
200 164 188
197 83 95
201 0 0
204 0 0
203 0 0
199 0 0
204 0 0
202 0 0
203 0 0
199 0 0
204 0 0
205 0 0
207 0 0
204 0 0
204 0 0
201 0 0
205 0 0
203 0 0
202 0 0
203 0 0
205 0 0
205 0 0
203 0 0
208 0 0
206 0 0
203 0 0
204 0 0
205 0 0
207 0 0
205 0 0
205 0 0
204 0 0
203 0 0
203 0 0
205 0 0
206 0 0
207 0 0
207 0 0
208 0 0
207 0 0
205 0 0
204 0 0
207 0 0
205 0 0
206 0 0
207 0 0
204 0 0
206 0 0
208 0 0
210 0 0
207 0 0
207 0 0
210 0 0
207 0 0
208 0 0
206 0 0
207 0 0
208 0 0
207 0 0
208 0 0
206 0 0
209 0 0
207 0 0
207 0 0
208 0 0
212 0 0
211 0 0
209 0 0
211 0 0
210 0 0
207 0 0
208 0 0
207 0 0
211 0 0
208 0 0
206 0 0
211 0 0
207 0 0
207 0 0
208 0 0
206 0 0
208 0 0
211 0 0
207 0 0
208 0 0
205 0 0
208 0 0
210 0 0
208 0 0
211 0 0
207 0 0
210 0 0
207 0 0
209 0 0
206 0 0
213 0 0
211 0 0
210 0 0
210 0 0
209 0 0
210 0 0
209 0 0
207 0 0
209 0 0
209 0 0
206 0 0
205 0 0
205 0 0
208 0 0
210 91 102
208 154 173
207 205 230
207 228 255
207 228 255
207 228 255
207 228 255
207 228 255
207 228 255
207 228 255
207 228 255
207 228 255
207 228 255
207 228 255
207 228 255
207 228 255
207 228 255
207 228 255
207 228 255
207 228 255
189 207 255
139 153 255
85 94 255
0 0 255
0 0 255
0 0 255
0 0 255
0 0 255
0 0 255
0 0 255
0 0 255
0 0 255
0 0 255
0 0 255
0 0 255
0 0 255
0 0 255
0 0 255
0 0 255
0 0 255
0 0 255
0 0 255
0 0 255
0 0 255
0 0 255
0 0 255
0 0 255
0 0 255
0 0 255
0 0 255
0 0 255
0 0 255
0 0 255
0 0 255
0 0 255
0 0 255
0 0 255
0 0 255
0 0 255
0 0 255
0 0 255
0 0 255
0 0 254
0 0 255
0 0 255
0 0 255
0 0 255
0 0 255
0 0 255
0 0 255
0 0 255
0 0 254
0 0 254
0 0 255
0 0 255
0 0 255
0 0 255
0 0 255
0 0 255
0 0 254
0 0 255
0 0 255
0 0 255
0 0 255
0 0 255
0 0 254
0 0 255
0 0 255
0 0 255
0 0 254
0 0 254
0 0 254
0 0 255
0 0 255
0 0 255
0 0 255
0 0 254
0 0 255
0 0 254
0 0 254
0 0 255
0 0 255
0 0 254
0 0 254
0 0 255
0 0 254
0 0 255
0 0 254
0 0 253
0 0 255
0 0 254
0 0 253
0 0 255
0 0 254
0 0 255
0 0 255
0 0 253
0 0 253
0 0 254
0 0 254
0 0 254
0 0 255
0 0 253
0 0 253
0 0 254
0 0 253
0 0 255
0 0 255
0 0 255
0 0 252
0 0 252
0 0 253
0 0 254
0 0 254
0 0 254
0 0 254
74 83 255
129 144 255
184 207 255
199 223 255
199 223 255
198 223 255
198 223 255
198 223 255
198 223 255
198 223 255
198 223 255
198 223 255
198 223 255
198 223 255
198 223 255
198 223 255
198 223 255
198 223 255
197 223 255
197 222 255
197 222 255
197 222 255
197 222 255
197 222 255
197 222 255
197 222 255
197 222 255
197 222 255
197 222 255
197 222 255
197 222 255
197 222 255
196 222 255
196 222 255
196 222 255
196 222 255
196 222 255
196 222 255
196 222 255
196 222 255
196 222 255
196 222 255
196 222 255
196 222 255
196 222 255
196 222 255
196 222 255
196 222 255
196 222 255
196 221 255
196 221 255
195 221 255
195 221 255
195 221 255
195 221 255
195 221 255
195 221 255
195 221 255
195 221 255
195 221 255
195 221 255
195 221 255
195 221 255
195 221 255
195 221 255
195 221 255
195 221 255
195 221 255
195 221 255
195 221 255
195 221 255
195 221 255
195 221 255
195 221 255
195 221 255
195 221 255
195 221 255
195 221 255
195 221 255
195 221 255
195 221 255
195 221 255
195 221 255
195 221 255
195 221 255
195 221 255
195 221 255
195 221 255
195 221 255
195 221 255
195 221 255
195 221 255
195 221 255
195 221 255
195 221 255
195 221 255
195 221 255
195 221 255
195 221 255
195 221 255
195 221 255
195 221 255
195 221 255
196 221 255
196 221 255
196 222 255
196 222 255
196 222 255
196 222 255
196 222 255
196 222 255
196 222 255
196 222 255
196 222 255
196 222 255
196 222 255
196 222 255
196 222 255
196 222 255
196 222 255
196 222 255
197 222 255
197 222 255
197 222 255
197 222 255
197 222 255
197 222 255
197 222 255
197 222 255
197 222 255
197 222 255
197 222 255
197 222 255
197 222 255
197 222 255
197 223 255
198 223 255
198 223 255
198 223 255
198 223 255
198 223 255
198 223 255
198 223 255
198 223 255
198 223 255
198 223 255
198 223 255
198 223 255
198 223 255
199 223 255
199 223 255
198 197 226
199 153 175
200 83 95
201 0 0
202 0 0
202 0 0
204 0 0
201 0 0
200 0 0
203 0 0
203 0 0
200 0 0
200 0 0
204 0 0
204 0 0
202 0 0
201 0 0
208 0 0
201 0 0
204 0 0
203 0 0
203 0 0
204 0 0
204 0 0
206 0 0
206 0 0
204 0 0
204 0 0
205 0 0
206 0 0
204 0 0
205 0 0
203 0 0
208 0 0
206 0 0
205 0 0
208 0 0
206 0 0
204 0 0
204 0 0
207 0 0
207 0 0
207 0 0
203 0 0
204 0 0
206 0 0
210 0 0
206 0 0
207 0 0
209 0 0
206 0 0
208 0 0
210 0 0
206 0 0
207 0 0
207 0 0
209 0 0
207 0 0
209 0 0
208 0 0
204 0 0
206 0 0
205 0 0
206 0 0
207 0 0
207 0 0
206 0 0
209 0 0
209 0 0
209 0 0
208 0 0
209 0 0
206 0 0
207 0 0
211 0 0
209 0 0
207 0 0
208 0 0
208 0 0
209 0 0
209 0 0
204 0 0
209 0 0
209 0 0
207 0 0
209 0 0
209 0 0
211 0 0
205 0 0
207 0 0
209 0 0
210 0 0
208 0 0
208 0 0
209 0 0
210 0 0
211 0 0
207 0 0
207 0 0
208 0 0
209 0 0
209 0 0
208 0 0
209 0 0
207 0 0
208 0 0
209 0 0
210 0 0
210 0 0
208 0 0
209 0 0
211 0 0
208 0 0
208 0 0
206 0 0
210 0 0
210 94 105
208 140 157
207 212 238
207 228 255
207 228 255
207 228 255
207 228 255
207 228 255
207 228 255
207 228 255
208 228 255
208 228 255
208 228 255
207 228 255
198 217 255
145 159 255
85 94 255
0 0 255
0 0 255
0 0 255
0 0 255
0 0 255
0 0 255
0 0 255
0 0 255
0 0 255
0 0 255
0 0 255
0 0 255
0 0 255
0 0 255
0 0 255
0 0 255
0 0 255
0 0 255
0 0 255
0 0 255
0 0 255
0 0 255
0 0 255
0 0 255
0 0 255
0 0 255
0 0 255
0 0 255
0 0 255
0 0 255
0 0 255
0 0 255
0 0 255
0 0 254
0 0 255
0 0 254
0 0 255
0 0 255
0 0 255
0 0 255
0 0 255
0 0 255
0 0 255
0 0 255
0 0 255
0 0 255
0 0 255
0 0 255
0 0 255
0 0 254
0 0 255
0 0 255
0 0 255
0 0 255
0 0 253
0 0 255
0 0 255
0 0 255
0 0 255
0 0 255
0 0 253
0 0 255
0 0 255
0 0 253
0 0 255
0 0 254
0 0 255
0 0 254
0 0 255
0 0 254
0 0 255
0 0 255
0 0 255
0 0 255
0 0 255
0 0 254
0 0 255
0 0 255
0 0 255
0 0 254
0 0 255
0 0 255
0 0 255
0 0 254
0 0 254
0 0 255
0 0 255
0 0 255
0 0 249
0 0 255
0 0 253
0 0 255
0 0 254
0 0 253
0 0 254
0 0 254
0 0 254
0 0 255
0 0 252
0 0 255
0 0 255
0 0 255
0 0 254
0 0 254
0 0 255
0 0 254
0 0 254
0 0 254
0 0 254
0 0 254
0 0 252
0 0 252
0 0 252
0 0 252
0 0 255
0 0 253
0 0 253
0 0 250
0 0 254
93 104 255
139 156 255
187 210 255
199 223 255
199 223 255
198 223 255
198 223 255
198 223 255
198 223 255
198 223 255
198 223 255
198 223 255
198 223 255
198 223 255
198 223 255
198 223 255
198 223 255
198 223 255
197 222 255
197 222 255
197 222 255
197 222 255
197 222 255
197 222 255
197 222 255
197 222 255
197 222 255
197 222 255
197 222 255
197 222 255
197 222 255
197 222 255
196 222 255
196 222 255
196 222 255
196 222 255
196 222 255
196 222 255
196 222 255
196 222 255
196 222 255
196 222 255
196 222 255
196 222 255
196 222 255
196 222 255
196 222 255
196 222 255
196 222 255
196 222 255
196 221 255
196 221 255
195 221 255
195 221 255
195 221 255
195 221 255
195 221 255
195 221 255
195 221 255
195 221 255
195 221 255
195 221 255
195 221 255
195 221 255
195 221 255
195 221 255
195 221 255
195 221 255
195 221 255
195 221 255
195 221 255
195 221 255
195 221 255
195 221 255
195 221 255
195 221 255
195 221 255
195 221 255
195 221 255
195 221 255
195 221 255
195 221 255
195 221 255
195 221 255
195 221 255
195 221 255
195 221 255
195 221 255
195 221 255
195 221 255
195 221 255
195 221 255
195 221 255
195 221 255
195 221 255
196 221 255
196 221 255
196 221 255
196 222 255
196 222 255
196 222 255
196 222 255
196 222 255
196 222 255
196 222 255
196 222 255
196 222 255
196 222 255
196 222 255
196 222 255
196 222 255
196 222 255
196 222 255
196 222 255
196 222 255
196 222 255
197 222 255
197 222 255
197 222 255
197 222 255
197 222 255
197 222 255
197 222 255
197 222 255
197 222 255
197 222 255
197 222 255
197 222 255
197 222 255
197 222 255
198 223 255
198 223 255
198 223 255
198 223 255
198 223 255
198 223 255
198 223 255
198 223 255
198 223 255
198 223 255
198 223 255
198 223 255
198 223 255
199 223 255
199 223 255
198 215 246
200 170 194
200 86 99
200 0 0
200 0 0
200 0 0
203 0 0
202 0 0
202 0 0
199 0 0
197 0 0
204 0 0
201 0 0
203 0 0
208 0 0
206 0 0
203 0 0
201 0 0
203 0 0
201 0 0
204 0 0
205 0 0
205 0 0
205 0 0
203 0 0
204 0 0
202 0 0
199 0 0
206 0 0
207 0 0
203 0 0
204 0 0
208 0 0
207 0 0
203 0 0
206 0 0
205 0 0
205 0 0
206 0 0
206 0 0
205 0 0
207 0 0
207 0 0
206 0 0
209 0 0
209 0 0
207 0 0
207 0 0
207 0 0
209 0 0
204 0 0
205 0 0
206 0 0
204 0 0
206 0 0
204 0 0
203 0 0
207 0 0
208 0 0
207 0 0
205 0 0
208 0 0
209 0 0
209 0 0
207 0 0
206 0 0
208 0 0
211 0 0
208 0 0
209 0 0
208 0 0
209 0 0
208 0 0
209 0 0
209 0 0
210 0 0
208 0 0
209 0 0
209 0 0
208 0 0
210 0 0
211 0 0
211 0 0
207 0 0
211 0 0
206 0 0
206 0 0
208 0 0
207 0 0
204 0 0
207 0 0
209 0 0
210 0 0
210 0 0
208 0 0
208 0 0
208 0 0
210 0 0
210 0 0
206 0 0
207 0 0
209 0 0
210 0 0
207 0 0
207 0 0
210 0 0
211 0 0
211 0 0
209 0 0
207 0 0
209 0 0
209 0 0
210 0 0
208 0 0
207 0 0
210 0 0
210 0 0
208 0 0
209 0 0
209 0 0
209 0 0
208 0 0
209 94 105
207 166 186
207 215 241
207 228 255
208 228 255
208 228 255
208 228 255
208 228 255
207 227 255
172 189 255
117 129 255
0 0 255
0 0 255
0 0 255
0 0 255
0 0 255
0 0 255
0 0 255
0 0 255
0 0 255
0 0 255
0 0 255
0 0 255
0 0 255
0 0 255
0 0 255
0 0 255
0 0 255
0 0 255
0 0 255
0 0 255
0 0 255
0 0 255
0 0 255
0 0 255
0 0 255
0 0 255
0 0 255
0 0 255
0 0 255
0 0 255
0 0 255
0 0 255
0 0 255
0 0 255
0 0 255
0 0 255
0 0 255
0 0 255
0 0 255
0 0 255
0 0 255
0 0 255
0 0 255
0 0 255
0 0 255
0 0 255
0 0 255
0 0 254
0 0 255
0 0 255
0 0 255
0 0 255
0 0 255
0 0 254
0 0 255
0 0 255
0 0 255
0 0 255
0 0 255
0 0 254
0 0 255
0 0 254
0 0 254
0 0 254
0 0 255
0 0 255
0 0 255
0 0 254
0 0 255
0 0 254
0 0 255
0 0 255
0 0 255
0 0 254
0 0 254
0 0 254
0 0 254
0 0 255
0 0 255
0 0 254
0 0 255
0 0 254
0 0 253
0 0 254
0 0 253
0 0 255
0 0 255
0 0 253
0 0 252
0 0 255
0 0 253
0 0 255
0 0 253
0 0 255
0 0 255
0 0 254
0 0 254
0 0 254
0 0 252
0 0 254
0 0 250
0 0 255
0 0 254
0 0 254
0 0 254
0 0 255
0 0 252
0 0 253
0 0 255
0 0 254
0 0 254
0 0 254
0 0 250
0 0 254
0 0 254
0 0 252
0 0 253
0 0 252
0 0 254
0 0 252
0 0 255
0 0 253
0 0 255
0 0 253
19 22 255
91 102 255
167 188 255
197 221 255
199 223 255
198 223 255
198 223 255
198 223 255
198 223 255
198 223 255
198 223 255
198 223 255
198 223 255
198 223 255
198 223 255
198 223 255
198 223 255
198 223 255
197 223 255
197 222 255
197 222 255
197 222 255
197 222 255
197 222 255
197 222 255
197 222 255
197 222 255
197 222 255
197 222 255
197 222 255
197 222 255
197 222 255
197 222 255
197 222 255
196 222 255
196 222 255
196 222 255
196 222 255
196 222 255
196 222 255
196 222 255
196 222 255
196 222 255
196 222 255
196 222 255
196 222 255
196 222 255
196 222 255
196 222 255
196 222 255
196 222 255
196 222 255
196 222 255
196 222 255
196 221 255
196 221 255
195 221 255
195 221 255
195 221 255
195 221 255
195 221 255
195 221 255
195 221 255
195 221 255
195 221 255
195 221 255
195 221 255
195 221 255
195 221 255
195 221 255
195 221 255
195 221 255
195 221 255
195 221 255
195 221 255
195 221 255
195 221 255
195 221 255
195 221 255
195 221 255
195 221 255
195 221 255
195 221 255
195 221 255
195 221 255
195 221 255
195 221 255
195 221 255
196 221 255
196 221 255
196 221 255
196 222 255
196 222 255
196 222 255
196 222 255
196 222 255
196 222 255
196 222 255
196 222 255
196 222 255
196 222 255
196 222 255
196 222 255
196 222 255
196 222 255
196 222 255
196 222 255
196 222 255
196 222 255
196 222 255
196 222 255
197 222 255
197 222 255
197 222 255
197 222 255
197 222 255
197 222 255
197 222 255
197 222 255
197 222 255
197 222 255
197 222 255
197 222 255
197 222 255
197 222 255
197 223 255
198 223 255
198 223 255
198 223 255
198 223 255
198 223 255
198 223 255
198 223 255
198 223 255
198 223 255
198 223 255
198 223 255
198 223 255
198 223 255
199 223 255
198 217 249
202 183 209
201 122 140
200 22 25
200 0 0
199 0 0
198 0 0
200 0 0
197 0 0
201 0 0
202 0 0
200 0 0
202 0 0
203 0 0
202 0 0
204 0 0
200 0 0
203 0 0
202 0 0
203 0 0
206 0 0
203 0 0
204 0 0
204 0 0
200 0 0
204 0 0
205 0 0
205 0 0
205 0 0
204 0 0
200 0 0
206 0 0
206 0 0
206 0 0
205 0 0
206 0 0
206 0 0
207 0 0
203 0 0
205 0 0
207 0 0
207 0 0
209 0 0
206 0 0
207 0 0
204 0 0
204 0 0
206 0 0
206 0 0
208 0 0
204 0 0
208 0 0
208 0 0
207 0 0
206 0 0
204 0 0
208 0 0
208 0 0
206 0 0
209 0 0
207 0 0
208 0 0
209 0 0
211 0 0
208 0 0
207 0 0
209 0 0
210 0 0
206 0 0
209 0 0
210 0 0
210 0 0
208 0 0
211 0 0
207 0 0
205 0 0
213 0 0
210 0 0
209 0 0
209 0 0
212 0 0
211 0 0
210 0 0
208 0 0
209 0 0
209 0 0
208 0 0
211 0 0
206 0 0
209 0 0
210 0 0
205 0 0
209 0 0
210 0 0
209 0 0
211 0 0
207 0 0
206 0 0
208 0 0
209 0 0
208 0 0
214 0 0
211 0 0
207 0 0
207 0 0
208 0 0
212 0 0
209 0 0
205 0 0
213 0 0
212 0 0
211 0 0
208 0 0
209 0 0
214 0 0
210 0 0
209 0 0
212 0 0
207 0 0
209 0 0
207 0 0
207 0 0
210 0 0
211 0 0
209 0 0
207 0 0
212 0 0
211 22 25
209 111 125
207 188 211
208 227 254
208 228 255
138 151 255
51 55 255
0 0 255
0 0 255
0 0 255
0 0 255
0 0 255
0 0 255
0 0 255
0 0 255
0 0 255
0 0 255
0 0 255
0 0 255
0 0 255
0 0 255
0 0 255
0 0 255
0 0 255
0 0 255
0 0 255
0 0 255
0 0 255
0 0 255
0 0 255
0 0 255
0 0 255
0 0 255
0 0 255
0 0 255
0 0 255
0 0 255
0 0 255
0 0 255
0 0 255
0 0 255
0 0 255
0 0 255
0 0 255
0 0 255
0 0 255
0 0 255
0 0 255
0 0 255
0 0 255
0 0 255
0 0 255
0 0 255
0 0 255
0 0 255
0 0 254
0 0 254
0 0 255
0 0 255
0 0 255
0 0 255
0 0 255
0 0 255
0 0 255
0 0 255
0 0 255
0 0 253
0 0 255
0 0 255
0 0 255
0 0 255
0 0 253
0 0 255
0 0 255
0 0 255
0 0 255
0 0 254
0 0 255
0 0 252
0 0 255
0 0 255
0 0 255
0 0 254
0 0 255
0 0 255
0 0 255
0 0 255
0 0 254
0 0 254
0 0 255
0 0 255
0 0 255
0 0 253
0 0 255
0 0 255
0 0 254
0 0 254
0 0 254
0 0 255
0 0 255
0 0 254
0 0 252
0 0 252
0 0 254
0 0 253
0 0 253
0 0 254
0 0 254
0 0 255
0 0 254
0 0 253
0 0 254
0 0 254
0 0 254
0 0 253
0 0 253
0 0 254
0 0 252
0 0 253
0 0 252
0 0 255
0 0 253
0 0 255
0 0 252
0 0 253
0 0 253
0 0 250
0 0 249
0 0 250
0 0 252
0 0 253
0 0 253
0 0 253
0 0 253
0 0 254
0 0 253
52 59 254
127 143 254
191 214 255
199 223 255
199 223 255
198 223 255
198 223 255
198 223 255
198 223 255
198 223 255
198 223 255
198 223 255
198 223 255
198 223 255
198 223 255
198 223 255
198 223 255
198 223 255
197 222 255
197 222 255
197 222 255
197 222 255
197 222 255
197 222 255
197 222 255
197 222 255
197 222 255
197 222 255
197 222 255
197 222 255
197 222 255
197 222 255
197 222 255
197 222 255
196 222 255
196 222 255
196 222 255
196 222 255
196 222 255
196 222 255
196 222 255
196 222 255
196 222 255
196 222 255
196 222 255
196 222 255
196 222 255
196 222 255
196 222 255
196 222 255
196 222 255
196 222 255
196 222 255
196 222 255
196 222 255
196 222 255
196 222 255
196 222 255
196 221 255
196 221 255
196 221 255
196 221 255
196 221 255
196 221 255
195 221 255
195 221 255
195 221 255
195 221 255
195 221 255
195 221 255
195 221 255
195 221 255
195 221 255
196 221 255
196 221 255
196 221 255
196 221 255
196 221 255
196 221 255
196 221 255
196 222 255
196 222 255
196 222 255
196 222 255
196 222 255
196 222 255
196 222 255
196 222 255
196 222 255
196 222 255
196 222 255
196 222 255
196 222 255
196 222 255
196 222 255
196 222 255
196 222 255
196 222 255
196 222 255
196 222 255
196 222 255
196 222 255
196 222 255
196 222 255
197 222 255
197 222 255
197 222 255
197 222 255
197 222 255
197 222 255
197 222 255
197 222 255
197 222 255
197 222 255
197 222 255
197 222 255
197 222 255
197 222 255
197 222 255
197 222 255
198 223 255
198 223 255
198 223 255
198 223 255
198 223 255
198 223 255
198 223 255
198 223 255
198 223 255
198 223 255
198 223 255
198 223 255
198 223 255
199 223 255
199 223 255
199 204 234
198 144 165
200 74 84
196 0 0
198 0 0
202 0 0
205 0 0
200 0 0
199 0 0
198 0 0
195 0 0
203 0 0
201 0 0
206 0 0
201 0 0
202 0 0
202 0 0
197 0 0
205 0 0
206 0 0
202 0 0
204 0 0
205 0 0
207 0 0
203 0 0
204 0 0
204 0 0
204 0 0
202 0 0
209 0 0
203 0 0
204 0 0
204 0 0
206 0 0
207 0 0
208 0 0
207 0 0
203 0 0
208 0 0
205 0 0
207 0 0
205 0 0
209 0 0
209 0 0
210 0 0
208 0 0
209 0 0
209 0 0
207 0 0
210 0 0
205 0 0
206 0 0
204 0 0
209 0 0
205 0 0
204 0 0
205 0 0
207 0 0
206 0 0
206 0 0
211 0 0
208 0 0
211 0 0
211 0 0
208 0 0
208 0 0
211 0 0
209 0 0
212 0 0
206 0 0
205 0 0
207 0 0
205 0 0
209 0 0
210 0 0
211 0 0
211 0 0
210 0 0
212 0 0
211 0 0
211 0 0
211 0 0
207 0 0
211 0 0
210 0 0
208 0 0
210 0 0
211 0 0
209 0 0
209 0 0
208 0 0
210 0 0
207 0 0
208 0 0
206 0 0
209 0 0
207 0 0
210 0 0
211 0 0
208 0 0
208 0 0
209 0 0
210 0 0
210 0 0
209 0 0
209 0 0
210 0 0
211 0 0
211 0 0
209 0 0
211 0 0
208 0 0
209 0 0
211 0 0
213 0 0
209 0 0
209 0 0
209 0 0
206 0 0
210 0 0
211 0 0
209 0 0
210 0 0
209 0 0
206 0 0
210 0 0
208 0 0
209 0 0
210 0 0
208 0 0
209 0 0
209 0 0
208 75 84
208 148 165
0 0 255
0 0 255
0 0 255
0 0 255
0 0 255
0 0 255
0 0 255
0 0 255
0 0 255
0 0 255
0 0 255
0 0 255
0 0 255
0 0 255
0 0 255
0 0 255
0 0 255
0 0 255
0 0 255
0 0 255
0 0 255
0 0 255
0 0 255
0 0 255
0 0 255
0 0 255
0 0 255
0 0 255
0 0 255
0 0 255
0 0 255
0 0 255
0 0 255
0 0 255
0 0 255
0 0 255
0 0 255
0 0 255
0 0 255
0 0 255
0 0 255
0 0 255
0 0 255
0 0 255
0 0 254
0 0 255
0 0 255
0 0 255
0 0 255
0 0 255
0 0 255
0 0 255
0 0 255
0 0 255
0 0 255
0 0 255
0 0 254
0 0 255
0 0 253
0 0 255
0 0 255
0 0 254
0 0 255
0 0 254
0 0 255
0 0 254
0 0 255
0 0 253
0 0 254
0 0 255
0 0 253
0 0 253
0 0 250
0 0 252
0 0 255
0 0 254
0 0 255
0 0 254
0 0 254
0 0 254
0 0 254
0 0 254
0 0 254
0 0 253
0 0 255
0 0 254
0 0 253
0 0 255
0 0 255
0 0 254
0 0 254
0 0 253
0 0 255
0 0 254
0 0 255
0 0 254
0 0 255
0 0 254
0 0 254
0 0 255
0 0 253
0 0 254
0 0 255
0 0 254
0 0 252
0 0 255
0 0 252
0 0 253
0 0 255
0 0 255
0 0 254
0 0 254
0 0 255
0 0 253
0 0 253
0 0 250
0 0 250
0 0 249
0 0 254
0 0 254
0 0 252
0 0 252
0 0 254
0 0 253
0 0 253
0 0 252
0 0 254
0 0 253
0 0 255
0 0 255
0 0 252
0 0 253
0 0 254
0 0 254
95 107 254
172 193 255
199 223 255
199 223 255
198 223 255
198 223 255
198 223 255
198 223 255
198 223 255
198 223 255
198 223 255
198 223 255
198 223 255
198 223 255
198 223 255
198 223 255
198 223 255
198 223 255
197 222 255
197 222 255
197 222 255
197 222 255
197 222 255
197 222 255
197 222 255
197 222 255
197 222 255
197 222 255
197 222 255
197 222 255
197 222 255
197 222 255
197 222 255
197 222 255
197 222 255
196 222 255
196 222 255
196 222 255
196 222 255
196 222 255
196 222 255
196 222 255
196 222 255
196 222 255
196 222 255
196 222 255
196 222 255
196 222 255
196 222 255
196 222 255
196 222 255
196 222 255
196 222 255
196 222 255
196 222 255
196 222 255
196 222 255
196 222 255
196 222 255
196 222 255
196 222 255
196 222 255
196 222 255
196 222 255
196 222 255
196 222 255
196 222 255
196 222 255
196 222 255
196 222 255
196 222 255
196 222 255
196 222 255
196 222 255
196 222 255
196 222 255
196 222 255
196 222 255
196 222 255
196 222 255
196 222 255
196 222 255
196 222 255
196 222 255
196 222 255
196 222 255
196 222 255
196 222 255
196 222 255
196 222 255
196 222 255
196 222 255
196 222 255
196 222 255
196 222 255
196 222 255
196 222 255
196 222 255
197 222 255
197 222 255
197 222 255
197 222 255
197 222 255
197 222 255
197 222 255
197 222 255
197 222 255
197 222 255
197 222 255
197 222 255
197 222 255
197 222 255
197 222 255
197 222 255
198 223 255
198 223 255
198 223 255
198 223 255
198 223 255
198 223 255
198 223 255
198 223 255
198 223 255
198 223 255
198 223 255
198 223 255
198 223 255
198 223 255
199 223 255
199 222 254
198 193 221
197 116 133
198 22 25
201 0 0
200 0 0
202 0 0
200 0 0
204 0 0
201 0 0
201 0 0
200 0 0
199 0 0
198 0 0
205 0 0
200 0 0
202 0 0
201 0 0
204 0 0
205 0 0
201 0 0
204 0 0
204 0 0
202 0 0
205 0 0
201 0 0
202 0 0
206 0 0
208 0 0
205 0 0
203 0 0
200 0 0
204 0 0
206 0 0
209 0 0
202 0 0
208 0 0
207 0 0
207 0 0
206 0 0
204 0 0
205 0 0
205 0 0
209 0 0
207 0 0
207 0 0
207 0 0
210 0 0
204 0 0
209 0 0
208 0 0
207 0 0
208 0 0
205 0 0
204 0 0
209 0 0
208 0 0
207 0 0
208 0 0
208 0 0
207 0 0
205 0 0
212 0 0
208 0 0
203 0 0
206 0 0
209 0 0
206 0 0
208 0 0
209 0 0
210 0 0
207 0 0
208 0 0
208 0 0
206 0 0
209 0 0
208 0 0
207 0 0
211 0 0
208 0 0
209 0 0
211 0 0
206 0 0
213 0 0
211 0 0
209 0 0
207 0 0
211 0 0
209 0 0
210 0 0
205 0 0
213 0 0
211 0 0
207 0 0
213 0 0
210 0 0
210 0 0
210 0 0
210 0 0
209 0 0
209 0 0
208 0 0
212 0 0
211 0 0
209 0 0
210 0 0
215 0 0
208 0 0
208 0 0
212 0 0
210 0 0
209 0 0
210 0 0
215 0 0
209 0 0
211 0 0
208 0 0
209 0 0
210 0 0
209 0 0
207 0 0
211 0 0
210 0 0
213 0 0
208 0 0
209 0 0
210 0 0
210 0 0
213 0 0
211 0 0
210 0 0
210 0 0
211 0 0
209 0 0
211 0 0
209 0 0
209 0 0
0 0 255
0 0 255
0 0 255
0 0 255
0 0 255
0 0 255
0 0 255
0 0 255
0 0 255
0 0 255
0 0 255
0 0 255
0 0 255
0 0 255
0 0 255
0 0 255
0 0 255
0 0 255
0 0 255
0 0 255
0 0 255
0 0 255
0 0 255
0 0 255
0 0 255
0 0 255
0 0 255
0 0 255
0 0 255
0 0 255
0 0 255
0 0 255
0 0 255
0 0 255
0 0 255
0 0 255
0 0 255
0 0 255
0 0 255
0 0 255
0 0 255
0 0 255
0 0 255
0 0 255
0 0 255
0 0 255
0 0 255
0 0 255
0 0 255
0 0 255
0 0 255
0 0 255
0 0 255
0 0 255
0 0 255
0 0 255
0 0 255
0 0 254
0 0 255
0 0 254
0 0 254
0 0 255
0 0 255
0 0 255
0 0 255
0 0 255
0 0 254
0 0 255
0 0 255
0 0 255
0 0 255
0 0 254
0 0 254
0 0 255
0 0 254
0 0 254
0 0 253
0 0 255
0 0 254
0 0 253
0 0 254
0 0 255
0 0 255
0 0 253
0 0 254
0 0 255
0 0 254
0 0 254
0 0 255
0 0 253
0 0 253
0 0 255
0 0 254
0 0 253
0 0 255
0 0 255
0 0 253
0 0 255
0 0 250
0 0 255
0 0 254
0 0 255
0 0 253
0 0 253
0 0 254
0 0 254
0 0 253
0 0 253
0 0 253
0 0 250
0 0 250
0 0 252
0 0 254
0 0 253
0 0 250
0 0 254
0 0 254
0 0 254
0 0 254
0 0 255
0 0 253
0 0 255
0 0 250
0 0 254
0 0 252
0 0 252
0 0 252
0 0 253
0 0 254
0 0 252
0 0 255
0 0 253
0 0 254
0 0 250
0 0 253
0 0 250
56 63 252
155 174 252
192 215 254
199 223 255
199 223 255
198 223 255
198 223 255
198 223 255
198 223 255
198 223 255
198 223 255
198 223 255
198 223 255
198 223 255
198 223 255
198 223 255
198 223 255
198 223 255
198 223 255
197 222 255
197 222 255
197 222 255
197 222 255
197 222 255
197 222 255
197 222 255
197 222 255
197 222 255
197 222 255
197 222 255
197 222 255
197 222 255
197 222 255
197 222 255
197 222 255
197 222 255
197 222 255
196 222 255
196 222 255
196 222 255
196 222 255
196 222 255
196 222 255
196 222 255
196 222 255
196 222 255
196 222 255
196 222 255
196 222 255
196 222 255
196 222 255
196 222 255
196 222 255
196 222 255
196 222 255
196 222 255
196 222 255
196 222 255
196 222 255
196 222 255
196 222 255
196 222 255
196 222 255
196 222 255
196 222 255
196 222 255
196 222 255
196 222 255
196 222 255
196 222 255
196 222 255
196 222 255
196 222 255
196 222 255
196 222 255
196 222 255
196 222 255
196 222 255
196 222 255
196 222 255
196 222 255
196 222 255
196 222 255
196 222 255
196 222 255
196 222 255
196 222 255
196 222 255
196 222 255
196 222 255
196 222 255
197 222 255
197 222 255
197 222 255
197 222 255
197 222 255
197 222 255
197 222 255
197 222 255
197 222 255
197 222 255
197 222 255
197 222 255
197 222 255
197 222 255
197 222 255
197 222 255
197 222 255
197 222 255
198 223 255
198 223 255
198 223 255
198 223 255
198 223 255
198 223 255
198 223 255
198 223 255
198 223 255
198 223 255
198 223 255
198 223 255
198 223 255
198 223 255
199 223 255
199 223 255
199 214 245
200 170 194
197 77 88
196 0 0
200 0 0
199 0 0
199 0 0
203 0 0
200 0 0
196 0 0
201 0 0
200 0 0
204 0 0
206 0 0
204 0 0
204 0 0
204 0 0
202 0 0
198 0 0
206 0 0
207 0 0
202 0 0
204 0 0
204 0 0
202 0 0
205 0 0
206 0 0
207 0 0
207 0 0
200 0 0
206 0 0
205 0 0
210 0 0
207 0 0
205 0 0
205 0 0
206 0 0
206 0 0
211 0 0
203 0 0
206 0 0
208 0 0
210 0 0
209 0 0
203 0 0
205 0 0
208 0 0
206 0 0
210 0 0
205 0 0
210 0 0
208 0 0
206 0 0
206 0 0
207 0 0
210 0 0
210 0 0
206 0 0
206 0 0
212 0 0
208 0 0
208 0 0
201 0 0
208 0 0
210 0 0
209 0 0
208 0 0
205 0 0
210 0 0
211 0 0
207 0 0
207 0 0
209 0 0
209 0 0
207 0 0
209 0 0
209 0 0
208 0 0
207 0 0
211 0 0
212 0 0
207 0 0
209 0 0
209 0 0
206 0 0
210 0 0
211 0 0
211 0 0
208 0 0
208 0 0
208 0 0
211 0 0
210 0 0
211 0 0
210 0 0
209 0 0
210 0 0
210 0 0
207 0 0
209 0 0
210 0 0
210 0 0
212 0 0
211 0 0
209 0 0
209 0 0
211 0 0
207 0 0
208 0 0
209 0 0
210 0 0
209 0 0
212 0 0
210 0 0
211 0 0
212 0 0
211 0 0
212 0 0
210 0 0
209 0 0
206 0 0
210 0 0
206 0 0
211 0 0
207 0 0
211 0 0
212 0 0
210 0 0
210 0 0
210 0 0
208 0 0
210 0 0
207 0 0
211 0 0
209 0 0
211 0 0
212 0 0
210 0 0
210 0 0
0 0 255
0 0 255
0 0 255
0 0 255
0 0 255
0 0 255
0 0 255
0 0 255
0 0 255
0 0 255
0 0 255
0 0 255
0 0 255
0 0 255
0 0 255
0 0 255
0 0 255
0 0 255
0 0 255
0 0 255
0 0 255
0 0 255
0 0 255
0 0 255
0 0 255
0 0 255
0 0 255
0 0 255
0 0 255
0 0 255
0 0 255
0 0 255
0 0 255
0 0 255
0 0 255
0 0 255
0 0 255
0 0 255
0 0 255
0 0 255
0 0 255
0 0 255
0 0 255
0 0 255
0 0 255
0 0 255
0 0 255
0 0 255
0 0 254
0 0 255
0 0 255
0 0 255
0 0 255
0 0 255
0 0 254
0 0 255
0 0 255
0 0 254
0 0 253
0 0 255
0 0 255
0 0 255
0 0 255
0 0 255
0 0 255
0 0 255
0 0 254
0 0 254
0 0 255
0 0 255
0 0 255
0 0 254
0 0 255
0 0 254
0 0 255
0 0 252
0 0 255
0 0 255
0 0 254
0 0 253
0 0 254
0 0 254
0 0 250
0 0 255
0 0 254
0 0 255
0 0 254
0 0 254
0 0 254
0 0 254
0 0 255
0 0 253
0 0 254
0 0 252
0 0 252
0 0 253
0 0 254
0 0 254
0 0 254
0 0 254
0 0 255
0 0 253
0 0 253
0 0 254
0 0 253
0 0 254
0 0 252
0 0 254
0 0 254
0 0 253
0 0 254
0 0 253
0 0 255
0 0 254
0 0 254
0 0 252
0 0 250
0 0 253
0 0 252
0 0 254
0 0 253
0 0 248
0 0 249
0 0 252
0 0 250
0 0 254
0 0 253
0 0 249
0 0 254
0 0 248
0 0 254
0 0 252
0 0 253
0 0 252
0 0 254
0 0 255
0 0 253
0 0 246
44 50 252
132 148 250
187 210 255
199 223 255
199 223 255
198 223 255
198 223 255
198 223 255
198 223 255
198 223 255
198 223 255
198 223 255
198 223 255
198 223 255
198 223 255
198 223 255
198 223 255
198 223 255
198 223 255
198 223 255
197 222 255
197 222 255
197 222 255
197 222 255
197 222 255
197 222 255
197 222 255
197 222 255
197 222 255
197 222 255
197 222 255
197 222 255
197 222 255
197 222 255
197 222 255
197 222 255
197 222 255
197 222 255
197 222 255
197 222 255
196 222 255
196 222 255
196 222 255
196 222 255
196 222 255
196 222 255
196 222 255
196 222 255
196 222 255
196 222 255
196 222 255
196 222 255
196 222 255
196 222 255
196 222 255
196 222 255
196 222 255
196 222 255
196 222 255
196 222 255
196 222 255
196 222 255
196 222 255
196 222 255
196 222 255
196 222 255
196 222 255
196 222 255
196 222 255
196 222 255
196 222 255
196 222 255
196 222 255
196 222 255
196 222 255
196 222 255
196 222 255
196 222 255
196 222 255
196 222 255
196 222 255
196 222 255
196 222 255
196 222 255
196 222 255
197 222 255
197 222 255
197 222 255
197 222 255
197 222 255
197 222 255
197 222 255
197 222 255
197 222 255
197 222 255
197 222 255
197 222 255
197 222 255
197 222 255
197 222 255
197 222 255
197 222 255
197 222 255
197 222 255
198 223 255
198 223 255
198 223 255
198 223 255
198 223 255
198 223 255
198 223 255
198 223 255
198 223 255
198 223 255
198 223 255
198 223 255
198 223 255
198 223 255
198 223 255
199 223 255
199 223 255
199 210 241
199 154 177
196 59 67
202 0 0
200 0 0
201 0 0
204 0 0
196 0 0
202 0 0
201 0 0
202 0 0
201 0 0
205 0 0
195 0 0
203 0 0
203 0 0
200 0 0
201 0 0
203 0 0
202 0 0
205 0 0
205 0 0
202 0 0
205 0 0
199 0 0
205 0 0
201 0 0
206 0 0
209 0 0
208 0 0
206 0 0
206 0 0
203 0 0
207 0 0
204 0 0
205 0 0
209 0 0
210 0 0
210 0 0
206 0 0
206 0 0
206 0 0
210 0 0
206 0 0
208 0 0
209 0 0
208 0 0
209 0 0
208 0 0
208 0 0
207 0 0
206 0 0
207 0 0
208 0 0
211 0 0
206 0 0
208 0 0
208 0 0
204 0 0
207 0 0
206 0 0
206 0 0
206 0 0
208 0 0
207 0 0
208 0 0
210 0 0
209 0 0
207 0 0
207 0 0
209 0 0
209 0 0
208 0 0
209 0 0
207 0 0
206 0 0
209 0 0
207 0 0
210 0 0
208 0 0
211 0 0
214 0 0
208 0 0
209 0 0
211 0 0
212 0 0
213 0 0
209 0 0
213 0 0
207 0 0
210 0 0
208 0 0
209 0 0
209 0 0
211 0 0
210 0 0
213 0 0
208 0 0
207 0 0
211 0 0
211 0 0
212 0 0
208 0 0
209 0 0
209 0 0
210 0 0
209 0 0
209 0 0
212 0 0
208 0 0
209 0 0
210 0 0
211 0 0
209 0 0
209 0 0
207 0 0
209 0 0
211 0 0
215 0 0
210 0 0
208 0 0
212 0 0
213 0 0
207 0 0
215 0 0
212 0 0
212 0 0
211 0 0
211 0 0
210 0 0
212 0 0
209 0 0
211 0 0
212 0 0
211 0 0
213 0 0
211 0 0
209 0 0
214 0 0
209 0 0
212 0 0
0 0 255
0 0 255
0 0 255
0 0 255
0 0 255
0 0 255
0 0 255
0 0 255
0 0 255
0 0 255
0 0 255
0 0 255
0 0 255
0 0 255
0 0 255
0 0 255
0 0 255
0 0 255
0 0 255
0 0 255
0 0 255
0 0 255
0 0 255
0 0 255
0 0 255
0 0 255
0 0 255
0 0 255
0 0 255
0 0 255
0 0 255
0 0 255
0 0 255
0 0 255
0 0 255
0 0 255
0 0 255
0 0 255
0 0 255
0 0 255
0 0 255
0 0 255
0 0 255
0 0 255
0 0 255
0 0 255
0 0 255
0 0 255
0 0 255
0 0 255
0 0 255
0 0 255
0 0 255
0 0 254
0 0 254
0 0 255
0 0 254
0 0 254
0 0 255
0 0 255
0 0 254
0 0 253
0 0 255
0 0 255
0 0 254
0 0 255
0 0 255
0 0 255
0 0 255
0 0 254
0 0 255
0 0 254
0 0 254
0 0 255
0 0 255
0 0 255
0 0 254
0 0 254
0 0 254
0 0 254
0 0 254
0 0 255
0 0 254
0 0 255
0 0 255
0 0 254
0 0 254
0 0 255
0 0 254
0 0 253
0 0 254
0 0 255
0 0 254
0 0 255
0 0 254
0 0 253
0 0 253
0 0 255
0 0 255
0 0 254
0 0 253
0 0 254
0 0 254
0 0 249
0 0 252
0 0 255
0 0 253
0 0 253
0 0 252
0 0 254
0 0 252
0 0 248
0 0 254
0 0 254
0 0 252
0 0 252
0 0 250
0 0 254
0 0 249
0 0 252
0 0 254
0 0 254
0 0 249
0 0 253
0 0 255
0 0 250
0 0 250
0 0 252
0 0 253
0 0 252
0 0 253
0 0 254
0 0 249
0 0 249
0 0 253
0 0 253
0 0 252
0 0 249
0 0 252
0 0 253
28 31 254
110 124 249
192 215 255
199 223 255
199 223 255
199 223 255
198 223 255
198 223 255
198 223 255
198 223 255
198 223 255
198 223 255
198 223 255
198 223 255
198 223 255
198 223 255
198 223 255
198 223 255
198 223 255
198 223 255
198 223 255
197 223 255
197 222 255
197 222 255
197 222 255
197 222 255
197 222 255
197 222 255
197 222 255
197 222 255
197 222 255
197 222 255
197 222 255
197 222 255
197 222 255
197 222 255
197 222 255
197 222 255
197 222 255
197 222 255
197 222 255
197 222 255
197 222 255
197 222 255
196 222 255
196 222 255
196 222 255
196 222 255
196 222 255
196 222 255
196 222 255
196 222 255
196 222 255
196 222 255
196 222 255
196 222 255
196 222 255
196 222 255
196 222 255
196 222 255
196 222 255
196 222 255
196 222 255
196 222 255
196 222 255
196 222 255
196 222 255
196 222 255
196 222 255
196 222 255
196 222 255
196 222 255
196 222 255
196 222 255
196 222 255
196 222 255
197 222 255
197 222 255
197 222 255
197 222 255
197 222 255
197 222 255
197 222 255
197 222 255
197 222 255
197 222 255
197 222 255
197 222 255
197 222 255
197 222 255
197 222 255
197 222 255
197 222 255
197 222 255
197 222 255
197 222 255
197 222 255
197 222 255
197 223 255
198 223 255
198 223 255
198 223 255
198 223 255
198 223 255
198 223 255
198 223 255
198 223 255
198 223 255
198 223 255
198 223 255
198 223 255
198 223 255
198 223 255
198 223 255
199 223 255
199 223 255
199 223 255
198 214 245
198 148 169
201 67 76
201 0 0
199 0 0
198 0 0
199 0 0
201 0 0
202 0 0
202 0 0
196 0 0
197 0 0
200 0 0
201 0 0
202 0 0
199 0 0
204 0 0
202 0 0
204 0 0
202 0 0
206 0 0
208 0 0
207 0 0
205 0 0
206 0 0
199 0 0
205 0 0
207 0 0
202 0 0
202 0 0
204 0 0
208 0 0
209 0 0
208 0 0
204 0 0
205 0 0
204 0 0
209 0 0
207 0 0
204 0 0
205 0 0
205 0 0
204 0 0
208 0 0
206 0 0
206 0 0
207 0 0
209 0 0
203 0 0
210 0 0
209 0 0
208 0 0
207 0 0
206 0 0
209 0 0
205 0 0
209 0 0
207 0 0
209 0 0
205 0 0
208 0 0
207 0 0
207 0 0
206 0 0
206 0 0
206 0 0
207 0 0
208 0 0
211 0 0
210 0 0
210 0 0
209 0 0
210 0 0
211 0 0
210 0 0
209 0 0
211 0 0
210 0 0
208 0 0
211 0 0
212 0 0
209 0 0
209 0 0
211 0 0
210 0 0
212 0 0
207 0 0
212 0 0
211 0 0
206 0 0
208 0 0
210 0 0
211 0 0
208 0 0
210 0 0
210 0 0
216 0 0
212 0 0
210 0 0
209 0 0
212 0 0
209 0 0
213 0 0
210 0 0
214 0 0
214 0 0
213 0 0
210 0 0
212 0 0
212 0 0
212 0 0
211 0 0
211 0 0
212 0 0
212 0 0
211 0 0
213 0 0
209 0 0
213 0 0
212 0 0
210 0 0
212 0 0
210 0 0
213 0 0
211 0 0
209 0 0
210 0 0
212 0 0
212 0 0
214 0 0
211 0 0
212 0 0
208 0 0
210 0 0
211 0 0
212 0 0
210 0 0
212 0 0
209 0 0
210 0 0
211 0 0
212 0 0
210 0 0
0 0 255
0 0 255
0 0 255
0 0 255
0 0 255
0 0 255
0 0 255
0 0 255
0 0 255
0 0 255
0 0 255
0 0 255
0 0 255
0 0 255
0 0 255
0 0 255
0 0 255
0 0 255
0 0 255
0 0 255
0 0 255
0 0 255
0 0 255
0 0 255
0 0 255
0 0 255
0 0 255
0 0 255
0 0 255
0 0 255
0 0 255
0 0 255
0 0 255
0 0 255
0 0 255
0 0 255
0 0 255
0 0 255
0 0 255
0 0 255
0 0 255
0 0 255
0 0 255
0 0 255
0 0 255
0 0 253
0 0 255
0 0 255
0 0 255
0 0 254
0 0 255
0 0 255
0 0 254
0 0 255
0 0 255
0 0 255
0 0 254
0 0 254
0 0 254
0 0 255
0 0 255
0 0 255
0 0 255
0 0 255
0 0 254
0 0 255
0 0 255
0 0 254
0 0 254
0 0 255
0 0 255
0 0 255
0 0 255
0 0 253
0 0 254
0 0 255
0 0 255
0 0 255
0 0 255
0 0 255
0 0 253
0 0 254
0 0 253
0 0 254
0 0 254
0 0 255
0 0 255
0 0 254
0 0 255
0 0 252
0 0 255
0 0 254
0 0 253
0 0 255
0 0 254
0 0 255
0 0 254
0 0 253
0 0 254
0 0 253
0 0 254
0 0 253
0 0 254
0 0 254
0 0 252
0 0 252
0 0 254
0 0 254
0 0 255
0 0 252
0 0 253
0 0 253
0 0 254
0 0 255
0 0 255
0 0 253
0 0 253
0 0 253
0 0 252
0 0 252
0 0 254
0 0 249
0 0 253
0 0 250
0 0 254
0 0 253
0 0 250
0 0 253
0 0 255
0 0 252
0 0 253
0 0 253
0 0 252
0 0 254
0 0 252
0 0 249
0 0 250
0 0 252
0 0 252
0 0 250
0 0 249
0 0 254
19 22 249
121 136 253
185 208 255
199 223 255
199 223 255
199 223 255
199 223 255
198 223 255
198 223 255
198 223 255
198 223 255
198 223 255
198 223 255
198 223 255
198 223 255
198 223 255
198 223 255
198 223 255
198 223 255
198 223 255
198 223 255
198 223 255
198 223 255
197 222 255
197 222 255
197 222 255
197 222 255
197 222 255
197 222 255
197 222 255
197 222 255
197 222 255
197 222 255
197 222 255
197 222 255
197 222 255
197 222 255
197 222 255
197 222 255
197 222 255
197 222 255
197 222 255
197 222 255
197 222 255
197 222 255
197 222 255
197 222 255
197 222 255
197 222 255
197 222 255
197 222 255
197 222 255
196 222 255
196 222 255
196 222 255
196 222 255
196 222 255
196 222 255
196 222 255
196 222 255
196 222 255
196 222 255
196 222 255
196 222 255
197 222 255
197 222 255
197 222 255
197 222 255
197 222 255
197 222 255
197 222 255
197 222 255
197 222 255
197 222 255
197 222 255
197 222 255
197 222 255
197 222 255
197 222 255
197 222 255
197 222 255
197 222 255
197 222 255
197 222 255
197 222 255
197 222 255
197 222 255
197 222 255
197 222 255
197 222 255
197 222 255
197 222 255
197 222 255
198 223 255
198 223 255
198 223 255
198 223 255
198 223 255
198 223 255
198 223 255
198 223 255
198 223 255
198 223 255
198 223 255
198 223 255
198 223 255
198 223 255
198 223 255
198 223 255
199 223 255
199 223 255
199 223 255
199 223 255
199 202 231
201 137 157
197 31 36
198 0 0
203 0 0
201 0 0
201 0 0
203 0 0
200 0 0
202 0 0
199 0 0
204 0 0
198 0 0
198 0 0
202 0 0
201 0 0
202 0 0
200 0 0
202 0 0
203 0 0
200 0 0
206 0 0
198 0 0
204 0 0
203 0 0
203 0 0
204 0 0
208 0 0
207 0 0
202 0 0
202 0 0
204 0 0
206 0 0
209 0 0
207 0 0
205 0 0
201 0 0
207 0 0
205 0 0
206 0 0
207 0 0
206 0 0
211 0 0
204 0 0
210 0 0
205 0 0
209 0 0
210 0 0
203 0 0
208 0 0
207 0 0
206 0 0
204 0 0
205 0 0
208 0 0
208 0 0
208 0 0
207 0 0
208 0 0
210 0 0
209 0 0
210 0 0
209 0 0
209 0 0
211 0 0
210 0 0
212 0 0
208 0 0
209 0 0
208 0 0
209 0 0
209 0 0
209 0 0
208 0 0
210 0 0
209 0 0
209 0 0
211 0 0
209 0 0
208 0 0
208 0 0
208 0 0
212 0 0
208 0 0
212 0 0
212 0 0
209 0 0
212 0 0
209 0 0
212 0 0
207 0 0
213 0 0
212 0 0
213 0 0
209 0 0
209 0 0
211 0 0
209 0 0
208 0 0
208 0 0
206 0 0
208 0 0
213 0 0
211 0 0
211 0 0
210 0 0
210 0 0
211 0 0
208 0 0
212 0 0
212 0 0
212 0 0
210 0 0
209 0 0
212 0 0
211 0 0
209 0 0
209 0 0
210 0 0
210 0 0
212 0 0
211 0 0
214 0 0
213 0 0
212 0 0
212 0 0
214 0 0
213 0 0
210 0 0
213 0 0
210 0 0
210 0 0
208 0 0
211 0 0
210 0 0
211 0 0
210 0 0
210 0 0
213 0 0
209 0 0
206 0 0
212 0 0
210 0 0
208 0 0
209 0 0
0 0 255
0 0 255
0 0 255
0 0 255
0 0 255
0 0 255
0 0 255
0 0 255
0 0 255
0 0 255
0 0 255
0 0 255
0 0 255
0 0 255
0 0 255
0 0 255
0 0 255
0 0 255
0 0 255
0 0 255
0 0 255
0 0 255
0 0 255
0 0 255
0 0 254
0 0 255
0 0 255
0 0 255
0 0 255
0 0 255
0 0 255
0 0 255
0 0 255
0 0 254
0 0 255
0 0 255
0 0 255
0 0 255
0 0 255
0 0 255
0 0 255
0 0 255
0 0 255
0 0 255
0 0 255
0 0 255
0 0 255
0 0 255
0 0 255
0 0 255
0 0 254
0 0 254
0 0 255
0 0 255
0 0 255
0 0 255
0 0 255
0 0 255
0 0 254
0 0 255
0 0 255
0 0 255
0 0 255
0 0 253
0 0 253
0 0 255
0 0 253
0 0 254
0 0 253
0 0 255
0 0 255
0 0 255
0 0 254
0 0 255
0 0 255
0 0 254
0 0 254
0 0 250
0 0 250
0 0 253
0 0 255
0 0 255
0 0 255
0 0 254
0 0 255
0 0 253
0 0 253
0 0 253
0 0 255
0 0 255
0 0 255
0 0 253
0 0 254
0 0 254
0 0 254
0 0 253
0 0 255
0 0 254
0 0 252
0 0 254
0 0 252
0 0 253
0 0 255
0 0 253
0 0 255
0 0 255
0 0 252
0 0 254
0 0 252
0 0 252
0 0 252
0 0 254
0 0 253
0 0 253
0 0 255
0 0 252
0 0 253
0 0 248
0 0 252
0 0 245
0 0 254
0 0 252
0 0 253
0 0 249
0 0 252
0 0 254
0 0 248
0 0 254
0 0 249
0 0 250
0 0 254
0 0 252
0 0 250
0 0 253
0 0 254
0 0 252
0 0 249
0 0 249
0 0 250
0 0 252
0 0 253
0 0 250
0 0 254
0 0 249
19 22 249
119 134 253
191 214 255
199 223 255
199 223 255
199 223 255
199 223 255
199 223 255
198 223 255
198 223 255
198 223 255
198 223 255
198 223 255
198 223 255
198 223 255
198 223 255
198 223 255
198 223 255
198 223 255
198 223 255
198 223 255
198 223 255
198 223 255
198 223 255
198 223 255
197 222 255
197 222 255
197 222 255
197 222 255
197 222 255
197 222 255
197 222 255
197 222 255
197 222 255
197 222 255
197 222 255
197 222 255
197 222 255
197 222 255
197 222 255
197 222 255
197 222 255
197 222 255
197 222 255
197 222 255
197 222 255
197 222 255
197 222 255
197 222 255
197 222 255
197 222 255
197 222 255
197 222 255
197 222 255
197 222 255
197 222 255
197 222 255
197 222 255
197 222 255
197 222 255
197 222 255
197 222 255
197 222 255
197 222 255
197 222 255
197 222 255
197 222 255
197 222 255
197 222 255
197 222 255
197 222 255
197 222 255
197 222 255
197 222 255
197 222 255
197 222 255
197 222 255
197 222 255
197 222 255
197 222 255
197 222 255
197 222 255
197 222 255
197 222 255
197 222 255
197 222 255
197 222 255
198 223 255
198 223 255
198 223 255
198 223 255
198 223 255
198 223 255
198 223 255
198 223 255
198 223 255
198 223 255
198 223 255
198 223 255
198 223 255
198 223 255
198 223 255
198 223 255
198 223 255
199 223 255
199 223 255
199 223 255
199 223 255
199 223 255
200 215 246
197 137 157
197 31 36
197 0 0
194 0 0
198 0 0
201 0 0
200 0 0
199 0 0
203 0 0
198 0 0
201 0 0
195 0 0
205 0 0
202 0 0
204 0 0
203 0 0
204 0 0
203 0 0
201 0 0
205 0 0
201 0 0
202 0 0
203 0 0
198 0 0
206 0 0
205 0 0
202 0 0
205 0 0
206 0 0
202 0 0
207 0 0
204 0 0
200 0 0
205 0 0
205 0 0
203 0 0
205 0 0
207 0 0
205 0 0
209 0 0
209 0 0
203 0 0
208 0 0
206 0 0
206 0 0
211 0 0
209 0 0
208 0 0
206 0 0
210 0 0
211 0 0
208 0 0
206 0 0
206 0 0
209 0 0
208 0 0
211 0 0
208 0 0
208 0 0
209 0 0
212 0 0
210 0 0
211 0 0
209 0 0
208 0 0
209 0 0
208 0 0
207 0 0
208 0 0
212 0 0
206 0 0
209 0 0
211 0 0
208 0 0
208 0 0
209 0 0
210 0 0
210 0 0
208 0 0
207 0 0
208 0 0
210 0 0
210 0 0
212 0 0
210 0 0
209 0 0
211 0 0
212 0 0
205 0 0
210 0 0
209 0 0
209 0 0
207 0 0
211 0 0
210 0 0
209 0 0
214 0 0
207 0 0
208 0 0
209 0 0
210 0 0
212 0 0
212 0 0
209 0 0
211 0 0
207 0 0
211 0 0
213 0 0
211 0 0
210 0 0
210 0 0
210 0 0
209 0 0
208 0 0
208 0 0
210 0 0
211 0 0
209 0 0
211 0 0
210 0 0
211 0 0
208 0 0
214 0 0
212 0 0
210 0 0
212 0 0
210 0 0
210 0 0
209 0 0
211 0 0
211 0 0
211 0 0
215 0 0
213 0 0
211 0 0
216 0 0
207 0 0
212 0 0
209 0 0
210 0 0
212 0 0
210 0 0
211 0 0
211 0 0
209 0 0
212 0 0
0 0 255
0 0 255
0 0 255
0 0 255
0 0 255
0 0 255
0 0 255
0 0 255
0 0 255
0 0 255
0 0 255
0 0 255
0 0 255
0 0 255
0 0 255
0 0 255
0 0 255
0 0 255
0 0 255
0 0 255
0 0 255
0 0 255
0 0 255
0 0 255
0 0 255
0 0 255
0 0 255
0 0 255
0 0 255
0 0 255
0 0 255
0 0 255
0 0 254
0 0 255
0 0 255
0 0 255
0 0 254
0 0 255
0 0 254
0 0 255
0 0 255
0 0 255
0 0 255
0 0 255
0 0 255
0 0 255
0 0 255
0 0 255
0 0 255
0 0 255
0 0 255
0 0 255
0 0 255
0 0 255
0 0 255
0 0 254
0 0 255
0 0 255
0 0 255
0 0 255
0 0 255
0 0 253
0 0 254
0 0 255
0 0 253
0 0 255
0 0 252
0 0 255
0 0 254
0 0 255
0 0 255
0 0 255
0 0 255
0 0 252
0 0 253
0 0 255
0 0 255
0 0 253
0 0 254
0 0 255
0 0 254
0 0 255
0 0 253
0 0 254
0 0 255
0 0 253
0 0 255
0 0 254
0 0 255
0 0 254
0 0 254
0 0 250
0 0 253
0 0 255
0 0 250
0 0 254
0 0 255
0 0 254
0 0 253
0 0 254
0 0 253
0 0 252
0 0 255
0 0 253
0 0 255
0 0 250
0 0 254
0 0 253
0 0 248
0 0 255
0 0 253
0 0 253
0 0 252
0 0 252
0 0 252
0 0 254
0 0 253
0 0 252
0 0 250
0 0 253
0 0 252
0 0 252
0 0 252
0 0 249
0 0 252
0 0 253
0 0 252
0 0 253
0 0 253
0 0 253
0 0 253
0 0 253
0 0 249
0 0 249
0 0 255
0 0 250
0 0 252
0 0 253
0 0 252
0 0 252
0 0 252
0 0 250
0 0 254
0 0 254
0 0 249
0 0 252
34 38 248
127 143 252
189 212 255
199 223 255
199 223 255
199 223 255
199 223 255
199 223 255
199 223 255
198 223 255
198 223 255
198 223 255
198 223 255
198 223 255
198 223 255
198 223 255
198 223 255
198 223 255
198 223 255
198 223 255
198 223 255
198 223 255
198 223 255
198 223 255
198 223 255
198 223 255
198 223 255
197 223 255
197 222 255
197 222 255
197 222 255
197 222 255
197 222 255
197 222 255
197 222 255
197 222 255
197 222 255
197 222 255
197 222 255
197 222 255
197 222 255
197 222 255
197 222 255
197 222 255
197 222 255
197 222 255
197 222 255
197 222 255
197 222 255
197 222 255
197 222 255
197 222 255
197 222 255
197 222 255
197 222 255
197 222 255
197 222 255
197 222 255
197 222 255
197 222 255
197 222 255
197 222 255
197 222 255
197 222 255
197 222 255
197 222 255
197 222 255
197 222 255
197 222 255
197 222 255
197 222 255
197 222 255
197 222 255
197 222 255
197 222 255
197 222 255
197 222 255
197 222 255
197 222 255
197 222 255
197 223 255
198 223 255
198 223 255
198 223 255
198 223 255
198 223 255
198 223 255
198 223 255
198 223 255
198 223 255
198 223 255
198 223 255
198 223 255
198 223 255
198 223 255
198 223 255
198 223 255
198 223 255
198 223 255
199 223 255
199 223 255
199 223 255
199 223 255
199 223 255
199 223 255
198 207 237
195 153 175
194 0 0
199 0 0
197 0 0
197 0 0
199 0 0
197 0 0
202 0 0
201 0 0
200 0 0
207 0 0
201 0 0
203 0 0
194 0 0
203 0 0
200 0 0
203 0 0
202 0 0
203 0 0
204 0 0
201 0 0
205 0 0
205 0 0
203 0 0
205 0 0
202 0 0
203 0 0
206 0 0
204 0 0
206 0 0
205 0 0
203 0 0
204 0 0
206 0 0
203 0 0
206 0 0
204 0 0
206 0 0
205 0 0
203 0 0
204 0 0
208 0 0
204 0 0
203 0 0
206 0 0
208 0 0
206 0 0
206 0 0
207 0 0
205 0 0
208 0 0
209 0 0
208 0 0
209 0 0
205 0 0
204 0 0
209 0 0
209 0 0
206 0 0
207 0 0
206 0 0
211 0 0
210 0 0
210 0 0
209 0 0
211 0 0
211 0 0
211 0 0
206 0 0
211 0 0
207 0 0
211 0 0
210 0 0
207 0 0
212 0 0
209 0 0
209 0 0
210 0 0
212 0 0
210 0 0
212 0 0
205 0 0
209 0 0
210 0 0
209 0 0
206 0 0
209 0 0
210 0 0
207 0 0
208 0 0
212 0 0
208 0 0
212 0 0
211 0 0
212 0 0
210 0 0
211 0 0
208 0 0
211 0 0
212 0 0
212 0 0
210 0 0
213 0 0
212 0 0
210 0 0
212 0 0
208 0 0
210 0 0
211 0 0
211 0 0
210 0 0
215 0 0
208 0 0
211 0 0
213 0 0
212 0 0
214 0 0
211 0 0
215 0 0
210 0 0
211 0 0
209 0 0
213 0 0
210 0 0
210 0 0
210 0 0
213 0 0
213 0 0
210 0 0
212 0 0
210 0 0
216 0 0
210 0 0
209 0 0
209 0 0
211 0 0
213 0 0
210 0 0
210 0 0
210 0 0
211 0 0
211 0 0
213 0 0
214 0 0
211 0 0
210 0 0
209 0 0
208 0 0
0 0 255
0 0 255
0 0 255
0 0 255
0 0 255
0 0 255
0 0 255
0 0 255
0 0 255
0 0 255
0 0 255
0 0 255
0 0 255
0 0 255
0 0 255
0 0 255
0 0 255
0 0 255
0 0 255
0 0 255
0 0 255
0 0 255
0 0 255
0 0 255
0 0 255
0 0 255
0 0 254
0 0 255
0 0 255
0 0 255
0 0 255
0 0 255
0 0 255
0 0 255
0 0 254
0 0 255
0 0 255
0 0 255
0 0 255
0 0 254
0 0 255
0 0 255
0 0 255
0 0 255
0 0 254
0 0 255
0 0 255
0 0 255
0 0 255
0 0 255
0 0 255
0 0 255
0 0 255
0 0 255
0 0 255
0 0 255
0 0 255
0 0 254
0 0 255
0 0 254
0 0 253
0 0 255
0 0 254
0 0 255
0 0 255
0 0 255
0 0 255
0 0 254
0 0 255
0 0 253
0 0 254
0 0 255
0 0 254
0 0 255
0 0 254
0 0 252
0 0 255
0 0 254
0 0 253
0 0 255
0 0 255
0 0 254
0 0 254
0 0 252
0 0 253
0 0 255
0 0 255
0 0 255
0 0 255
0 0 255
0 0 254
0 0 255
0 0 255
0 0 253
0 0 255
0 0 253
0 0 254
0 0 250
0 0 253
0 0 255
0 0 253
0 0 254
0 0 252
0 0 254
0 0 253
0 0 252
0 0 252
0 0 249
0 0 252
0 0 254
0 0 253
0 0 254
0 0 252
0 0 249
0 0 253
0 0 250
0 0 253
0 0 255
0 0 253
0 0 254
0 0 254
0 0 252
0 0 253
0 0 252
0 0 252
0 0 250
0 0 253
0 0 249
0 0 253
0 0 253
0 0 252
0 0 250
0 0 248
0 0 250
0 0 249
0 0 248
0 0 253
0 0 246
0 0 250
0 0 253
0 0 249
0 0 252
0 0 250
0 0 245
0 0 252
0 0 250
0 0 253
0 0 250
44 50 252
145 162 254
196 220 255
199 223 255
199 223 255
199 223 255
199 223 255
199 223 255
199 223 255
199 223 255
199 223 255
198 223 255
198 223 255
198 223 255
198 223 255
198 223 255
198 223 255
198 223 255
198 223 255
198 223 255
198 223 255
198 223 255
198 223 255
198 223 255
198 223 255
198 223 255
198 223 255
198 223 255
198 223 255
198 223 255
197 223 255
197 223 255
197 222 255
197 222 255
197 222 255
197 222 255
197 222 255
197 222 255
197 222 255
197 222 255
197 222 255
197 222 255
197 222 255
197 222 255
197 222 255
197 222 255
197 222 255
197 222 255
197 222 255
197 222 255
197 222 255
197 222 255
197 222 255
197 222 255
197 222 255
197 222 255
197 222 255
197 222 255
197 222 255
197 222 255
197 222 255
197 222 255
197 222 255
197 222 255
197 222 255
197 222 255
197 222 255
197 222 255
197 222 255
197 222 255
197 222 255
197 222 255
197 222 255
197 223 255
198 223 255
198 223 255
198 223 255
198 223 255
198 223 255
198 223 255
198 223 255
198 223 255
198 223 255
198 223 255
198 223 255
198 223 255
198 223 255
198 223 255
198 223 255
198 223 255
198 223 255
198 223 255
198 223 255
198 223 255
199 223 255
199 223 255
199 223 255
199 223 255
199 223 255
199 223 255
199 223 255
199 222 254
200 170 194
196 63 72
194 0 0
200 0 0
200 0 0
196 0 0
196 0 0
203 0 0
197 0 0
200 0 0
203 0 0
198 0 0
200 0 0
202 0 0
205 0 0
197 0 0
202 0 0
204 0 0
197 0 0
205 0 0
202 0 0
202 0 0
203 0 0
198 0 0
203 0 0
200 0 0
204 0 0
204 0 0
204 0 0
205 0 0
205 0 0
209 0 0
202 0 0
207 0 0
204 0 0
209 0 0
206 0 0
209 0 0
204 0 0
204 0 0
203 0 0
208 0 0
207 0 0
211 0 0
208 0 0
211 0 0
206 0 0
206 0 0
204 0 0
208 0 0
208 0 0
203 0 0
210 0 0
206 0 0
202 0 0
209 0 0
207 0 0
205 0 0
210 0 0
205 0 0
206 0 0
209 0 0
211 0 0
210 0 0
209 0 0
211 0 0
211 0 0
207 0 0
212 0 0
207 0 0
210 0 0
212 0 0
214 0 0
210 0 0
213 0 0
207 0 0
210 0 0
208 0 0
211 0 0
209 0 0
211 0 0
209 0 0
208 0 0
209 0 0
209 0 0
207 0 0
208 0 0
212 0 0
209 0 0
208 0 0
209 0 0
210 0 0
208 0 0
209 0 0
210 0 0
214 0 0
214 0 0
207 0 0
210 0 0
211 0 0
211 0 0
209 0 0
209 0 0
212 0 0
211 0 0
214 0 0
210 0 0
211 0 0
210 0 0
213 0 0
210 0 0
211 0 0
213 0 0
212 0 0
210 0 0
210 0 0
211 0 0
211 0 0
213 0 0
210 0 0
212 0 0
212 0 0
211 0 0
212 0 0
212 0 0
210 0 0
211 0 0
209 0 0
213 0 0
212 0 0
212 0 0
211 0 0
210 0 0
208 0 0
210 0 0
212 0 0
209 0 0
210 0 0
215 0 0
210 0 0
213 0 0
215 0 0
212 0 0
211 0 0
214 0 0
212 0 0
210 0 0
212 0 0
211 0 0
212 0 0
0 0 255
0 0 255
0 0 255
0 0 255
0 0 255
0 0 255
0 0 255
0 0 255
0 0 255
0 0 255
0 0 255
0 0 255
0 0 255
0 0 255
0 0 255
0 0 255
0 0 255
0 0 255
0 0 255
0 0 255
0 0 255
0 0 255
0 0 255
0 0 255
0 0 255
0 0 255
0 0 255
0 0 255
0 0 255
0 0 255
0 0 255
0 0 255
0 0 255
0 0 255
0 0 255
0 0 255
0 0 255
0 0 254
0 0 255
0 0 255
0 0 255
0 0 255
0 0 255
0 0 255
0 0 255
0 0 255
0 0 255
0 0 254
0 0 255
0 0 255
0 0 255
0 0 255
0 0 254
0 0 255
0 0 255
0 0 255
0 0 255
0 0 254
0 0 255
0 0 254
0 0 254
0 0 255
0 0 254
0 0 255
0 0 255
0 0 253
0 0 253
0 0 255
0 0 254
0 0 254
0 0 254
0 0 254
0 0 255
0 0 255
0 0 254
0 0 255
0 0 254
0 0 255
0 0 253
0 0 252
0 0 254
0 0 254
0 0 254
0 0 254
0 0 253
0 0 255
0 0 254
0 0 253
0 0 254
0 0 252
0 0 254
0 0 255
0 0 253
0 0 255
0 0 255
0 0 253
0 0 253
0 0 254
0 0 252
0 0 253
0 0 254
0 0 252
0 0 254
0 0 255
0 0 252
0 0 255
0 0 254
0 0 253
0 0 250
0 0 254
0 0 254
0 0 252
0 0 254
0 0 250
0 0 254
0 0 252
0 0 252
0 0 252
0 0 250
0 0 255
0 0 250
0 0 253
0 0 248
0 0 252
0 0 248
0 0 252
0 0 253
0 0 252
0 0 254
0 0 248
0 0 249
0 0 253
0 0 250
0 0 249
0 0 254
0 0 250
0 0 254
0 0 253
0 0 249
0 0 252
0 0 246
0 0 249
0 0 250
0 0 250
0 0 250
0 0 252
0 0 248
0 0 244
0 0 253
0 0 252
77 86 253
164 184 252
199 223 255
199 223 255
199 223 255
199 223 255
199 223 255
199 223 255
199 223 255
199 223 255
199 223 255
199 223 255
198 223 255
198 223 255
198 223 255
198 223 255
198 223 255
198 223 255
198 223 255
198 223 255
198 223 255
198 223 255
198 223 255
198 223 255
198 223 255
198 223 255
198 223 255
198 223 255
198 223 255
198 223 255
198 223 255
198 223 255
198 223 255
198 223 255
198 223 255
198 223 255
197 223 255
197 222 255
197 222 255
197 222 255
197 222 255
197 222 255
197 222 255
197 222 255
197 222 255
197 222 255
197 222 255
197 222 255
197 222 255
197 222 255
197 222 255
197 222 255
197 222 255
197 222 255
197 222 255
197 222 255
197 222 255
197 222 255
197 222 255
197 222 255
197 222 255
197 222 255
197 222 255
197 223 255
197 223 255
198 223 255
198 223 255
198 223 255
198 223 255
198 223 255
198 223 255
198 223 255
198 223 255
198 223 255
198 223 255
198 223 255
198 223 255
198 223 255
198 223 255
198 223 255
198 223 255
198 223 255
198 223 255
198 223 255
198 223 255
198 223 255
198 223 255
198 223 255
199 223 255
199 223 255
199 223 255
199 223 255
199 223 255
199 223 255
199 223 255
199 223 255
199 223 255
199 223 255
198 183 209
196 80 92
196 0 0
201 0 0
203 0 0
200 0 0
202 0 0
198 0 0
199 0 0
196 0 0
194 0 0
201 0 0
200 0 0
200 0 0
194 0 0
201 0 0
199 0 0
202 0 0
204 0 0
198 0 0
204 0 0
206 0 0
201 0 0
202 0 0
207 0 0
207 0 0
203 0 0
206 0 0
201 0 0
203 0 0
206 0 0
208 0 0
205 0 0
205 0 0
203 0 0
208 0 0
207 0 0
206 0 0
207 0 0
204 0 0
205 0 0
207 0 0
205 0 0
210 0 0
204 0 0
208 0 0
208 0 0
208 0 0
209 0 0
207 0 0
210 0 0
205 0 0
212 0 0
206 0 0
207 0 0
212 0 0
208 0 0
208 0 0
207 0 0
210 0 0
208 0 0
210 0 0
208 0 0
206 0 0
209 0 0
210 0 0
208 0 0
211 0 0
207 0 0
207 0 0
213 0 0
209 0 0
207 0 0
209 0 0
212 0 0
211 0 0
213 0 0
213 0 0
210 0 0
209 0 0
212 0 0
208 0 0
210 0 0
212 0 0
210 0 0
210 0 0
212 0 0
212 0 0
206 0 0
214 0 0
211 0 0
212 0 0
212 0 0
211 0 0
211 0 0
212 0 0
211 0 0
209 0 0
210 0 0
212 0 0
210 0 0
211 0 0
213 0 0
210 0 0
209 0 0
213 0 0
212 0 0
209 0 0
207 0 0
213 0 0
212 0 0
214 0 0
211 0 0
210 0 0
211 0 0
211 0 0
212 0 0
215 0 0
211 0 0
213 0 0
208 0 0
210 0 0
209 0 0
209 0 0
206 0 0
213 0 0
211 0 0
214 0 0
213 0 0
211 0 0
211 0 0
211 0 0
212 0 0
211 0 0
211 0 0
210 0 0
210 0 0
212 0 0
213 0 0
210 0 0
210 0 0
213 0 0
214 0 0
214 0 0
211 0 0
211 0 0
211 0 0
214 0 0
214 0 0
211 0 0
212 0 0
215 0 0
0 0 255
0 0 255
0 0 255
0 0 255
0 0 255
0 0 255
0 0 255
0 0 255
0 0 255
0 0 255
0 0 255
0 0 255
0 0 255
0 0 255
0 0 255
0 0 255
0 0 255
0 0 255
0 0 255
0 0 255
0 0 255
0 0 255
0 0 255
0 0 255
0 0 255
0 0 255
0 0 255
0 0 255
0 0 255
0 0 255
0 0 255
0 0 255
0 0 255
0 0 255
0 0 255
0 0 255
0 0 255
0 0 255
0 0 255
0 0 255
0 0 255
0 0 255
0 0 255
0 0 255
0 0 255
0 0 255
0 0 255
0 0 255
0 0 253
0 0 254
0 0 254
0 0 255
0 0 255
0 0 255
0 0 255
0 0 255
0 0 255
0 0 253
0 0 254
0 0 254
0 0 255
0 0 255
0 0 254
0 0 252
0 0 253
0 0 254
0 0 255
0 0 255
0 0 253
0 0 254
0 0 255
0 0 254
0 0 254
0 0 255
0 0 255
0 0 255
0 0 253
0 0 253
0 0 254
0 0 253
0 0 252
0 0 255
0 0 254
0 0 253
0 0 254
0 0 255
0 0 254
0 0 254
0 0 255
0 0 254
0 0 254
0 0 255
0 0 254
0 0 250
0 0 253
0 0 255
0 0 248
0 0 254
0 0 255
0 0 252
0 0 254
0 0 250
0 0 253
0 0 250
0 0 253
0 0 250
0 0 254
0 0 253
0 0 254
0 0 250
0 0 252
0 0 250
0 0 253
0 0 255
0 0 255
0 0 252
0 0 252
0 0 254
0 0 255
0 0 254
0 0 254
0 0 250
0 0 252
0 0 253
0 0 252
0 0 254
0 0 253
0 0 250
0 0 252
0 0 249
0 0 246
0 0 249
0 0 255
0 0 252
0 0 255
0 0 248
0 0 253
0 0 252
0 0 253
0 0 250
0 0 249
0 0 249
0 0 250
0 0 250
0 0 245
0 0 248
0 0 242
0 0 250
0 0 252
0 0 248
0 0 249
0 0 248
99 111 248
192 215 254
199 223 255
199 223 255
199 223 255
199 223 255
199 223 255
199 223 255
199 223 255
199 223 255
199 223 255
199 223 255
199 223 255
199 223 255
198 223 255
198 223 255
198 223 255
198 223 255
198 223 255
198 223 255
198 223 255
198 223 255
198 223 255
198 223 255
198 223 255
198 223 255
198 223 255
198 223 255
198 223 255
198 223 255
198 223 255
198 223 255
198 223 255
198 223 255
198 223 255
198 223 255
198 223 255
198 223 255
198 223 255
198 223 255
198 223 255
198 223 255
198 223 255
198 223 255
198 223 255
198 223 255
198 223 255
198 223 255
198 223 255
198 223 255
198 223 255
198 223 255
198 223 255
198 223 255
198 223 255
198 223 255
198 223 255
198 223 255
198 223 255
198 223 255
198 223 255
198 223 255
198 223 255
198 223 255
198 223 255
198 223 255
198 223 255
198 223 255
198 223 255
198 223 255
198 223 255
198 223 255
198 223 255
198 223 255
198 223 255
198 223 255
198 223 255
198 223 255
198 223 255
198 223 255
198 223 255
198 223 255
199 223 255
199 223 255
199 223 255
199 223 255
199 223 255
199 223 255
199 223 255
199 223 255
199 223 255
199 223 255
199 223 255
199 223 255
197 202 231
194 134 153
194 0 0
196 0 0
193 0 0
198 0 0
193 0 0
199 0 0
204 0 0
202 0 0
203 0 0
197 0 0
198 0 0
202 0 0
199 0 0
198 0 0
197 0 0
201 0 0
201 0 0
195 0 0
204 0 0
200 0 0
202 0 0
204 0 0
201 0 0
201 0 0
207 0 0
202 0 0
202 0 0
202 0 0
202 0 0
201 0 0
204 0 0
202 0 0
206 0 0
203 0 0
207 0 0
206 0 0
204 0 0
204 0 0
206 0 0
206 0 0
205 0 0
207 0 0
205 0 0
204 0 0
201 0 0
211 0 0
209 0 0
206 0 0
206 0 0
209 0 0
209 0 0
208 0 0
207 0 0
206 0 0
206 0 0
206 0 0
207 0 0
210 0 0
207 0 0
207 0 0
210 0 0
208 0 0
212 0 0
209 0 0
206 0 0
208 0 0
212 0 0
207 0 0
208 0 0
209 0 0
211 0 0
211 0 0
212 0 0
211 0 0
209 0 0
210 0 0
210 0 0
211 0 0
211 0 0
210 0 0
208 0 0
211 0 0
213 0 0
207 0 0
208 0 0
210 0 0
211 0 0
206 0 0
214 0 0
212 0 0
212 0 0
211 0 0
212 0 0
212 0 0
214 0 0
209 0 0
207 0 0
211 0 0
208 0 0
212 0 0
213 0 0
210 0 0
209 0 0
210 0 0
211 0 0
212 0 0
213 0 0
213 0 0
207 0 0
209 0 0
214 0 0
213 0 0
211 0 0
210 0 0
210 0 0
211 0 0
210 0 0
213 0 0
212 0 0
212 0 0
211 0 0
213 0 0
214 0 0
212 0 0
211 0 0
214 0 0
209 0 0
212 0 0
212 0 0
210 0 0
211 0 0
214 0 0
213 0 0
209 0 0
213 0 0
213 0 0
212 0 0
213 0 0
212 0 0
214 0 0
210 0 0
213 0 0
209 0 0
213 0 0
212 0 0
215 0 0
215 0 0
211 0 0
211 0 0
210 0 0
211 0 0
216 0 0
0 0 255
0 0 255
0 0 255
0 0 255
0 0 255
0 0 255
0 0 255
0 0 255
0 0 255
0 0 255
0 0 255
0 0 255
0 0 255
0 0 255
0 0 255
0 0 255
0 0 254
0 0 255
0 0 255
0 0 255
0 0 255
0 0 255
0 0 255
0 0 255
0 0 255
0 0 255
0 0 255
0 0 255
0 0 255
0 0 255
0 0 255
0 0 255
0 0 254
0 0 255
0 0 254
0 0 255
0 0 255
0 0 254
0 0 255
0 0 255
0 0 254
0 0 255
0 0 254
0 0 255
0 0 254
0 0 255
0 0 255
0 0 255
0 0 255
0 0 255
0 0 255
0 0 255
0 0 255
0 0 255
0 0 255
0 0 254
0 0 255
0 0 254
0 0 255
0 0 254
0 0 255
0 0 255
0 0 253
0 0 255
0 0 253
0 0 254
0 0 254
0 0 255
0 0 255
0 0 254
0 0 255
0 0 252
0 0 254
0 0 255
0 0 250
0 0 255
0 0 253
0 0 255
0 0 253
0 0 254
0 0 254
0 0 252
0 0 253
0 0 255
0 0 254
0 0 255
0 0 253
0 0 250
0 0 254
0 0 255
0 0 253
0 0 253
0 0 254
0 0 254
0 0 253
0 0 253
0 0 253
0 0 254
0 0 252
0 0 253
0 0 252
0 0 250
0 0 253
0 0 252
0 0 249
0 0 255
0 0 252
0 0 253
0 0 252
0 0 253
0 0 254
0 0 252
0 0 252
0 0 253
0 0 253
0 0 252
0 0 254
0 0 252
0 0 253
0 0 253
0 0 252
0 0 252
0 0 249
0 0 249
0 0 250
0 0 252
0 0 254
0 0 249
0 0 250
0 0 252
0 0 250
0 0 253
0 0 252
0 0 253
0 0 253
0 0 252
0 0 245
0 0 253
0 0 249
0 0 250
0 0 249
0 0 250
0 0 250
0 0 249
0 0 249
0 0 244
0 0 254
0 0 253
0 0 255
0 0 249
0 0 248
0 0 246
0 0 246
34 38 249
141 158 252
198 222 255
199 223 255
199 223 255
199 223 255
199 223 255
199 223 255
199 223 255
199 223 255
199 223 255
199 223 255
199 223 255
199 223 255
199 223 255
199 223 255
199 223 255
198 223 255
198 223 255
198 223 255
198 223 255
198 223 255
198 223 255
198 223 255
198 223 255
198 223 255
198 223 255
198 223 255
198 223 255
198 223 255
198 223 255
198 223 255
198 223 255
198 223 255
198 223 255
198 223 255
198 223 255
198 223 255
198 223 255
198 223 255
198 223 255
198 223 255
198 223 255
198 223 255
198 223 255
198 223 255
198 223 255
198 223 255
198 223 255
198 223 255
198 223 255
198 223 255
198 223 255
198 223 255
198 223 255
198 223 255
198 223 255
198 223 255
198 223 255
198 223 255
198 223 255
198 223 255
198 223 255
198 223 255
198 223 255
198 223 255
198 223 255
198 223 255
198 223 255
198 223 255
198 223 255
198 223 255
198 223 255
198 223 255
198 223 255
198 223 255
198 223 255
199 223 255
199 223 255
199 223 255
199 223 255
199 223 255
199 223 255
199 223 255
199 223 255
199 223 255
199 223 255
199 223 255
199 223 255
199 223 255
199 223 255
198 220 252
198 166 189
194 44 51
196 0 0
195 0 0
195 0 0
197 0 0
199 0 0
200 0 0
197 0 0
199 0 0
196 0 0
200 0 0
201 0 0
197 0 0
200 0 0
198 0 0
196 0 0
200 0 0
201 0 0
205 0 0
202 0 0
199 0 0
201 0 0
204 0 0
203 0 0
204 0 0
200 0 0
202 0 0
203 0 0
206 0 0
205 0 0
197 0 0
209 0 0
197 0 0
207 0 0
203 0 0
201 0 0
205 0 0
200 0 0
205 0 0
209 0 0
201 0 0
207 0 0
208 0 0
204 0 0
207 0 0
207 0 0
204 0 0
209 0 0
209 0 0
205 0 0
210 0 0
203 0 0
205 0 0
207 0 0
206 0 0
208 0 0
206 0 0
210 0 0
207 0 0
208 0 0
207 0 0
207 0 0
208 0 0
210 0 0
208 0 0
204 0 0
212 0 0
204 0 0
210 0 0
205 0 0
210 0 0
213 0 0
213 0 0
210 0 0
214 0 0
208 0 0
208 0 0
209 0 0
212 0 0
211 0 0
202 0 0
210 0 0
209 0 0
211 0 0
210 0 0
211 0 0
209 0 0
212 0 0
212 0 0
211 0 0
208 0 0
214 0 0
213 0 0
210 0 0
209 0 0
211 0 0
211 0 0
211 0 0
213 0 0
212 0 0
211 0 0
212 0 0
212 0 0
212 0 0
211 0 0
215 0 0
211 0 0
210 0 0
215 0 0
212 0 0
213 0 0
212 0 0
211 0 0
210 0 0
211 0 0
213 0 0
214 0 0
212 0 0
213 0 0
213 0 0
210 0 0
212 0 0
213 0 0
212 0 0
213 0 0
211 0 0
210 0 0
211 0 0
216 0 0
209 0 0
213 0 0
214 0 0
212 0 0
212 0 0
212 0 0
209 0 0
212 0 0
213 0 0
214 0 0
211 0 0
211 0 0
212 0 0
211 0 0
216 0 0
215 0 0
214 0 0
213 0 0
213 0 0
213 0 0
209 0 0
212 0 0
211 0 0
214 0 0
208 0 0
0 0 255
0 0 255
0 0 255
0 0 255
0 0 255
0 0 255
0 0 255
0 0 255
0 0 255
0 0 255
0 0 255
0 0 255
0 0 255
0 0 255
0 0 255
0 0 255
0 0 255
0 0 255
0 0 255
0 0 255
0 0 255
0 0 255
0 0 255
0 0 255
0 0 255
0 0 255
0 0 255
0 0 255
0 0 255
0 0 255
0 0 255
0 0 255
0 0 255
0 0 255
0 0 255
0 0 255
0 0 255
0 0 255
0 0 254
0 0 255
0 0 255
0 0 255
0 0 255
0 0 255
0 0 255
0 0 255
0 0 254
0 0 254
0 0 255
0 0 255
0 0 253
0 0 255
0 0 255
0 0 254
0 0 255
0 0 253
0 0 255
0 0 255
0 0 254
0 0 254
0 0 254
0 0 255
0 0 254
0 0 255
0 0 255
0 0 255
0 0 254
0 0 250
0 0 254
0 0 254
0 0 255
0 0 254
0 0 255
0 0 254
0 0 254
0 0 253
0 0 255
0 0 253
0 0 254
0 0 254
0 0 255
0 0 253
0 0 254
0 0 252
0 0 254
0 0 254
0 0 255
0 0 253
0 0 254
0 0 253
0 0 255
0 0 255
0 0 253
0 0 250
0 0 252
0 0 254
0 0 249
0 0 255
0 0 255
0 0 252
0 0 252
0 0 253
0 0 253
0 0 252
0 0 253
0 0 252
0 0 252
0 0 250
0 0 252
0 0 254
0 0 254
0 0 252
0 0 252
0 0 253
0 0 253
0 0 255
0 0 250
0 0 250
0 0 245
0 0 253
0 0 249
0 0 250
0 0 253
0 0 254
0 0 249
0 0 248
0 0 246
0 0 253
0 0 250
0 0 248
0 0 253
0 0 246
0 0 248
0 0 253
0 0 252
0 0 248
0 0 246
0 0 246
0 0 249
0 0 252
0 0 244
0 0 252
0 0 249
0 0 248
0 0 248
0 0 246
0 0 250
0 0 246
0 0 249
0 0 248
0 0 248
0 0 249
0 0 249
0 0 246
0 0 245
79 89 249
175 196 255
199 224 255
199 224 255
199 223 255
199 223 255
199 223 255
199 223 255
199 223 255
199 223 255
199 223 255
199 223 255
199 223 255
199 223 255
199 223 255
199 223 255
199 223 255
199 223 255
199 223 255
199 223 255
198 223 255
198 223 255
198 223 255
198 223 255
198 223 255
198 223 255
198 223 255
198 223 255
198 223 255
198 223 255
198 223 255
198 223 255
198 223 255
198 223 255
198 223 255
198 223 255
198 223 255
198 223 255
198 223 255
198 223 255
198 223 255
198 223 255
198 223 255
198 223 255
198 223 255
198 223 255
198 223 255
198 223 255
198 223 255
198 223 255
198 223 255
198 223 255
198 223 255
198 223 255
198 223 255
198 223 255
198 223 255
198 223 255
198 223 255
198 223 255
198 223 255
198 223 255
198 223 255
198 223 255
198 223 255
198 223 255
198 223 255
198 223 255
198 223 255
198 223 255
199 223 255
199 223 255
199 223 255
199 223 255
199 223 255
199 223 255
199 223 255
199 223 255
199 223 255
199 223 255
199 223 255
199 223 255
199 223 255
199 223 255
199 223 255
199 223 255
199 224 255
199 224 255
198 197 226
196 100 114
195 0 0
193 0 0
197 0 0
199 0 0
195 0 0
200 0 0
203 0 0
198 0 0
203 0 0
204 0 0
199 0 0
198 0 0
199 0 0
197 0 0
204 0 0
203 0 0
198 0 0
202 0 0
204 0 0
201 0 0
204 0 0
207 0 0
205 0 0
201 0 0
206 0 0
205 0 0
200 0 0
205 0 0
203 0 0
206 0 0
201 0 0
202 0 0
207 0 0
204 0 0
207 0 0
209 0 0
205 0 0
207 0 0
211 0 0
207 0 0
208 0 0
208 0 0
206 0 0
204 0 0
208 0 0
208 0 0
207 0 0
206 0 0
204 0 0
208 0 0
206 0 0
209 0 0
211 0 0
206 0 0
210 0 0
210 0 0
206 0 0
210 0 0
205 0 0
208 0 0
205 0 0
211 0 0
207 0 0
211 0 0
213 0 0
211 0 0
206 0 0
208 0 0
209 0 0
210 0 0
212 0 0
213 0 0
210 0 0
210 0 0
212 0 0
214 0 0
207 0 0
210 0 0
212 0 0
211 0 0
211 0 0
209 0 0
207 0 0
209 0 0
210 0 0
209 0 0
210 0 0
212 0 0
210 0 0
211 0 0
211 0 0
212 0 0
209 0 0
209 0 0
210 0 0
211 0 0
209 0 0
208 0 0
208 0 0
212 0 0
212 0 0
214 0 0
210 0 0
212 0 0
210 0 0
210 0 0
214 0 0
211 0 0
212 0 0
213 0 0
209 0 0
212 0 0
211 0 0
211 0 0
209 0 0
216 0 0
212 0 0
211 0 0
214 0 0
208 0 0
210 0 0
212 0 0
210 0 0
209 0 0
209 0 0
211 0 0
210 0 0
213 0 0
211 0 0
214 0 0
210 0 0
212 0 0
212 0 0
214 0 0
210 0 0
211 0 0
211 0 0
209 0 0
210 0 0
210 0 0
212 0 0
210 0 0
213 0 0
211 0 0
211 0 0
209 0 0
214 0 0
211 0 0
214 0 0
213 0 0
211 0 0
213 0 0
217 0 0
212 0 0
214 0 0
0 0 255
0 0 255
0 0 255
0 0 255
0 0 255
0 0 255
0 0 255
0 0 255
0 0 255
0 0 255
0 0 255
0 0 255
0 0 255
0 0 255
0 0 255
0 0 255
0 0 255
0 0 255
0 0 255
0 0 255
0 0 255
0 0 255
0 0 255
0 0 255
0 0 255
0 0 255
0 0 255
0 0 255
0 0 255
0 0 255
0 0 255
0 0 255
0 0 255
0 0 255
0 0 255
0 0 254
0 0 255
0 0 255
0 0 255
0 0 255
0 0 254
0 0 255
0 0 255
0 0 255
0 0 255
0 0 255
0 0 255
0 0 255
0 0 255
0 0 255
0 0 255
0 0 255
0 0 254
0 0 253
0 0 255
0 0 255
0 0 253
0 0 255
0 0 254
0 0 255
0 0 255
0 0 254
0 0 254
0 0 254
0 0 254
0 0 255
0 0 254
0 0 255
0 0 253
0 0 254
0 0 254
0 0 254
0 0 255
0 0 254
0 0 254
0 0 254
0 0 254
0 0 254
0 0 255
0 0 255
0 0 253
0 0 254
0 0 252
0 0 253
0 0 254
0 0 252
0 0 253
0 0 253
0 0 255
0 0 255
0 0 253
0 0 254
0 0 255
0 0 249
0 0 253
0 0 254
0 0 253
0 0 253
0 0 254
0 0 250
0 0 255
0 0 255
0 0 250
0 0 253
0 0 255
0 0 254
0 0 250
0 0 250
0 0 255
0 0 250
0 0 254
0 0 253
0 0 255
0 0 254
0 0 253
0 0 255
0 0 250
0 0 253
0 0 250
0 0 253
0 0 248
0 0 250
0 0 254
0 0 246
0 0 252
0 0 250
0 0 252
0 0 250
0 0 252
0 0 252
0 0 253
0 0 254
0 0 245
0 0 246
0 0 252
0 0 246
0 0 248
0 0 250
0 0 249
0 0 246
0 0 248
0 0 248
0 0 246
0 0 245
0 0 246
0 0 249
0 0 246
0 0 245
0 0 246
0 0 249
0 0 248
0 0 250
0 0 249
0 0 248
0 0 250
0 0 250
20 22 245
132 148 253
195 218 255
200 224 255
199 224 255
199 224 255
199 224 255
199 223 255
199 223 255
199 223 255
199 223 255
199 223 255
199 223 255
199 223 255
199 223 255
199 223 255
199 223 255
199 223 255
199 223 255
199 223 255
199 223 255
199 223 255
199 223 255
199 223 255
199 223 255
199 223 255
198 223 255
198 223 255
198 223 255
198 223 255
198 223 255
198 223 255
198 223 255
198 223 255
198 223 255
198 223 255
198 223 255
198 223 255
198 223 255
198 223 255
198 223 255
198 223 255
198 223 255
198 223 255
198 223 255
198 223 255
198 223 255
198 223 255
198 223 255
198 223 255
198 223 255
198 223 255
198 223 255
198 223 255
198 223 255
198 223 255
198 223 255
198 223 255
198 223 255
198 223 255
198 223 255
198 223 255
198 223 255
199 223 255
199 223 255
199 223 255
199 223 255
199 223 255
199 223 255
199 223 255
199 223 255
199 223 255
199 223 255
199 223 255
199 223 255
199 223 255
199 223 255
199 223 255
199 223 255
199 223 255
199 223 255
199 224 255
199 224 255
199 224 255
200 224 255
198 214 245
192 143 163
193 31 36
197 0 0
195 0 0
199 0 0
197 0 0
195 0 0
200 0 0
201 0 0
197 0 0
198 0 0
201 0 0
198 0 0
202 0 0
201 0 0
198 0 0
197 0 0
204 0 0
202 0 0
202 0 0
203 0 0
199 0 0
203 0 0
204 0 0
199 0 0
201 0 0
205 0 0
203 0 0
203 0 0
203 0 0
202 0 0
201 0 0
201 0 0
211 0 0
207 0 0
209 0 0
208 0 0
206 0 0
205 0 0
206 0 0
203 0 0
202 0 0
209 0 0
208 0 0
207 0 0
205 0 0
202 0 0
206 0 0
207 0 0
211 0 0
206 0 0
210 0 0
203 0 0
204 0 0
205 0 0
209 0 0
209 0 0
208 0 0
209 0 0
209 0 0
206 0 0
210 0 0
208 0 0
210 0 0
210 0 0
210 0 0
209 0 0
203 0 0
208 0 0
209 0 0
208 0 0
211 0 0
206 0 0
206 0 0
208 0 0
205 0 0
213 0 0
207 0 0
209 0 0
208 0 0
212 0 0
209 0 0
211 0 0
211 0 0
213 0 0
211 0 0
209 0 0
213 0 0
213 0 0
213 0 0
212 0 0
214 0 0
212 0 0
212 0 0
211 0 0
212 0 0
215 0 0
214 0 0
212 0 0
213 0 0
212 0 0
215 0 0
211 0 0
212 0 0
215 0 0
212 0 0
211 0 0
209 0 0
212 0 0
209 0 0
213 0 0
215 0 0
214 0 0
210 0 0
211 0 0
213 0 0
213 0 0
215 0 0
211 0 0
215 0 0
216 0 0
207 0 0
210 0 0
214 0 0
208 0 0
210 0 0
213 0 0
209 0 0
213 0 0
213 0 0
213 0 0
213 0 0
211 0 0
214 0 0
213 0 0
212 0 0
213 0 0
210 0 0
217 0 0
214 0 0
212 0 0
213 0 0
213 0 0
210 0 0
214 0 0
214 0 0
214 0 0
214 0 0
215 0 0
212 0 0
209 0 0
212 0 0
213 0 0
215 0 0
213 0 0
215 0 0
211 0 0
215 0 0
0 0 255
0 0 255
0 0 255
0 0 255
0 0 255
0 0 255
0 0 255
0 0 255
0 0 255
0 0 255
0 0 255
0 0 255
0 0 255
0 0 255
0 0 255
0 0 255
0 0 255
0 0 255
0 0 254
0 0 255
0 0 255
0 0 255
0 0 255
0 0 255
0 0 255
0 0 255
0 0 255
0 0 255
0 0 255
0 0 255
0 0 255
0 0 255
0 0 255
0 0 255
0 0 255
0 0 255
0 0 255
0 0 255
0 0 254
0 0 255
0 0 254
0 0 255
0 0 255
0 0 255
0 0 255
0 0 255
0 0 255
0 0 255
0 0 255
0 0 255
0 0 255
0 0 255
0 0 255
0 0 252
0 0 255
0 0 255
0 0 255
0 0 255
0 0 255
0 0 254
0 0 255
0 0 254
0 0 254
0 0 255
0 0 255
0 0 255
0 0 255
0 0 254
0 0 254
0 0 253
0 0 254
0 0 254
0 0 255
0 0 254
0 0 254
0 0 255
0 0 253
0 0 254
0 0 254
0 0 252
0 0 255
0 0 254
0 0 253
0 0 253
0 0 254
0 0 254
0 0 254
0 0 255
0 0 253
0 0 253
0 0 254
0 0 254
0 0 255
0 0 250
0 0 253
0 0 254
0 0 252
0 0 254
0 0 252
0 0 255
0 0 254
0 0 254
0 0 253
0 0 254
0 0 253
0 0 253
0 0 250
0 0 249
0 0 254
0 0 252
0 0 253
0 0 254
0 0 252
0 0 253
0 0 254
0 0 250
0 0 254
0 0 252
0 0 249
0 0 252
0 0 250
0 0 253
0 0 253
0 0 249
0 0 253
0 0 252
0 0 245
0 0 252
0 0 252
0 0 248
0 0 249
0 0 250
0 0 253
0 0 246
0 0 245
0 0 249
0 0 249
0 0 249
0 0 250
0 0 249
0 0 252
0 0 248
0 0 246
0 0 245
0 0 245
0 0 245
0 0 249
0 0 250
0 0 249
0 0 245
0 0 246
0 0 246
0 0 248
0 0 250
0 0 249
0 0 245
0 0 250
0 0 245
72 80 250
181 203 252
200 224 255
200 224 255
200 224 255
200 224 255
199 224 255
199 224 255
199 224 255
199 223 255
199 223 255
199 223 255
199 223 255
199 223 255
199 223 255
199 223 255
199 223 255
199 223 255
199 223 255
199 223 255
199 223 255
199 223 255
199 223 255
199 223 255
199 223 255
199 223 255
199 223 255
199 223 255
199 223 255
199 223 255
199 223 255
199 223 255
199 223 255
199 223 255
198 223 255
198 223 255
198 223 255
198 223 255
198 223 255
198 223 255
198 223 255
198 223 255
198 223 255
198 223 255
198 223 255
198 223 255
198 223 255
198 223 255
198 223 255
198 223 255
199 223 255
199 223 255
199 223 255
199 223 255
199 223 255
199 223 255
199 223 255
199 223 255
199 223 255
199 223 255
199 223 255
199 223 255
199 223 255
199 223 255
199 223 255
199 223 255
199 223 255
199 223 255
199 223 255
199 223 255
199 223 255
199 223 255
199 223 255
199 223 255
199 223 255
199 224 255
199 224 255
199 224 255
200 224 255
200 224 255
200 224 255
200 224 255
198 203 231
194 95 108
192 0 0
195 0 0
196 0 0
194 0 0
200 0 0
191 0 0
198 0 0
200 0 0
198 0 0
199 0 0
198 0 0
195 0 0
200 0 0
199 0 0
201 0 0
199 0 0
199 0 0
197 0 0
203 0 0
205 0 0
200 0 0
203 0 0
201 0 0
205 0 0
205 0 0
209 0 0
208 0 0
200 0 0
204 0 0
206 0 0
205 0 0
206 0 0
210 0 0
207 0 0
207 0 0
205 0 0
204 0 0
203 0 0
205 0 0
206 0 0
201 0 0
206 0 0
211 0 0
208 0 0
208 0 0
208 0 0
207 0 0
207 0 0
207 0 0
206 0 0
211 0 0
205 0 0
208 0 0
207 0 0
207 0 0
206 0 0
209 0 0
206 0 0
209 0 0
207 0 0
207 0 0
211 0 0
208 0 0
207 0 0
210 0 0
208 0 0
207 0 0
206 0 0
210 0 0
210 0 0
211 0 0
209 0 0
208 0 0
208 0 0
208 0 0
213 0 0
212 0 0
213 0 0
213 0 0
211 0 0
207 0 0
209 0 0
209 0 0
212 0 0
214 0 0
211 0 0
208 0 0
209 0 0
213 0 0
209 0 0
211 0 0
210 0 0
209 0 0
216 0 0
213 0 0
210 0 0
210 0 0
214 0 0
214 0 0
211 0 0
211 0 0
215 0 0
213 0 0
211 0 0
212 0 0
210 0 0
211 0 0
214 0 0
212 0 0
210 0 0
211 0 0
210 0 0
214 0 0
213 0 0
213 0 0
212 0 0
214 0 0
211 0 0
213 0 0
212 0 0
212 0 0
211 0 0
213 0 0
214 0 0
212 0 0
212 0 0
213 0 0
209 0 0
214 0 0
212 0 0
213 0 0
211 0 0
211 0 0
215 0 0
211 0 0
212 0 0
212 0 0
213 0 0
214 0 0
213 0 0
213 0 0
214 0 0
212 0 0
210 0 0
211 0 0
212 0 0
211 0 0
213 0 0
211 0 0
211 0 0
210 0 0
215 0 0
216 0 0
211 0 0
212 0 0
211 0 0
213 0 0
210 0 0
0 0 255
0 0 255
0 0 255
0 0 255
0 0 255
0 0 255
0 0 255
0 0 255
0 0 255
0 0 255
0 0 255
0 0 255
0 0 255
0 0 255
0 0 255
0 0 255
0 0 255
0 0 255
0 0 255
0 0 255
0 0 255
0 0 255
0 0 255
0 0 255
0 0 255
0 0 255
0 0 255
0 0 255
0 0 255
0 0 255
0 0 255
0 0 255
0 0 255
0 0 255
0 0 254
0 0 255
0 0 255
0 0 255
0 0 255
0 0 255
0 0 255
0 0 254
0 0 255
0 0 255
0 0 255
0 0 255
0 0 255
0 0 255
0 0 255
0 0 255
0 0 255
0 0 254
0 0 255
0 0 255
0 0 255
0 0 255
0 0 255
0 0 255
0 0 255
0 0 255
0 0 254
0 0 255
0 0 253
0 0 252
0 0 254
0 0 255
0 0 255
0 0 254
0 0 255
0 0 255
0 0 253
0 0 255
0 0 254
0 0 254
0 0 255
0 0 255
0 0 255
0 0 255
0 0 254
0 0 252
0 0 254
0 0 255
0 0 254
0 0 255
0 0 254
0 0 253
0 0 254
0 0 255
0 0 254
0 0 252
0 0 253
0 0 246
0 0 253
0 0 253
0 0 255
0 0 253
0 0 255
0 0 253
0 0 254
0 0 255
0 0 252
0 0 253
0 0 254
0 0 254
0 0 253
0 0 253
0 0 252
0 0 255
0 0 254
0 0 253
0 0 250
0 0 253
0 0 246
0 0 250
0 0 249
0 0 250
0 0 252
0 0 253
0 0 250
0 0 253
0 0 249
0 0 246
0 0 253
0 0 244
0 0 248
0 0 246
0 0 250
0 0 248
0 0 254
0 0 249
0 0 254
0 0 254
0 0 250
0 0 248
0 0 249
0 0 252
0 0 248
0 0 244
0 0 246
0 0 250
0 0 253
0 0 255
0 0 253
0 0 244
0 0 248
0 0 248
0 0 249
0 0 248
0 0 241
0 0 249
0 0 248
0 0 249
0 0 242
0 0 250
0 0 248
0 0 245
0 0 245
0 0 244
0 0 252
28 31 246
134 150 248
196 219 254
200 224 255
200 224 255
200 224 255
200 224 255
200 224 255
200 224 255
200 224 255
199 224 255
199 224 255
199 224 255
199 223 255
199 223 255
199 223 255
199 223 255
199 223 255
199 223 255
199 223 255
199 223 255
199 223 255
199 223 255
199 223 255
199 223 255
199 223 255
199 223 255
199 223 255
199 223 255
199 223 255
199 223 255
199 223 255
199 223 255
199 223 255
199 223 255
199 223 255
199 223 255
199 223 255
199 223 255
199 223 255
199 223 255
199 223 255
199 223 255
199 223 255
199 223 255
199 223 255
199 223 255
199 223 255
199 223 255
199 223 255
199 223 255
199 223 255
199 223 255
199 223 255
199 223 255
199 223 255
199 223 255
199 223 255
199 223 255
199 223 255
199 223 255
199 223 255
199 223 255
199 223 255
199 223 255
199 223 255
199 223 255
199 223 255
199 223 255
199 224 255
199 224 255
199 224 255
200 224 255
200 224 255
200 224 255
200 224 255
200 224 255
200 224 255
200 224 255
200 220 252
195 153 175
195 22 25
195 0 0
191 0 0
197 0 0
190 0 0
200 0 0
194 0 0
196 0 0
194 0 0
200 0 0
198 0 0
194 0 0
195 0 0
193 0 0
198 0 0
200 0 0
203 0 0
204 0 0
200 0 0
199 0 0
201 0 0
200 0 0
202 0 0
203 0 0
203 0 0
204 0 0
203 0 0
202 0 0
200 0 0
206 0 0
204 0 0
206 0 0
206 0 0
206 0 0
203 0 0
200 0 0
203 0 0
205 0 0
205 0 0
207 0 0
205 0 0
207 0 0
204 0 0
207 0 0
205 0 0
210 0 0
205 0 0
209 0 0
206 0 0
206 0 0
205 0 0
208 0 0
210 0 0
212 0 0
206 0 0
203 0 0
209 0 0
207 0 0
207 0 0
206 0 0
208 0 0
208 0 0
209 0 0
209 0 0
206 0 0
209 0 0
211 0 0
209 0 0
211 0 0
206 0 0
208 0 0
209 0 0
209 0 0
210 0 0
207 0 0
211 0 0
214 0 0
209 0 0
208 0 0
212 0 0
208 0 0
211 0 0
208 0 0
211 0 0
211 0 0
209 0 0
213 0 0
212 0 0
213 0 0
213 0 0
209 0 0
212 0 0
210 0 0
209 0 0
214 0 0
208 0 0
208 0 0
207 0 0
212 0 0
210 0 0
209 0 0
213 0 0
214 0 0
213 0 0
211 0 0
212 0 0
212 0 0
217 0 0
213 0 0
207 0 0
209 0 0
209 0 0
212 0 0
212 0 0
213 0 0
213 0 0
213 0 0
212 0 0
212 0 0
209 0 0
213 0 0
212 0 0
210 0 0
213 0 0
213 0 0
214 0 0
212 0 0
214 0 0
211 0 0
210 0 0
210 0 0
211 0 0
215 0 0
213 0 0
212 0 0
213 0 0
211 0 0
215 0 0
212 0 0
210 0 0
214 0 0
214 0 0
213 0 0
212 0 0
210 0 0
212 0 0
214 0 0
212 0 0
212 0 0
215 0 0
214 0 0
214 0 0
214 0 0
217 0 0
211 0 0
213 0 0
211 0 0
213 0 0
212 0 0
212 0 0
0 0 255
0 0 255
0 0 255
0 0 255
0 0 255
0 0 255
0 0 255
0 0 255
0 0 255
0 0 255
0 0 255
0 0 255
0 0 255
0 0 255
0 0 255
0 0 255
0 0 254
0 0 255
0 0 255
0 0 255
0 0 255
0 0 255
0 0 255
0 0 255
0 0 255
0 0 255
0 0 255
0 0 255
0 0 255
0 0 255
0 0 255
0 0 255
0 0 255
0 0 255
0 0 255
0 0 255
0 0 255
0 0 255
0 0 253
0 0 255
0 0 255
0 0 255
0 0 254
0 0 255
0 0 255
0 0 255
0 0 255
0 0 255
0 0 254
0 0 254
0 0 254
0 0 254
0 0 255
0 0 255
0 0 254
0 0 254
0 0 255
0 0 254
0 0 254
0 0 255
0 0 255
0 0 254
0 0 253
0 0 255
0 0 255
0 0 255
0 0 254
0 0 255
0 0 255
0 0 255
0 0 255
0 0 253
0 0 255
0 0 255
0 0 254
0 0 255
0 0 255
0 0 254
0 0 255
0 0 255
0 0 255
0 0 255
0 0 253
0 0 254
0 0 252
0 0 253
0 0 254
0 0 253
0 0 253
0 0 255
0 0 254
0 0 254
0 0 252
0 0 252
0 0 250
0 0 253
0 0 252
0 0 255
0 0 252
0 0 253
0 0 254
0 0 253
0 0 252
0 0 252
0 0 254
0 0 254
0 0 255
0 0 246
0 0 254
0 0 250
0 0 253
0 0 252
0 0 250
0 0 253
0 0 255
0 0 250
0 0 253
0 0 252
0 0 250
0 0 249
0 0 250
0 0 255
0 0 254
0 0 249
0 0 250
0 0 250
0 0 252
0 0 250
0 0 252
0 0 252
0 0 246
0 0 246
0 0 253
0 0 241
0 0 252
0 0 254
0 0 250
0 0 252
0 0 250
0 0 250
0 0 248
0 0 248
0 0 248
0 0 248
0 0 245
0 0 249
0 0 250
0 0 242
0 0 250
0 0 255
0 0 241
0 0 244
0 0 242
0 0 246
0 0 249
0 0 249
0 0 248
0 0 250
0 0 242
0 0 242
0 0 244
89 100 250
190 212 255
200 224 255
200 224 255
200 224 255
200 224 255
200 224 255
200 224 255
200 224 255
200 224 255
200 224 255
200 224 255
200 224 255
199 224 255
199 224 255
199 224 255
199 224 255
199 223 255
199 223 255
199 223 255
199 223 255
199 223 255
199 223 255
199 223 255
199 223 255
199 223 255
199 223 255
199 223 255
199 223 255
199 223 255
199 223 255
199 223 255
199 223 255
199 223 255
199 223 255
199 223 255
199 223 255
199 223 255
199 223 255
199 223 255
199 223 255
199 223 255
199 223 255
199 223 255
199 223 255
199 223 255
199 223 255
199 223 255
199 223 255
199 223 255
199 223 255
199 223 255
199 223 255
199 223 255
199 223 255
199 223 255
199 223 255
199 223 255
199 223 255
199 223 255
199 223 255
199 224 255
199 224 255
199 224 255
199 224 255
200 224 255
200 224 255
200 224 255
200 224 255
200 224 255
200 224 255
200 224 255
200 224 255
200 224 255
200 224 255
200 224 255
198 209 238
190 95 108
195 0 0
197 0 0
193 0 0
195 0 0
192 0 0
198 0 0
199 0 0
198 0 0
195 0 0
198 0 0
199 0 0
196 0 0
199 0 0
200 0 0
196 0 0
199 0 0
200 0 0
197 0 0
199 0 0
201 0 0
199 0 0
201 0 0
199 0 0
200 0 0
200 0 0
199 0 0
205 0 0
206 0 0
204 0 0
205 0 0
204 0 0
199 0 0
198 0 0
199 0 0
207 0 0
205 0 0
206 0 0
207 0 0
206 0 0
207 0 0
207 0 0
209 0 0
209 0 0
202 0 0
205 0 0
206 0 0
205 0 0
206 0 0
205 0 0
209 0 0
210 0 0
209 0 0
209 0 0
210 0 0
202 0 0
207 0 0
210 0 0
210 0 0
209 0 0
210 0 0
207 0 0
211 0 0
212 0 0
210 0 0
207 0 0
207 0 0
209 0 0
211 0 0
210 0 0
208 0 0
211 0 0
209 0 0
212 0 0
211 0 0
207 0 0
210 0 0
211 0 0
213 0 0
211 0 0
209 0 0
212 0 0
211 0 0
212 0 0
210 0 0
212 0 0
212 0 0
213 0 0
213 0 0
211 0 0
211 0 0
211 0 0
212 0 0
210 0 0
212 0 0
213 0 0
210 0 0
210 0 0
212 0 0
211 0 0
213 0 0
215 0 0
211 0 0
211 0 0
209 0 0
215 0 0
214 0 0
212 0 0
212 0 0
214 0 0
213 0 0
210 0 0
214 0 0
212 0 0
210 0 0
214 0 0
211 0 0
212 0 0
210 0 0
211 0 0
213 0 0
211 0 0
217 0 0
213 0 0
213 0 0
212 0 0
209 0 0
211 0 0
212 0 0
210 0 0
211 0 0
214 0 0
215 0 0
212 0 0
210 0 0
214 0 0
214 0 0
210 0 0
209 0 0
211 0 0
215 0 0
215 0 0
215 0 0
211 0 0
216 0 0
214 0 0
214 0 0
212 0 0
210 0 0
214 0 0
212 0 0
210 0 0
212 0 0
211 0 0
211 0 0
209 0 0
212 0 0
218 0 0
215 0 0
212 0 0
212 0 0
213 0 0
0 0 255
0 0 255
0 0 255
0 0 255
0 0 255
0 0 255
0 0 255
0 0 255
0 0 255
0 0 255
0 0 255
0 0 255
0 0 255
0 0 255
0 0 255
0 0 255
0 0 255
0 0 255
0 0 255
0 0 255
0 0 255
0 0 255
0 0 255
0 0 255
0 0 255
0 0 255
0 0 255
0 0 255
0 0 255
0 0 255
0 0 255
0 0 255
0 0 255
0 0 255
0 0 255
0 0 255
0 0 255
0 0 254
0 0 255
0 0 254
0 0 254
0 0 255
0 0 255
0 0 254
0 0 254
0 0 255
0 0 255
0 0 255
0 0 255
0 0 255
0 0 253
0 0 254
0 0 252
0 0 255
0 0 254
0 0 253
0 0 255
0 0 253
0 0 255
0 0 255
0 0 255
0 0 255
0 0 254
0 0 255
0 0 255
0 0 255
0 0 255
0 0 255
0 0 255
0 0 254
0 0 254
0 0 255
0 0 252
0 0 254
0 0 254
0 0 254
0 0 254
0 0 255
0 0 254
0 0 253
0 0 249
0 0 252
0 0 255
0 0 254
0 0 254
0 0 254
0 0 254
0 0 253
0 0 250
0 0 255
0 0 253
0 0 252
0 0 254
0 0 254
0 0 253
0 0 253
0 0 254
0 0 254
0 0 253
0 0 253
0 0 252
0 0 254
0 0 252
0 0 254
0 0 250
0 0 254
0 0 253
0 0 252
0 0 252
0 0 252
0 0 253
0 0 250
0 0 252
0 0 253
0 0 252
0 0 253
0 0 253
0 0 252
0 0 252
0 0 253
0 0 250
0 0 253
0 0 252
0 0 253
0 0 248
0 0 253
0 0 250
0 0 249
0 0 250
0 0 253
0 0 250
0 0 252
0 0 249
0 0 246
0 0 252
0 0 253
0 0 254
0 0 253
0 0 250
0 0 248
0 0 250
0 0 252
0 0 248
0 0 244
0 0 248
0 0 244
0 0 246
0 0 245
0 0 242
0 0 246
0 0 245
0 0 246
0 0 242
0 0 245
0 0 246
0 0 245
0 0 250
0 0 241
0 0 244
0 0 245
0 0 248
0 0 245
56 63 241
148 166 252
200 224 255
200 224 255
200 224 255
200 224 255
200 224 255
200 224 255
200 224 255
200 224 255
200 224 255
200 224 255
200 224 255
200 224 255
200 224 255
200 224 255
200 224 255
200 224 255
199 224 255
199 224 255
199 224 255
199 224 255
199 224 255
199 224 255
199 223 255
199 223 255
199 223 255
199 223 255
199 223 255
199 223 255
199 223 255
199 223 255
199 223 255
199 223 255
199 223 255
199 223 255
199 223 255
199 223 255
199 223 255
199 223 255
199 223 255
199 223 255
199 223 255
199 223 255
199 223 255
199 223 255
199 223 255
199 223 255
199 223 255
199 223 255
199 223 255
199 223 255
199 223 255
199 224 255
199 224 255
199 224 255
199 224 255
199 224 255
200 224 255
200 224 255
200 224 255
200 224 255
200 224 255
200 224 255
200 224 255
200 224 255
200 224 255
200 224 255
200 224 255
200 224 255
200 224 255
200 224 255
200 224 255
200 224 255
199 173 198
192 63 72
188 0 0
185 0 0
194 0 0
194 0 0
193 0 0
192 0 0
197 0 0
192 0 0
200 0 0
197 0 0
194 0 0
196 0 0
198 0 0
200 0 0
198 0 0
197 0 0
200 0 0
203 0 0
196 0 0
198 0 0
201 0 0
202 0 0
205 0 0
205 0 0
204 0 0
200 0 0
197 0 0
201 0 0
202 0 0
201 0 0
201 0 0
203 0 0
200 0 0
206 0 0
206 0 0
205 0 0
208 0 0
204 0 0
208 0 0
200 0 0
203 0 0
202 0 0
208 0 0
204 0 0
209 0 0
210 0 0
206 0 0
208 0 0
207 0 0
208 0 0
207 0 0
209 0 0
207 0 0
209 0 0
208 0 0
205 0 0
209 0 0
207 0 0
211 0 0
205 0 0
204 0 0
208 0 0
210 0 0
209 0 0
207 0 0
209 0 0
209 0 0
211 0 0
211 0 0
207 0 0
212 0 0
208 0 0
214 0 0
208 0 0
209 0 0
208 0 0
206 0 0
210 0 0
209 0 0
208 0 0
212 0 0
212 0 0
210 0 0
209 0 0
212 0 0
211 0 0
212 0 0
212 0 0
213 0 0
211 0 0
212 0 0
209 0 0
212 0 0
213 0 0
212 0 0
207 0 0
211 0 0
213 0 0
209 0 0
211 0 0
211 0 0
212 0 0
217 0 0
213 0 0
212 0 0
209 0 0
207 0 0
208 0 0
212 0 0
214 0 0
213 0 0
210 0 0
216 0 0
212 0 0
210 0 0
212 0 0
217 0 0
208 0 0
211 0 0
213 0 0
211 0 0
213 0 0
215 0 0
213 0 0
212 0 0
215 0 0
211 0 0
209 0 0
213 0 0
212 0 0
210 0 0
216 0 0
212 0 0
214 0 0
212 0 0
212 0 0
215 0 0
213 0 0
215 0 0
211 0 0
215 0 0
213 0 0
216 0 0
214 0 0
213 0 0
212 0 0
212 0 0
210 0 0
213 0 0
214 0 0
213 0 0
211 0 0
214 0 0
213 0 0
212 0 0
213 0 0
210 0 0
210 0 0
215 0 0
211 0 0
213 0 0
216 0 0
0 0 255
0 0 255
0 0 255
0 0 255
0 0 255
0 0 255
0 0 255
0 0 255
0 0 255
0 0 255
0 0 255
0 0 255
0 0 255
0 0 255
0 0 255
0 0 255
0 0 255
0 0 255
0 0 255
0 0 255
0 0 254
0 0 255
0 0 255
0 0 255
0 0 255
0 0 255
0 0 255
0 0 255
0 0 255
0 0 254
0 0 255
0 0 255
0 0 255
0 0 255
0 0 255
0 0 255
0 0 255
0 0 255
0 0 255
0 0 254
0 0 254
0 0 255
0 0 255
0 0 255
0 0 255
0 0 254
0 0 255
0 0 254
0 0 255
0 0 254
0 0 254
0 0 255
0 0 254
0 0 255
0 0 255
0 0 255
0 0 254
0 0 254
0 0 255
0 0 255
0 0 255
0 0 252
0 0 255
0 0 255
0 0 255
0 0 252
0 0 254
0 0 253
0 0 254
0 0 253
0 0 255
0 0 255
0 0 252
0 0 252
0 0 255
0 0 254
0 0 253
0 0 255
0 0 254
0 0 252
0 0 252
0 0 254
0 0 254
0 0 255
0 0 254
0 0 255
0 0 255
0 0 255
0 0 255
0 0 255
0 0 254
0 0 255
0 0 255
0 0 255
0 0 254
0 0 249
0 0 253
0 0 254
0 0 252
0 0 254
0 0 250
0 0 253
0 0 252
0 0 252
0 0 252
0 0 253
0 0 253
0 0 253
0 0 250
0 0 250
0 0 254
0 0 252
0 0 253
0 0 253
0 0 249
0 0 254
0 0 249
0 0 253
0 0 252
0 0 248
0 0 246
0 0 249
0 0 255
0 0 254
0 0 250
0 0 250
0 0 252
0 0 246
0 0 253
0 0 249
0 0 249
0 0 253
0 0 248
0 0 248
0 0 254
0 0 249
0 0 253
0 0 249
0 0 242
0 0 249
0 0 250
0 0 246
0 0 242
0 0 250
0 0 248
0 0 245
0 0 249
0 0 248
0 0 242
0 0 250
0 0 245
0 0 246
0 0 246
0 0 246
0 0 253
0 0 248
0 0 244
0 0 248
0 0 244
0 0 248
0 0 250
0 0 237
0 0 248
0 0 246
136 152 246
199 223 255
200 224 255
200 224 255
200 224 255
200 224 255
200 224 255
200 224 255
200 224 255
200 224 255
200 224 255
200 224 255
200 224 255
200 224 255
200 224 255
200 224 255
200 224 255
200 224 255
200 224 255
200 224 255
200 224 255
200 224 255
200 224 255
200 224 255
200 224 255
199 224 255
199 224 255
199 224 255
199 224 255
199 224 255
199 224 255
199 224 255
199 224 255
199 224 255
199 224 255
199 224 255
199 224 255
199 224 255
199 224 255
199 224 255
199 224 255
199 224 255
199 224 255
199 224 255
199 224 255
199 224 255
199 224 255
200 224 255
200 224 255
200 224 255
200 224 255
200 224 255
200 224 255
200 224 255
200 224 255
200 224 255
200 224 255
200 224 255
200 224 255
200 224 255
200 224 255
200 224 255
200 224 255
200 224 255
200 224 255
200 224 255
200 224 255
200 224 255
200 224 255
200 224 255
200 221 252
198 143 163
187 22 25
195 0 0
196 0 0
192 0 0
197 0 0
197 0 0
194 0 0
193 0 0
197 0 0
197 0 0
193 0 0
195 0 0
197 0 0
201 0 0
203 0 0
201 0 0
196 0 0
201 0 0
191 0 0
199 0 0
201 0 0
203 0 0
198 0 0
202 0 0
197 0 0
196 0 0
199 0 0
204 0 0
202 0 0
203 0 0
207 0 0
205 0 0
204 0 0
207 0 0
205 0 0
206 0 0
205 0 0
205 0 0
207 0 0
207 0 0
207 0 0
206 0 0
209 0 0
210 0 0
204 0 0
207 0 0
200 0 0
203 0 0
203 0 0
205 0 0
205 0 0
206 0 0
206 0 0
207 0 0
209 0 0
208 0 0
210 0 0
208 0 0
207 0 0
204 0 0
207 0 0
207 0 0
210 0 0
209 0 0
207 0 0
207 0 0
206 0 0
212 0 0
207 0 0
210 0 0
210 0 0
211 0 0
208 0 0
210 0 0
205 0 0
213 0 0
209 0 0
212 0 0
209 0 0
209 0 0
213 0 0
210 0 0
210 0 0
212 0 0
208 0 0
213 0 0
211 0 0
214 0 0
210 0 0
212 0 0
211 0 0
212 0 0
216 0 0
212 0 0
213 0 0
215 0 0
214 0 0
212 0 0
212 0 0
211 0 0
212 0 0
211 0 0
215 0 0
213 0 0
210 0 0
213 0 0
213 0 0
213 0 0
211 0 0
215 0 0
214 0 0
214 0 0
212 0 0
212 0 0
213 0 0
217 0 0
214 0 0
213 0 0
211 0 0
211 0 0
211 0 0
212 0 0
212 0 0
211 0 0
210 0 0
210 0 0
215 0 0
213 0 0
211 0 0
216 0 0
211 0 0
214 0 0
211 0 0
211 0 0
213 0 0
213 0 0
215 0 0
216 0 0
214 0 0
214 0 0
216 0 0
214 0 0
211 0 0
214 0 0
211 0 0
212 0 0
214 0 0
213 0 0
217 0 0
214 0 0
216 0 0
215 0 0
214 0 0
211 0 0
211 0 0
212 0 0
216 0 0
214 0 0
215 0 0
214 0 0
215 0 0
214 0 0
213 0 0
215 0 0
0 0 255
0 0 255
0 0 255
0 0 255
0 0 255
0 0 255
0 0 255
0 0 255
0 0 255
0 0 255
0 0 255
0 0 255
0 0 255
0 0 255
0 0 255
0 0 255
0 0 255
0 0 255
0 0 255
0 0 255
0 0 255
0 0 255
0 0 255
0 0 254
0 0 255
0 0 255
0 0 255
0 0 255
0 0 255
0 0 255
0 0 255
0 0 255
0 0 255
0 0 255
0 0 254
0 0 255
0 0 254
0 0 254
0 0 255
0 0 255
0 0 255
0 0 254
0 0 255
0 0 255
0 0 255
0 0 255
0 0 254
0 0 255
0 0 255
0 0 255
0 0 254
0 0 255
0 0 255
0 0 255
0 0 255
0 0 255
0 0 254
0 0 254
0 0 255
0 0 254
0 0 254
0 0 254
0 0 254
0 0 255
0 0 254
0 0 254
0 0 254
0 0 252
0 0 254
0 0 253
0 0 254
0 0 255
0 0 254
0 0 254
0 0 254
0 0 254
0 0 255
0 0 253
0 0 250
0 0 252
0 0 254
0 0 254
0 0 252
0 0 254
0 0 255
0 0 254
0 0 253
0 0 253
0 0 253
0 0 254
0 0 253
0 0 249
0 0 254
0 0 253
0 0 255
0 0 253
0 0 253
0 0 252
0 0 255
0 0 254
0 0 250
0 0 254
0 0 254
0 0 253
0 0 254
0 0 253
0 0 249
0 0 246
0 0 249
0 0 252
0 0 252
0 0 253
0 0 252
0 0 248
0 0 245
0 0 246
0 0 250
0 0 249
0 0 254
0 0 253
0 0 246
0 0 254
0 0 253
0 0 252
0 0 248
0 0 250
0 0 254
0 0 250
0 0 249
0 0 242
0 0 249
0 0 250
0 0 249
0 0 254
0 0 248
0 0 242
0 0 249
0 0 248
0 0 242
0 0 250
0 0 249
0 0 246
0 0 248
0 0 245
0 0 249
0 0 253
0 0 242
0 0 248
0 0 248
0 0 246
0 0 252
0 0 246
0 0 241
0 0 237
0 0 240
0 0 249
0 0 240
0 0 237
0 0 238
0 0 248
0 0 242
0 0 240
0 0 240
0 0 241
0 0 236
94 105 245
183 204 254
201 224 255
200 224 255
200 224 255
200 224 255
200 224 255
200 224 255
200 224 255
200 224 255
200 224 255
200 224 255
200 224 255
200 224 255
200 224 255
200 224 255
200 224 255
200 224 255
200 224 255
200 224 255
200 224 255
200 224 255
200 224 255
200 224 255
200 224 255
200 224 255
200 224 255
200 224 255
200 224 255
200 224 255
200 224 255
200 224 255
200 224 255
200 224 255
200 224 255
200 224 255
200 224 255
200 224 255
200 224 255
200 224 255
200 224 255
200 224 255
200 224 255
200 224 255
200 224 255
200 224 255
200 224 255
200 224 255
200 224 255
200 224 255
200 224 255
200 224 255
200 224 255
200 224 255
200 224 255
200 224 255
200 224 255
200 224 255
200 224 255
200 224 255
200 224 255
200 224 255
200 224 255
200 224 255
200 224 255
200 224 255
200 224 255
201 224 255
197 213 242
189 102 117
194 0 0
194 0 0
193 0 0
189 0 0
195 0 0
200 0 0
198 0 0
197 0 0
200 0 0
191 0 0
200 0 0
203 0 0
193 0 0
196 0 0
195 0 0
203 0 0
192 0 0
196 0 0
207 0 0
202 0 0
204 0 0
203 0 0
203 0 0
194 0 0
206 0 0
197 0 0
202 0 0
205 0 0
205 0 0
204 0 0
203 0 0
203 0 0
202 0 0
197 0 0
206 0 0
205 0 0
204 0 0
208 0 0
204 0 0
210 0 0
203 0 0
208 0 0
202 0 0
202 0 0
207 0 0
210 0 0
206 0 0
206 0 0
210 0 0
202 0 0
210 0 0
206 0 0
206 0 0
211 0 0
203 0 0
210 0 0
212 0 0
205 0 0
209 0 0
204 0 0
208 0 0
209 0 0
202 0 0
206 0 0
208 0 0
208 0 0
208 0 0
212 0 0
211 0 0
203 0 0
208 0 0
212 0 0
209 0 0
212 0 0
210 0 0
208 0 0
208 0 0
210 0 0
209 0 0
211 0 0
209 0 0
206 0 0
211 0 0
215 0 0
208 0 0
211 0 0
214 0 0
211 0 0
209 0 0
210 0 0
210 0 0
212 0 0
210 0 0
212 0 0
211 0 0
212 0 0
213 0 0
209 0 0
211 0 0
213 0 0
216 0 0
211 0 0
213 0 0
213 0 0
211 0 0
214 0 0
210 0 0
210 0 0
210 0 0
213 0 0
208 0 0
213 0 0
214 0 0
214 0 0
215 0 0
212 0 0
214 0 0
210 0 0
216 0 0
214 0 0
211 0 0
218 0 0
212 0 0
210 0 0
216 0 0
210 0 0
212 0 0
214 0 0
213 0 0
215 0 0
212 0 0
211 0 0
214 0 0
211 0 0
211 0 0
213 0 0
213 0 0
214 0 0
212 0 0
212 0 0
214 0 0
210 0 0
213 0 0
212 0 0
212 0 0
212 0 0
211 0 0
212 0 0
218 0 0
213 0 0
213 0 0
215 0 0
216 0 0
213 0 0
214 0 0
212 0 0
212 0 0
213 0 0
214 0 0
213 0 0
217 0 0
214 0 0
213 0 0
212 0 0
215 0 0
0 0 255
0 0 255
0 0 255
0 0 255
0 0 255
0 0 255
0 0 255
0 0 255
0 0 255
0 0 255
0 0 255
0 0 255
0 0 255
0 0 255
0 0 254
0 0 255
0 0 255
0 0 255
0 0 255
0 0 255
0 0 255
0 0 255
0 0 255
0 0 255
0 0 255
0 0 255
0 0 255
0 0 255
0 0 255
0 0 255
0 0 255
0 0 255
0 0 254
0 0 255
0 0 255
0 0 254
0 0 254
0 0 255
0 0 255
0 0 255
0 0 254
0 0 255
0 0 255
0 0 255
0 0 255
0 0 255
0 0 254
0 0 255
0 0 255
0 0 254
0 0 254
0 0 254
0 0 254
0 0 255
0 0 254
0 0 255
0 0 255
0 0 253
0 0 254
0 0 255
0 0 254
0 0 254
0 0 255
0 0 254
0 0 255
0 0 254
0 0 254
0 0 254
0 0 254
0 0 253
0 0 255
0 0 253
0 0 254
0 0 254
0 0 252
0 0 252
0 0 254
0 0 249
0 0 254
0 0 255
0 0 254
0 0 255
0 0 252
0 0 253
0 0 254
0 0 254
0 0 253
0 0 255
0 0 254
0 0 253
0 0 252
0 0 249
0 0 253
0 0 252
0 0 253
0 0 250
0 0 254
0 0 250
0 0 255
0 0 250
0 0 255
0 0 252
0 0 250
0 0 254
0 0 252
0 0 252
0 0 253
0 0 254
0 0 252
0 0 248
0 0 250
0 0 252
0 0 255
0 0 250
0 0 252
0 0 252
0 0 249
0 0 253
0 0 254
0 0 249
0 0 252
0 0 254
0 0 252
0 0 249
0 0 248
0 0 249
0 0 248
0 0 252
0 0 249
0 0 250
0 0 248
0 0 246
0 0 253
0 0 250
0 0 248
0 0 245
0 0 244
0 0 248
0 0 250
0 0 252
0 0 249
0 0 245
0 0 248
0 0 250
0 0 246
0 0 244
0 0 246
0 0 249
0 0 244
0 0 248
0 0 249
0 0 248
0 0 245
0 0 240
0 0 242
0 0 241
0 0 238
0 0 244
0 0 244
0 0 240
0 0 252
0 0 244
0 0 237
0 0 245
0 0 241
0 0 244
40 44 248
178 199 254
201 224 255
201 224 255
201 224 255
201 224 255
201 224 255
200 224 255
200 224 255
200 224 255
200 224 255
200 224 255
200 224 255
200 224 255
200 224 255
200 224 255
200 224 255
200 224 255
200 224 255
200 224 255
200 224 255
200 224 255
200 224 255
200 224 255
200 224 255
200 224 255
200 224 255
200 224 255
200 224 255
200 224 255
200 224 255
200 224 255
200 224 255
200 224 255
200 224 255
200 224 255
200 224 255
200 224 255
200 224 255
200 224 255
200 224 255
200 224 255
200 224 255
200 224 255
200 224 255
200 224 255
200 224 255
200 224 255
200 224 255
200 224 255
200 224 255
200 224 255
200 224 255
200 224 255
200 224 255
200 224 255
200 224 255
200 224 255
200 224 255
200 224 255
200 224 255
201 224 255
201 224 255
201 224 255
201 224 255
201 224 255
200 201 228
193 59 67
193 0 0
191 0 0
191 0 0
193 0 0
190 0 0
195 0 0
189 0 0
197 0 0
196 0 0
191 0 0
189 0 0
195 0 0
194 0 0
202 0 0
201 0 0
203 0 0
199 0 0
203 0 0
199 0 0
200 0 0
204 0 0
201 0 0
198 0 0
205 0 0
206 0 0
197 0 0
205 0 0
207 0 0
204 0 0
199 0 0
205 0 0
210 0 0
203 0 0
200 0 0
206 0 0
209 0 0
206 0 0
200 0 0
203 0 0
207 0 0
203 0 0
209 0 0
207 0 0
208 0 0
204 0 0
205 0 0
202 0 0
208 0 0
206 0 0
208 0 0
212 0 0
207 0 0
209 0 0
211 0 0
202 0 0
210 0 0
207 0 0
209 0 0
206 0 0
203 0 0
210 0 0
204 0 0
205 0 0
212 0 0
207 0 0
212 0 0
212 0 0
210 0 0
212 0 0
215 0 0
206 0 0
203 0 0
209 0 0
210 0 0
214 0 0
207 0 0
212 0 0
211 0 0
213 0 0
210 0 0
214 0 0
208 0 0
211 0 0
211 0 0
209 0 0
209 0 0
210 0 0
212 0 0
209 0 0
215 0 0
211 0 0
207 0 0
209 0 0
211 0 0
212 0 0
209 0 0
212 0 0
212 0 0
207 0 0
211 0 0
212 0 0
211 0 0
214 0 0
212 0 0
214 0 0
214 0 0
213 0 0
211 0 0
213 0 0
212 0 0
213 0 0
210 0 0
212 0 0
213 0 0
212 0 0
214 0 0
213 0 0
211 0 0
211 0 0
214 0 0
212 0 0
211 0 0
213 0 0
214 0 0
210 0 0
215 0 0
212 0 0
213 0 0
211 0 0
212 0 0
217 0 0
211 0 0
215 0 0
210 0 0
213 0 0
217 0 0
216 0 0
208 0 0
209 0 0
215 0 0
215 0 0
212 0 0
212 0 0
220 0 0
212 0 0
211 0 0
213 0 0
213 0 0
211 0 0
216 0 0
215 0 0
214 0 0
211 0 0
207 0 0
213 0 0
214 0 0
215 0 0
216 0 0
216 0 0
214 0 0
216 0 0
215 0 0
213 0 0
210 0 0
216 0 0
216 0 0
0 0 255
0 0 255
0 0 255
0 0 255
0 0 255
0 0 255
0 0 255
0 0 255
0 0 255
0 0 255
0 0 254
0 0 255
0 0 255
0 0 255
0 0 255
0 0 255
0 0 254
0 0 255
0 0 255
0 0 255
0 0 255
0 0 255
0 0 255
0 0 255
0 0 255
0 0 255
0 0 255
0 0 255
0 0 253
0 0 255
0 0 255
0 0 255
0 0 255
0 0 255
0 0 254
0 0 255
0 0 255
0 0 254
0 0 253
0 0 255
0 0 255
0 0 254
0 0 255
0 0 255
0 0 255
0 0 255
0 0 254
0 0 255
0 0 255
0 0 255
0 0 255
0 0 254
0 0 255
0 0 254
0 0 253
0 0 253
0 0 255
0 0 255
0 0 255
0 0 252
0 0 254
0 0 255
0 0 255
0 0 254
0 0 255
0 0 254
0 0 253
0 0 255
0 0 254
0 0 255
0 0 254
0 0 255
0 0 255
0 0 255
0 0 253
0 0 254
0 0 255
0 0 254
0 0 255
0 0 254
0 0 255
0 0 255
0 0 253
0 0 255
0 0 255
0 0 254
0 0 250
0 0 254
0 0 254
0 0 255
0 0 249
0 0 252
0 0 254
0 0 254
0 0 253
0 0 250
0 0 249
0 0 255
0 0 253
0 0 252
0 0 254
0 0 253
0 0 252
0 0 252
0 0 253
0 0 252
0 0 248
0 0 249
0 0 250
0 0 253
0 0 252
0 0 254
0 0 253
0 0 253
0 0 252
0 0 254
0 0 254
0 0 252
0 0 254
0 0 249
0 0 248
0 0 253
0 0 253
0 0 250
0 0 249
0 0 248
0 0 252
0 0 250
0 0 248
0 0 248
0 0 250
0 0 252
0 0 246
0 0 249
0 0 242
0 0 253
0 0 248
0 0 249
0 0 248
0 0 248
0 0 253
0 0 249
0 0 240
0 0 248
0 0 248
0 0 248
0 0 242
0 0 246
0 0 246
0 0 248
0 0 238
0 0 242
0 0 244
0 0 248
0 0 241
0 0 246
0 0 245
0 0 236
0 0 238
0 0 245
0 0 242
0 0 228
0 0 244
0 0 241
0 0 240
0 0 241
0 0 242
45 50 248
161 179 249
201 224 255
201 224 255
201 224 255
201 224 255
201 224 255
201 224 255
201 224 255
201 224 255
201 224 255
201 224 255
201 224 255
200 224 255
200 224 255
200 224 255
200 224 255
200 224 255
200 224 255
200 224 255
200 224 255
200 224 255
200 224 255
200 224 255
200 224 255
200 224 255
200 224 255
200 224 255
200 224 255
200 224 255
200 224 255
200 224 255
200 224 255
200 224 255
200 224 255
200 224 255
200 224 255
200 224 255
200 224 255
200 224 255
200 224 255
200 224 255
200 224 255
200 224 255
200 224 255
200 224 255
200 224 255
200 224 255
200 224 255
200 224 255
200 224 255
200 224 255
200 224 255
201 224 255
201 224 255
201 224 255
201 224 255
201 224 255
201 224 255
201 224 255
201 224 255
201 224 255
201 224 255
201 224 255
195 181 206
191 50 57
191 0 0
192 0 0
197 0 0
194 0 0
187 0 0
190 0 0
190 0 0
197 0 0
197 0 0
197 0 0
198 0 0
200 0 0
188 0 0
193 0 0
199 0 0
194 0 0
198 0 0
194 0 0
198 0 0
201 0 0
201 0 0
200 0 0
197 0 0
201 0 0
205 0 0
198 0 0
203 0 0
206 0 0
201 0 0
206 0 0
207 0 0
198 0 0
204 0 0
201 0 0
207 0 0
206 0 0
201 0 0
199 0 0
207 0 0
209 0 0
204 0 0
207 0 0
207 0 0
208 0 0
208 0 0
207 0 0
205 0 0
208 0 0
207 0 0
207 0 0
206 0 0
209 0 0
208 0 0
212 0 0
211 0 0
207 0 0
208 0 0
210 0 0
206 0 0
214 0 0
210 0 0
208 0 0
206 0 0
208 0 0
210 0 0
210 0 0
210 0 0
211 0 0
214 0 0
208 0 0
210 0 0
210 0 0
211 0 0
212 0 0
211 0 0
210 0 0
213 0 0
211 0 0
211 0 0
214 0 0
211 0 0
206 0 0
208 0 0
210 0 0
210 0 0
213 0 0
207 0 0
214 0 0
207 0 0
212 0 0
209 0 0
216 0 0
210 0 0
215 0 0
214 0 0
211 0 0
214 0 0
214 0 0
212 0 0
213 0 0
210 0 0
214 0 0
211 0 0
211 0 0
214 0 0
210 0 0
211 0 0
213 0 0
213 0 0
212 0 0
212 0 0
215 0 0
212 0 0
213 0 0
214 0 0
213 0 0
215 0 0
212 0 0
212 0 0
209 0 0
214 0 0
215 0 0
217 0 0
214 0 0
211 0 0
214 0 0
211 0 0
212 0 0
212 0 0
215 0 0
214 0 0
214 0 0
217 0 0
214 0 0
213 0 0
211 0 0
214 0 0
214 0 0
217 0 0
212 0 0
216 0 0
214 0 0
212 0 0
212 0 0
217 0 0
211 0 0
215 0 0
214 0 0
215 0 0
213 0 0
211 0 0
209 0 0
209 0 0
214 0 0
216 0 0
209 0 0
211 0 0
214 0 0
214 0 0
214 0 0
215 0 0
215 0 0
213 0 0
215 0 0
209 0 0
212 0 0
212 0 0
0 0 255
0 0 255
0 0 255
0 0 254
0 0 255
0 0 255
0 0 255
0 0 255
0 0 255
0 0 255
0 0 255
0 0 255
0 0 255
0 0 255
0 0 255
0 0 255
0 0 255
0 0 254
0 0 255
0 0 255
0 0 255
0 0 255
0 0 255
0 0 255
0 0 255
0 0 255
0 0 255
0 0 255
0 0 255
0 0 254
0 0 255
0 0 254
0 0 254
0 0 255
0 0 254
0 0 255
0 0 254
0 0 255
0 0 255
0 0 255
0 0 255
0 0 255
0 0 254
0 0 254
0 0 255
0 0 254
0 0 254
0 0 254
0 0 254
0 0 254
0 0 255
0 0 255
0 0 255
0 0 255
0 0 255
0 0 255
0 0 255
0 0 255
0 0 255
0 0 252
0 0 254
0 0 254
0 0 254
0 0 254
0 0 255
0 0 254
0 0 255
0 0 255
0 0 254
0 0 254
0 0 255
0 0 254
0 0 253
0 0 254
0 0 253
0 0 253
0 0 252
0 0 254
0 0 252
0 0 254
0 0 254
0 0 254
0 0 253
0 0 254
0 0 254
0 0 254
0 0 250
0 0 254
0 0 253
0 0 254
0 0 254
0 0 253
0 0 250
0 0 253
0 0 253
0 0 253
0 0 255
0 0 250
0 0 255
0 0 252
0 0 250
0 0 250
0 0 254
0 0 250
0 0 253
0 0 254
0 0 250
0 0 254
0 0 255
0 0 254
0 0 255
0 0 253
0 0 254
0 0 248
0 0 253
0 0 250
0 0 252
0 0 253
0 0 254
0 0 254
0 0 250
0 0 252
0 0 249
0 0 250
0 0 245
0 0 249
0 0 254
0 0 246
0 0 250
0 0 245
0 0 253
0 0 252
0 0 249
0 0 248
0 0 250
0 0 252
0 0 249
0 0 250
0 0 250
0 0 249
0 0 249
0 0 249
0 0 250
0 0 249
0 0 249
0 0 246
0 0 250
0 0 244
0 0 249
0 0 249
0 0 242
0 0 249
0 0 252
0 0 246
0 0 244
0 0 246
0 0 237
0 0 241
0 0 248
0 0 238
0 0 250
0 0 242
0 0 245
0 0 246
0 0 245
0 0 250
0 0 238
0 0 240
0 0 238
143 160 248
200 223 255
201 224 255
201 224 255
201 224 255
201 224 255
201 224 255
201 224 255
201 224 255
201 224 255
201 224 255
201 224 255
201 224 255
201 224 255
201 224 255
201 224 255
201 224 255
201 224 255
201 224 255
201 224 255
200 224 255
200 224 255
200 224 255
200 224 255
200 224 255
200 224 255
200 224 255
200 224 255
200 224 255
200 224 255
200 224 255
200 224 255
200 224 255
200 224 255
200 224 255
200 224 255
200 224 255
200 224 255
200 224 255
200 224 255
200 224 255
200 224 255
201 224 255
201 224 255
201 224 255
201 224 255
201 224 255
201 224 255
201 224 255
201 224 255
201 224 255
201 224 255
201 224 255
201 224 255
201 224 255
201 224 255
201 224 255
201 224 255
201 224 255
201 224 255
201 222 253
195 155 177
194 0 0
192 0 0
190 0 0
188 0 0
192 0 0
194 0 0
195 0 0
197 0 0
193 0 0
199 0 0
199 0 0
194 0 0
194 0 0
195 0 0
195 0 0
196 0 0
199 0 0
194 0 0
199 0 0
198 0 0
200 0 0
199 0 0
204 0 0
199 0 0
203 0 0
199 0 0
201 0 0
197 0 0
203 0 0
201 0 0
198 0 0
199 0 0
199 0 0
208 0 0
206 0 0
204 0 0
201 0 0
205 0 0
207 0 0
204 0 0
202 0 0
205 0 0
208 0 0
206 0 0
205 0 0
207 0 0
206 0 0
212 0 0
208 0 0
206 0 0
210 0 0
208 0 0
210 0 0
209 0 0
211 0 0
207 0 0
209 0 0
211 0 0
206 0 0
208 0 0
207 0 0
211 0 0
214 0 0
206 0 0
205 0 0
207 0 0
210 0 0
205 0 0
212 0 0
210 0 0
207 0 0
207 0 0
210 0 0
211 0 0
213 0 0
214 0 0
208 0 0
207 0 0
207 0 0
210 0 0
206 0 0
214 0 0
209 0 0
215 0 0
210 0 0
212 0 0
210 0 0
211 0 0
215 0 0
211 0 0
209 0 0
205 0 0
211 0 0
212 0 0
207 0 0
216 0 0
212 0 0
207 0 0
216 0 0
215 0 0
213 0 0
215 0 0
211 0 0
210 0 0
213 0 0
213 0 0
212 0 0
212 0 0
211 0 0
214 0 0
212 0 0
213 0 0
215 0 0
214 0 0
213 0 0
213 0 0
211 0 0
211 0 0
213 0 0
220 0 0
215 0 0
211 0 0
212 0 0
216 0 0
210 0 0
212 0 0
215 0 0
217 0 0
215 0 0
215 0 0
215 0 0
212 0 0
215 0 0
212 0 0
215 0 0
212 0 0
213 0 0
215 0 0
214 0 0
210 0 0
213 0 0
213 0 0
216 0 0
214 0 0
213 0 0
213 0 0
210 0 0
211 0 0
216 0 0
214 0 0
215 0 0
212 0 0
212 0 0
212 0 0
211 0 0
215 0 0
217 0 0
213 0 0
214 0 0
212 0 0
216 0 0
213 0 0
214 0 0
213 0 0
216 0 0
217 0 0
213 0 0
215 0 0
212 0 0
0 0 255
0 0 255
0 0 255
0 0 255
0 0 255
0 0 255
0 0 255
0 0 255
0 0 255
0 0 255
0 0 255
0 0 255
0 0 255
0 0 255
0 0 255
0 0 255
0 0 255
0 0 255
0 0 255
0 0 255
0 0 254
0 0 255
0 0 255
0 0 255
0 0 255
0 0 255
0 0 255
0 0 255
0 0 255
0 0 255
0 0 255
0 0 254
0 0 255
0 0 253
0 0 255
0 0 255
0 0 255
0 0 255
0 0 254
0 0 255
0 0 255
0 0 255
0 0 254
0 0 255
0 0 254
0 0 254
0 0 254
0 0 254
0 0 254
0 0 255
0 0 254
0 0 255
0 0 254
0 0 254
0 0 255
0 0 254
0 0 255
0 0 254
0 0 255
0 0 254
0 0 255
0 0 254
0 0 255
0 0 254
0 0 254
0 0 255
0 0 253
0 0 254
0 0 255
0 0 254
0 0 255
0 0 253
0 0 253
0 0 253
0 0 255
0 0 254
0 0 252
0 0 255
0 0 255
0 0 255
0 0 254
0 0 253
0 0 253
0 0 255
0 0 254
0 0 253
0 0 254
0 0 252
0 0 254
0 0 253
0 0 253
0 0 253
0 0 250
0 0 253
0 0 253
0 0 253
0 0 246
0 0 253
0 0 253
0 0 250
0 0 252
0 0 252
0 0 253
0 0 252
0 0 250
0 0 252
0 0 252
0 0 253
0 0 254
0 0 249
0 0 254
0 0 253
0 0 250
0 0 254
0 0 250
0 0 254
0 0 249
0 0 253
0 0 249
0 0 253
0 0 248
0 0 249
0 0 254
0 0 254
0 0 244
0 0 252
0 0 248
0 0 250
0 0 252
0 0 250
0 0 246
0 0 246
0 0 245
0 0 249
0 0 249
0 0 250
0 0 248
0 0 248
0 0 249
0 0 245
0 0 244
0 0 245
0 0 245
0 0 248
0 0 250
0 0 244
0 0 250
0 0 248
0 0 249
0 0 231
0 0 240
0 0 245
0 0 244
0 0 249
0 0 241
0 0 240
0 0 244
0 0 245
0 0 245
0 0 237
0 0 244
0 0 246
0 0 248
0 0 238
0 0 242
0 0 244
0 0 233
0 0 242
0 0 249
0 0 237
121 135 245
201 225 255
201 225 255
201 225 255
201 225 255
201 224 255
201 224 255
201 224 255
201 224 255
201 224 255
201 224 255
201 224 255
201 224 255
201 224 255
201 224 255
201 224 255
201 224 255
201 224 255
201 224 255
201 224 255
201 224 255
201 224 255
201 224 255
201 224 255
201 224 255
201 224 255
201 224 255
201 224 255
201 224 255
201 224 255
201 224 255
201 224 255
201 224 255
201 224 255
201 224 255
201 224 255
201 224 255
201 224 255
201 224 255
201 224 255
201 224 255
201 224 255
201 224 255
201 224 255
201 224 255
201 224 255
201 224 255
201 224 255
201 224 255
201 224 255
201 224 255
201 224 255
201 224 255
201 224 255
201 224 255
201 225 255
201 225 255
201 225 255
201 222 253
192 133 151
187 0 0
189 0 0
188 0 0
192 0 0
193 0 0
198 0 0
194 0 0
195 0 0
194 0 0
204 0 0
197 0 0
196 0 0
188 0 0
193 0 0
197 0 0
203 0 0
196 0 0
194 0 0
198 0 0
201 0 0
199 0 0
200 0 0
200 0 0
198 0 0
202 0 0
205 0 0
208 0 0
207 0 0
198 0 0
205 0 0
202 0 0
198 0 0
204 0 0
208 0 0
205 0 0
204 0 0
201 0 0
200 0 0
207 0 0
201 0 0
207 0 0
204 0 0
202 0 0
209 0 0
204 0 0
203 0 0
204 0 0
208 0 0
200 0 0
208 0 0
207 0 0
205 0 0
209 0 0
208 0 0
204 0 0
204 0 0
208 0 0
206 0 0
206 0 0
210 0 0
206 0 0
208 0 0
211 0 0
206 0 0
209 0 0
212 0 0
208 0 0
208 0 0
211 0 0
209 0 0
212 0 0
210 0 0
212 0 0
211 0 0
209 0 0
211 0 0
213 0 0
213 0 0
209 0 0
210 0 0
210 0 0
213 0 0
210 0 0
210 0 0
213 0 0
209 0 0
214 0 0
213 0 0
211 0 0
215 0 0
213 0 0
215 0 0
209 0 0
211 0 0
212 0 0
213 0 0
212 0 0
214 0 0
210 0 0
211 0 0
209 0 0
210 0 0
214 0 0
213 0 0
214 0 0
214 0 0
215 0 0
211 0 0
211 0 0
208 0 0
217 0 0
210 0 0
212 0 0
213 0 0
214 0 0
213 0 0
210 0 0
214 0 0
208 0 0
210 0 0
214 0 0
213 0 0
214 0 0
216 0 0
212 0 0
213 0 0
217 0 0
213 0 0
212 0 0
214 0 0
210 0 0
213 0 0
212 0 0
212 0 0
214 0 0
210 0 0
214 0 0
213 0 0
215 0 0
213 0 0
209 0 0
216 0 0
215 0 0
212 0 0
214 0 0
215 0 0
213 0 0
212 0 0
216 0 0
214 0 0
211 0 0
213 0 0
215 0 0
213 0 0
213 0 0
212 0 0
213 0 0
212 0 0
213 0 0
213 0 0
213 0 0
215 0 0
212 0 0
212 0 0
214 0 0
214 0 0
212 0 0
212 0 0
214 0 0
215 0 0
0 0 255
0 0 255
0 0 255
0 0 255
0 0 255
0 0 255
0 0 255
0 0 255
0 0 255
0 0 255
0 0 254
0 0 255
0 0 255
0 0 255
0 0 255
0 0 255
0 0 255
0 0 255
0 0 255
0 0 255
0 0 255
0 0 255
0 0 255
0 0 255
0 0 255
0 0 255
0 0 255
0 0 255
0 0 255
0 0 254
0 0 255
0 0 255
0 0 255
0 0 255
0 0 255
0 0 255
0 0 254
0 0 255
0 0 254
0 0 255
0 0 255
0 0 254
0 0 255
0 0 255
0 0 255
0 0 255
0 0 255
0 0 254
0 0 254
0 0 255
0 0 255
0 0 255
0 0 255
0 0 255
0 0 255
0 0 255
0 0 255
0 0 255
0 0 250
0 0 255
0 0 255
0 0 254
0 0 254
0 0 255
0 0 254
0 0 253
0 0 254
0 0 254
0 0 254
0 0 255
0 0 255
0 0 252
0 0 252
0 0 255
0 0 254
0 0 255
0 0 253
0 0 253
0 0 255
0 0 254
0 0 255
0 0 254
0 0 253
0 0 253
0 0 253
0 0 254
0 0 254
0 0 249
0 0 255
0 0 253
0 0 253
0 0 253
0 0 254
0 0 254
0 0 255
0 0 254
0 0 253
0 0 253
0 0 253
0 0 252
0 0 254
0 0 255
0 0 253
0 0 255
0 0 252
0 0 254
0 0 253
0 0 250
0 0 253
0 0 253
0 0 253
0 0 252
0 0 254
0 0 253
0 0 246
0 0 255
0 0 253
0 0 248
0 0 252
0 0 252
0 0 250
0 0 252
0 0 249
0 0 252
0 0 249
0 0 248
0 0 249
0 0 249
0 0 248
0 0 249
0 0 248
0 0 248
0 0 250
0 0 250
0 0 246
0 0 248
0 0 246
0 0 252
0 0 245
0 0 250
0 0 249
0 0 252
0 0 246
0 0 245
0 0 244
0 0 248
0 0 246
0 0 246
0 0 248
0 0 245
0 0 242
0 0 245
0 0 248
0 0 240
0 0 241
0 0 241
0 0 248
0 0 240
0 0 241
0 0 245
0 0 241
0 0 238
0 0 237
0 0 245
0 0 234
0 0 242
0 0 241
0 0 241
0 0 236
0 0 238
0 0 237
98 110 238
195 218 255
202 225 255
201 225 255
201 225 255
201 225 255
201 225 255
201 225 255
201 225 255
201 225 255
201 225 255
201 224 255
201 224 255
201 224 255
201 224 255
201 224 255
201 224 255
201 224 255
201 224 255
201 224 255
201 224 255
201 224 255
201 224 255
201 224 255
201 224 255
201 224 255
201 224 255
201 224 255
201 224 255
201 224 255
201 224 255
201 224 255
201 224 255
201 224 255
201 224 255
201 224 255
201 224 255
201 224 255
201 224 255
201 224 255
201 224 255
201 224 255
201 224 255
201 224 255
201 224 255
201 224 255
201 224 255
201 225 255
201 225 255
201 225 255
201 225 255
201 225 255
201 225 255
201 225 255
201 225 255
202 225 255
200 217 246
184 112 128
187 0 0
190 0 0
195 0 0
195 0 0
188 0 0
192 0 0
190 0 0
194 0 0
190 0 0
200 0 0
194 0 0
197 0 0
192 0 0
195 0 0
202 0 0
198 0 0
199 0 0
199 0 0
201 0 0
200 0 0
202 0 0
200 0 0
197 0 0
198 0 0
203 0 0
198 0 0
196 0 0
205 0 0
204 0 0
203 0 0
205 0 0
200 0 0
205 0 0
204 0 0
197 0 0
204 0 0
200 0 0
208 0 0
205 0 0
207 0 0
202 0 0
211 0 0
204 0 0
205 0 0
207 0 0
207 0 0
204 0 0
206 0 0
202 0 0
211 0 0
210 0 0
209 0 0
203 0 0
208 0 0
207 0 0
209 0 0
212 0 0
207 0 0
209 0 0
204 0 0
208 0 0
208 0 0
205 0 0
212 0 0
207 0 0
210 0 0
206 0 0
213 0 0
214 0 0
211 0 0
210 0 0
210 0 0
209 0 0
209 0 0
211 0 0
213 0 0
209 0 0
213 0 0
211 0 0
211 0 0
210 0 0
209 0 0
214 0 0
214 0 0
211 0 0
212 0 0
211 0 0
213 0 0
212 0 0
210 0 0
211 0 0
213 0 0
212 0 0
207 0 0
213 0 0
214 0 0
209 0 0
214 0 0
212 0 0
212 0 0
215 0 0
213 0 0
213 0 0
210 0 0
213 0 0
208 0 0
207 0 0
212 0 0
215 0 0
212 0 0
211 0 0
214 0 0
211 0 0
212 0 0
211 0 0
211 0 0
213 0 0
213 0 0
210 0 0
213 0 0
213 0 0
216 0 0
215 0 0
215 0 0
216 0 0
216 0 0
210 0 0
215 0 0
213 0 0
217 0 0
212 0 0
211 0 0
214 0 0
211 0 0
213 0 0
216 0 0
217 0 0
212 0 0
216 0 0
212 0 0
218 0 0
212 0 0
213 0 0
211 0 0
213 0 0
213 0 0
212 0 0
218 0 0
213 0 0
215 0 0
212 0 0
210 0 0
212 0 0
216 0 0
213 0 0
216 0 0
214 0 0
216 0 0
215 0 0
216 0 0
217 0 0
213 0 0
212 0 0
214 0 0
214 0 0
214 0 0
214 0 0
216 0 0
218 0 0
214 0 0
210 0 0
0 0 255
0 0 255
0 0 255
0 0 255
0 0 255
0 0 255
0 0 255
0 0 255
0 0 255
0 0 255
0 0 255
0 0 255
0 0 255
0 0 255
0 0 255
0 0 255
0 0 255
0 0 255
0 0 255
0 0 255
0 0 255
0 0 255
0 0 255
0 0 255
0 0 255
0 0 255
0 0 255
0 0 255
0 0 255
0 0 255
0 0 255
0 0 255
0 0 255
0 0 255
0 0 255
0 0 255
0 0 254
0 0 255
0 0 255
0 0 254
0 0 255
0 0 254
0 0 254
0 0 254
0 0 255
0 0 253
0 0 254
0 0 255
0 0 254
0 0 255
0 0 254
0 0 255
0 0 255
0 0 254
0 0 255
0 0 254
0 0 253
0 0 254
0 0 255
0 0 254
0 0 254
0 0 253
0 0 254
0 0 254
0 0 253
0 0 255
0 0 255
0 0 255
0 0 252
0 0 253
0 0 255
0 0 255
0 0 252
0 0 255
0 0 255
0 0 253
0 0 255
0 0 254
0 0 254
0 0 254
0 0 253
0 0 254
0 0 253
0 0 250
0 0 253
0 0 253
0 0 254
0 0 255
0 0 255
0 0 255
0 0 255
0 0 255
0 0 249
0 0 252
0 0 254
0 0 250
0 0 245
0 0 255
0 0 249
0 0 254
0 0 253
0 0 250
0 0 254
0 0 250
0 0 254
0 0 253
0 0 252
0 0 252
0 0 250
0 0 250
0 0 254
0 0 252
0 0 250
0 0 249
0 0 250
0 0 252
0 0 250
0 0 252
0 0 252
0 0 250
0 0 250
0 0 249
0 0 249
0 0 248
0 0 249
0 0 250
0 0 252
0 0 250
0 0 250
0 0 250
0 0 252
0 0 246
0 0 249
0 0 245
0 0 253
0 0 250
0 0 244
0 0 248
0 0 249
0 0 248
0 0 246
0 0 250
0 0 255
0 0 252
0 0 249
0 0 248
0 0 244
0 0 244
0 0 248
0 0 241
0 0 248
0 0 249
0 0 245
0 0 245
0 0 248
0 0 240
0 0 237
0 0 253
0 0 240
0 0 242
0 0 240
0 0 240
0 0 240
0 0 236
0 0 238
0 0 240
0 0 240
0 0 237
0 0 240
0 0 237
0 0 241
0 0 237
83 92 240
187 208 252
202 225 255
202 225 255
202 225 255
202 225 255
202 225 255
202 225 255
202 225 255
202 225 255
201 225 255
201 225 255
201 225 255
201 225 255
201 225 255
201 225 255
201 225 255
201 225 255
201 225 255
201 225 255
201 225 255
201 225 255
201 225 255
201 224 255
201 225 255
201 224 255
201 224 255
201 225 255
201 224 255
201 224 255
201 224 255
201 225 255
201 225 255
201 225 255
201 225 255
201 225 255
201 225 255
201 225 255
201 225 255
201 225 255
201 225 255
201 225 255
201 225 255
201 225 255
201 225 255
201 225 255
201 225 255
202 225 255
202 225 255
202 225 255
202 225 255
202 225 255
202 225 255
202 225 255
201 221 252
196 95 108
188 0 0
184 0 0
193 0 0
186 0 0
196 0 0
186 0 0
193 0 0
188 0 0
191 0 0
196 0 0
193 0 0
189 0 0
199 0 0
193 0 0
198 0 0
195 0 0
199 0 0
198 0 0
200 0 0
193 0 0
196 0 0
203 0 0
194 0 0
199 0 0
201 0 0
197 0 0
200 0 0
199 0 0
199 0 0
201 0 0
204 0 0
209 0 0
204 0 0
204 0 0
204 0 0
202 0 0
201 0 0
205 0 0
207 0 0
209 0 0
207 0 0
203 0 0
207 0 0
207 0 0
207 0 0
203 0 0
210 0 0
206 0 0
207 0 0
206 0 0
203 0 0
209 0 0
209 0 0
206 0 0
207 0 0
207 0 0
205 0 0
205 0 0
203 0 0
213 0 0
209 0 0
214 0 0
207 0 0
209 0 0
207 0 0
210 0 0
208 0 0
212 0 0
214 0 0
207 0 0
209 0 0
209 0 0
210 0 0
210 0 0
211 0 0
211 0 0
211 0 0
211 0 0
210 0 0
214 0 0
207 0 0
212 0 0
210 0 0
211 0 0
212 0 0
214 0 0
213 0 0
210 0 0
212 0 0
212 0 0
214 0 0
215 0 0
211 0 0
210 0 0
212 0 0
211 0 0
210 0 0
212 0 0
212 0 0
210 0 0
211 0 0
214 0 0
212 0 0
214 0 0
211 0 0
216 0 0
217 0 0
210 0 0
213 0 0
213 0 0
211 0 0
216 0 0
214 0 0
212 0 0
212 0 0
216 0 0
213 0 0
214 0 0
214 0 0
215 0 0
215 0 0
213 0 0
211 0 0
210 0 0
215 0 0
215 0 0
216 0 0
216 0 0
216 0 0
213 0 0
210 0 0
214 0 0
209 0 0
214 0 0
209 0 0
211 0 0
215 0 0
213 0 0
216 0 0
215 0 0
210 0 0
212 0 0
214 0 0
215 0 0
213 0 0
213 0 0
214 0 0
211 0 0
213 0 0
213 0 0
215 0 0
214 0 0
216 0 0
211 0 0
215 0 0
217 0 0
209 0 0
216 0 0
214 0 0
214 0 0
212 0 0
215 0 0
217 0 0
213 0 0
214 0 0
218 0 0
215 0 0
216 0 0
214 0 0
216 0 0
214 0 0
217 0 0
0 0 255
0 0 255
0 0 255
0 0 255
0 0 255
0 0 255
0 0 255
0 0 255
0 0 255
0 0 255
0 0 254
0 0 255
0 0 254
0 0 255
0 0 255
0 0 255
0 0 255
0 0 255
0 0 255
0 0 255
0 0 255
0 0 255
0 0 255
0 0 255
0 0 254
0 0 255
0 0 254
0 0 255
0 0 255
0 0 255
0 0 254
0 0 255
0 0 255
0 0 255
0 0 255
0 0 255
0 0 255
0 0 255
0 0 255
0 0 255
0 0 255
0 0 255
0 0 255
0 0 255
0 0 255
0 0 255
0 0 255
0 0 255
0 0 255
0 0 255
0 0 254
0 0 254
0 0 254
0 0 255
0 0 255
0 0 253
0 0 255
0 0 254
0 0 255
0 0 255
0 0 255
0 0 255
0 0 255
0 0 254
0 0 254
0 0 252
0 0 255
0 0 255
0 0 255
0 0 255
0 0 254
0 0 255
0 0 253
0 0 253
0 0 255
0 0 253
0 0 253
0 0 253
0 0 255
0 0 255
0 0 255
0 0 253
0 0 254
0 0 253
0 0 252
0 0 252
0 0 253
0 0 255
0 0 253
0 0 254
0 0 252
0 0 253
0 0 254
0 0 253
0 0 250
0 0 254
0 0 254
0 0 250
0 0 250
0 0 254
0 0 248
0 0 250
0 0 254
0 0 255
0 0 253
0 0 249
0 0 250
0 0 253
0 0 250
0 0 250
0 0 252
0 0 250
0 0 252
0 0 252
0 0 252
0 0 249
0 0 252
0 0 252
0 0 249
0 0 250
0 0 250
0 0 252
0 0 252
0 0 250
0 0 252
0 0 250
0 0 252
0 0 253
0 0 255
0 0 252
0 0 249
0 0 253
0 0 248
0 0 246
0 0 248
0 0 249
0 0 249
0 0 252
0 0 249
0 0 249
0 0 250
0 0 249
0 0 249
0 0 242
0 0 244
0 0 236
0 0 248
0 0 242
0 0 244
0 0 238
0 0 242
0 0 249
0 0 246
0 0 252
0 0 246
0 0 250
0 0 242
0 0 242
0 0 233
0 0 245
0 0 242
0 0 240
0 0 234
0 0 236
0 0 236
0 0 238
0 0 241
0 0 248
0 0 233
0 0 238
0 0 237
0 0 237
0 0 244
94 105 237
192 213 255
202 225 255
202 225 255
202 225 255
202 225 255
202 225 255
202 225 255
202 225 255
202 225 255
202 225 255
202 225 255
202 225 255
202 225 255
202 225 255
202 225 255
202 225 255
202 225 255
202 225 255
202 225 255
202 225 255
202 225 255
201 225 255
201 225 255
201 225 255
201 225 255
201 225 255
201 225 255
201 225 255
201 225 255
201 225 255
201 225 255
202 225 255
202 225 255
202 225 255
202 225 255
202 225 255
202 225 255
202 225 255
202 225 255
202 225 255
202 225 255
202 225 255
202 225 255
202 225 255
202 225 255
202 225 255
202 225 255
202 225 255
202 225 255
202 225 255
202 225 255
199 211 240
190 81 92
189 0 0
183 0 0
187 0 0
188 0 0
192 0 0
182 0 0
201 0 0
189 0 0
187 0 0
195 0 0
198 0 0
197 0 0
196 0 0
196 0 0
195 0 0
201 0 0
196 0 0
200 0 0
197 0 0
203 0 0
196 0 0
205 0 0
200 0 0
195 0 0
200 0 0
206 0 0
201 0 0
199 0 0
201 0 0
200 0 0
202 0 0
202 0 0
200 0 0
205 0 0
205 0 0
206 0 0
200 0 0
204 0 0
207 0 0
204 0 0
203 0 0
203 0 0
203 0 0
206 0 0
207 0 0
209 0 0
200 0 0
208 0 0
203 0 0
205 0 0
205 0 0
207 0 0
203 0 0
208 0 0
207 0 0
210 0 0
206 0 0
206 0 0
207 0 0
206 0 0
207 0 0
204 0 0
207 0 0
208 0 0
207 0 0
206 0 0
205 0 0
211 0 0
209 0 0
215 0 0
210 0 0
211 0 0
209 0 0
208 0 0
209 0 0
211 0 0
212 0 0
211 0 0
209 0 0
211 0 0
206 0 0
207 0 0
211 0 0
207 0 0
211 0 0
213 0 0
216 0 0
213 0 0
212 0 0
210 0 0
207 0 0
210 0 0
212 0 0
212 0 0
214 0 0
216 0 0
209 0 0
214 0 0
214 0 0
210 0 0
215 0 0
212 0 0
211 0 0
213 0 0
214 0 0
212 0 0
211 0 0
214 0 0
209 0 0
215 0 0
211 0 0
214 0 0
214 0 0
211 0 0
218 0 0
210 0 0
216 0 0
215 0 0
212 0 0
212 0 0
212 0 0
214 0 0
214 0 0
215 0 0
212 0 0
212 0 0
213 0 0
214 0 0
214 0 0
215 0 0
212 0 0
213 0 0
216 0 0
218 0 0
214 0 0
214 0 0
217 0 0
211 0 0
214 0 0
213 0 0
213 0 0
214 0 0
216 0 0
215 0 0
207 0 0
215 0 0
213 0 0
212 0 0
215 0 0
213 0 0
213 0 0
214 0 0
217 0 0
213 0 0
214 0 0
213 0 0
216 0 0
215 0 0
216 0 0
213 0 0
216 0 0
215 0 0
214 0 0
212 0 0
216 0 0
215 0 0
216 0 0
215 0 0
213 0 0
217 0 0
214 0 0
211 0 0
214 0 0
0 0 255
0 0 255
0 0 255
0 0 255
0 0 255
0 0 255
0 0 255
0 0 255
0 0 255
0 0 255
0 0 255
0 0 255
0 0 255
0 0 255
0 0 254
0 0 255
0 0 255
0 0 255
0 0 255
0 0 255
0 0 255
0 0 255
0 0 255
0 0 255
0 0 255
0 0 255
0 0 255
0 0 254
0 0 255
0 0 255
0 0 255
0 0 255
0 0 255
0 0 254
0 0 255
0 0 254
0 0 254
0 0 255
0 0 255
0 0 255
0 0 255
0 0 255
0 0 255
0 0 254
0 0 254
0 0 254
0 0 254
0 0 254
0 0 254
0 0 253
0 0 255
0 0 254
0 0 255
0 0 255
0 0 254
0 0 255
0 0 255
0 0 254
0 0 255
0 0 253
0 0 254
0 0 255
0 0 255
0 0 255
0 0 255
0 0 255
0 0 255
0 0 254
0 0 254
0 0 252
0 0 254
0 0 254
0 0 254
0 0 253
0 0 254
0 0 254
0 0 255
0 0 255
0 0 255
0 0 252
0 0 254
0 0 253
0 0 254
0 0 253
0 0 248
0 0 255
0 0 253
0 0 254
0 0 254
0 0 255
0 0 254
0 0 255
0 0 254
0 0 254
0 0 253
0 0 253
0 0 252
0 0 253
0 0 253
0 0 253
0 0 254
0 0 248
0 0 249
0 0 250
0 0 254
0 0 252
0 0 254
0 0 252
0 0 254
0 0 252
0 0 254
0 0 249
0 0 253
0 0 254
0 0 252
0 0 250
0 0 252
0 0 244
0 0 250
0 0 249
0 0 253
0 0 250
0 0 249
0 0 253
0 0 252
0 0 250
0 0 250
0 0 253
0 0 250
0 0 248
0 0 248
0 0 253
0 0 244
0 0 249
0 0 252
0 0 246
0 0 245
0 0 244
0 0 245
0 0 248
0 0 249
0 0 245
0 0 253
0 0 241
0 0 246
0 0 248
0 0 249
0 0 249
0 0 242
0 0 249
0 0 246
0 0 245
0 0 244
0 0 240
0 0 242
0 0 238
0 0 242
0 0 250
0 0 242
0 0 244
0 0 242
0 0 238
0 0 237
0 0 241
0 0 237
0 0 240
0 0 236
0 0 234
0 0 238
0 0 227
0 0 233
0 0 238
0 0 241
0 0 230
64 71 240
190 211 254
202 225 255
202 225 255
202 225 255
202 225 255
202 225 255
202 225 255
202 225 255
202 225 255
202 225 255
202 225 255
202 225 255
202 225 255
202 225 255
202 225 255
202 225 255
202 225 255
202 225 255
202 225 255
202 225 255
202 225 255
202 225 255
202 225 255
202 225 255
202 225 255
202 225 255
202 225 255
202 225 255
202 225 255
202 225 255
202 225 255
202 225 255
202 225 255
202 225 255
202 225 255
202 225 255
202 225 255
202 225 255
202 225 255
202 225 255
202 225 255
202 225 255
202 225 255
202 225 255
202 225 255
202 225 255
202 225 255
202 225 255
202 225 255
200 215 244
188 74 84
183 0 0
185 0 0
185 0 0
191 0 0
196 0 0
192 0 0
186 0 0
196 0 0
197 0 0
195 0 0
193 0 0
198 0 0
191 0 0
198 0 0
191 0 0
198 0 0
195 0 0
202 0 0
198 0 0
200 0 0
197 0 0
195 0 0
204 0 0
195 0 0
201 0 0
196 0 0
203 0 0
203 0 0
205 0 0
206 0 0
201 0 0
193 0 0
203 0 0
200 0 0
198 0 0
200 0 0
207 0 0
204 0 0
210 0 0
207 0 0
208 0 0
203 0 0
205 0 0
206 0 0
202 0 0
210 0 0
206 0 0
207 0 0
209 0 0
204 0 0
210 0 0
207 0 0
207 0 0
209 0 0
208 0 0
203 0 0
208 0 0
208 0 0
207 0 0
211 0 0
209 0 0
205 0 0
211 0 0
212 0 0
207 0 0
207 0 0
213 0 0
207 0 0
209 0 0
209 0 0
208 0 0
216 0 0
212 0 0
212 0 0
216 0 0
209 0 0
212 0 0
211 0 0
213 0 0
206 0 0
209 0 0
212 0 0
209 0 0
210 0 0
213 0 0
212 0 0
211 0 0
212 0 0
211 0 0
214 0 0
213 0 0
209 0 0
210 0 0
212 0 0
214 0 0
214 0 0
215 0 0
214 0 0
213 0 0
211 0 0
213 0 0
215 0 0
214 0 0
214 0 0
212 0 0
210 0 0
213 0 0
211 0 0
216 0 0
213 0 0
215 0 0
213 0 0
208 0 0
212 0 0
216 0 0
218 0 0
210 0 0
215 0 0
216 0 0
214 0 0
215 0 0
215 0 0
216 0 0
213 0 0
209 0 0
214 0 0
212 0 0
214 0 0
215 0 0
213 0 0
214 0 0
214 0 0
211 0 0
213 0 0
215 0 0
211 0 0
214 0 0
216 0 0
215 0 0
213 0 0
215 0 0
216 0 0
215 0 0
217 0 0
210 0 0
216 0 0
216 0 0
215 0 0
217 0 0
214 0 0
216 0 0
215 0 0
217 0 0
217 0 0
214 0 0
216 0 0
216 0 0
216 0 0
213 0 0
217 0 0
217 0 0
213 0 0
218 0 0
211 0 0
215 0 0
217 0 0
215 0 0
214 0 0
214 0 0
216 0 0
212 0 0
213 0 0
213 0 0
212 0 0
0 0 255
0 0 255
0 0 255
0 0 255
0 0 255
0 0 255
0 0 255
0 0 255
0 0 255
0 0 255
0 0 255
0 0 255
0 0 255
0 0 255
0 0 255
0 0 255
0 0 255
0 0 254
0 0 255
0 0 255
0 0 255
0 0 255
0 0 255
0 0 255
0 0 255
0 0 255
0 0 255
0 0 255
0 0 255
0 0 255
0 0 253
0 0 255
0 0 255
0 0 255
0 0 255
0 0 255
0 0 255
0 0 255
0 0 253
0 0 255
0 0 255
0 0 254
0 0 253
0 0 255
0 0 255
0 0 254
0 0 254
0 0 253
0 0 255
0 0 255
0 0 255
0 0 255
0 0 255
0 0 254
0 0 255
0 0 255
0 0 255
0 0 254
0 0 254
0 0 254
0 0 254
0 0 254
0 0 255
0 0 255
0 0 253
0 0 254
0 0 253
0 0 254
0 0 253
0 0 255
0 0 254
0 0 253
0 0 254
0 0 253
0 0 253
0 0 255
0 0 254
0 0 254
0 0 253
0 0 250
0 0 255
0 0 255
0 0 253
0 0 254
0 0 253
0 0 252
0 0 253
0 0 254
0 0 254
0 0 255
0 0 254
0 0 253
0 0 254
0 0 253
0 0 254
0 0 254
0 0 253
0 0 254
0 0 252
0 0 254
0 0 250
0 0 248
0 0 252
0 0 254
0 0 252
0 0 253
0 0 253
0 0 250
0 0 250
0 0 253
0 0 250
0 0 250
0 0 250
0 0 248
0 0 249
0 0 249
0 0 253
0 0 249
0 0 254
0 0 249
0 0 252
0 0 252
0 0 252
0 0 250
0 0 252
0 0 249
0 0 245
0 0 252
0 0 246
0 0 253
0 0 249
0 0 246
0 0 248
0 0 248
0 0 250
0 0 246
0 0 248
0 0 246
0 0 255
0 0 249
0 0 250
0 0 245
0 0 242
0 0 244
0 0 242
0 0 248
0 0 244
0 0 246
0 0 240
0 0 245
0 0 246
0 0 242
0 0 241
0 0 244
0 0 242
0 0 241
0 0 242
0 0 241
0 0 236
0 0 245
0 0 248
0 0 237
0 0 237
0 0 237
0 0 241
0 0 238
0 0 238
0 0 238
0 0 237
0 0 245
0 0 240
0 0 230
0 0 221
0 0 236
0 0 246
73 81 231
189 210 252
202 225 255
202 225 255
202 225 255
202 225 255
202 225 255
202 225 255
202 225 255
202 225 255
202 225 255
202 225 255
202 225 255
202 225 255
202 225 255
202 225 255
202 225 255
202 225 255
202 225 255
202 225 255
202 225 255
202 225 255
202 225 255
202 225 255
202 225 255
202 225 255
202 225 255
202 225 255
202 225 255
202 225 255
202 225 255
202 225 255
202 225 255
202 225 255
202 225 255
202 225 255
202 225 255
202 225 255
202 225 255
202 225 255
202 225 255
202 225 255
202 225 255
202 225 255
202 225 255
202 225 255
202 225 255
202 225 255
198 214 242
187 67 76
187 0 0
187 0 0
181 0 0
183 0 0
188 0 0
191 0 0
194 0 0
193 0 0
197 0 0
195 0 0
196 0 0
186 0 0
197 0 0
189 0 0
191 0 0
197 0 0
192 0 0
200 0 0
203 0 0
192 0 0
201 0 0
202 0 0
204 0 0
200 0 0
203 0 0
202 0 0
196 0 0
200 0 0
203 0 0
196 0 0
201 0 0
199 0 0
206 0 0
203 0 0
204 0 0
204 0 0
202 0 0
208 0 0
206 0 0
205 0 0
210 0 0
201 0 0
209 0 0
199 0 0
204 0 0
208 0 0
205 0 0
204 0 0
202 0 0
203 0 0
204 0 0
205 0 0
211 0 0
206 0 0
206 0 0
202 0 0
211 0 0
212 0 0
208 0 0
207 0 0
210 0 0
207 0 0
207 0 0
214 0 0
210 0 0
208 0 0
204 0 0
210 0 0
207 0 0
208 0 0
212 0 0
210 0 0
212 0 0
209 0 0
211 0 0
215 0 0
214 0 0
210 0 0
213 0 0
211 0 0
210 0 0
210 0 0
208 0 0
208 0 0
216 0 0
213 0 0
211 0 0
214 0 0
212 0 0
211 0 0
212 0 0
215 0 0
215 0 0
206 0 0
214 0 0
212 0 0
211 0 0
212 0 0
212 0 0
211 0 0
215 0 0
216 0 0
214 0 0
211 0 0
217 0 0
214 0 0
216 0 0
214 0 0
214 0 0
210 0 0
212 0 0
213 0 0
214 0 0
213 0 0
213 0 0
212 0 0
211 0 0
214 0 0
212 0 0
213 0 0
214 0 0
213 0 0
212 0 0
211 0 0
209 0 0
214 0 0
213 0 0
209 0 0
217 0 0
218 0 0
216 0 0
218 0 0
215 0 0
213 0 0
212 0 0
215 0 0
213 0 0
213 0 0
214 0 0
212 0 0
214 0 0
213 0 0
210 0 0
211 0 0
213 0 0
213 0 0
218 0 0
216 0 0
217 0 0
216 0 0
214 0 0
219 0 0
213 0 0
215 0 0
213 0 0
218 0 0
214 0 0
215 0 0
214 0 0
213 0 0
210 0 0
215 0 0
218 0 0
218 0 0
214 0 0
215 0 0
214 0 0
218 0 0
218 0 0
215 0 0
217 0 0
214 0 0
216 0 0
214 0 0
214 0 0
0 0 255
0 0 255
0 0 255
0 0 255
0 0 255
0 0 254
0 0 255
0 0 255
0 0 255
0 0 255
0 0 255
0 0 255
0 0 255
0 0 255
0 0 255
0 0 255
0 0 255
0 0 255
0 0 255
0 0 255
0 0 255
0 0 255
0 0 254
0 0 255
0 0 255
0 0 255
0 0 255
0 0 255
0 0 255
0 0 255
0 0 255
0 0 254
0 0 255
0 0 255
0 0 255
0 0 255
0 0 255
0 0 255
0 0 253
0 0 255
0 0 255
0 0 255
0 0 254
0 0 254
0 0 254
0 0 254
0 0 255
0 0 254
0 0 255
0 0 255
0 0 255
0 0 255
0 0 253
0 0 254
0 0 255
0 0 254
0 0 255
0 0 255
0 0 255
0 0 254
0 0 255
0 0 255
0 0 253
0 0 255
0 0 254
0 0 254
0 0 254
0 0 253
0 0 255
0 0 255
0 0 253
0 0 254
0 0 253
0 0 255
0 0 253
0 0 253
0 0 253
0 0 255
0 0 254
0 0 254
0 0 253
0 0 255
0 0 255
0 0 253
0 0 254
0 0 250
0 0 254
0 0 254
0 0 250
0 0 254
0 0 254
0 0 253
0 0 252
0 0 253
0 0 253
0 0 254
0 0 255
0 0 250
0 0 254
0 0 249
0 0 253
0 0 252
0 0 253
0 0 253
0 0 249
0 0 252
0 0 252
0 0 250
0 0 250
0 0 252
0 0 252
0 0 250
0 0 254
0 0 250
0 0 252
0 0 249
0 0 250
0 0 248
0 0 255
0 0 249
0 0 253
0 0 248
0 0 252
0 0 253
0 0 246
0 0 248
0 0 250
0 0 248
0 0 249
0 0 250
0 0 252
0 0 248
0 0 249
0 0 248
0 0 248
0 0 246
0 0 249
0 0 249
0 0 246
0 0 246
0 0 240
0 0 246
0 0 246
0 0 246
0 0 245
0 0 249
0 0 236
0 0 245
0 0 245
0 0 246
0 0 248
0 0 249
0 0 236
0 0 242
0 0 249
0 0 244
0 0 242
0 0 244
0 0 244
0 0 248
0 0 240
0 0 240
0 0 238
0 0 230
0 0 241
0 0 240
0 0 241
0 0 238
0 0 230
0 0 228
0 0 238
0 0 233
0 0 233
0 0 234
0 0 236
0 0 231
83 93 242
189 210 254
203 225 255
203 225 255
203 225 255
203 225 255
203 225 255
203 225 255
203 225 255
202 225 255
202 225 255
202 225 255
202 225 255
202 225 255
202 225 255
202 225 255
202 225 255
202 225 255
202 225 255
202 225 255
202 225 255
202 225 255
202 225 255
202 225 255
202 225 255
202 225 255
202 225 255
202 225 255
202 225 255
202 225 255
202 225 255
202 225 255
202 225 255
202 225 255
202 225 255
202 225 255
202 225 255
202 225 255
202 225 255
203 225 255
203 225 255
203 225 255
203 225 255
203 225 255
203 225 255
203 225 255
201 206 234
185 74 84
186 0 0
185 0 0
184 0 0
185 0 0
182 0 0
186 0 0
192 0 0
183 0 0
191 0 0
184 0 0
190 0 0
189 0 0
197 0 0
198 0 0
189 0 0
199 0 0
199 0 0
190 0 0
198 0 0
204 0 0
194 0 0
196 0 0
199 0 0
193 0 0
200 0 0
199 0 0
199 0 0
197 0 0
205 0 0
200 0 0
201 0 0
204 0 0
201 0 0
202 0 0
204 0 0
195 0 0
196 0 0
200 0 0
204 0 0
195 0 0
200 0 0
204 0 0
202 0 0
205 0 0
207 0 0
200 0 0
206 0 0
207 0 0
210 0 0
210 0 0
207 0 0
206 0 0
208 0 0
208 0 0
206 0 0
209 0 0
208 0 0
208 0 0
204 0 0
214 0 0
211 0 0
208 0 0
202 0 0
208 0 0
210 0 0
210 0 0
213 0 0
212 0 0
212 0 0
210 0 0
211 0 0
211 0 0
210 0 0
213 0 0
211 0 0
213 0 0
206 0 0
208 0 0
212 0 0
212 0 0
213 0 0
211 0 0
212 0 0
212 0 0
209 0 0
211 0 0
206 0 0
212 0 0
214 0 0
216 0 0
213 0 0
212 0 0
210 0 0
210 0 0
213 0 0
206 0 0
209 0 0
212 0 0
213 0 0
210 0 0
211 0 0
212 0 0
212 0 0
211 0 0
216 0 0
212 0 0
210 0 0
213 0 0
212 0 0
215 0 0
210 0 0
216 0 0
215 0 0
215 0 0
214 0 0
214 0 0
207 0 0
214 0 0
213 0 0
214 0 0
214 0 0
213 0 0
217 0 0
214 0 0
213 0 0
211 0 0
215 0 0
214 0 0
217 0 0
212 0 0
214 0 0
215 0 0
215 0 0
213 0 0
213 0 0
215 0 0
212 0 0
212 0 0
217 0 0
213 0 0
214 0 0
215 0 0
211 0 0
213 0 0
212 0 0
213 0 0
214 0 0
218 0 0
214 0 0
214 0 0
215 0 0
214 0 0
217 0 0
215 0 0
217 0 0
215 0 0
215 0 0
216 0 0
213 0 0
213 0 0
217 0 0
214 0 0
215 0 0
214 0 0
213 0 0
215 0 0
215 0 0
216 0 0
216 0 0
216 0 0
213 0 0
216 0 0
213 0 0
214 0 0
213 0 0
215 0 0
0 0 255
0 0 255
0 0 255
0 0 255
0 0 255
0 0 255
0 0 255
0 0 255
0 0 255
0 0 255
0 0 255
0 0 255
0 0 255
0 0 255
0 0 255
0 0 255
0 0 255
0 0 254
0 0 255
0 0 255
0 0 255
0 0 255
0 0 255
0 0 255
0 0 255
0 0 255
0 0 255
0 0 255
0 0 255
0 0 255
0 0 255
0 0 255
0 0 255
0 0 255
0 0 254
0 0 255
0 0 255
0 0 255
0 0 255
0 0 255
0 0 255
0 0 255
0 0 255
0 0 255
0 0 254
0 0 254
0 0 254
0 0 253
0 0 255
0 0 254
0 0 255
0 0 254
0 0 255
0 0 254
0 0 254
0 0 255
0 0 255
0 0 255
0 0 255
0 0 255
0 0 255
0 0 255
0 0 255
0 0 254
0 0 255
0 0 250
0 0 254
0 0 254
0 0 254
0 0 255
0 0 254
0 0 253
0 0 255
0 0 255
0 0 254
0 0 255
0 0 255
0 0 254
0 0 254
0 0 253
0 0 254
0 0 255
0 0 254
0 0 250
0 0 254
0 0 253
0 0 254
0 0 253
0 0 254
0 0 254
0 0 252
0 0 252
0 0 253
0 0 250
0 0 250
0 0 252
0 0 250
0 0 253
0 0 254
0 0 253
0 0 253
0 0 250
0 0 252
0 0 254
0 0 253
0 0 252
0 0 252
0 0 250
0 0 254
0 0 252
0 0 254
0 0 250
0 0 255
0 0 250
0 0 250
0 0 248
0 0 250
0 0 253
0 0 245
0 0 252
0 0 241
0 0 252
0 0 248
0 0 255
0 0 249
0 0 249
0 0 252
0 0 246
0 0 250
0 0 248
0 0 248
0 0 253
0 0 244
0 0 242
0 0 253
0 0 249
0 0 250
0 0 248
0 0 240
0 0 242
0 0 236
0 0 246
0 0 238
0 0 250
0 0 246
0 0 242
0 0 246
0 0 238
0 0 245
0 0 244
0 0 245
0 0 248
0 0 237
0 0 244
0 0 238
0 0 242
0 0 236
0 0 246
0 0 241
0 0 237
0 0 237
0 0 238
0 0 246
0 0 241
0 0 240
0 0 230
0 0 236
0 0 231
0 0 230
0 0 240
0 0 234
0 0 234
0 0 226
0 0 237
0 0 228
0 0 228
0 0 238
90 101 242
185 205 250
203 225 255
203 225 255
203 225 255
203 225 255
203 225 255
203 225 255
203 225 255
203 225 255
203 225 255
203 225 255
203 225 255
203 225 255
203 225 255
203 225 255
203 225 255
203 225 255
203 225 255
203 225 255
203 225 255
203 225 255
203 225 255
203 225 255
203 225 255
203 225 255
203 225 255
203 225 255
203 225 255
203 225 255
203 225 255
203 225 255
203 225 255
203 225 255
203 225 255
203 225 255
203 225 255
203 225 255
203 225 255
203 225 255
203 225 255
203 225 255
203 225 255
203 225 255
202 215 244
181 98 111
186 0 0
178 0 0
183 0 0
180 0 0
181 0 0
182 0 0
180 0 0
180 0 0
188 0 0
193 0 0
192 0 0
195 0 0
198 0 0
193 0 0
198 0 0
191 0 0
200 0 0
192 0 0
197 0 0
194 0 0
198 0 0
201 0 0
196 0 0
198 0 0
196 0 0
194 0 0
200 0 0
194 0 0
195 0 0
199 0 0
200 0 0
199 0 0
203 0 0
209 0 0
197 0 0
206 0 0
199 0 0
210 0 0
207 0 0
201 0 0
203 0 0
204 0 0
208 0 0
208 0 0
199 0 0
203 0 0
213 0 0
209 0 0
210 0 0
206 0 0
201 0 0
204 0 0
208 0 0
205 0 0
207 0 0
205 0 0
207 0 0
213 0 0
208 0 0
205 0 0
206 0 0
208 0 0
208 0 0
209 0 0
206 0 0
202 0 0
212 0 0
212 0 0
206 0 0
204 0 0
212 0 0
209 0 0
206 0 0
211 0 0
210 0 0
218 0 0
207 0 0
205 0 0
212 0 0
210 0 0
210 0 0
208 0 0
212 0 0
209 0 0
213 0 0
214 0 0
213 0 0
215 0 0
211 0 0
212 0 0
209 0 0
214 0 0
211 0 0
211 0 0
217 0 0
208 0 0
216 0 0
209 0 0
212 0 0
214 0 0
211 0 0
210 0 0
213 0 0
214 0 0
213 0 0
217 0 0
215 0 0
216 0 0
213 0 0
212 0 0
218 0 0
211 0 0
214 0 0
212 0 0
216 0 0
216 0 0
214 0 0
212 0 0
212 0 0
215 0 0
213 0 0
214 0 0
214 0 0
216 0 0
214 0 0
212 0 0
211 0 0
213 0 0
212 0 0
213 0 0
216 0 0
211 0 0
212 0 0
217 0 0
214 0 0
214 0 0
213 0 0
215 0 0
213 0 0
218 0 0
219 0 0
211 0 0
215 0 0
217 0 0
213 0 0
215 0 0
215 0 0
215 0 0
217 0 0
215 0 0
211 0 0
216 0 0
215 0 0
213 0 0
212 0 0
214 0 0
214 0 0
213 0 0
215 0 0
214 0 0
213 0 0
218 0 0
220 0 0
218 0 0
215 0 0
216 0 0
215 0 0
212 0 0
216 0 0
216 0 0
213 0 0
217 0 0
218 0 0
217 0 0
214 0 0
213 0 0
212 0 0
0 0 255
0 0 255
0 0 255
0 0 255
0 0 255
0 0 255
0 0 255
0 0 255
0 0 255
0 0 255
0 0 255
0 0 255
0 0 255
0 0 255
0 0 255
0 0 255
0 0 255
0 0 255
0 0 255
0 0 255
0 0 255
0 0 255
0 0 255
0 0 255
0 0 255
0 0 253
0 0 254
0 0 255
0 0 255
0 0 255
0 0 255
0 0 255
0 0 255
0 0 254
0 0 255
0 0 254
0 0 255
0 0 255
0 0 255
0 0 254
0 0 255
0 0 255
0 0 255
0 0 254
0 0 254
0 0 255
0 0 255
0 0 254
0 0 254
0 0 254
0 0 255
0 0 254
0 0 255
0 0 254
0 0 255
0 0 255
0 0 255
0 0 255
0 0 255
0 0 254
0 0 252
0 0 252
0 0 255
0 0 254
0 0 255
0 0 254
0 0 252
0 0 253
0 0 254
0 0 250
0 0 252
0 0 255
0 0 255
0 0 255
0 0 255
0 0 255
0 0 253
0 0 254
0 0 255
0 0 252
0 0 254
0 0 252
0 0 250
0 0 255
0 0 249
0 0 254
0 0 252
0 0 250
0 0 253
0 0 255
0 0 253
0 0 254
0 0 253
0 0 254
0 0 248
0 0 253
0 0 254
0 0 252
0 0 253
0 0 249
0 0 250
0 0 255
0 0 254
0 0 254
0 0 253
0 0 252
0 0 253
0 0 252
0 0 253
0 0 249
0 0 249
0 0 253
0 0 246
0 0 253
0 0 249
0 0 250
0 0 253
0 0 250
0 0 245
0 0 252
0 0 245
0 0 254
0 0 250
0 0 250
0 0 249
0 0 245
0 0 252
0 0 248
0 0 248
0 0 249
0 0 242
0 0 254
0 0 248
0 0 250
0 0 249
0 0 244
0 0 250
0 0 246
0 0 249
0 0 246
0 0 250
0 0 245
0 0 249
0 0 250
0 0 244
0 0 248
0 0 249
0 0 242
0 0 249
0 0 231
0 0 246
0 0 241
0 0 241
0 0 245
0 0 240
0 0 248
0 0 246
0 0 238
0 0 238
0 0 241
0 0 245
0 0 242
0 0 242
0 0 236
0 0 236
0 0 240
0 0 231
0 0 244
0 0 240
0 0 234
0 0 230
0 0 220
0 0 237
0 0 224
0 0 230
0 0 227
0 0 238
0 0 231
83 93 230
201 223 255
203 226 255
203 226 255
203 226 255
203 226 255
203 226 255
203 225 255
203 225 255
203 225 255
203 225 255
203 225 255
203 225 255
203 225 255
203 225 255
203 225 255
203 225 255
203 225 255
203 225 255
203 225 255
203 225 255
203 225 255
203 225 255
203 225 255
203 225 255
203 225 255
203 225 255
203 225 255
203 225 255
203 225 255
203 225 255
203 225 255
203 225 255
203 225 255
203 225 255
203 225 255
203 225 255
203 226 255
203 226 255
203 226 255
203 226 255
203 226 255
201 219 248
179 108 122
173 0 0
185 0 0
189 0 0
187 0 0
182 0 0
187 0 0
194 0 0
184 0 0
186 0 0
184 0 0
187 0 0
195 0 0
194 0 0
193 0 0
187 0 0
200 0 0
201 0 0
191 0 0
192 0 0
191 0 0
195 0 0
198 0 0
197 0 0
197 0 0
196 0 0
202 0 0
192 0 0
207 0 0
198 0 0
208 0 0
199 0 0
197 0 0
195 0 0
201 0 0
202 0 0
207 0 0
197 0 0
207 0 0
207 0 0
203 0 0
203 0 0
201 0 0
206 0 0
202 0 0
203 0 0
205 0 0
200 0 0
206 0 0
207 0 0
205 0 0
208 0 0
204 0 0
210 0 0
208 0 0
210 0 0
208 0 0
205 0 0
209 0 0
210 0 0
210 0 0
211 0 0
213 0 0
210 0 0
209 0 0
205 0 0
212 0 0
208 0 0
211 0 0
206 0 0
212 0 0
209 0 0
208 0 0
213 0 0
212 0 0
210 0 0
212 0 0
207 0 0
211 0 0
210 0 0
210 0 0
214 0 0
211 0 0
214 0 0
210 0 0
211 0 0
211 0 0
215 0 0
212 0 0
211 0 0
211 0 0
212 0 0
214 0 0
215 0 0
210 0 0
207 0 0
211 0 0
214 0 0
211 0 0
211 0 0
215 0 0
214 0 0
211 0 0
211 0 0
215 0 0
214 0 0
210 0 0
216 0 0
218 0 0
216 0 0
213 0 0
216 0 0
212 0 0
214 0 0
214 0 0
213 0 0
211 0 0
212 0 0
213 0 0
214 0 0
211 0 0
211 0 0
211 0 0
218 0 0
212 0 0
213 0 0
216 0 0
214 0 0
214 0 0
212 0 0
215 0 0
210 0 0
215 0 0
213 0 0
212 0 0
214 0 0
219 0 0
213 0 0
216 0 0
217 0 0
217 0 0
214 0 0
212 0 0
217 0 0
212 0 0
215 0 0
216 0 0
214 0 0
217 0 0
218 0 0
216 0 0
215 0 0
211 0 0
215 0 0
213 0 0
218 0 0
214 0 0
216 0 0
213 0 0
217 0 0
212 0 0
213 0 0
214 0 0
215 0 0
217 0 0
215 0 0
218 0 0
213 0 0
215 0 0
215 0 0
217 0 0
217 0 0
214 0 0
215 0 0
214 0 0
215 0 0
216 0 0
215 0 0
218 0 0
0 0 255
0 0 255
0 0 255
0 0 255
0 0 255
0 0 255
0 0 255
0 0 255
0 0 255
0 0 255
0 0 255
0 0 255
0 0 255
0 0 254
0 0 255
0 0 255
0 0 255
0 0 255
0 0 254
0 0 255
0 0 254
0 0 255
0 0 255
0 0 253
0 0 255
0 0 255
0 0 255
0 0 255
0 0 255
0 0 255
0 0 255
0 0 255
0 0 255
0 0 255
0 0 253
0 0 255
0 0 255
0 0 254
0 0 255
0 0 254
0 0 255
0 0 255
0 0 255
0 0 254
0 0 254
0 0 253
0 0 255
0 0 255
0 0 252
0 0 255
0 0 255
0 0 255
0 0 254
0 0 255
0 0 254
0 0 255
0 0 255
0 0 255
0 0 255
0 0 254
0 0 255
0 0 255
0 0 254
0 0 255
0 0 255
0 0 255
0 0 254
0 0 254
0 0 255
0 0 254
0 0 255
0 0 255
0 0 253
0 0 254
0 0 253
0 0 252
0 0 254
0 0 254
0 0 255
0 0 255
0 0 253
0 0 255
0 0 253
0 0 253
0 0 255
0 0 255
0 0 252
0 0 252
0 0 255
0 0 253
0 0 255
0 0 255
0 0 253
0 0 254
0 0 249
0 0 254
0 0 254
0 0 253
0 0 252
0 0 249
0 0 250
0 0 255
0 0 252
0 0 254
0 0 254
0 0 253
0 0 249
0 0 249
0 0 249
0 0 253
0 0 252
0 0 248
0 0 252
0 0 252
0 0 249
0 0 252
0 0 252
0 0 250
0 0 246
0 0 249
0 0 248
0 0 244
0 0 250
0 0 246
0 0 240
0 0 250
0 0 242
0 0 250
0 0 254
0 0 245
0 0 249
0 0 250
0 0 246
0 0 249
0 0 250
0 0 236
0 0 246
0 0 249
0 0 246
0 0 249
0 0 246
0 0 244
0 0 248
0 0 238
0 0 242
0 0 246
0 0 242
0 0 241
0 0 241
0 0 241
0 0 240
0 0 241
0 0 241
0 0 234
0 0 236
0 0 242
0 0 241
0 0 237
0 0 245
0 0 246
0 0 233
0 0 242
0 0 241
0 0 238
0 0 214
0 0 234
0 0 238
0 0 234
0 0 240
0 0 242
0 0 233
0 0 233
0 0 238
0 0 230
0 0 233
0 0 236
0 0 234
0 0 228
0 0 227
120 133 242
201 223 254
203 226 255
203 226 255
203 226 255
203 226 255
203 226 255
203 226 255
203 226 255
203 226 255
203 226 255
203 226 255
203 226 255
203 226 255
203 226 255
203 226 255
203 226 255
203 226 255
203 226 255
203 226 255
203 226 255
203 226 255
203 226 255
203 226 255
203 226 255
203 226 255
203 226 255
203 226 255
203 226 255
203 226 255
203 226 255
203 226 255
203 226 255
203 226 255
203 226 255
203 226 255
203 226 255
203 226 255
203 226 255
203 226 255
204 223 253
189 115 130
183 0 0
180 0 0
184 0 0
185 0 0
191 0 0
191 0 0
187 0 0
191 0 0
189 0 0
188 0 0
199 0 0
192 0 0
186 0 0
191 0 0
192 0 0
189 0 0
202 0 0
204 0 0
192 0 0
195 0 0
192 0 0
200 0 0
190 0 0
193 0 0
201 0 0
201 0 0
198 0 0
201 0 0
200 0 0
194 0 0
206 0 0
197 0 0
204 0 0
208 0 0
198 0 0
202 0 0
204 0 0
206 0 0
210 0 0
198 0 0
207 0 0
205 0 0
208 0 0
201 0 0
210 0 0
202 0 0
209 0 0
211 0 0
206 0 0
210 0 0
206 0 0
206 0 0
206 0 0
208 0 0
210 0 0
206 0 0
206 0 0
207 0 0
212 0 0
210 0 0
207 0 0
207 0 0
208 0 0
213 0 0
210 0 0
204 0 0
208 0 0
210 0 0
210 0 0
206 0 0
211 0 0
210 0 0
217 0 0
212 0 0
210 0 0
211 0 0
212 0 0
210 0 0
208 0 0
213 0 0
215 0 0
213 0 0
212 0 0
218 0 0
216 0 0
211 0 0
212 0 0
209 0 0
211 0 0
214 0 0
212 0 0
214 0 0
212 0 0
212 0 0
211 0 0
213 0 0
209 0 0
211 0 0
211 0 0
214 0 0
215 0 0
214 0 0
215 0 0
216 0 0
212 0 0
212 0 0
207 0 0
212 0 0
215 0 0
216 0 0
214 0 0
212 0 0
215 0 0
212 0 0
211 0 0
213 0 0
210 0 0
211 0 0
218 0 0
211 0 0
213 0 0
215 0 0
213 0 0
214 0 0
210 0 0
211 0 0
215 0 0
215 0 0
213 0 0
213 0 0
216 0 0
211 0 0
214 0 0
216 0 0
215 0 0
216 0 0
212 0 0
217 0 0
216 0 0
213 0 0
213 0 0
215 0 0
217 0 0
213 0 0
215 0 0
216 0 0
214 0 0
216 0 0
212 0 0
215 0 0
216 0 0
215 0 0
214 0 0
217 0 0
212 0 0
217 0 0
212 0 0
214 0 0
215 0 0
217 0 0
218 0 0
216 0 0
216 0 0
217 0 0
214 0 0
214 0 0
215 0 0
214 0 0
215 0 0
215 0 0
213 0 0
212 0 0
216 0 0
213 0 0
218 0 0
219 0 0
218 0 0
213 0 0
213 0 0
0 0 255
0 0 255
0 0 255
0 0 255
0 0 255
0 0 255
0 0 255
0 0 255
0 0 255
0 0 255
0 0 255
0 0 255
0 0 255
0 0 255
0 0 255
0 0 255
0 0 254
0 0 255
0 0 254
0 0 255
0 0 255
0 0 255
0 0 254
0 0 255
0 0 255
0 0 254
0 0 255
0 0 255
0 0 255
0 0 254
0 0 255
0 0 253
0 0 255
0 0 255
0 0 255
0 0 255
0 0 255
0 0 255
0 0 255
0 0 255
0 0 253
0 0 255
0 0 255
0 0 255
0 0 254
0 0 255
0 0 255
0 0 255
0 0 254
0 0 255
0 0 255
0 0 254
0 0 255
0 0 255
0 0 254
0 0 255
0 0 255
0 0 255
0 0 255
0 0 255
0 0 254
0 0 254
0 0 254
0 0 254
0 0 255
0 0 254
0 0 255
0 0 253
0 0 255
0 0 252
0 0 255
0 0 254
0 0 253
0 0 254
0 0 250
0 0 255
0 0 254
0 0 252
0 0 255
0 0 254
0 0 255
0 0 252
0 0 254
0 0 253
0 0 255
0 0 252
0 0 249
0 0 254
0 0 255
0 0 253
0 0 253
0 0 254
0 0 254
0 0 248
0 0 254
0 0 250
0 0 254
0 0 250
0 0 246
0 0 255
0 0 254
0 0 252
0 0 254
0 0 252
0 0 249
0 0 254
0 0 252
0 0 252
0 0 248
0 0 250
0 0 252
0 0 244
0 0 253
0 0 249
0 0 250
0 0 250
0 0 252
0 0 252
0 0 252
0 0 246
0 0 254
0 0 252
0 0 253
0 0 254
0 0 253
0 0 246
0 0 250
0 0 252
0 0 250
0 0 253
0 0 245
0 0 249
0 0 249
0 0 245
0 0 248
0 0 241
0 0 252
0 0 242
0 0 249
0 0 242
0 0 248
0 0 244
0 0 242
0 0 246
0 0 244
0 0 245
0 0 245
0 0 244
0 0 249
0 0 246
0 0 238
0 0 240
0 0 242
0 0 244
0 0 238
0 0 242
0 0 240
0 0 231
0 0 241
0 0 241
0 0 231
0 0 244
0 0 246
0 0 238
0 0 245
0 0 231
0 0 234
0 0 234
0 0 240
0 0 228
0 0 234
0 0 227
0 0 242
0 0 228
0 0 236
0 0 224
0 0 226
0 0 231
0 0 236
0 0 226
119 131 241
204 226 255
204 226 255
204 226 255
204 226 255
204 226 255
204 226 255
204 226 255
204 226 255
204 226 255
204 226 255
204 226 255
204 226 255
203 226 255
203 226 255
203 226 255
203 226 255
203 226 255
203 226 255
203 226 255
203 226 255
203 226 255
203 226 255
203 226 255
203 226 255
203 226 255
204 226 255
204 226 255
204 226 255
204 226 255
204 226 255
204 226 255
204 226 255
204 226 255
204 226 255
204 226 255
204 226 255
204 226 255
204 226 255
192 146 165
183 0 0
181 0 0
179 0 0
182 0 0
189 0 0
181 0 0
183 0 0
186 0 0
179 0 0
188 0 0
189 0 0
200 0 0
195 0 0
194 0 0
194 0 0
195 0 0
191 0 0
198 0 0
199 0 0
192 0 0
181 0 0
196 0 0
184 0 0
197 0 0
197 0 0
192 0 0
195 0 0
204 0 0
202 0 0
201 0 0
200 0 0
204 0 0
199 0 0
204 0 0
203 0 0
201 0 0
206 0 0
201 0 0
198 0 0
205 0 0
203 0 0
212 0 0
205 0 0
203 0 0
207 0 0
207 0 0
208 0 0
202 0 0
204 0 0
206 0 0
206 0 0
207 0 0
204 0 0
207 0 0
202 0 0
204 0 0
206 0 0
203 0 0
208 0 0
205 0 0
200 0 0
206 0 0
206 0 0
208 0 0
209 0 0
206 0 0
208 0 0
208 0 0
210 0 0
209 0 0
212 0 0
209 0 0
211 0 0
213 0 0
214 0 0
205 0 0
211 0 0
208 0 0
210 0 0
207 0 0
211 0 0
212 0 0
213 0 0
212 0 0
211 0 0
207 0 0
211 0 0
211 0 0
210 0 0
210 0 0
208 0 0
214 0 0
212 0 0
213 0 0
211 0 0
217 0 0
209 0 0
216 0 0
215 0 0
213 0 0
214 0 0
214 0 0
216 0 0
213 0 0
215 0 0
214 0 0
213 0 0
211 0 0
212 0 0
212 0 0
212 0 0
213 0 0
214 0 0
217 0 0
213 0 0
219 0 0
212 0 0
213 0 0
213 0 0
214 0 0
214 0 0
211 0 0
218 0 0
215 0 0
213 0 0
215 0 0
216 0 0
214 0 0
214 0 0
212 0 0
211 0 0
217 0 0
217 0 0
209 0 0
214 0 0
214 0 0
213 0 0
212 0 0
215 0 0
217 0 0
212 0 0
213 0 0
215 0 0
214 0 0
213 0 0
218 0 0
214 0 0
217 0 0
213 0 0
217 0 0
215 0 0
218 0 0
214 0 0
216 0 0
210 0 0
215 0 0
217 0 0
214 0 0
216 0 0
211 0 0
212 0 0
216 0 0
214 0 0
214 0 0
217 0 0
215 0 0
213 0 0
215 0 0
218 0 0
216 0 0
216 0 0
215 0 0
216 0 0
213 0 0
217 0 0
218 0 0
216 0 0
217 0 0
215 0 0
216 0 0
0 0 255
0 0 255
0 0 255
0 0 254
0 0 255
0 0 255
0 0 255
0 0 255
0 0 255
0 0 255
0 0 255
0 0 255
0 0 255
0 0 254
0 0 255
0 0 255
0 0 255
0 0 255
0 0 255
0 0 255
0 0 255
0 0 255
0 0 255
0 0 255
0 0 254
0 0 255
0 0 255
0 0 255
0 0 254
0 0 255
0 0 255
0 0 255
0 0 254
0 0 255
0 0 255
0 0 254
0 0 254
0 0 254
0 0 254
0 0 254
0 0 255
0 0 255
0 0 254
0 0 255
0 0 253
0 0 255
0 0 255
0 0 254
0 0 255
0 0 255
0 0 253
0 0 254
0 0 255
0 0 253
0 0 255
0 0 254
0 0 254
0 0 254
0 0 254
0 0 255
0 0 253
0 0 255
0 0 253
0 0 255
0 0 254
0 0 254
0 0 255
0 0 254
0 0 255
0 0 254
0 0 255
0 0 253
0 0 255
0 0 252
0 0 254
0 0 249
0 0 254
0 0 253
0 0 254
0 0 248
0 0 249
0 0 254
0 0 255
0 0 253
0 0 254
0 0 255
0 0 255
0 0 254
0 0 253
0 0 253
0 0 250
0 0 252
0 0 255
0 0 254
0 0 252
0 0 253
0 0 253
0 0 250
0 0 255
0 0 250
0 0 249
0 0 250
0 0 254
0 0 253
0 0 255
0 0 252
0 0 248
0 0 249
0 0 252
0 0 249
0 0 254
0 0 252
0 0 248
0 0 253
0 0 250
0 0 252
0 0 253
0 0 254
0 0 254
0 0 252
0 0 253
0 0 245
0 0 246
0 0 250
0 0 249
0 0 249
0 0 248
0 0 246
0 0 248
0 0 253
0 0 250
0 0 252
0 0 246
0 0 250
0 0 248
0 0 248
0 0 242
0 0 250
0 0 241
0 0 244
0 0 248
0 0 249
0 0 242
0 0 245
0 0 250
0 0 244
0 0 244
0 0 246
0 0 246
0 0 245
0 0 242
0 0 241
0 0 241
0 0 234
0 0 249
0 0 236
0 0 245
0 0 236
0 0 244
0 0 240
0 0 234
0 0 248
0 0 236
0 0 231
0 0 240
0 0 240
0 0 237
0 0 228
0 0 233
0 0 240
0 0 237
0 0 233
0 0 236
0 0 238
0 0 228
0 0 234
0 0 220
0 0 228
0 0 230
0 0 227
0 0 218
144 160 240
204 226 255
204 226 255
204 226 255
204 226 255
204 226 255
204 226 255
204 226 255
204 226 255
204 226 255
204 226 255
204 226 255
204 226 255
204 226 255
204 226 255
204 226 255
204 226 255
204 226 255
204 226 255
204 226 255
204 226 255
204 226 255
204 226 255
204 226 255
204 226 255
204 226 255
204 226 255
204 226 255
204 226 255
204 226 255
204 226 255
204 226 255
204 226 255
204 226 255
204 226 255
204 226 255
204 226 255
190 175 198
185 0 0
178 0 0
181 0 0
173 0 0
175 0 0
186 0 0
181 0 0
184 0 0
186 0 0
190 0 0
188 0 0
187 0 0
194 0 0
192 0 0
198 0 0
191 0 0
198 0 0
193 0 0
198 0 0
194 0 0
199 0 0
195 0 0
195 0 0
196 0 0
203 0 0
199 0 0
199 0 0
193 0 0
198 0 0
209 0 0
195 0 0
199 0 0
201 0 0
205 0 0
208 0 0
197 0 0
198 0 0
207 0 0
204 0 0
204 0 0
207 0 0
207 0 0
200 0 0
207 0 0
205 0 0
204 0 0
207 0 0
207 0 0
206 0 0
206 0 0
207 0 0
197 0 0
207 0 0
206 0 0
204 0 0
206 0 0
205 0 0
211 0 0
209 0 0
206 0 0
205 0 0
203 0 0
211 0 0
202 0 0
205 0 0
211 0 0
207 0 0
210 0 0
213 0 0
209 0 0
206 0 0
212 0 0
210 0 0
213 0 0
213 0 0
212 0 0
209 0 0
213 0 0
209 0 0
207 0 0
212 0 0
207 0 0
213 0 0
213 0 0
211 0 0
214 0 0
211 0 0
210 0 0
213 0 0
210 0 0
213 0 0
216 0 0
212 0 0
214 0 0
212 0 0
207 0 0
212 0 0
211 0 0
214 0 0
213 0 0
213 0 0
212 0 0
214 0 0
215 0 0
211 0 0
215 0 0
216 0 0
213 0 0
211 0 0
213 0 0
214 0 0
212 0 0
215 0 0
211 0 0
213 0 0
217 0 0
212 0 0
214 0 0
215 0 0
213 0 0
214 0 0
211 0 0
214 0 0
210 0 0
212 0 0
214 0 0
214 0 0
213 0 0
214 0 0
214 0 0
214 0 0
213 0 0
211 0 0
216 0 0
217 0 0
215 0 0
212 0 0
211 0 0
213 0 0
212 0 0
217 0 0
214 0 0
216 0 0
215 0 0
214 0 0
213 0 0
217 0 0
215 0 0
214 0 0
217 0 0
213 0 0
217 0 0
215 0 0
216 0 0
215 0 0
215 0 0
216 0 0
217 0 0
214 0 0
214 0 0
221 0 0
218 0 0
218 0 0
215 0 0
216 0 0
217 0 0
215 0 0
214 0 0
213 0 0
216 0 0
215 0 0
217 0 0
216 0 0
215 0 0
214 0 0
217 0 0
219 0 0
216 0 0
216 0 0
216 0 0
217 0 0
0 0 255
0 0 255
0 0 255
0 0 255
0 0 255
0 0 255
0 0 255
0 0 253
0 0 255
0 0 255
0 0 255
0 0 255
0 0 255
0 0 255
0 0 254
0 0 255
0 0 255
0 0 255
0 0 255
0 0 255
0 0 255
0 0 255
0 0 255
0 0 255
0 0 255
0 0 255
0 0 255
0 0 254
0 0 254
0 0 255
0 0 255
0 0 255
0 0 255
0 0 255
0 0 254
0 0 253
0 0 255
0 0 254
0 0 254
0 0 255
0 0 254
0 0 253
0 0 254
0 0 255
0 0 255
0 0 254
0 0 255
0 0 254
0 0 255
0 0 255
0 0 255
0 0 253
0 0 254
0 0 254
0 0 255
0 0 255
0 0 255
0 0 253
0 0 254
0 0 255
0 0 255
0 0 255
0 0 254
0 0 254
0 0 253
0 0 253
0 0 255
0 0 253
0 0 254
0 0 255
0 0 253
0 0 254
0 0 252
0 0 254
0 0 253
0 0 255
0 0 254
0 0 253
0 0 254
0 0 254
0 0 254
0 0 254
0 0 255
0 0 252
0 0 253
0 0 250
0 0 255
0 0 254
0 0 252
0 0 249
0 0 253
0 0 254
0 0 253
0 0 253
0 0 254
0 0 253
0 0 250
0 0 254
0 0 252
0 0 253
0 0 253
0 0 252
0 0 253
0 0 255
0 0 252
0 0 252
0 0 253
0 0 253
0 0 253
0 0 248
0 0 246
0 0 250
0 0 253
0 0 253
0 0 252
0 0 253
0 0 250
0 0 253
0 0 252
0 0 246
0 0 252
0 0 249
0 0 250
0 0 244
0 0 249
0 0 246
0 0 248
0 0 252
0 0 244
0 0 248
0 0 245
0 0 245
0 0 246
0 0 238
0 0 249
0 0 240
0 0 246
0 0 249
0 0 238
0 0 246
0 0 252
0 0 250
0 0 242
0 0 248
0 0 242
0 0 249
0 0 246
0 0 242
0 0 237
0 0 241
0 0 245
0 0 241
0 0 244
0 0 249
0 0 245
0 0 240
0 0 245
0 0 245
0 0 244
0 0 241
0 0 240
0 0 231
0 0 228
0 0 227
0 0 237
0 0 236
0 0 244
0 0 227
0 0 234
0 0 240
0 0 230
0 0 228
0 0 224
0 0 244
0 0 227
0 0 238
0 0 230
0 0 227
0 0 217
0 0 228
0 0 209
28 32 223
167 185 249
204 226 255
204 226 255
204 226 255
204 226 255
204 226 255
204 226 255
204 226 255
204 226 255
204 226 255
204 226 255
204 226 255
204 226 255
204 226 255
204 226 255
204 226 255
204 226 255
204 226 255
204 226 255
204 226 255
204 226 255
204 226 255
204 226 255
204 226 255
204 226 255
204 226 255
204 226 255
204 226 255
204 226 255
204 226 255
204 226 255
204 226 255
204 226 255
204 226 255
204 226 255
192 188 212
181 32 36
172 0 0
176 0 0
176 0 0
180 0 0
179 0 0
192 0 0
192 0 0
185 0 0
189 0 0
184 0 0
182 0 0
195 0 0
185 0 0
196 0 0
188 0 0
195 0 0
195 0 0
193 0 0
188 0 0
200 0 0
203 0 0
201 0 0
191 0 0
196 0 0
198 0 0
202 0 0
199 0 0
198 0 0
208 0 0
194 0 0
202 0 0
195 0 0
205 0 0
198 0 0
198 0 0
202 0 0
201 0 0
200 0 0
203 0 0
206 0 0
206 0 0
207 0 0
205 0 0
209 0 0
205 0 0
211 0 0
208 0 0
205 0 0
207 0 0
201 0 0
200 0 0
207 0 0
214 0 0
209 0 0
207 0 0
208 0 0
205 0 0
209 0 0
208 0 0
211 0 0
208 0 0
210 0 0
212 0 0
209 0 0
204 0 0
215 0 0
210 0 0
211 0 0
206 0 0
210 0 0
212 0 0
210 0 0
211 0 0
208 0 0
210 0 0
209 0 0
209 0 0
211 0 0
212 0 0
212 0 0
211 0 0
213 0 0
208 0 0
215 0 0
207 0 0
213 0 0
212 0 0
212 0 0
213 0 0
209 0 0
213 0 0
214 0 0
213 0 0
212 0 0
208 0 0
212 0 0
215 0 0
207 0 0
210 0 0
214 0 0
216 0 0
218 0 0
215 0 0
212 0 0
213 0 0
213 0 0
212 0 0
211 0 0
215 0 0
217 0 0
216 0 0
216 0 0
211 0 0
211 0 0
216 0 0
210 0 0
210 0 0
214 0 0
214 0 0
215 0 0
211 0 0
218 0 0
215 0 0
214 0 0
214 0 0
217 0 0
213 0 0
218 0 0
214 0 0
212 0 0
213 0 0
215 0 0
213 0 0
214 0 0
212 0 0
215 0 0
212 0 0
213 0 0
213 0 0
216 0 0
217 0 0
219 0 0
214 0 0
213 0 0
219 0 0
219 0 0
216 0 0
213 0 0
217 0 0
217 0 0
215 0 0
214 0 0
216 0 0
217 0 0
216 0 0
215 0 0
218 0 0
215 0 0
217 0 0
220 0 0
218 0 0
212 0 0
214 0 0
219 0 0
218 0 0
215 0 0
215 0 0
213 0 0
217 0 0
214 0 0
215 0 0
215 0 0
220 0 0
218 0 0
216 0 0
216 0 0
215 0 0
217 0 0
216 0 0
218 0 0
217 0 0
0 0 255
0 0 255
0 0 255
0 0 255
0 0 255
0 0 255
0 0 255
0 0 255
0 0 255
0 0 255
0 0 255
0 0 255
0 0 255
0 0 255
0 0 255
0 0 255
0 0 255
0 0 253
0 0 255
0 0 255
0 0 255
0 0 255
0 0 255
0 0 255
0 0 255
0 0 255
0 0 255
0 0 255
0 0 255
0 0 254
0 0 255
0 0 254
0 0 255
0 0 254
0 0 255
0 0 255
0 0 254
0 0 254
0 0 254
0 0 255
0 0 255
0 0 255
0 0 255
0 0 255
0 0 253
0 0 255
0 0 255
0 0 255
0 0 255
0 0 255
0 0 255
0 0 255
0 0 254
0 0 254
0 0 255
0 0 254
0 0 254
0 0 255
0 0 253
0 0 255
0 0 255
0 0 255
0 0 254
0 0 252
0 0 254
0 0 253
0 0 255
0 0 254
0 0 254
0 0 253
0 0 254
0 0 252
0 0 255
0 0 252
0 0 255
0 0 254
0 0 253
0 0 253
0 0 255
0 0 253
0 0 254
0 0 255
0 0 253
0 0 255
0 0 254
0 0 250
0 0 252
0 0 253
0 0 253
0 0 252
0 0 254
0 0 254
0 0 252
0 0 249
0 0 249
0 0 250
0 0 249
0 0 248
0 0 252
0 0 252
0 0 250
0 0 250
0 0 250
0 0 249
0 0 253
0 0 253
0 0 250
0 0 253
0 0 245
0 0 253
0 0 248
0 0 250
0 0 252
0 0 246
0 0 250
0 0 250
0 0 248
0 0 255
0 0 250
0 0 248
0 0 249
0 0 250
0 0 248
0 0 246
0 0 249
0 0 248
0 0 248
0 0 245
0 0 248
0 0 245
0 0 248
0 0 249
0 0 249
0 0 249
0 0 242
0 0 246
0 0 249
0 0 250
0 0 244
0 0 245
0 0 245
0 0 245
0 0 246
0 0 238
0 0 245
0 0 249
0 0 248
0 0 244
0 0 250
0 0 242
0 0 244
0 0 240
0 0 249
0 0 241
0 0 240
0 0 238
0 0 238
0 0 238
0 0 240
0 0 241
0 0 238
0 0 237
0 0 238
0 0 240
0 0 240
0 0 230
0 0 236
0 0 234
0 0 236
0 0 240
0 0 228
0 0 241
0 0 234
0 0 236
0 0 233
0 0 233
0 0 224
0 0 224
0 0 236
0 0 221
0 0 228
0 0 228
35 39 230
190 210 253
205 226 255
205 226 255
205 226 255
205 226 255
204 226 255
204 226 255
204 226 255
204 226 255
204 226 255
204 226 255
204 226 255
204 226 255
204 226 255
204 226 255
204 226 255
204 226 255
204 226 255
204 226 255
204 226 255
204 226 255
204 226 255
204 226 255
204 226 255
204 226 255
204 226 255
204 226 255
204 226 255
204 226 255
205 226 255
205 226 255
205 226 255
205 226 255
202 201 227
174 22 25
169 0 0
184 0 0
177 0 0
180 0 0
185 0 0
182 0 0
183 0 0
184 0 0
192 0 0
185 0 0
193 0 0
191 0 0
181 0 0
193 0 0
186 0 0
190 0 0
187 0 0
192 0 0
195 0 0
193 0 0
197 0 0
200 0 0
199 0 0
196 0 0
202 0 0
196 0 0
202 0 0
196 0 0
194 0 0
201 0 0
203 0 0
195 0 0
203 0 0
194 0 0
189 0 0
207 0 0
204 0 0
202 0 0
198 0 0
206 0 0
205 0 0
203 0 0
204 0 0
205 0 0
207 0 0
206 0 0
206 0 0
208 0 0
204 0 0
208 0 0
209 0 0
210 0 0
208 0 0
208 0 0
208 0 0
206 0 0
211 0 0
212 0 0
208 0 0
212 0 0
207 0 0
206 0 0
214 0 0
215 0 0
210 0 0
205 0 0
210 0 0
210 0 0
213 0 0
210 0 0
211 0 0
211 0 0
209 0 0
210 0 0
210 0 0
210 0 0
212 0 0
213 0 0
211 0 0
214 0 0
207 0 0
208 0 0
211 0 0
207 0 0
209 0 0
216 0 0
212 0 0
207 0 0
207 0 0
212 0 0
213 0 0
212 0 0
214 0 0
214 0 0
213 0 0
214 0 0
209 0 0
215 0 0
214 0 0
214 0 0
212 0 0
214 0 0
216 0 0
212 0 0
212 0 0
213 0 0
214 0 0
214 0 0
213 0 0
218 0 0
215 0 0
214 0 0
209 0 0
213 0 0
213 0 0
214 0 0
214 0 0
212 0 0
214 0 0
216 0 0
210 0 0
212 0 0
216 0 0
216 0 0
213 0 0
215 0 0
214 0 0
216 0 0
221 0 0
213 0 0
215 0 0
214 0 0
212 0 0
215 0 0
216 0 0
214 0 0
214 0 0
210 0 0
217 0 0
218 0 0
214 0 0
216 0 0
215 0 0
214 0 0
216 0 0
215 0 0
213 0 0
214 0 0
217 0 0
215 0 0
215 0 0
216 0 0
213 0 0
213 0 0
216 0 0
218 0 0
215 0 0
218 0 0
216 0 0
216 0 0
218 0 0
216 0 0
216 0 0
215 0 0
214 0 0
213 0 0
213 0 0
221 0 0
218 0 0
216 0 0
217 0 0
214 0 0
217 0 0
213 0 0
215 0 0
216 0 0
214 0 0
216 0 0
216 0 0
212 0 0
218 0 0
216 0 0
0 0 255
0 0 255
0 0 255
0 0 255
0 0 255
0 0 255
0 0 255
0 0 255
0 0 255
0 0 255
0 0 254
0 0 255
0 0 255
0 0 255
0 0 255
0 0 255
0 0 255
0 0 255
0 0 255
0 0 255
0 0 255
0 0 255
0 0 254
0 0 255
0 0 255
0 0 255
0 0 255
0 0 255
0 0 254
0 0 255
0 0 255
0 0 254
0 0 255
0 0 255
0 0 255
0 0 253
0 0 254
0 0 254
0 0 255
0 0 254
0 0 255
0 0 255
0 0 255
0 0 254
0 0 255
0 0 254
0 0 255
0 0 255
0 0 255
0 0 254
0 0 254
0 0 254
0 0 254
0 0 255
0 0 253
0 0 253
0 0 253
0 0 255
0 0 254
0 0 254
0 0 254
0 0 253
0 0 255
0 0 254
0 0 255
0 0 255
0 0 254
0 0 255
0 0 254
0 0 253
0 0 253
0 0 252
0 0 253
0 0 254
0 0 254
0 0 253
0 0 254
0 0 250
0 0 254
0 0 254
0 0 250
0 0 254
0 0 253
0 0 254
0 0 252
0 0 250
0 0 252
0 0 253
0 0 252
0 0 254
0 0 255
0 0 252
0 0 250
0 0 248
0 0 252
0 0 253
0 0 253
0 0 249
0 0 250
0 0 253
0 0 253
0 0 254
0 0 254
0 0 252
0 0 253
0 0 254
0 0 254
0 0 250
0 0 249
0 0 250
0 0 250
0 0 248
0 0 252
0 0 245
0 0 249
0 0 249
0 0 248
0 0 252
0 0 250
0 0 246
0 0 249
0 0 253
0 0 248
0 0 246
0 0 248
0 0 253
0 0 249
0 0 253
0 0 252
0 0 250
0 0 250
0 0 248
0 0 248
0 0 250
0 0 244
0 0 249
0 0 244
0 0 246
0 0 245
0 0 244
0 0 241
0 0 249
0 0 244
0 0 246
0 0 242
0 0 240
0 0 241
0 0 248
0 0 244
0 0 242
0 0 244
0 0 244
0 0 245
0 0 245
0 0 240
0 0 246
0 0 246
0 0 250
0 0 242
0 0 242
0 0 230
0 0 234
0 0 233
0 0 233
0 0 238
0 0 230
0 0 236
0 0 236
0 0 236
0 0 233
0 0 233
0 0 224
0 0 224
0 0 234
0 0 228
0 0 221
0 0 224
0 0 215
0 0 224
0 0 221
0 0 218
0 0 220
0 0 220
91 101 231
204 225 255
205 226 255
205 226 255
205 226 255
205 226 255
205 226 255
205 226 255
205 226 255
205 226 255
205 226 255
205 226 255
205 226 255
205 226 255
205 226 255
205 226 255
205 226 255
205 226 255
205 226 255
205 226 255
205 226 255
205 226 255
205 226 255
205 226 255
205 226 255
205 226 255
205 226 255
205 226 255
205 226 255
205 226 255
205 226 255
205 226 255
204 221 249
181 90 102
178 0 0
173 0 0
178 0 0
179 0 0
187 0 0
176 0 0
165 0 0
179 0 0
176 0 0
184 0 0
192 0 0
175 0 0
186 0 0
188 0 0
186 0 0
184 0 0
187 0 0
186 0 0
199 0 0
193 0 0
198 0 0
196 0 0
189 0 0
196 0 0
201 0 0
195 0 0
196 0 0
197 0 0
194 0 0
198 0 0
199 0 0
201 0 0
197 0 0
205 0 0
193 0 0
205 0 0
202 0 0
201 0 0
203 0 0
210 0 0
203 0 0
204 0 0
207 0 0
205 0 0
210 0 0
204 0 0
206 0 0
200 0 0
206 0 0
200 0 0
208 0 0
208 0 0
206 0 0
206 0 0
208 0 0
210 0 0
205 0 0
209 0 0
203 0 0
209 0 0
210 0 0
209 0 0
204 0 0
214 0 0
212 0 0
215 0 0
209 0 0
202 0 0
209 0 0
210 0 0
216 0 0
205 0 0
206 0 0
213 0 0
210 0 0
211 0 0
211 0 0
215 0 0
213 0 0
212 0 0
211 0 0
208 0 0
213 0 0
215 0 0
215 0 0
210 0 0
211 0 0
213 0 0
214 0 0
211 0 0
214 0 0
215 0 0
210 0 0
211 0 0
209 0 0
212 0 0
213 0 0
211 0 0
213 0 0
210 0 0
211 0 0
211 0 0
212 0 0
214 0 0
214 0 0
215 0 0
214 0 0
215 0 0
217 0 0
213 0 0
211 0 0
215 0 0
214 0 0
214 0 0
214 0 0
215 0 0
212 0 0
214 0 0
217 0 0
212 0 0
217 0 0
211 0 0
215 0 0
212 0 0
213 0 0
216 0 0
213 0 0
214 0 0
214 0 0
215 0 0
215 0 0
214 0 0
217 0 0
213 0 0
219 0 0
219 0 0
217 0 0
217 0 0
216 0 0
215 0 0
212 0 0
214 0 0
218 0 0
214 0 0
214 0 0
217 0 0
216 0 0
213 0 0
217 0 0
218 0 0
216 0 0
213 0 0
212 0 0
214 0 0
210 0 0
218 0 0
217 0 0
214 0 0
213 0 0
216 0 0
217 0 0
218 0 0
217 0 0
216 0 0
218 0 0
215 0 0
211 0 0
212 0 0
215 0 0
215 0 0
217 0 0
216 0 0
218 0 0
218 0 0
216 0 0
216 0 0
219 0 0
218 0 0
217 0 0
219 0 0
217 0 0
218 0 0
215 0 0
0 0 255
0 0 255
0 0 255
0 0 254
0 0 255
0 0 255
0 0 254
0 0 255
0 0 255
0 0 255
0 0 255
0 0 254
0 0 255
0 0 255
0 0 255
0 0 255
0 0 255
0 0 254
0 0 255
0 0 255
0 0 255
0 0 255
0 0 253
0 0 255
0 0 255
0 0 254
0 0 254
0 0 255
0 0 255
0 0 254
0 0 255
0 0 255
0 0 255
0 0 255
0 0 255
0 0 254
0 0 255
0 0 253
0 0 255
0 0 255
0 0 254
0 0 255
0 0 254
0 0 255
0 0 255
0 0 255
0 0 253
0 0 254
0 0 255
0 0 255
0 0 255
0 0 255
0 0 255
0 0 255
0 0 254
0 0 255
0 0 253
0 0 254
0 0 254
0 0 255
0 0 255
0 0 254
0 0 254
0 0 255
0 0 255
0 0 255
0 0 254
0 0 254
0 0 255
0 0 254
0 0 252
0 0 254
0 0 254
0 0 253
0 0 255
0 0 254
0 0 253
0 0 253
0 0 248
0 0 254
0 0 253
0 0 253
0 0 254
0 0 254
0 0 253
0 0 250
0 0 249
0 0 255
0 0 254
0 0 250
0 0 252
0 0 254
0 0 250
0 0 250
0 0 254
0 0 252
0 0 253
0 0 248
0 0 254
0 0 253
0 0 250
0 0 253
0 0 253
0 0 248
0 0 253
0 0 249
0 0 252
0 0 250
0 0 254
0 0 254
0 0 250
0 0 252
0 0 249
0 0 250
0 0 250
0 0 246
0 0 248
0 0 252
0 0 249
0 0 250
0 0 252
0 0 248
0 0 252
0 0 250
0 0 242
0 0 252
0 0 248
0 0 250
0 0 248
0 0 253
0 0 250
0 0 248
0 0 253
0 0 252
0 0 246
0 0 245
0 0 253
0 0 248
0 0 252
0 0 248
0 0 245
0 0 245
0 0 246
0 0 252
0 0 254
0 0 248
0 0 245
0 0 245
0 0 245
0 0 240
0 0 241
0 0 244
0 0 244
0 0 242
0 0 246
0 0 240
0 0 244
0 0 228
0 0 242
0 0 228
0 0 237
0 0 241
0 0 245
0 0 233
0 0 233
0 0 244
0 0 234
0 0 241
0 0 234
0 0 240
0 0 238
0 0 231
0 0 227
0 0 230
0 0 233
0 0 218
0 0 227
0 0 220
0 0 214
0 0 231
0 0 221
0 0 212
0 0 223
0 0 214
128 141 237
205 227 255
205 227 255
205 227 255
205 227 255
205 227 255
205 227 255
205 227 255
205 227 255
205 227 255
205 227 255
205 227 255
205 227 255
205 227 255
205 227 255
205 227 255
205 227 255
205 227 255
205 227 255
205 227 255
205 227 255
205 227 255
205 227 255
205 227 255
205 227 255
205 227 255
205 227 255
205 227 255
205 227 255
205 227 255
205 227 255
189 140 157
171 0 0
178 0 0
172 0 0
178 0 0
182 0 0
179 0 0
182 0 0
182 0 0
191 0 0
192 0 0
184 0 0
186 0 0
187 0 0
187 0 0
190 0 0
193 0 0
188 0 0
190 0 0
197 0 0
189 0 0
195 0 0
189 0 0
190 0 0
197 0 0
194 0 0
199 0 0
184 0 0
198 0 0
198 0 0
195 0 0
202 0 0
190 0 0
195 0 0
198 0 0
203 0 0
201 0 0
204 0 0
211 0 0
207 0 0
200 0 0
200 0 0
208 0 0
205 0 0
201 0 0
204 0 0
202 0 0
209 0 0
201 0 0
201 0 0
211 0 0
207 0 0
209 0 0
210 0 0
210 0 0
203 0 0
203 0 0
207 0 0
213 0 0
209 0 0
207 0 0
208 0 0
208 0 0
213 0 0
208 0 0
216 0 0
208 0 0
210 0 0
207 0 0
208 0 0
216 0 0
208 0 0
209 0 0
212 0 0
209 0 0
210 0 0
210 0 0
211 0 0
213 0 0
208 0 0
213 0 0
203 0 0
215 0 0
211 0 0
206 0 0
214 0 0
211 0 0
214 0 0
214 0 0
211 0 0
214 0 0
217 0 0
213 0 0
214 0 0
214 0 0
213 0 0
210 0 0
214 0 0
209 0 0
213 0 0
210 0 0
214 0 0
214 0 0
215 0 0
210 0 0
207 0 0
218 0 0
215 0 0
216 0 0
214 0 0
214 0 0
215 0 0
212 0 0
215 0 0
214 0 0
211 0 0
215 0 0
216 0 0
214 0 0
212 0 0
212 0 0
214 0 0
216 0 0
212 0 0
216 0 0
212 0 0
215 0 0
214 0 0
214 0 0
216 0 0
215 0 0
216 0 0
215 0 0
217 0 0
215 0 0
217 0 0
216 0 0
216 0 0
216 0 0
217 0 0
212 0 0
213 0 0
214 0 0
214 0 0
218 0 0
216 0 0
216 0 0
214 0 0
216 0 0
213 0 0
219 0 0
216 0 0
216 0 0
217 0 0
215 0 0
213 0 0
213 0 0
215 0 0
217 0 0
216 0 0
215 0 0
216 0 0
220 0 0
220 0 0
217 0 0
217 0 0
215 0 0
216 0 0
215 0 0
211 0 0
215 0 0
215 0 0
216 0 0
215 0 0
214 0 0
217 0 0
218 0 0
214 0 0
216 0 0
215 0 0
216 0 0
215 0 0
214 0 0
216 0 0
219 0 0
0 0 255
0 0 255
0 0 255
0 0 255
0 0 255
0 0 255
0 0 255
0 0 255
0 0 255
0 0 255
0 0 255
0 0 255
0 0 254
0 0 255
0 0 255
0 0 255
0 0 255
0 0 255
0 0 255
0 0 255
0 0 255
0 0 255
0 0 255
0 0 254
0 0 255
0 0 255
0 0 255
0 0 255
0 0 254
0 0 255
0 0 255
0 0 254
0 0 255
0 0 254
0 0 254
0 0 255
0 0 255
0 0 254
0 0 254
0 0 255
0 0 255
0 0 255
0 0 254
0 0 255
0 0 255
0 0 254
0 0 255
0 0 255
0 0 254
0 0 254
0 0 253
0 0 255
0 0 255
0 0 254
0 0 253
0 0 254
0 0 255
0 0 253
0 0 255
0 0 255
0 0 255
0 0 255
0 0 254
0 0 252
0 0 252
0 0 253
0 0 255
0 0 254
0 0 255
0 0 254
0 0 252
0 0 255
0 0 254
0 0 253
0 0 253
0 0 252
0 0 255
0 0 252
0 0 254
0 0 253
0 0 253
0 0 255
0 0 255
0 0 254
0 0 254
0 0 253
0 0 254
0 0 249
0 0 249
0 0 254
0 0 252
0 0 252
0 0 254
0 0 253
0 0 252
0 0 254
0 0 253
0 0 253
0 0 253
0 0 255
0 0 250
0 0 250
0 0 253
0 0 252
0 0 252
0 0 250
0 0 248
0 0 253
0 0 248
0 0 250
0 0 254
0 0 250
0 0 252
0 0 253
0 0 254
0 0 252
0 0 252
0 0 248
0 0 249
0 0 245
0 0 248
0 0 249
0 0 254
0 0 252
0 0 250
0 0 249
0 0 249
0 0 252
0 0 248
0 0 250
0 0 246
0 0 248
0 0 250
0 0 245
0 0 245
0 0 252
0 0 242
0 0 240
0 0 250
0 0 250
0 0 246
0 0 248
0 0 242
0 0 242
0 0 244
0 0 242
0 0 245
0 0 244
0 0 238
0 0 246
0 0 245
0 0 240
0 0 245
0 0 236
0 0 236
0 0 241
0 0 241
0 0 237
0 0 248
0 0 236
0 0 240
0 0 236
0 0 237
0 0 234
0 0 231
0 0 230
0 0 228
0 0 233
0 0 238
0 0 227
0 0 230
0 0 240
0 0 230
0 0 228
0 0 228
0 0 228
0 0 227
0 0 220
0 0 237
0 0 223
0 0 218
0 0 223
0 0 218
0 0 214
0 0 215
177 195 246
205 227 255
205 227 255
205 227 255
205 227 255
205 227 255
205 227 255
205 227 255
205 227 255
205 227 255
205 227 255
205 227 255
205 227 255
205 227 255
205 227 255
205 227 255
205 227 255
205 227 255
205 227 255
205 227 255
205 227 255
205 227 255
205 227 255
205 227 255
205 227 255
205 227 255
205 227 255
205 227 255
205 227 255
192 176 198
167 0 0
169 0 0
166 0 0
170 0 0
171 0 0
183 0 0
187 0 0
183 0 0
184 0 0
184 0 0
193 0 0
182 0 0
179 0 0
184 0 0
182 0 0
184 0 0
188 0 0
195 0 0
197 0 0
203 0 0
194 0 0
196 0 0
199 0 0
197 0 0
206 0 0
193 0 0
200 0 0
201 0 0
193 0 0
204 0 0
202 0 0
202 0 0
207 0 0
206 0 0
204 0 0
197 0 0
206 0 0
201 0 0
206 0 0
204 0 0
204 0 0
200 0 0
201 0 0
205 0 0
209 0 0
204 0 0
200 0 0
203 0 0
202 0 0
205 0 0
203 0 0
206 0 0
208 0 0
209 0 0
210 0 0
201 0 0
209 0 0
207 0 0
211 0 0
209 0 0
206 0 0
209 0 0
206 0 0
215 0 0
205 0 0
207 0 0
209 0 0
208 0 0
213 0 0
206 0 0
214 0 0
209 0 0
213 0 0
212 0 0
213 0 0
209 0 0
212 0 0
212 0 0
209 0 0
214 0 0
205 0 0
209 0 0
213 0 0
211 0 0
212 0 0
212 0 0
214 0 0
216 0 0
216 0 0
208 0 0
215 0 0
214 0 0
211 0 0
211 0 0
213 0 0
213 0 0
213 0 0
211 0 0
217 0 0
211 0 0
211 0 0
214 0 0
215 0 0
211 0 0
215 0 0
212 0 0
215 0 0
213 0 0
217 0 0
216 0 0
215 0 0
212 0 0
210 0 0
217 0 0
215 0 0
214 0 0
212 0 0
212 0 0
212 0 0
220 0 0
216 0 0
213 0 0
211 0 0
218 0 0
215 0 0
211 0 0
217 0 0
217 0 0
214 0 0
214 0 0
212 0 0
215 0 0
219 0 0
213 0 0
210 0 0
215 0 0
214 0 0
218 0 0
216 0 0
216 0 0
219 0 0
211 0 0
214 0 0
217 0 0
215 0 0
213 0 0
215 0 0
221 0 0
217 0 0
215 0 0
216 0 0
213 0 0
216 0 0
216 0 0
215 0 0
214 0 0
216 0 0
215 0 0
214 0 0
216 0 0
211 0 0
221 0 0
217 0 0
215 0 0
216 0 0
216 0 0
221 0 0
215 0 0
217 0 0
213 0 0
215 0 0
216 0 0
220 0 0
217 0 0
217 0 0
216 0 0
216 0 0
215 0 0
217 0 0
219 0 0
216 0 0
216 0 0
217 0 0
215 0 0
216 0 0
0 0 255
0 0 255
0 0 255
0 0 255
0 0 255
0 0 255
0 0 255
0 0 255
0 0 255
0 0 255
0 0 255
0 0 255
0 0 254
0 0 255
0 0 255
0 0 255
0 0 255
0 0 255
0 0 255
0 0 255
0 0 255
0 0 254
0 0 255
0 0 255
0 0 254
0 0 255
0 0 255
0 0 255
0 0 255
0 0 255
0 0 255
0 0 253
0 0 254
0 0 255
0 0 255
0 0 255
0 0 254
0 0 255
0 0 254
0 0 255
0 0 255
0 0 255
0 0 254
0 0 255
0 0 255
0 0 255
0 0 253
0 0 255
0 0 255
0 0 252
0 0 254
0 0 254
0 0 255
0 0 254
0 0 254
0 0 253
0 0 254
0 0 255
0 0 255
0 0 254
0 0 255
0 0 255
0 0 254
0 0 254
0 0 254
0 0 252
0 0 254
0 0 255
0 0 255
0 0 255
0 0 250
0 0 255
0 0 253
0 0 252
0 0 254
0 0 254
0 0 254
0 0 253
0 0 254
0 0 255
0 0 253
0 0 253
0 0 253
0 0 254
0 0 255
0 0 252
0 0 254
0 0 253
0 0 253
0 0 254
0 0 249
0 0 253
0 0 248
0 0 254
0 0 252
0 0 254
0 0 254
0 0 253
0 0 246
0 0 252
0 0 252
0 0 252
0 0 253
0 0 253
0 0 254
0 0 254
0 0 252
0 0 249
0 0 250
0 0 246
0 0 253
0 0 252
0 0 250
0 0 253
0 0 244
0 0 252
0 0 248
0 0 250
0 0 253
0 0 254
0 0 246
0 0 248
0 0 253
0 0 248
0 0 248
0 0 244
0 0 252
0 0 252
0 0 242
0 0 249
0 0 246
0 0 242
0 0 249
0 0 242
0 0 246
0 0 246
0 0 242
0 0 252
0 0 248
0 0 248
0 0 246
0 0 248
0 0 246
0 0 241
0 0 244
0 0 249
0 0 248
0 0 245
0 0 242
0 0 242
0 0 230
0 0 241
0 0 231
0 0 240
0 0 236
0 0 246
0 0 234
0 0 248
0 0 234
0 0 237
0 0 242
0 0 238
0 0 236
0 0 234
0 0 234
0 0 242
0 0 230
0 0 234
0 0 233
0 0 228
0 0 240
0 0 230
0 0 227
0 0 240
0 0 227
0 0 233
0 0 233
0 0 226
0 0 215
0 0 240
0 0 214
0 0 220
0 0 220
0 0 220
0 0 220
35 39 204
189 208 246
206 227 255
206 227 255
206 227 255
206 227 255
206 227 255
206 227 255
206 227 255
206 227 255
206 227 255
206 227 255
206 227 255
206 227 255
206 227 255
206 227 255
206 227 255
206 227 255
206 227 255
206 227 255
206 227 255
206 227 255
206 227 255
206 227 255
206 227 255
206 227 255
206 227 255
206 227 255
201 216 244
176 64 72
157 0 0
169 0 0
165 0 0
185 0 0
178 0 0
178 0 0
170 0 0
175 0 0
184 0 0
168 0 0
182 0 0
195 0 0
180 0 0
187 0 0
184 0 0
184 0 0
199 0 0
190 0 0
192 0 0
199 0 0
197 0 0
193 0 0
191 0 0
182 0 0
194 0 0
191 0 0
196 0 0
200 0 0
199 0 0
201 0 0
203 0 0
196 0 0
196 0 0
194 0 0
200 0 0
199 0 0
203 0 0
201 0 0
202 0 0
203 0 0
207 0 0
205 0 0
208 0 0
207 0 0
205 0 0
207 0 0
212 0 0
202 0 0
211 0 0
209 0 0
206 0 0
205 0 0
200 0 0
210 0 0
202 0 0
209 0 0
205 0 0
204 0 0
208 0 0
212 0 0
212 0 0
207 0 0
212 0 0
212 0 0
213 0 0
206 0 0
212 0 0
213 0 0
211 0 0
211 0 0
208 0 0
211 0 0
212 0 0
212 0 0
214 0 0
209 0 0
210 0 0
215 0 0
211 0 0
213 0 0
213 0 0
215 0 0
206 0 0
208 0 0
210 0 0
208 0 0
215 0 0
212 0 0
211 0 0
214 0 0
213 0 0
216 0 0
212 0 0
212 0 0
213 0 0
216 0 0
215 0 0
214 0 0
212 0 0
217 0 0
212 0 0
213 0 0
216 0 0
215 0 0
215 0 0
213 0 0
214 0 0
209 0 0
214 0 0
215 0 0
216 0 0
214 0 0
214 0 0
213 0 0
213 0 0
216 0 0
214 0 0
213 0 0
213 0 0
216 0 0
214 0 0
215 0 0
215 0 0
213 0 0
216 0 0
217 0 0
216 0 0
215 0 0
218 0 0
212 0 0
216 0 0
214 0 0
214 0 0
217 0 0
215 0 0
216 0 0
212 0 0
217 0 0
214 0 0
214 0 0
219 0 0
216 0 0
217 0 0
215 0 0
216 0 0
215 0 0
218 0 0
216 0 0
217 0 0
216 0 0
215 0 0
213 0 0
215 0 0
219 0 0
213 0 0
216 0 0
216 0 0
218 0 0
219 0 0
216 0 0
213 0 0
215 0 0
217 0 0
214 0 0
218 0 0
218 0 0
216 0 0
217 0 0
212 0 0
217 0 0
217 0 0
214 0 0
214 0 0
217 0 0
214 0 0
216 0 0
217 0 0
215 0 0
212 0 0
216 0 0
216 0 0
217 0 0
215 0 0
211 0 0
214 0 0
0 0 255
0 0 255
0 0 255
0 0 255
0 0 255
0 0 255
0 0 255
0 0 255
0 0 255
0 0 255
0 0 255
0 0 255
0 0 254
0 0 254
0 0 255
0 0 255
0 0 255
0 0 255
0 0 255
0 0 255
0 0 255
0 0 255
0 0 255
0 0 254
0 0 255
0 0 255
0 0 255
0 0 255
0 0 255
0 0 255
0 0 254
0 0 255
0 0 255
0 0 255
0 0 255
0 0 255
0 0 254
0 0 255
0 0 254
0 0 255
0 0 254
0 0 254
0 0 254
0 0 254
0 0 254
0 0 255
0 0 255
0 0 253
0 0 255
0 0 254
0 0 253
0 0 255
0 0 255
0 0 254
0 0 255
0 0 255
0 0 255
0 0 253
0 0 250
0 0 254
0 0 254
0 0 254
0 0 254
0 0 253
0 0 255
0 0 253
0 0 254
0 0 252
0 0 255
0 0 255
0 0 254
0 0 254
0 0 254
0 0 253
0 0 255
0 0 254
0 0 254
0 0 253
0 0 250
0 0 254
0 0 255
0 0 254
0 0 253
0 0 250
0 0 252
0 0 253
0 0 252
0 0 253
0 0 254
0 0 254
0 0 252
0 0 250
0 0 254
0 0 254
0 0 254
0 0 252
0 0 253
0 0 253
0 0 252
0 0 255
0 0 254
0 0 252
0 0 255
0 0 250
0 0 253
0 0 252
0 0 254
0 0 253
0 0 252
0 0 255
0 0 252
0 0 248
0 0 254
0 0 252
0 0 250
0 0 253
0 0 252
0 0 245
0 0 249
0 0 252
0 0 241
0 0 250
0 0 250
0 0 250
0 0 253
0 0 250
0 0 248
0 0 248
0 0 255
0 0 245
0 0 250
0 0 250
0 0 253
0 0 246
0 0 250
0 0 250
0 0 246
0 0 249
0 0 242
0 0 246
0 0 245
0 0 244
0 0 242
0 0 244
0 0 246
0 0 250
0 0 246
0 0 252
0 0 244
0 0 252
0 0 242
0 0 241
0 0 244
0 0 244
0 0 240
0 0 244
0 0 245
0 0 244
0 0 238
0 0 246
0 0 244
0 0 233
0 0 241
0 0 236
0 0 233
0 0 233
0 0 234
0 0 233
0 0 230
0 0 238
0 0 237
0 0 236
0 0 233
0 0 226
0 0 230
0 0 223
0 0 221
0 0 238
0 0 218
0 0 227
0 0 212
0 0 221
0 0 217
0 0 212
0 0 221
0 0 206
111 122 241
205 226 255
206 227 255
206 227 255
206 227 255
206 227 255
206 227 255
206 227 255
206 227 255
206 227 255
206 227 255
206 227 255
206 227 255
206 227 255
206 227 255
206 227 255
206 227 255
206 227 255
206 227 255
206 227 255
206 227 255
206 227 255
206 227 255
206 227 255
206 227 255
206 227 255
206 227 255
185 128 144
162 0 0
183 0 0
177 0 0
172 0 0
176 0 0
174 0 0
179 0 0
189 0 0
176 0 0
189 0 0
178 0 0
190 0 0
185 0 0
191 0 0
182 0 0
188 0 0
194 0 0
197 0 0
189 0 0
185 0 0
197 0 0
195 0 0
198 0 0
193 0 0
191 0 0
200 0 0
198 0 0
193 0 0
200 0 0
202 0 0
200 0 0
204 0 0
205 0 0
194 0 0
199 0 0
193 0 0
197 0 0
199 0 0
209 0 0
206 0 0
206 0 0
206 0 0
200 0 0
206 0 0
201 0 0
204 0 0
206 0 0
212 0 0
193 0 0
201 0 0
206 0 0
207 0 0
204 0 0
209 0 0
211 0 0
201 0 0
206 0 0
211 0 0
211 0 0
202 0 0
207 0 0
209 0 0
213 0 0
204 0 0
208 0 0
208 0 0
205 0 0
205 0 0
208 0 0
209 0 0
208 0 0
209 0 0
209 0 0
210 0 0
212 0 0
210 0 0
212 0 0
213 0 0
209 0 0
208 0 0
213 0 0
211 0 0
211 0 0
211 0 0
214 0 0
212 0 0
211 0 0
214 0 0
212 0 0
215 0 0
213 0 0
211 0 0
215 0 0
215 0 0
210 0 0
210 0 0
210 0 0
216 0 0
216 0 0
210 0 0
214 0 0
213 0 0
215 0 0
215 0 0
215 0 0
211 0 0
217 0 0
213 0 0
214 0 0
212 0 0
219 0 0
212 0 0
211 0 0
207 0 0
217 0 0
215 0 0
217 0 0
217 0 0
215 0 0
215 0 0
213 0 0
216 0 0
213 0 0
213 0 0
217 0 0
213 0 0
213 0 0
214 0 0
218 0 0
217 0 0
216 0 0
213 0 0
215 0 0
217 0 0
215 0 0
215 0 0
214 0 0
216 0 0
215 0 0
219 0 0
214 0 0
216 0 0
217 0 0
214 0 0
212 0 0
214 0 0
215 0 0
219 0 0
218 0 0
218 0 0
215 0 0
212 0 0
217 0 0
219 0 0
219 0 0
216 0 0
217 0 0
218 0 0
217 0 0
218 0 0
217 0 0
216 0 0
214 0 0
216 0 0
215 0 0
217 0 0
217 0 0
216 0 0
217 0 0
217 0 0
218 0 0
215 0 0
217 0 0
217 0 0
214 0 0
217 0 0
213 0 0
215 0 0
217 0 0
220 0 0
216 0 0
215 0 0
215 0 0
213 0 0
217 0 0
218 0 0
0 0 255
0 0 255
0 0 255
0 0 255
0 0 255
0 0 255
0 0 255
0 0 255
0 0 255
0 0 255
0 0 255
0 0 255
0 0 255
0 0 255
0 0 254
0 0 255
0 0 255
0 0 255
0 0 255
0 0 255
0 0 255
0 0 254
0 0 255
0 0 255
0 0 255
0 0 254
0 0 254
0 0 254
0 0 255
0 0 255
0 0 255
0 0 254
0 0 255
0 0 255
0 0 255
0 0 254
0 0 255
0 0 255
0 0 255
0 0 255
0 0 255
0 0 254
0 0 255
0 0 255
0 0 253
0 0 255
0 0 255
0 0 255
0 0 254
0 0 255
0 0 255
0 0 255
0 0 255
0 0 254
0 0 254
0 0 255
0 0 255
0 0 252
0 0 255
0 0 254
0 0 253
0 0 255
0 0 253
0 0 255
0 0 253
0 0 254
0 0 253
0 0 253
0 0 253
0 0 254
0 0 255
0 0 255
0 0 255
0 0 254
0 0 254
0 0 253
0 0 253
0 0 253
0 0 254
0 0 253
0 0 253
0 0 255
0 0 253
0 0 255
0 0 252
0 0 252
0 0 254
0 0 252
0 0 254
0 0 254
0 0 252
0 0 252
0 0 253
0 0 254
0 0 249
0 0 253
0 0 253
0 0 253
0 0 250
0 0 254
0 0 252
0 0 253
0 0 254
0 0 254
0 0 248
0 0 254
0 0 249
0 0 250
0 0 250
0 0 250
0 0 253
0 0 252
0 0 249
0 0 246
0 0 250
0 0 252
0 0 250
0 0 250
0 0 250
0 0 250
0 0 250
0 0 254
0 0 249
0 0 244
0 0 249
0 0 245
0 0 249
0 0 248
0 0 250
0 0 245
0 0 246
0 0 242
0 0 252
0 0 252
0 0 249
0 0 248
0 0 249
0 0 244
0 0 237
0 0 245
0 0 242
0 0 245
0 0 242
0 0 248
0 0 242
0 0 238
0 0 245
0 0 238
0 0 236
0 0 245
0 0 237
0 0 241
0 0 242
0 0 246
0 0 244
0 0 240
0 0 240
0 0 242
0 0 242
0 0 242
0 0 237
0 0 237
0 0 237
0 0 241
0 0 236
0 0 233
0 0 233
0 0 218
0 0 237
0 0 230
0 0 227
0 0 231
0 0 228
0 0 227
0 0 226
0 0 220
0 0 221
0 0 220
0 0 221
0 0 228
0 0 230
0 0 211
0 0 217
0 0 215
0 0 207
0 0 217
0 0 204
152 167 234
206 227 255
206 227 255
206 227 255
206 227 255
206 227 255
206 227 255
206 227 255
206 227 255
206 227 255
206 227 255
206 227 255
206 227 255
206 227 255
206 227 255
206 227 255
206 227 255
206 227 255
206 227 255
206 227 255
206 227 255
206 227 255
206 227 255
206 227 255
206 227 255
191 174 196
160 0 0
164 0 0
170 0 0
161 0 0
175 0 0
161 0 0
183 0 0
177 0 0
177 0 0
189 0 0
188 0 0
175 0 0
190 0 0
182 0 0
188 0 0
185 0 0
181 0 0
193 0 0
192 0 0
189 0 0
179 0 0
195 0 0
191 0 0
196 0 0
189 0 0
198 0 0
203 0 0
199 0 0
191 0 0
191 0 0
193 0 0
198 0 0
202 0 0
200 0 0
198 0 0
200 0 0
195 0 0
199 0 0
202 0 0
203 0 0
203 0 0
198 0 0
207 0 0
203 0 0
206 0 0
203 0 0
203 0 0
206 0 0
206 0 0
212 0 0
208 0 0
204 0 0
207 0 0
210 0 0
211 0 0
199 0 0
213 0 0
208 0 0
212 0 0
208 0 0
210 0 0
210 0 0
210 0 0
206 0 0
212 0 0
207 0 0
210 0 0
203 0 0
212 0 0
209 0 0
210 0 0
218 0 0
207 0 0
208 0 0
210 0 0
208 0 0
209 0 0
213 0 0
214 0 0
211 0 0
213 0 0
214 0 0
211 0 0
215 0 0
207 0 0
212 0 0
216 0 0
211 0 0
213 0 0
210 0 0
211 0 0
211 0 0
208 0 0
213 0 0
212 0 0
214 0 0
214 0 0
211 0 0
213 0 0
214 0 0
211 0 0
216 0 0
214 0 0
215 0 0
215 0 0
217 0 0
213 0 0
213 0 0
213 0 0
214 0 0
215 0 0
214 0 0
213 0 0
220 0 0
213 0 0
215 0 0
216 0 0
213 0 0
217 0 0
211 0 0
210 0 0
218 0 0
213 0 0
214 0 0
213 0 0
215 0 0
210 0 0
216 0 0
216 0 0
214 0 0
213 0 0
213 0 0
215 0 0
213 0 0
217 0 0
214 0 0
217 0 0
219 0 0
214 0 0
214 0 0
213 0 0
214 0 0
216 0 0
216 0 0
216 0 0
215 0 0
211 0 0
216 0 0
216 0 0
214 0 0
216 0 0
216 0 0
213 0 0
215 0 0
218 0 0
215 0 0
215 0 0
217 0 0
217 0 0
216 0 0
213 0 0
217 0 0
218 0 0
217 0 0
215 0 0
217 0 0
215 0 0
216 0 0
212 0 0
215 0 0
213 0 0
216 0 0
215 0 0
216 0 0
218 0 0
220 0 0
216 0 0
216 0 0
213 0 0
216 0 0
215 0 0
217 0 0
216 0 0
216 0 0
211 0 0
218 0 0
217 0 0
0 0 255
0 0 255
0 0 255
0 0 255
0 0 255
0 0 255
0 0 255
0 0 255
0 0 255
0 0 255
0 0 255
0 0 255
0 0 255
0 0 255
0 0 255
0 0 255
0 0 255
0 0 255
0 0 255
0 0 255
0 0 254
0 0 255
0 0 255
0 0 255
0 0 255
0 0 255
0 0 254
0 0 255
0 0 255
0 0 255
0 0 255
0 0 254
0 0 255
0 0 255
0 0 255
0 0 255
0 0 254
0 0 255
0 0 255
0 0 254
0 0 255
0 0 255
0 0 254
0 0 254
0 0 255
0 0 255
0 0 255
0 0 255
0 0 255
0 0 254
0 0 255
0 0 255
0 0 253
0 0 255
0 0 255
0 0 253
0 0 253
0 0 254
0 0 250
0 0 253
0 0 255
0 0 255
0 0 254
0 0 254
0 0 255
0 0 254
0 0 255
0 0 255
0 0 253
0 0 254
0 0 254
0 0 254
0 0 253
0 0 254
0 0 250
0 0 253
0 0 255
0 0 255
0 0 252
0 0 252
0 0 255
0 0 254
0 0 253
0 0 252
0 0 254
0 0 252
0 0 254
0 0 253
0 0 254
0 0 250
0 0 255
0 0 249
0 0 249
0 0 254
0 0 252
0 0 252
0 0 253
0 0 246
0 0 252
0 0 249
0 0 254
0 0 255
0 0 253
0 0 255
0 0 254
0 0 249
0 0 250
0 0 249
0 0 246
0 0 250
0 0 245
0 0 254
0 0 252
0 0 249
0 0 249
0 0 253
0 0 250
0 0 253
0 0 252
0 0 250
0 0 248
0 0 248
0 0 250
0 0 248
0 0 252
0 0 244
0 0 250
0 0 249
0 0 246
0 0 250
0 0 246
0 0 246
0 0 248
0 0 246
0 0 246
0 0 249
0 0 250
0 0 237
0 0 242
0 0 240
0 0 248
0 0 248
0 0 245
0 0 246
0 0 241
0 0 245
0 0 242
0 0 238
0 0 242
0 0 242
0 0 237
0 0 238
0 0 242
0 0 240
0 0 245
0 0 248
0 0 236
0 0 238
0 0 244
0 0 230
0 0 223
0 0 236
0 0 231
0 0 227
0 0 248
0 0 236
0 0 231
0 0 230
0 0 228
0 0 228
0 0 228
0 0 228
0 0 236
0 0 218
0 0 226
0 0 231
0 0 215
0 0 214
0 0 218
0 0 221
0 0 209
0 0 211
0 0 207
0 0 212
0 0 217
0 0 217
0 0 203
46 50 215
197 217 252
207 227 255
207 227 255
207 227 255
207 227 255
207 227 255
207 227 255
207 227 255
207 227 255
207 227 255
207 227 255
207 227 255
207 227 255
207 227 255
207 227 255
207 227 255
207 227 255
207 227 255
207 227 255
207 227 255
207 227 255
207 227 255
207 227 255
205 219 246
170 32 36
156 0 0
166 0 0
169 0 0
168 0 0
164 0 0
174 0 0
174 0 0
177 0 0
182 0 0
184 0 0
177 0 0
182 0 0
191 0 0
195 0 0
190 0 0
185 0 0
198 0 0
188 0 0
192 0 0
187 0 0
190 0 0
200 0 0
195 0 0
195 0 0
208 0 0
196 0 0
197 0 0
204 0 0
201 0 0
196 0 0
192 0 0
200 0 0
201 0 0
198 0 0
199 0 0
201 0 0
197 0 0
197 0 0
204 0 0
200 0 0
200 0 0
208 0 0
206 0 0
203 0 0
203 0 0
207 0 0
208 0 0
197 0 0
208 0 0
205 0 0
211 0 0
204 0 0
209 0 0
209 0 0
208 0 0
205 0 0
209 0 0
212 0 0
204 0 0
212 0 0
206 0 0
210 0 0
203 0 0
212 0 0
214 0 0
212 0 0
210 0 0
207 0 0
209 0 0
211 0 0
215 0 0
209 0 0
213 0 0
211 0 0
212 0 0
211 0 0
216 0 0
210 0 0
211 0 0
215 0 0
208 0 0
219 0 0
211 0 0
210 0 0
206 0 0
213 0 0
210 0 0
212 0 0
215 0 0
215 0 0
214 0 0
211 0 0
217 0 0
211 0 0
213 0 0
214 0 0
210 0 0
217 0 0
205 0 0
217 0 0
215 0 0
209 0 0
212 0 0
210 0 0
215 0 0
215 0 0
214 0 0
212 0 0
212 0 0
215 0 0
212 0 0
209 0 0
215 0 0
211 0 0
218 0 0
214 0 0
211 0 0
215 0 0
213 0 0
216 0 0
214 0 0
215 0 0
215 0 0
216 0 0
218 0 0
214 0 0
216 0 0
215 0 0
216 0 0
216 0 0
215 0 0
210 0 0
220 0 0
214 0 0
216 0 0
213 0 0
214 0 0
214 0 0
213 0 0
214 0 0
219 0 0
215 0 0
216 0 0
220 0 0
212 0 0
216 0 0
216 0 0
216 0 0
217 0 0
221 0 0
215 0 0
215 0 0
218 0 0
220 0 0
218 0 0
214 0 0
218 0 0
218 0 0
213 0 0
217 0 0
214 0 0
219 0 0
218 0 0
218 0 0
215 0 0
218 0 0
215 0 0
216 0 0
219 0 0
217 0 0
215 0 0
212 0 0
217 0 0
217 0 0
213 0 0
219 0 0
217 0 0
216 0 0
215 0 0
216 0 0
218 0 0
213 0 0
219 0 0
214 0 0
215 0 0
218 0 0
216 0 0
0 0 255
0 0 255
0 0 255
0 0 255
0 0 255
0 0 255
0 0 255
0 0 255
0 0 255
0 0 255
0 0 255
0 0 255
0 0 255
0 0 255
0 0 255
0 0 255
0 0 255
0 0 255
0 0 255
0 0 255
0 0 255
0 0 255
0 0 254
0 0 255
0 0 255
0 0 255
0 0 255
0 0 253
0 0 254
0 0 254
0 0 252
0 0 255
0 0 254
0 0 253
0 0 255
0 0 254
0 0 255
0 0 254
0 0 253
0 0 255
0 0 254
0 0 254
0 0 255
0 0 254
0 0 254
0 0 255
0 0 255
0 0 254
0 0 255
0 0 254
0 0 254
0 0 254
0 0 254
0 0 255
0 0 254
0 0 254
0 0 253
0 0 254
0 0 253
0 0 255
0 0 255
0 0 254
0 0 255
0 0 254
0 0 255
0 0 255
0 0 249
0 0 249
0 0 254
0 0 253
0 0 253
0 0 253
0 0 254
0 0 254
0 0 253
0 0 255
0 0 253
0 0 253
0 0 253
0 0 252
0 0 253
0 0 254
0 0 255
0 0 254
0 0 255
0 0 255
0 0 255
0 0 253
0 0 254
0 0 255
0 0 250
0 0 255
0 0 252
0 0 253
0 0 250
0 0 250
0 0 253
0 0 255
0 0 250
0 0 253
0 0 253
0 0 252
0 0 254
0 0 250
0 0 255
0 0 253
0 0 254
0 0 249
0 0 249
0 0 252
0 0 252
0 0 250
0 0 248
0 0 254
0 0 249
0 0 254
0 0 253
0 0 250
0 0 250
0 0 249
0 0 252
0 0 248
0 0 253
0 0 248
0 0 244
0 0 245
0 0 249
0 0 246
0 0 248
0 0 242
0 0 246
0 0 246
0 0 250
0 0 241
0 0 248
0 0 245
0 0 248
0 0 249
0 0 246
0 0 249
0 0 242
0 0 248
0 0 253
0 0 246
0 0 252
0 0 245
0 0 249
0 0 242
0 0 244
0 0 240
0 0 242
0 0 244
0 0 242
0 0 238
0 0 241
0 0 237
0 0 240
0 0 245
0 0 236
0 0 240
0 0 237
0 0 233
0 0 238
0 0 234
0 0 238
0 0 234
0 0 241
0 0 231
0 0 237
0 0 236
0 0 220
0 0 223
0 0 226
0 0 228
0 0 236
0 0 217
0 0 228
0 0 211
0 0 211
0 0 226
0 0 212
0 0 212
0 0 227
0 0 211
0 0 207
0 0 204
0 0 214
0 0 209
119 131 223
207 228 255
207 228 255
207 228 255
207 228 255
207 228 255
207 228 255
207 228 255
207 228 255
207 228 255
207 228 255
207 228 255
207 228 255
207 228 255
207 228 255
207 228 255
207 228 255
207 228 255
207 228 255
207 228 255
207 228 255
207 228 255
207 228 255
170 133 149
166 0 0
175 0 0
173 0 0
179 0 0
175 0 0
170 0 0
178 0 0
178 0 0
180 0 0
181 0 0
181 0 0
176 0 0
185 0 0
180 0 0
189 0 0
186 0 0
193 0 0
185 0 0
193 0 0
192 0 0
188 0 0
194 0 0
200 0 0
187 0 0
201 0 0
196 0 0
195 0 0
196 0 0
194 0 0
204 0 0
203 0 0
202 0 0
198 0 0
197 0 0
199 0 0
200 0 0
206 0 0
207 0 0
200 0 0
203 0 0
202 0 0
204 0 0
196 0 0
202 0 0
201 0 0
206 0 0
201 0 0
201 0 0
212 0 0
206 0 0
205 0 0
204 0 0
210 0 0
208 0 0
209 0 0
205 0 0
206 0 0
211 0 0
207 0 0
212 0 0
209 0 0
207 0 0
208 0 0
210 0 0
210 0 0
210 0 0
209 0 0
212 0 0
207 0 0
212 0 0
210 0 0
212 0 0
208 0 0
218 0 0
207 0 0
214 0 0
211 0 0
210 0 0
211 0 0
209 0 0
210 0 0
213 0 0
215 0 0
207 0 0
209 0 0
216 0 0
214 0 0
214 0 0
211 0 0
214 0 0
214 0 0
212 0 0
219 0 0
208 0 0
215 0 0
214 0 0
211 0 0
210 0 0
215 0 0
213 0 0
215 0 0
215 0 0
213 0 0
216 0 0
211 0 0
219 0 0
212 0 0
217 0 0
215 0 0
216 0 0
216 0 0
214 0 0
217 0 0
216 0 0
213 0 0
214 0 0
214 0 0
212 0 0
215 0 0
213 0 0
214 0 0
218 0 0
213 0 0
209 0 0
217 0 0
215 0 0
216 0 0
215 0 0
215 0 0
216 0 0
216 0 0
217 0 0
219 0 0
216 0 0
212 0 0
215 0 0
218 0 0
218 0 0
213 0 0
218 0 0
217 0 0
217 0 0
214 0 0
217 0 0
216 0 0
216 0 0
216 0 0
219 0 0
217 0 0
219 0 0
213 0 0
214 0 0
217 0 0
214 0 0
213 0 0
217 0 0
220 0 0
214 0 0
219 0 0
218 0 0
216 0 0
216 0 0
217 0 0
216 0 0
218 0 0
217 0 0
216 0 0
217 0 0
218 0 0
219 0 0
219 0 0
214 0 0
216 0 0
217 0 0
218 0 0
217 0 0
219 0 0
218 0 0
215 0 0
219 0 0
218 0 0
216 0 0
216 0 0
218 0 0
216 0 0
221 0 0
218 0 0
217 0 0
0 0 255
0 0 255
0 0 255
0 0 255
0 0 255
0 0 254
0 0 255
0 0 255
0 0 255
0 0 254
0 0 255
0 0 255
0 0 255
0 0 255
0 0 255
0 0 255
0 0 255
0 0 255
0 0 255
0 0 254
0 0 254
0 0 255
0 0 255
0 0 255
0 0 255
0 0 255
0 0 255
0 0 255
0 0 255
0 0 254
0 0 255
0 0 254
0 0 254
0 0 254
0 0 254
0 0 254
0 0 255
0 0 254
0 0 253
0 0 255
0 0 255
0 0 255
0 0 255
0 0 254
0 0 254
0 0 254
0 0 254
0 0 255
0 0 254
0 0 255
0 0 255
0 0 255
0 0 255
0 0 254
0 0 254
0 0 253
0 0 255
0 0 255
0 0 254
0 0 254
0 0 254
0 0 254
0 0 253
0 0 250
0 0 255
0 0 255
0 0 254
0 0 254
0 0 254
0 0 255
0 0 254
0 0 254
0 0 255
0 0 252
0 0 254
0 0 253
0 0 252
0 0 254
0 0 253
0 0 254
0 0 255
0 0 253
0 0 252
0 0 253
0 0 252
0 0 252
0 0 255
0 0 250
0 0 249
0 0 250
0 0 254
0 0 253
0 0 250
0 0 253
0 0 253
0 0 250
0 0 253
0 0 250
0 0 254
0 0 252
0 0 250
0 0 252
0 0 252
0 0 253
0 0 250
0 0 255
0 0 250
0 0 249
0 0 250
0 0 250
0 0 252
0 0 252
0 0 250
0 0 252
0 0 252
0 0 248
0 0 252
0 0 250
0 0 249
0 0 249
0 0 244
0 0 254
0 0 249
0 0 250
0 0 250
0 0 254
0 0 254
0 0 246
0 0 246
0 0 252
0 0 252
0 0 249
0 0 248
0 0 248
0 0 242
0 0 238
0 0 250
0 0 248
0 0 246
0 0 250
0 0 246
0 0 238
0 0 237
0 0 241
0 0 244
0 0 246
0 0 241
0 0 238
0 0 244
0 0 240
0 0 241
0 0 246
0 0 241
0 0 228
0 0 241
0 0 237
0 0 246
0 0 241
0 0 240
0 0 241
0 0 236
0 0 244
0 0 237
0 0 236
0 0 234
0 0 233
0 0 226
0 0 242
0 0 234
0 0 228
0 0 230
0 0 226
0 0 227
0 0 217
0 0 223
0 0 230
0 0 226
0 0 231
0 0 217
0 0 224
0 0 223
0 0 214
0 0 220
0 0 211
0 0 211
0 0 214
0 0 199
0 0 186
0 0 203
170 186 237
207 228 255
207 228 255
207 228 255
207 228 255
207 228 255
207 228 255
207 228 255
207 228 255
207 228 255
207 228 255
207 228 255
207 228 255
207 228 255
207 228 255
207 228 255
207 228 255
207 228 255
207 228 255
207 228 255
207 228 255
190 186 209
148 0 0
161 0 0
161 0 0
171 0 0
170 0 0
172 0 0
171 0 0
183 0 0
184 0 0
178 0 0
182 0 0
180 0 0
188 0 0
189 0 0
183 0 0
186 0 0
190 0 0
187 0 0
193 0 0
187 0 0
188 0 0
191 0 0
189 0 0
186 0 0
192 0 0
192 0 0
187 0 0
200 0 0
191 0 0
196 0 0
200 0 0
196 0 0
199 0 0
199 0 0
199 0 0
194 0 0
202 0 0
199 0 0
206 0 0
203 0 0
199 0 0
198 0 0
200 0 0
200 0 0
208 0 0
206 0 0
207 0 0
205 0 0
204 0 0
209 0 0
203 0 0
202 0 0
205 0 0
209 0 0
206 0 0
205 0 0
204 0 0
207 0 0
211 0 0
208 0 0
207 0 0
216 0 0
205 0 0
211 0 0
216 0 0
210 0 0
208 0 0
208 0 0
209 0 0
216 0 0
206 0 0
207 0 0
212 0 0
216 0 0
210 0 0
213 0 0
211 0 0
213 0 0
215 0 0
209 0 0
211 0 0
213 0 0
214 0 0
213 0 0
214 0 0
213 0 0
214 0 0
212 0 0
211 0 0
219 0 0
215 0 0
214 0 0
213 0 0
213 0 0
212 0 0
216 0 0
214 0 0
214 0 0
215 0 0
211 0 0
211 0 0
213 0 0
208 0 0
216 0 0
213 0 0
216 0 0
210 0 0
213 0 0
212 0 0
216 0 0
217 0 0
214 0 0
210 0 0
216 0 0
214 0 0
213 0 0
216 0 0
216 0 0
214 0 0
218 0 0
214 0 0
216 0 0
219 0 0
216 0 0
213 0 0
215 0 0
215 0 0
213 0 0
213 0 0
218 0 0
216 0 0
214 0 0
217 0 0
219 0 0
217 0 0
219 0 0
211 0 0
214 0 0
219 0 0
214 0 0
212 0 0
218 0 0
220 0 0
213 0 0
218 0 0
217 0 0
216 0 0
217 0 0
218 0 0
214 0 0
216 0 0
218 0 0
216 0 0
218 0 0
215 0 0
215 0 0
219 0 0
217 0 0
218 0 0
214 0 0
217 0 0
215 0 0
216 0 0
216 0 0
219 0 0
213 0 0
218 0 0
220 0 0
216 0 0
215 0 0
218 0 0
216 0 0
212 0 0
215 0 0
216 0 0
217 0 0
217 0 0
218 0 0
220 0 0
220 0 0
214 0 0
217 0 0
217 0 0
215 0 0
218 0 0
216 0 0
217 0 0
216 0 0
216 0 0
0 0 255
0 0 255
0 0 255
0 0 255
0 0 254
0 0 255
0 0 255
0 0 255
0 0 254
0 0 255
0 0 255
0 0 255
0 0 255
0 0 255
0 0 255
0 0 255
0 0 255
0 0 255
0 0 255
0 0 255
0 0 255
0 0 255
0 0 255
0 0 255
0 0 255
0 0 255
0 0 255
0 0 255
0 0 255
0 0 255
0 0 255
0 0 255
0 0 255
0 0 255
0 0 255
0 0 255
0 0 255
0 0 254
0 0 255
0 0 253
0 0 255
0 0 255
0 0 254
0 0 254
0 0 255
0 0 255
0 0 255
0 0 255
0 0 253
0 0 255
0 0 253
0 0 255
0 0 253
0 0 253
0 0 254
0 0 255
0 0 253
0 0 255
0 0 255
0 0 254
0 0 255
0 0 255
0 0 254
0 0 254
0 0 253
0 0 255
0 0 254
0 0 254
0 0 254
0 0 255
0 0 253
0 0 255
0 0 252
0 0 254
0 0 254
0 0 254
0 0 253
0 0 254
0 0 254
0 0 252
0 0 253
0 0 250
0 0 253
0 0 253
0 0 252
0 0 253
0 0 254
0 0 253
0 0 254
0 0 252
0 0 254
0 0 250
0 0 253
0 0 253
0 0 252
0 0 253
0 0 253
0 0 250
0 0 253
0 0 253
0 0 252
0 0 249
0 0 253
0 0 252
0 0 252
0 0 250
0 0 254
0 0 252
0 0 249
0 0 248
0 0 255
0 0 252
0 0 254
0 0 253
0 0 254
0 0 252
0 0 248
0 0 248
0 0 250
0 0 252
0 0 246
0 0 248
0 0 250
0 0 248
0 0 249
0 0 253
0 0 250
0 0 250
0 0 248
0 0 245
0 0 248
0 0 236
0 0 245
0 0 253
0 0 252
0 0 246
0 0 242
0 0 241
0 0 238
0 0 245
0 0 244
0 0 242
0 0 252
0 0 245
0 0 240
0 0 241
0 0 242
0 0 244
0 0 244
0 0 245
0 0 240
0 0 248
0 0 238
0 0 245
0 0 246
0 0 245
0 0 242
0 0 248
0 0 234
0 0 240
0 0 238
0 0 237
0 0 236
0 0 236
0 0 236
0 0 230
0 0 233
0 0 231
0 0 238
0 0 233
0 0 224
0 0 228
0 0 233
0 0 215
0 0 234
0 0 228
0 0 223
0 0 214
0 0 226
0 0 215
0 0 214
0 0 218
0 0 217
0 0 203
0 0 215
0 0 203
0 0 207
0 0 220
0 0 198
80 88 214
202 222 252
208 228 255
208 228 255
208 228 255
208 228 255
208 228 255
208 228 255
208 228 255
208 228 255
208 228 255
208 228 255
208 228 255
208 228 255
208 228 255
208 228 255
208 228 255
208 228 255
208 228 255
208 228 255
207 225 252
174 91 102
146 0 0
158 0 0
168 0 0
161 0 0
165 0 0
172 0 0
176 0 0
186 0 0
180 0 0
179 0 0
182 0 0
181 0 0
184 0 0
181 0 0
188 0 0
182 0 0
198 0 0
190 0 0
186 0 0
196 0 0
188 0 0
192 0 0
190 0 0
195 0 0
198 0 0
196 0 0
194 0 0
195 0 0
198 0 0
195 0 0
205 0 0
201 0 0
200 0 0
198 0 0
207 0 0
202 0 0
195 0 0
205 0 0
206 0 0
209 0 0
201 0 0
205 0 0
203 0 0
197 0 0
199 0 0
210 0 0
202 0 0
203 0 0
206 0 0
205 0 0
205 0 0
204 0 0
209 0 0
209 0 0
214 0 0
213 0 0
209 0 0
202 0 0
212 0 0
211 0 0
211 0 0
214 0 0
210 0 0
209 0 0
208 0 0
207 0 0
211 0 0
212 0 0
208 0 0
203 0 0
208 0 0
208 0 0
208 0 0
206 0 0
216 0 0
216 0 0
212 0 0
207 0 0
214 0 0
211 0 0
208 0 0
209 0 0
212 0 0
212 0 0
209 0 0
214 0 0
211 0 0
212 0 0
216 0 0
215 0 0
217 0 0
215 0 0
213 0 0
212 0 0
210 0 0
215 0 0
217 0 0
211 0 0
210 0 0
214 0 0
212 0 0
214 0 0
215 0 0
211 0 0
217 0 0
214 0 0
215 0 0
215 0 0
216 0 0
212 0 0
217 0 0
212 0 0
214 0 0
216 0 0
215 0 0
216 0 0
216 0 0
214 0 0
216 0 0
217 0 0
212 0 0
217 0 0
215 0 0
215 0 0
214 0 0
220 0 0
216 0 0
211 0 0
215 0 0
214 0 0
217 0 0
216 0 0
218 0 0
214 0 0
212 0 0
219 0 0
213 0 0
220 0 0
218 0 0
215 0 0
216 0 0
219 0 0
217 0 0
217 0 0
219 0 0
215 0 0
215 0 0
217 0 0
214 0 0
216 0 0
215 0 0
217 0 0
216 0 0
215 0 0
216 0 0
215 0 0
215 0 0
214 0 0
217 0 0
219 0 0
215 0 0
215 0 0
218 0 0
212 0 0
217 0 0
215 0 0
216 0 0
215 0 0
220 0 0
217 0 0
216 0 0
220 0 0
218 0 0
213 0 0
217 0 0
215 0 0
218 0 0
219 0 0
217 0 0
217 0 0
215 0 0
220 0 0
217 0 0
215 0 0
221 0 0
216 0 0
221 0 0
218 0 0
218 0 0
0 0 255
0 0 255
0 0 255
0 0 255
0 0 255
0 0 255
0 0 255
0 0 254
0 0 255
0 0 254
0 0 255
0 0 255
0 0 255
0 0 255
0 0 255
0 0 254
0 0 254
0 0 255
0 0 253
0 0 254
0 0 255
0 0 255
0 0 255
0 0 255
0 0 255
0 0 255
0 0 254
0 0 255
0 0 254
0 0 255
0 0 254
0 0 255
0 0 255
0 0 254
0 0 254
0 0 255
0 0 255
0 0 255
0 0 255
0 0 254
0 0 255
0 0 255
0 0 254
0 0 255
0 0 254
0 0 255
0 0 254
0 0 255
0 0 255
0 0 254
0 0 255
0 0 252
0 0 254
0 0 254
0 0 253
0 0 254
0 0 255
0 0 254
0 0 255
0 0 255
0 0 255
0 0 254
0 0 255
0 0 255
0 0 253
0 0 255
0 0 255
0 0 252
0 0 254
0 0 254
0 0 253
0 0 255
0 0 252
0 0 254
0 0 253
0 0 254
0 0 255
0 0 254
0 0 253
0 0 253
0 0 254
0 0 255
0 0 253
0 0 255
0 0 253
0 0 255
0 0 255
0 0 253
0 0 254
0 0 254
0 0 246
0 0 252
0 0 250
0 0 255
0 0 249
0 0 250
0 0 252
0 0 252
0 0 252
0 0 254
0 0 252
0 0 252
0 0 250
0 0 248
0 0 249
0 0 248
0 0 252
0 0 250
0 0 246
0 0 250
0 0 252
0 0 252
0 0 246
0 0 248
0 0 249
0 0 254
0 0 252
0 0 248
0 0 246
0 0 254
0 0 248
0 0 250
0 0 248
0 0 244
0 0 245
0 0 246
0 0 240
0 0 253
0 0 250
0 0 245
0 0 241
0 0 245
0 0 242
0 0 246
0 0 248
0 0 240
0 0 252
0 0 245
0 0 249
0 0 248
0 0 246
0 0 240
0 0 246
0 0 249
0 0 245
0 0 244
0 0 245
0 0 246
0 0 244
0 0 242
0 0 245
0 0 238
0 0 248
0 0 248
0 0 241
0 0 244
0 0 234
0 0 236
0 0 240
0 0 246
0 0 234
0 0 227
0 0 242
0 0 237
0 0 233
0 0 236
0 0 228
0 0 236
0 0 228
0 0 226
0 0 230
0 0 236
0 0 236
0 0 234
0 0 237
0 0 218
0 0 224
0 0 228
0 0 223
0 0 218
0 0 223
0 0 212
0 0 204
0 0 201
0 0 209
0 0 214
0 0 209
0 0 215
0 0 196
0 0 199
158 174 231
208 228 255
208 228 255
208 228 255
208 228 255
208 228 255
208 228 255
208 228 255
208 228 255
208 228 255
208 228 255
208 228 255
208 228 255
208 228 255
208 228 255
208 228 255
208 228 255
208 228 255
208 228 255
183 168 188
150 0 0
152 0 0
174 0 0
158 0 0
179 0 0
167 0 0
174 0 0
171 0 0
168 0 0
187 0 0
180 0 0
178 0 0
186 0 0
187 0 0
189 0 0
188 0 0
190 0 0
183 0 0
190 0 0
181 0 0
190 0 0
188 0 0
194 0 0
187 0 0
192 0 0
195 0 0
191 0 0
205 0 0
198 0 0
195 0 0
203 0 0
200 0 0
201 0 0
203 0 0
197 0 0
198 0 0
202 0 0
195 0 0
201 0 0
206 0 0
204 0 0
205 0 0
203 0 0
205 0 0
203 0 0
198 0 0
198 0 0
202 0 0
206 0 0
205 0 0
208 0 0
210 0 0
209 0 0
204 0 0
205 0 0
206 0 0
203 0 0
204 0 0
204 0 0
206 0 0
210 0 0
208 0 0
206 0 0
212 0 0
207 0 0
212 0 0
210 0 0
208 0 0
205 0 0
206 0 0
215 0 0
211 0 0
205 0 0
211 0 0
213 0 0
218 0 0
211 0 0
214 0 0
212 0 0
209 0 0
213 0 0
210 0 0
210 0 0
213 0 0
210 0 0
216 0 0
211 0 0
206 0 0
218 0 0
213 0 0
214 0 0
211 0 0
214 0 0
213 0 0
212 0 0
216 0 0
217 0 0
214 0 0
212 0 0
218 0 0
215 0 0
218 0 0
212 0 0
219 0 0
213 0 0
215 0 0
214 0 0
213 0 0
217 0 0
215 0 0
212 0 0
214 0 0
217 0 0
215 0 0
216 0 0
213 0 0
215 0 0
215 0 0
220 0 0
220 0 0
218 0 0
216 0 0
214 0 0
217 0 0
214 0 0
213 0 0
214 0 0
214 0 0
213 0 0
213 0 0
221 0 0
218 0 0
219 0 0
213 0 0
217 0 0
216 0 0
214 0 0
214 0 0
213 0 0
217 0 0
217 0 0
215 0 0
218 0 0
217 0 0
217 0 0
218 0 0
218 0 0
217 0 0
216 0 0
219 0 0
215 0 0
219 0 0
217 0 0
217 0 0
218 0 0
217 0 0
216 0 0
213 0 0
219 0 0
216 0 0
219 0 0
217 0 0
216 0 0
215 0 0
217 0 0
217 0 0
216 0 0
218 0 0
219 0 0
217 0 0
217 0 0
219 0 0
219 0 0
213 0 0
218 0 0
220 0 0
217 0 0
216 0 0
217 0 0
221 0 0
215 0 0
217 0 0
216 0 0
216 0 0
219 0 0
218 0 0
218 0 0
220 0 0
218 0 0
216 0 0
0 0 255
0 0 255
0 0 255
0 0 255
0 0 255
0 0 255
0 0 255
0 0 255
0 0 255
0 0 255
0 0 255
0 0 255
0 0 255
0 0 254
0 0 255
0 0 255
0 0 255
0 0 255
0 0 255
0 0 255
0 0 255
0 0 255
0 0 255
0 0 255
0 0 253
0 0 255
0 0 255
0 0 255
0 0 254
0 0 255
0 0 254
0 0 255
0 0 254
0 0 254
0 0 255
0 0 254
0 0 255
0 0 255
0 0 255
0 0 254
0 0 254
0 0 254
0 0 255
0 0 254
0 0 255
0 0 255
0 0 255
0 0 255
0 0 254
0 0 255
0 0 255
0 0 254
0 0 254
0 0 254
0 0 255
0 0 253
0 0 255
0 0 253
0 0 255
0 0 255
0 0 255
0 0 252
0 0 254
0 0 255
0 0 253
0 0 252
0 0 255
0 0 255
0 0 254
0 0 255
0 0 255
0 0 255
0 0 253
0 0 255
0 0 255
0 0 255
0 0 252
0 0 254
0 0 253
0 0 250
0 0 255
0 0 253
0 0 252
0 0 255
0 0 253
0 0 255
0 0 252
0 0 254
0 0 253
0 0 253
0 0 254
0 0 250
0 0 252
0 0 254
0 0 253
0 0 253
0 0 252
0 0 252
0 0 252
0 0 248
0 0 254
0 0 253
0 0 250
0 0 253
0 0 253
0 0 250
0 0 250
0 0 250
0 0 250
0 0 252
0 0 250
0 0 249
0 0 249
0 0 249
0 0 250
0 0 249
0 0 250
0 0 252
0 0 249
0 0 250
0 0 253
0 0 252
0 0 249
0 0 252
0 0 250
0 0 244
0 0 249
0 0 246
0 0 253
0 0 245
0 0 252
0 0 246
0 0 249
0 0 250
0 0 245
0 0 246
0 0 249
0 0 233
0 0 241
0 0 244
0 0 244
0 0 246
0 0 244
0 0 237
0 0 242
0 0 246
0 0 241
0 0 246
0 0 238
0 0 244
0 0 238
0 0 240
0 0 241
0 0 245
0 0 245
0 0 244
0 0 234
0 0 234
0 0 236
0 0 237
0 0 242
0 0 228
0 0 237
0 0 233
0 0 233
0 0 230
0 0 236
0 0 231
0 0 240
0 0 237
0 0 233
0 0 240
0 0 224
0 0 224
0 0 227
0 0 223
0 0 209
0 0 223
0 0 212
0 0 226
0 0 215
0 0 221
0 0 215
0 0 209
0 0 201
0 0 212
0 0 189
0 0 191
0 0 191
0 0 194
62 68 201
201 220 250
208 228 255
208 228 255
208 228 255
208 228 255
208 228 255
208 228 255
208 228 255
208 228 255
208 228 255
208 228 255
208 228 255
208 228 255
208 228 255
208 228 255
208 228 255
208 228 255
200 213 238
160 51 57
151 0 0
160 0 0
170 0 0
163 0 0
165 0 0
164 0 0
174 0 0
174 0 0
187 0 0
173 0 0
187 0 0
182 0 0
179 0 0
185 0 0
181 0 0
188 0 0
183 0 0
185 0 0
193 0 0
192 0 0
196 0 0
197 0 0
184 0 0
187 0 0
197 0 0
193 0 0
198 0 0
198 0 0
198 0 0
189 0 0
201 0 0
191 0 0
201 0 0
197 0 0
199 0 0
201 0 0
209 0 0
203 0 0
205 0 0
204 0 0
206 0 0
201 0 0
209 0 0
204 0 0
197 0 0
201 0 0
202 0 0
201 0 0
208 0 0
203 0 0
207 0 0
205 0 0
205 0 0
209 0 0
201 0 0
204 0 0
210 0 0
207 0 0
212 0 0
212 0 0
215 0 0
214 0 0
206 0 0
205 0 0
214 0 0
207 0 0
213 0 0
209 0 0
207 0 0
213 0 0
206 0 0
214 0 0
212 0 0
211 0 0
210 0 0
206 0 0
215 0 0
208 0 0
208 0 0
216 0 0
208 0 0
214 0 0
211 0 0
210 0 0
216 0 0
216 0 0
212 0 0
210 0 0
211 0 0
216 0 0
212 0 0
211 0 0
212 0 0
209 0 0
211 0 0
214 0 0
217 0 0
216 0 0
213 0 0
211 0 0
214 0 0
215 0 0
216 0 0
212 0 0
214 0 0
215 0 0
214 0 0
213 0 0
212 0 0
210 0 0
215 0 0
218 0 0
215 0 0
214 0 0
214 0 0
218 0 0
214 0 0
218 0 0
212 0 0
219 0 0
214 0 0
217 0 0
215 0 0
219 0 0
217 0 0
215 0 0
219 0 0
213 0 0
218 0 0
218 0 0
213 0 0
214 0 0
213 0 0
214 0 0
216 0 0
222 0 0
216 0 0
215 0 0
219 0 0
217 0 0
211 0 0
218 0 0
217 0 0
218 0 0
218 0 0
221 0 0
215 0 0
217 0 0
216 0 0
215 0 0
214 0 0
219 0 0
215 0 0
215 0 0
213 0 0
217 0 0
218 0 0
219 0 0
216 0 0
213 0 0
216 0 0
216 0 0
215 0 0
219 0 0
214 0 0
216 0 0
218 0 0
216 0 0
219 0 0
216 0 0
220 0 0
215 0 0
217 0 0
216 0 0
222 0 0
214 0 0
215 0 0
218 0 0
214 0 0
215 0 0
218 0 0
215 0 0
219 0 0
214 0 0
217 0 0
217 0 0
216 0 0
219 0 0
219 0 0
218 0 0
0 0 255
0 0 255
0 0 255
0 0 255
0 0 255
0 0 254
0 0 255
0 0 255
0 0 255
0 0 255
0 0 255
0 0 255
0 0 255
0 0 255
0 0 255
0 0 254
0 0 255
0 0 255
0 0 255
0 0 255
0 0 255
0 0 255
0 0 255
0 0 255
0 0 255
0 0 254
0 0 255
0 0 254
0 0 255
0 0 253
0 0 255
0 0 255
0 0 255
0 0 254
0 0 254
0 0 255
0 0 255
0 0 255
0 0 254
0 0 255
0 0 255
0 0 255
0 0 255
0 0 254
0 0 254
0 0 255
0 0 254
0 0 254
0 0 255
0 0 255
0 0 254
0 0 255
0 0 254
0 0 253
0 0 254
0 0 254
0 0 254
0 0 254
0 0 255
0 0 252
0 0 255
0 0 255
0 0 252
0 0 254
0 0 254
0 0 253
0 0 255
0 0 254
0 0 254
0 0 254
0 0 254
0 0 254
0 0 255
0 0 254
0 0 254
0 0 254
0 0 254
0 0 253
0 0 254
0 0 253
0 0 253
0 0 255
0 0 254
0 0 255
0 0 254
0 0 254
0 0 250
0 0 254
0 0 252
0 0 250
0 0 249
0 0 250
0 0 250
0 0 253
0 0 253
0 0 255
0 0 250
0 0 254
0 0 253
0 0 254
0 0 253
0 0 253
0 0 249
0 0 250
0 0 250
0 0 245
0 0 250
0 0 249
0 0 249
0 0 248
0 0 249
0 0 252
0 0 254
0 0 253
0 0 252
0 0 253
0 0 249
0 0 250
0 0 252
0 0 248
0 0 248
0 0 252
0 0 252
0 0 250
0 0 253
0 0 249
0 0 242
0 0 248
0 0 246
0 0 248
0 0 237
0 0 250
0 0 248
0 0 249
0 0 246
0 0 240
0 0 245
0 0 246
0 0 244
0 0 249
0 0 240
0 0 241
0 0 244
0 0 240
0 0 241
0 0 246
0 0 240
0 0 237
0 0 233
0 0 238
0 0 240
0 0 240
0 0 248
0 0 241
0 0 246
0 0 236
0 0 241
0 0 245
0 0 236
0 0 244
0 0 242
0 0 230
0 0 241
0 0 228
0 0 242
0 0 234
0 0 234
0 0 234
0 0 230
0 0 238
0 0 230
0 0 231
0 0 238
0 0 223
0 0 226
0 0 224
0 0 224
0 0 214
0 0 215
0 0 227
0 0 217
0 0 217
0 0 212
0 0 214
0 0 212
0 0 201
0 0 218
0 0 198
0 0 209
0 0 204
0 0 189
152 166 218
209 229 255
209 229 255
209 229 255
209 229 255
209 229 255
209 229 255
209 229 255
209 229 255
209 229 255
209 229 255
209 229 255
209 229 255
209 229 255
209 229 255
209 229 255
209 229 255
187 158 177
156 0 0
163 0 0
154 0 0
162 0 0
157 0 0
169 0 0
169 0 0
161 0 0
170 0 0
170 0 0
175 0 0
175 0 0
178 0 0
182 0 0
179 0 0
185 0 0
175 0 0
189 0 0
189 0 0
197 0 0
201 0 0
190 0 0
192 0 0
191 0 0
196 0 0
200 0 0
182 0 0
199 0 0
203 0 0
197 0 0
202 0 0
198 0 0
199 0 0
205 0 0
203 0 0
195 0 0
198 0 0
195 0 0
201 0 0
201 0 0
201 0 0
204 0 0
205 0 0
206 0 0
210 0 0
212 0 0
208 0 0
206 0 0
203 0 0
208 0 0
201 0 0
209 0 0
202 0 0
207 0 0
201 0 0
201 0 0
202 0 0
214 0 0
204 0 0
213 0 0
208 0 0
210 0 0
203 0 0
210 0 0
210 0 0
206 0 0
206 0 0
208 0 0
210 0 0
208 0 0
209 0 0
214 0 0
207 0 0
217 0 0
207 0 0
211 0 0
211 0 0
214 0 0
208 0 0
210 0 0
209 0 0
216 0 0
212 0 0
208 0 0
210 0 0
210 0 0
213 0 0
217 0 0
209 0 0
216 0 0
215 0 0
212 0 0
213 0 0
215 0 0
214 0 0
214 0 0
211 0 0
217 0 0
212 0 0
214 0 0
214 0 0
216 0 0
210 0 0
215 0 0
218 0 0
214 0 0
217 0 0
215 0 0
210 0 0
214 0 0
216 0 0
216 0 0
216 0 0
213 0 0
215 0 0
212 0 0
211 0 0
214 0 0
217 0 0
214 0 0
216 0 0
216 0 0
215 0 0
215 0 0
214 0 0
214 0 0
217 0 0
217 0 0
219 0 0
217 0 0
212 0 0
215 0 0
218 0 0
216 0 0
214 0 0
220 0 0
213 0 0
215 0 0
217 0 0
217 0 0
216 0 0
215 0 0
217 0 0
215 0 0
213 0 0
218 0 0
218 0 0
216 0 0
218 0 0
218 0 0
213 0 0
220 0 0
215 0 0
217 0 0
219 0 0
221 0 0
218 0 0
220 0 0
220 0 0
217 0 0
217 0 0
216 0 0
216 0 0
215 0 0
212 0 0
212 0 0
217 0 0
218 0 0
218 0 0
217 0 0
219 0 0
216 0 0
217 0 0
214 0 0
218 0 0
217 0 0
218 0 0
216 0 0
216 0 0
221 0 0
220 0 0
216 0 0
220 0 0
217 0 0
218 0 0
216 0 0
216 0 0
216 0 0
221 0 0
217 0 0
219 0 0
0 0 255
0 0 255
0 0 255
0 0 255
0 0 255
0 0 255
0 0 255
0 0 255
0 0 255
0 0 255
0 0 255
0 0 255
0 0 255
0 0 254
0 0 255
0 0 255
0 0 254
0 0 255
0 0 254
0 0 255
0 0 255
0 0 254
0 0 255
0 0 255
0 0 255
0 0 255
0 0 254
0 0 255
0 0 255
0 0 255
0 0 254
0 0 255
0 0 255
0 0 254
0 0 255
0 0 253
0 0 255
0 0 255
0 0 255
0 0 255
0 0 253
0 0 254
0 0 254
0 0 255
0 0 255
0 0 255
0 0 255
0 0 254
0 0 255
0 0 254
0 0 254
0 0 255
0 0 254
0 0 255
0 0 253
0 0 254
0 0 254
0 0 253
0 0 253
0 0 255
0 0 255
0 0 254
0 0 254
0 0 254
0 0 250
0 0 253
0 0 253
0 0 253
0 0 253
0 0 254
0 0 254
0 0 255
0 0 254
0 0 253
0 0 249
0 0 253
0 0 254
0 0 255
0 0 253
0 0 250
0 0 254
0 0 253
0 0 255
0 0 254
0 0 253
0 0 254
0 0 253
0 0 250
0 0 253
0 0 254
0 0 254
0 0 253
0 0 254
0 0 250
0 0 254
0 0 250
0 0 255
0 0 253
0 0 253
0 0 250
0 0 253
0 0 252
0 0 253
0 0 254
0 0 250
0 0 250
0 0 252
0 0 252
0 0 253
0 0 242
0 0 245
0 0 252
0 0 249
0 0 249
0 0 252
0 0 249
0 0 250
0 0 250
0 0 248
0 0 249
0 0 250
0 0 249
0 0 252
0 0 248
0 0 249
0 0 249
0 0 252
0 0 253
0 0 249
0 0 244
0 0 248
0 0 246
0 0 245
0 0 246
0 0 248
0 0 242
0 0 249
0 0 244
0 0 248
0 0 246
0 0 248
0 0 248
0 0 244
0 0 238
0 0 245
0 0 240
0 0 250
0 0 244
0 0 242
0 0 244
0 0 249
0 0 241
0 0 242
0 0 237
0 0 236
0 0 242
0 0 245
0 0 228
0 0 233
0 0 237
0 0 236
0 0 220
0 0 231
0 0 234
0 0 233
0 0 240
0 0 241
0 0 234
0 0 224
0 0 226
0 0 231
0 0 233
0 0 226
0 0 224
0 0 230
0 0 227
0 0 217
0 0 220
0 0 224
0 0 217
0 0 220
0 0 226
0 0 217
0 0 206
0 0 212
0 0 199
0 0 199
0 0 193
0 0 209
0 0 194
0 0 193
41 45 189
199 218 248
209 229 255
209 229 255
209 229 255
209 229 255
209 229 255
209 229 255
209 229 255
209 229 255
209 229 255
209 229 255
209 229 255
209 229 255
209 229 255
209 229 255
204 213 238
146 22 25
152 0 0
159 0 0
141 0 0
162 0 0
166 0 0
167 0 0
169 0 0
172 0 0
175 0 0
172 0 0
184 0 0
169 0 0
166 0 0
185 0 0
177 0 0
178 0 0
186 0 0
189 0 0
187 0 0
189 0 0
193 0 0
189 0 0
195 0 0
199 0 0
190 0 0
197 0 0
197 0 0
197 0 0
199 0 0
201 0 0
196 0 0
200 0 0
196 0 0
200 0 0
203 0 0
198 0 0
205 0 0
204 0 0
208 0 0
204 0 0
202 0 0
200 0 0
210 0 0
201 0 0
203 0 0
201 0 0
208 0 0
206 0 0
210 0 0
204 0 0
207 0 0
210 0 0
202 0 0
207 0 0
213 0 0
206 0 0
205 0 0
206 0 0
206 0 0
209 0 0
208 0 0
212 0 0
215 0 0
207 0 0
207 0 0
207 0 0
215 0 0
207 0 0
213 0 0
211 0 0
211 0 0
212 0 0
208 0 0
214 0 0
211 0 0
212 0 0
211 0 0
213 0 0
214 0 0
216 0 0
213 0 0
214 0 0
214 0 0
212 0 0
210 0 0
215 0 0
217 0 0
211 0 0
210 0 0
205 0 0
216 0 0
212 0 0
212 0 0
212 0 0
212 0 0
214 0 0
211 0 0
211 0 0
216 0 0
212 0 0
212 0 0
216 0 0
213 0 0
212 0 0
215 0 0
218 0 0
212 0 0
219 0 0
214 0 0
215 0 0
216 0 0
218 0 0
211 0 0
213 0 0
215 0 0
214 0 0
215 0 0
221 0 0
214 0 0
213 0 0
218 0 0
215 0 0
217 0 0
218 0 0
216 0 0
213 0 0
214 0 0
215 0 0
211 0 0
217 0 0
216 0 0
218 0 0
213 0 0
216 0 0
214 0 0
216 0 0
218 0 0
216 0 0
218 0 0
217 0 0
218 0 0
217 0 0
216 0 0
221 0 0
212 0 0
215 0 0
218 0 0
217 0 0
214 0 0
218 0 0
219 0 0
215 0 0
216 0 0
215 0 0
216 0 0
213 0 0
218 0 0
216 0 0
216 0 0
219 0 0
218 0 0
217 0 0
218 0 0
215 0 0
215 0 0
218 0 0
220 0 0
219 0 0
216 0 0
219 0 0
219 0 0
217 0 0
218 0 0
220 0 0
221 0 0
217 0 0
217 0 0
220 0 0
217 0 0
218 0 0
219 0 0
217 0 0
216 0 0
217 0 0
217 0 0
215 0 0
216 0 0
220 0 0
216 0 0
215 0 0
219 0 0
0 0 255
0 0 255
0 0 255
0 0 255
0 0 254
0 0 255
0 0 255
0 0 255
0 0 255
0 0 255
0 0 255
0 0 254
0 0 253
0 0 255
0 0 255
0 0 255
0 0 255
0 0 255
0 0 255
0 0 255
0 0 255
0 0 254
0 0 255
0 0 254
0 0 255
0 0 255
0 0 255
0 0 253
0 0 255
0 0 255
0 0 255
0 0 253
0 0 255
0 0 255
0 0 255
0 0 255
0 0 255
0 0 254
0 0 255
0 0 255
0 0 253
0 0 255
0 0 253
0 0 254
0 0 254
0 0 253
0 0 254
0 0 254
0 0 254
0 0 253
0 0 255
0 0 255
0 0 255
0 0 254
0 0 254
0 0 254
0 0 255
0 0 253
0 0 255
0 0 253
0 0 252
0 0 252
0 0 255
0 0 255
0 0 255
0 0 253
0 0 255
0 0 254
0 0 252
0 0 255
0 0 254
0 0 253
0 0 252
0 0 254
0 0 254
0 0 253
0 0 253
0 0 252
0 0 252
0 0 254
0 0 253
0 0 253
0 0 253
0 0 253
0 0 252
0 0 253
0 0 253
0 0 252
0 0 252
0 0 255
0 0 252
0 0 253
0 0 254
0 0 252
0 0 252
0 0 253
0 0 255
0 0 252
0 0 249
0 0 252
0 0 253
0 0 252
0 0 249
0 0 252
0 0 254
0 0 248
0 0 250
0 0 252
0 0 252
0 0 249
0 0 252
0 0 250
0 0 249
0 0 245
0 0 253
0 0 248
0 0 250
0 0 250
0 0 245
0 0 248
0 0 242
0 0 250
0 0 246
0 0 248
0 0 246
0 0 248
0 0 246
0 0 242
0 0 244
0 0 249
0 0 252
0 0 250
0 0 249
0 0 238
0 0 241
0 0 248
0 0 248
0 0 241
0 0 241
0 0 244
0 0 245
0 0 238
0 0 244
0 0 249
0 0 248
0 0 246
0 0 242
0 0 246
0 0 241
0 0 237
0 0 237
0 0 244
0 0 238
0 0 241
0 0 240
0 0 241
0 0 238
0 0 244
0 0 233
0 0 241
0 0 238
0 0 245
0 0 245
0 0 238
0 0 237
0 0 236
0 0 223
0 0 230
0 0 233
0 0 227
0 0 231
0 0 226
0 0 220
0 0 223
0 0 228
0 0 217
0 0 218
0 0 220
0 0 223
0 0 211
0 0 204
0 0 214
0 0 201
0 0 203
0 0 211
0 0 206
0 0 196
0 0 198
0 0 196
0 0 201
0 0 181
0 0 184
134 146 214
209 229 255
209 229 255
209 229 255
209 229 255
209 229 255
209 229 255
209 229 255
209 229 255
209 229 255
209 229 255
209 229 255
209 229 255
209 229 255
209 229 255
175 155 173
151 0 0
150 0 0
149 0 0
152 0 0
161 0 0
169 0 0
165 0 0
171 0 0
173 0 0
184 0 0
181 0 0
173 0 0
179 0 0
181 0 0
184 0 0
188 0 0
189 0 0
188 0 0
189 0 0
187 0 0
192 0 0
184 0 0
191 0 0
193 0 0
193 0 0
199 0 0
196 0 0
191 0 0
194 0 0
199 0 0
197 0 0
195 0 0
204 0 0
202 0 0
203 0 0
202 0 0
203 0 0
201 0 0
199 0 0
202 0 0
201 0 0
192 0 0
203 0 0
204 0 0
206 0 0
206 0 0
210 0 0
205 0 0
204 0 0
195 0 0
201 0 0
206 0 0
213 0 0
208 0 0
207 0 0
208 0 0
211 0 0
202 0 0
208 0 0
210 0 0
209 0 0
212 0 0
207 0 0
210 0 0
212 0 0
206 0 0
206 0 0
208 0 0
208 0 0
210 0 0
206 0 0
210 0 0
210 0 0
209 0 0
212 0 0
214 0 0
211 0 0
215 0 0
211 0 0
214 0 0
213 0 0
218 0 0
215 0 0
212 0 0
214 0 0
210 0 0
211 0 0
206 0 0
211 0 0
215 0 0
208 0 0
217 0 0
210 0 0
210 0 0
215 0 0
213 0 0
214 0 0
208 0 0
210 0 0
209 0 0
213 0 0
213 0 0
215 0 0
208 0 0
215 0 0
215 0 0
213 0 0
216 0 0
216 0 0
219 0 0
215 0 0
217 0 0
217 0 0
215 0 0
216 0 0
213 0 0
213 0 0
214 0 0
213 0 0
220 0 0
213 0 0
219 0 0
220 0 0
214 0 0
213 0 0
218 0 0
216 0 0
211 0 0
215 0 0
217 0 0
215 0 0
217 0 0
214 0 0
220 0 0
215 0 0
212 0 0
219 0 0
217 0 0
219 0 0
218 0 0
218 0 0
216 0 0
219 0 0
215 0 0
217 0 0
215 0 0
217 0 0
215 0 0
218 0 0
218 0 0
217 0 0
215 0 0
218 0 0
220 0 0
217 0 0
218 0 0
216 0 0
217 0 0
217 0 0
219 0 0
219 0 0
218 0 0
217 0 0
217 0 0
218 0 0
220 0 0
219 0 0
217 0 0
219 0 0
216 0 0
216 0 0
219 0 0
216 0 0
221 0 0
216 0 0
219 0 0
218 0 0
217 0 0
214 0 0
218 0 0
216 0 0
217 0 0
219 0 0
222 0 0
218 0 0
216 0 0
219 0 0
220 0 0
219 0 0
219 0 0
217 0 0
219 0 0
0 0 255
0 0 254
0 0 255
0 0 255
0 0 255
0 0 255
0 0 255
0 0 254
0 0 255
0 0 255
0 0 255
0 0 254
0 0 255
0 0 255
0 0 255
0 0 255
0 0 255
0 0 254
0 0 255
0 0 255
0 0 255
0 0 255
0 0 255
0 0 255
0 0 255
0 0 255
0 0 255
0 0 255
0 0 254
0 0 255
0 0 255
0 0 255
0 0 254
0 0 255
0 0 255
0 0 255
0 0 255
0 0 253
0 0 255
0 0 254
0 0 254
0 0 255
0 0 254
0 0 255
0 0 255
0 0 255
0 0 255
0 0 254
0 0 255
0 0 255
0 0 255
0 0 255
0 0 255
0 0 255
0 0 254
0 0 255
0 0 254
0 0 254
0 0 254
0 0 255
0 0 253
0 0 254
0 0 253
0 0 254
0 0 253
0 0 254
0 0 255
0 0 255
0 0 255
0 0 255
0 0 255
0 0 253
0 0 252
0 0 254
0 0 253
0 0 253
0 0 254
0 0 254
0 0 253
0 0 255
0 0 250
0 0 253
0 0 254
0 0 253
0 0 254
0 0 254
0 0 250
0 0 253
0 0 252
0 0 250
0 0 250
0 0 254
0 0 253
0 0 254
0 0 250
0 0 250
0 0 253
0 0 250
0 0 255
0 0 252
0 0 252
0 0 254
0 0 248
0 0 249
0 0 250
0 0 250
0 0 253
0 0 246
0 0 253
0 0 253
0 0 253
0 0 250
0 0 252
0 0 252
0 0 250
0 0 245
0 0 252
0 0 253
0 0 249
0 0 249
0 0 248
0 0 248
0 0 253
0 0 246
0 0 249
0 0 249
0 0 242
0 0 246
0 0 249
0 0 241
0 0 250
0 0 252
0 0 238
0 0 249
0 0 249
0 0 246
0 0 242
0 0 252
0 0 246
0 0 250
0 0 249
0 0 241
0 0 245
0 0 246
0 0 237
0 0 240
0 0 241
0 0 236
0 0 237
0 0 248
0 0 236
0 0 237
0 0 242
0 0 240
0 0 236
0 0 234
0 0 238
0 0 238
0 0 245
0 0 238
0 0 234
0 0 236
0 0 231
0 0 237
0 0 237
0 0 231
0 0 228
0 0 237
0 0 227
0 0 226
0 0 233
0 0 233
0 0 223
0 0 236
0 0 214
0 0 226
0 0 215
0 0 228
0 0 220
0 0 220
0 0 228
0 0 204
0 0 214
0 0 207
0 0 193
0 0 215
0 0 204
0 0 201
0 0 177
0 0 194
0 0 189
0 0 179
29 32 189
198 216 249
210 229 255
210 229 255
210 229 255
210 229 255
210 229 255
210 229 255
210 229 255
210 229 255
210 229 255
210 229 255
210 229 255
210 229 255
206 220 245
143 45 51
148 0 0
145 0 0
158 0 0
156 0 0
157 0 0
172 0 0
173 0 0
164 0 0
177 0 0
169 0 0
166 0 0
169 0 0
174 0 0
189 0 0
187 0 0
190 0 0
178 0 0
193 0 0
195 0 0
183 0 0
194 0 0
191 0 0
182 0 0
193 0 0
192 0 0
190 0 0
195 0 0
194 0 0
195 0 0
203 0 0
196 0 0
195 0 0
190 0 0
203 0 0
199 0 0
198 0 0
204 0 0
196 0 0
194 0 0
205 0 0
204 0 0
201 0 0
206 0 0
201 0 0
210 0 0
202 0 0
208 0 0
207 0 0
209 0 0
207 0 0
204 0 0
208 0 0
204 0 0
205 0 0
206 0 0
204 0 0
208 0 0
200 0 0
210 0 0
205 0 0
210 0 0
207 0 0
213 0 0
207 0 0
207 0 0
204 0 0
213 0 0
209 0 0
212 0 0
212 0 0
212 0 0
216 0 0
209 0 0
206 0 0
212 0 0
211 0 0
213 0 0
213 0 0
208 0 0
208 0 0
215 0 0
215 0 0
215 0 0
214 0 0
212 0 0
208 0 0
216 0 0
214 0 0
211 0 0
213 0 0
209 0 0
212 0 0
213 0 0
218 0 0
213 0 0
214 0 0
214 0 0
214 0 0
213 0 0
209 0 0
215 0 0
215 0 0
213 0 0
212 0 0
213 0 0
215 0 0
218 0 0
211 0 0
214 0 0
213 0 0
212 0 0
217 0 0
214 0 0
214 0 0
215 0 0
214 0 0
218 0 0
216 0 0
215 0 0
215 0 0
214 0 0
214 0 0
211 0 0
217 0 0
217 0 0
215 0 0
216 0 0
217 0 0
212 0 0
212 0 0
218 0 0
214 0 0
216 0 0
216 0 0
220 0 0
216 0 0
216 0 0
216 0 0
220 0 0
215 0 0
221 0 0
217 0 0
216 0 0
217 0 0
220 0 0
216 0 0
215 0 0
218 0 0
217 0 0
218 0 0
218 0 0
215 0 0
218 0 0
217 0 0
213 0 0
219 0 0
221 0 0
219 0 0
222 0 0
220 0 0
215 0 0
218 0 0
216 0 0
215 0 0
220 0 0
215 0 0
217 0 0
213 0 0
217 0 0
217 0 0
215 0 0
218 0 0
217 0 0
216 0 0
212 0 0
218 0 0
217 0 0
216 0 0
219 0 0
217 0 0
218 0 0
216 0 0
216 0 0
217 0 0
222 0 0
219 0 0
219 0 0
218 0 0
215 0 0
217 0 0
219 0 0
219 0 0
0 0 255
0 0 255
0 0 255
0 0 255
0 0 255
0 0 255
0 0 255
0 0 255
0 0 255
0 0 255
0 0 255
0 0 255
0 0 255
0 0 255
0 0 254
0 0 254
0 0 255
0 0 255
0 0 255
0 0 255
0 0 255
0 0 255
0 0 255
0 0 254
0 0 255
0 0 255
0 0 255
0 0 254
0 0 253
0 0 255
0 0 255
0 0 255
0 0 254
0 0 255
0 0 254
0 0 255
0 0 253
0 0 255
0 0 255
0 0 255
0 0 254
0 0 255
0 0 255
0 0 253
0 0 255
0 0 255
0 0 255
0 0 255
0 0 254
0 0 255
0 0 255
0 0 253
0 0 255
0 0 255
0 0 254
0 0 253
0 0 253
0 0 253
0 0 254
0 0 254
0 0 255
0 0 255
0 0 253
0 0 253
0 0 255
0 0 254
0 0 254
0 0 255
0 0 255
0 0 252
0 0 255
0 0 254
0 0 254
0 0 255
0 0 253
0 0 253
0 0 253
0 0 253
0 0 248
0 0 253
0 0 250
0 0 253
0 0 255
0 0 253
0 0 253
0 0 254
0 0 253
0 0 253
0 0 252
0 0 253
0 0 252
0 0 252
0 0 253
0 0 253
0 0 253
0 0 252
0 0 253
0 0 250
0 0 253
0 0 252
0 0 248
0 0 246
0 0 249
0 0 250
0 0 245
0 0 249
0 0 250
0 0 252
0 0 253
0 0 248
0 0 250
0 0 252
0 0 253
0 0 249
0 0 250
0 0 252
0 0 253
0 0 253
0 0 248
0 0 249
0 0 248
0 0 249
0 0 252
0 0 246
0 0 250
0 0 246
0 0 241
0 0 249
0 0 253
0 0 248
0 0 250
0 0 245
0 0 249
0 0 249
0 0 250
0 0 246
0 0 241
0 0 248
0 0 249
0 0 246
0 0 248
0 0 241
0 0 244
0 0 238
0 0 250
0 0 246
0 0 237
0 0 248
0 0 245
0 0 244
0 0 244
0 0 249
0 0 241
0 0 227
0 0 241
0 0 240
0 0 242
0 0 242
0 0 234
0 0 236
0 0 234
0 0 231
0 0 234
0 0 244
0 0 234
0 0 233
0 0 233
0 0 227
0 0 230
0 0 226
0 0 220
0 0 242
0 0 220
0 0 224
0 0 230
0 0 226
0 0 217
0 0 223
0 0 221
0 0 214
0 0 203
0 0 224
0 0 206
0 0 214
0 0 223
0 0 201
0 0 207
0 0 204
0 0 189
0 0 199
0 0 204
0 0 184
0 0 177
136 148 218
210 229 255
210 229 255
210 229 255
210 229 255
210 229 255
210 229 255
210 229 255
210 229 255
210 229 255
210 229 255
210 229 255
210 229 255
177 160 179
152 0 0
153 0 0
152 0 0
146 0 0
150 0 0
158 0 0
165 0 0
160 0 0
175 0 0
174 0 0
177 0 0
171 0 0
164 0 0
181 0 0
186 0 0
184 0 0
177 0 0
179 0 0
188 0 0
198 0 0
191 0 0
196 0 0
183 0 0
190 0 0
187 0 0
192 0 0
193 0 0
189 0 0
192 0 0
190 0 0
190 0 0
200 0 0
205 0 0
204 0 0
206 0 0
197 0 0
198 0 0
200 0 0
205 0 0
198 0 0
208 0 0
204 0 0
202 0 0
207 0 0
207 0 0
202 0 0
205 0 0
204 0 0
208 0 0
207 0 0
206 0 0
203 0 0
209 0 0
210 0 0
210 0 0
211 0 0
211 0 0
204 0 0
205 0 0
209 0 0
213 0 0
205 0 0
211 0 0
206 0 0
210 0 0
212 0 0
211 0 0
206 0 0
211 0 0
209 0 0
211 0 0
204 0 0
207 0 0
215 0 0
211 0 0
217 0 0
210 0 0
212 0 0
210 0 0
213 0 0
211 0 0
212 0 0
214 0 0
214 0 0
220 0 0
212 0 0
217 0 0
211 0 0
209 0 0
213 0 0
209 0 0
217 0 0
210 0 0
211 0 0
207 0 0
214 0 0
214 0 0
215 0 0
217 0 0
210 0 0
209 0 0
217 0 0
213 0 0
215 0 0
219 0 0
215 0 0
218 0 0
214 0 0
216 0 0
213 0 0
217 0 0
211 0 0
214 0 0
215 0 0
214 0 0
218 0 0
218 0 0
216 0 0
218 0 0
217 0 0
215 0 0
216 0 0
216 0 0
218 0 0
221 0 0
215 0 0
218 0 0
219 0 0
219 0 0
213 0 0
216 0 0
214 0 0
215 0 0
218 0 0
219 0 0
216 0 0
218 0 0
217 0 0
216 0 0
218 0 0
221 0 0
219 0 0
216 0 0
214 0 0
219 0 0
219 0 0
219 0 0
218 0 0
218 0 0
218 0 0
216 0 0
217 0 0
216 0 0
212 0 0
216 0 0
213 0 0
216 0 0
216 0 0
218 0 0
218 0 0
220 0 0
222 0 0
217 0 0
217 0 0
215 0 0
216 0 0
219 0 0
218 0 0
218 0 0
218 0 0
221 0 0
220 0 0
220 0 0
215 0 0
221 0 0
218 0 0
217 0 0
219 0 0
222 0 0
214 0 0
221 0 0
220 0 0
219 0 0
221 0 0
219 0 0
221 0 0
219 0 0
218 0 0
213 0 0
218 0 0
218 0 0
219 0 0
219 0 0
0 0 254
0 0 255
0 0 255
0 0 255
0 0 255
0 0 254
0 0 255
0 0 255
0 0 255
0 0 255
0 0 255
0 0 254
0 0 254
0 0 255
0 0 254
0 0 255
0 0 255
0 0 255
0 0 254
0 0 255
0 0 255
0 0 255
0 0 255
0 0 255
0 0 254
0 0 255
0 0 255
0 0 255
0 0 253
0 0 255
0 0 255
0 0 255
0 0 255
0 0 255
0 0 254
0 0 255
0 0 253
0 0 254
0 0 253
0 0 254
0 0 255
0 0 255
0 0 255
0 0 255
0 0 254
0 0 255
0 0 254
0 0 255
0 0 254
0 0 254
0 0 254
0 0 254
0 0 253
0 0 255
0 0 252
0 0 253
0 0 254
0 0 255
0 0 255
0 0 254
0 0 255
0 0 254
0 0 254
0 0 254
0 0 255
0 0 254
0 0 253
0 0 254
0 0 254
0 0 252
0 0 254
0 0 253
0 0 253
0 0 254
0 0 254
0 0 255
0 0 253
0 0 254
0 0 255
0 0 252
0 0 255
0 0 253
0 0 253
0 0 253
0 0 253
0 0 255
0 0 252
0 0 253
0 0 249
0 0 250
0 0 255
0 0 252
0 0 255
0 0 253
0 0 253
0 0 254
0 0 255
0 0 254
0 0 249
0 0 252
0 0 250
0 0 254
0 0 246
0 0 252
0 0 252
0 0 254
0 0 253
0 0 250
0 0 249
0 0 253
0 0 250
0 0 250
0 0 252
0 0 249
0 0 249
0 0 248
0 0 252
0 0 246
0 0 250
0 0 250
0 0 245
0 0 250
0 0 248
0 0 248
0 0 249
0 0 250
0 0 245
0 0 249
0 0 249
0 0 249
0 0 246
0 0 249
0 0 249
0 0 249
0 0 244
0 0 250
0 0 252
0 0 245
0 0 242
0 0 242
0 0 236
0 0 244
0 0 237
0 0 252
0 0 238
0 0 242
0 0 238
0 0 245
0 0 246
0 0 244
0 0 234
0 0 244
0 0 233
0 0 242
0 0 237
0 0 244
0 0 244
0 0 238
0 0 240
0 0 234
0 0 233
0 0 233
0 0 227
0 0 240
0 0 234
0 0 234
0 0 234
0 0 228
0 0 227
0 0 230
0 0 233
0 0 237
0 0 230
0 0 228
0 0 224
0 0 223
0 0 224
0 0 218
0 0 212
0 0 203
0 0 212
0 0 217
0 0 221
0 0 206
0 0 212
0 0 191
0 0 211
0 0 193
0 0 203
0 0 186
0 0 191
0 0 182
0 0 189
66 72 181
207 226 253
210 230 255
210 230 255
210 230 255
210 230 255
210 230 255
210 230 255
210 230 255
210 230 255
210 230 255
210 230 255
205 224 249
141 56 62
141 0 0
154 0 0
164 0 0
161 0 0
163 0 0
157 0 0
159 0 0
167 0 0
177 0 0
166 0 0
169 0 0
170 0 0
187 0 0
168 0 0
171 0 0
183 0 0
186 0 0
185 0 0
180 0 0
180 0 0
194 0 0
200 0 0
188 0 0
189 0 0
196 0 0
202 0 0
189 0 0
198 0 0
188 0 0
199 0 0
200 0 0
200 0 0
203 0 0
202 0 0
198 0 0
205 0 0
205 0 0
210 0 0
199 0 0
199 0 0
206 0 0
201 0 0
204 0 0
205 0 0
198 0 0
214 0 0
203 0 0
209 0 0
208 0 0
203 0 0
206 0 0
204 0 0
209 0 0
203 0 0
204 0 0
210 0 0
209 0 0
202 0 0
206 0 0
204 0 0
210 0 0
211 0 0
212 0 0
213 0 0
211 0 0
210 0 0
205 0 0
209 0 0
209 0 0
209 0 0
212 0 0
206 0 0
213 0 0
214 0 0
211 0 0
210 0 0
213 0 0
209 0 0
215 0 0
212 0 0
213 0 0
214 0 0
213 0 0
216 0 0
214 0 0
216 0 0
216 0 0
213 0 0
217 0 0
209 0 0
211 0 0
218 0 0
208 0 0
216 0 0
213 0 0
214 0 0
213 0 0
210 0 0
216 0 0
212 0 0
216 0 0
215 0 0
214 0 0
214 0 0
215 0 0
217 0 0
218 0 0
217 0 0
210 0 0
217 0 0
216 0 0
211 0 0
216 0 0
215 0 0
214 0 0
216 0 0
211 0 0
215 0 0
214 0 0
214 0 0
215 0 0
221 0 0
214 0 0
217 0 0
217 0 0
218 0 0
216 0 0
219 0 0
216 0 0
214 0 0
217 0 0
220 0 0
214 0 0
219 0 0
216 0 0
211 0 0
217 0 0
217 0 0
219 0 0
216 0 0
216 0 0
219 0 0
216 0 0
218 0 0
214 0 0
219 0 0
220 0 0
220 0 0
218 0 0
218 0 0
220 0 0
217 0 0
214 0 0
214 0 0
217 0 0
217 0 0
218 0 0
220 0 0
218 0 0
216 0 0
218 0 0
222 0 0
218 0 0
214 0 0
219 0 0
217 0 0
217 0 0
219 0 0
220 0 0
220 0 0
221 0 0
219 0 0
218 0 0
214 0 0
217 0 0
219 0 0
220 0 0
218 0 0
220 0 0
218 0 0
215 0 0
216 0 0
214 0 0
216 0 0
217 0 0
217 0 0
216 0 0
217 0 0
218 0 0
219 0 0
216 0 0
217 0 0
218 0 0
0 0 255
0 0 255
0 0 255
0 0 255
0 0 255
0 0 255
0 0 255
0 0 255
0 0 255
0 0 255
0 0 255
0 0 255
0 0 255
0 0 255
0 0 255
0 0 255
0 0 255
0 0 255
0 0 255
0 0 254
0 0 255
0 0 254
0 0 255
0 0 255
0 0 255
0 0 255
0 0 255
0 0 255
0 0 255
0 0 255
0 0 255
0 0 255
0 0 254
0 0 255
0 0 254
0 0 255
0 0 253
0 0 255
0 0 255
0 0 254
0 0 253
0 0 255
0 0 255
0 0 255
0 0 254
0 0 255
0 0 255
0 0 255
0 0 254
0 0 255
0 0 255
0 0 255
0 0 250
0 0 254
0 0 255
0 0 255
0 0 255
0 0 254
0 0 253
0 0 255
0 0 255
0 0 254
0 0 255
0 0 254
0 0 255
0 0 254
0 0 255
0 0 253
0 0 253
0 0 255
0 0 252
0 0 253
0 0 253
0 0 254
0 0 250
0 0 253
0 0 248
0 0 252
0 0 253
0 0 255
0 0 254
0 0 252
0 0 252
0 0 253
0 0 250
0 0 253
0 0 255
0 0 253
0 0 254
0 0 249
0 0 255
0 0 253
0 0 252
0 0 250
0 0 254
0 0 254
0 0 255
0 0 253
0 0 253
0 0 253
0 0 253
0 0 250
0 0 249
0 0 254
0 0 248
0 0 250
0 0 253
0 0 249
0 0 248
0 0 253
0 0 248
0 0 252
0 0 250
0 0 250
0 0 248
0 0 248
0 0 246
0 0 250
0 0 250
0 0 242
0 0 248
0 0 244
0 0 249
0 0 245
0 0 244
0 0 250
0 0 248
0 0 244
0 0 242
0 0 245
0 0 252
0 0 246
0 0 241
0 0 249
0 0 248
0 0 246
0 0 249
0 0 248
0 0 245
0 0 246
0 0 245
0 0 244
0 0 244
0 0 245
0 0 240
0 0 238
0 0 245
0 0 246
0 0 242
0 0 237
0 0 244
0 0 242
0 0 249
0 0 230
0 0 245
0 0 240
0 0 244
0 0 234
0 0 231
0 0 236
0 0 242
0 0 237
0 0 237
0 0 236
0 0 234
0 0 233
0 0 241
0 0 230
0 0 238
0 0 231
0 0 223
0 0 228
0 0 212
0 0 230
0 0 221
0 0 214
0 0 212
0 0 214
0 0 221
0 0 214
0 0 204
0 0 221
0 0 217
0 0 204
0 0 206
0 0 212
0 0 194
0 0 184
0 0 189
0 0 188
0 0 198
0 0 196
0 0 175
0 0 181
162 176 220
211 230 255
211 230 255
211 230 255
211 230 255
211 230 255
211 230 255
211 230 255
211 230 255
211 230 255
211 230 255
176 170 189
132 0 0
140 0 0
146 0 0
146 0 0
151 0 0
157 0 0
162 0 0
168 0 0
183 0 0
174 0 0
172 0 0
172 0 0
169 0 0
168 0 0
176 0 0
178 0 0
180 0 0
178 0 0
185 0 0
190 0 0
185 0 0
188 0 0
189 0 0
194 0 0
183 0 0
189 0 0
191 0 0
191 0 0
201 0 0
192 0 0
198 0 0
201 0 0
192 0 0
200 0 0
198 0 0
207 0 0
199 0 0
203 0 0
203 0 0
197 0 0
203 0 0
205 0 0
206 0 0
203 0 0
210 0 0
204 0 0
206 0 0
205 0 0
209 0 0
205 0 0
202 0 0
205 0 0
214 0 0
210 0 0
209 0 0
206 0 0
214 0 0
206 0 0
211 0 0
208 0 0
211 0 0
205 0 0
208 0 0
216 0 0
206 0 0
211 0 0
213 0 0
211 0 0
214 0 0
211 0 0
214 0 0
205 0 0
213 0 0
214 0 0
209 0 0
219 0 0
212 0 0
217 0 0
216 0 0
209 0 0
212 0 0
211 0 0
208 0 0
211 0 0
213 0 0
213 0 0
210 0 0
217 0 0
213 0 0
208 0 0
212 0 0
216 0 0
218 0 0
217 0 0
213 0 0
216 0 0
220 0 0
212 0 0
214 0 0
214 0 0
210 0 0
218 0 0
218 0 0
223 0 0
217 0 0
214 0 0
217 0 0
215 0 0
216 0 0
217 0 0
219 0 0
214 0 0
217 0 0
219 0 0
217 0 0
216 0 0
216 0 0
216 0 0
214 0 0
217 0 0
215 0 0
215 0 0
216 0 0
218 0 0
217 0 0
213 0 0
218 0 0
216 0 0
215 0 0
214 0 0
219 0 0
211 0 0
218 0 0
219 0 0
216 0 0
219 0 0
217 0 0
216 0 0
215 0 0
218 0 0
218 0 0
212 0 0
216 0 0
214 0 0
222 0 0
217 0 0
217 0 0
218 0 0
219 0 0
214 0 0
218 0 0
219 0 0
215 0 0
212 0 0
219 0 0
218 0 0
214 0 0
220 0 0
219 0 0
215 0 0
217 0 0
217 0 0
222 0 0
218 0 0
220 0 0
215 0 0
219 0 0
219 0 0
218 0 0
216 0 0
218 0 0
223 0 0
219 0 0
217 0 0
219 0 0
221 0 0
220 0 0
217 0 0
216 0 0
217 0 0
214 0 0
219 0 0
216 0 0
216 0 0
219 0 0
215 0 0
219 0 0
219 0 0
222 0 0
219 0 0
220 0 0
217 0 0
218 0 0
220 0 0
0 0 255
0 0 255
0 0 255
0 0 254
0 0 255
0 0 255
0 0 255
0 0 255
0 0 255
0 0 254
0 0 255
0 0 255
0 0 255
0 0 255
0 0 255
0 0 255
0 0 255
0 0 254
0 0 255
0 0 255
0 0 255
0 0 254
0 0 255
0 0 255
0 0 255
0 0 255
0 0 255
0 0 254
0 0 255
0 0 255
0 0 255
0 0 254
0 0 254
0 0 255
0 0 255
0 0 255
0 0 255
0 0 255
0 0 255
0 0 254
0 0 255
0 0 254
0 0 253
0 0 253
0 0 254
0 0 255
0 0 254
0 0 254
0 0 252
0 0 255
0 0 254
0 0 254
0 0 253
0 0 253
0 0 255
0 0 254
0 0 255
0 0 254
0 0 254
0 0 252
0 0 255
0 0 255
0 0 254
0 0 255
0 0 250
0 0 254
0 0 255
0 0 254
0 0 255
0 0 255
0 0 255
0 0 253
0 0 254
0 0 254
0 0 254
0 0 252
0 0 255
0 0 255
0 0 254
0 0 255
0 0 254
0 0 254
0 0 255
0 0 254
0 0 253
0 0 254
0 0 252
0 0 252
0 0 255
0 0 254
0 0 254
0 0 253
0 0 255
0 0 250
0 0 253
0 0 254
0 0 252
0 0 252
0 0 254
0 0 249
0 0 250
0 0 254
0 0 252
0 0 249
0 0 253
0 0 252
0 0 250
0 0 252
0 0 252
0 0 248
0 0 249
0 0 248
0 0 250
0 0 252
0 0 252
0 0 246
0 0 249
0 0 250
0 0 245
0 0 250
0 0 245
0 0 252
0 0 246
0 0 250
0 0 253
0 0 249
0 0 248
0 0 245
0 0 246
0 0 248
0 0 249
0 0 248
0 0 246
0 0 249
0 0 244
0 0 244
0 0 238
0 0 242
0 0 249
0 0 244
0 0 244
0 0 248
0 0 244
0 0 252
0 0 248
0 0 233
0 0 242
0 0 240
0 0 238
0 0 242
0 0 242
0 0 242
0 0 242
0 0 241
0 0 240
0 0 241
0 0 237
0 0 244
0 0 236
0 0 238
0 0 238
0 0 233
0 0 234
0 0 237
0 0 242
0 0 226
0 0 226
0 0 220
0 0 230
0 0 231
0 0 221
0 0 230
0 0 221
0 0 217
0 0 223
0 0 220
0 0 223
0 0 215
0 0 227
0 0 227
0 0 217
0 0 211
0 0 204
0 0 204
0 0 207
0 0 206
0 0 203
0 0 193
0 0 199
0 0 194
0 0 182
0 0 181
0 0 186
0 0 177
79 86 181
211 230 255
211 230 255
211 230 255
211 230 255
211 230 255
211 230 255
211 230 255
211 230 255
211 230 255
211 230 255
143 83 92
146 0 0
130 0 0
154 0 0
165 0 0
163 0 0
162 0 0
164 0 0
155 0 0
176 0 0
169 0 0
169 0 0
182 0 0
171 0 0
170 0 0
184 0 0
187 0 0
182 0 0
180 0 0
180 0 0
187 0 0
190 0 0
186 0 0
190 0 0
194 0 0
197 0 0
195 0 0
186 0 0
185 0 0
198 0 0
196 0 0
204 0 0
197 0 0
202 0 0
206 0 0
200 0 0
198 0 0
208 0 0
204 0 0
208 0 0
193 0 0
205 0 0
207 0 0
210 0 0
204 0 0
203 0 0
209 0 0
208 0 0
204 0 0
207 0 0
207 0 0
204 0 0
213 0 0
205 0 0
203 0 0
196 0 0
206 0 0
205 0 0
210 0 0
207 0 0
212 0 0
208 0 0
207 0 0
212 0 0
207 0 0
210 0 0
212 0 0
211 0 0
212 0 0
196 0 0
217 0 0
208 0 0
209 0 0
213 0 0
214 0 0
215 0 0
208 0 0
216 0 0
207 0 0
215 0 0
214 0 0
214 0 0
214 0 0
210 0 0
213 0 0
213 0 0
214 0 0
212 0 0
212 0 0
209 0 0
209 0 0
213 0 0
217 0 0
214 0 0
208 0 0
212 0 0
212 0 0
219 0 0
211 0 0
211 0 0
212 0 0
215 0 0
216 0 0
217 0 0
209 0 0
216 0 0
217 0 0
215 0 0
220 0 0
215 0 0
217 0 0
217 0 0
217 0 0
212 0 0
212 0 0
218 0 0
214 0 0
215 0 0
219 0 0
217 0 0
215 0 0
215 0 0
213 0 0
219 0 0
215 0 0
216 0 0
216 0 0
214 0 0
218 0 0
219 0 0
217 0 0
215 0 0
218 0 0
218 0 0
217 0 0
221 0 0
217 0 0
216 0 0
217 0 0
219 0 0
213 0 0
217 0 0
219 0 0
219 0 0
218 0 0
217 0 0
216 0 0
219 0 0
214 0 0
215 0 0
215 0 0
215 0 0
219 0 0
218 0 0
218 0 0
217 0 0
216 0 0
221 0 0
217 0 0
218 0 0
217 0 0
214 0 0
217 0 0
217 0 0
216 0 0
218 0 0
222 0 0
218 0 0
218 0 0
218 0 0
219 0 0
220 0 0
217 0 0
216 0 0
218 0 0
223 0 0
217 0 0
220 0 0
218 0 0
220 0 0
217 0 0
217 0 0
219 0 0
220 0 0
217 0 0
221 0 0
219 0 0
220 0 0
218 0 0
218 0 0
220 0 0
219 0 0
220 0 0
214 0 0
217 0 0
0 0 255
0 0 255
0 0 255
0 0 254
0 0 253
0 0 255
0 0 254
0 0 255
0 0 255
0 0 255
0 0 255
0 0 255
0 0 255
0 0 255
0 0 255
0 0 254
0 0 254
0 0 255
0 0 255
0 0 255
0 0 254
0 0 255
0 0 255
0 0 255
0 0 255
0 0 255
0 0 255
0 0 253
0 0 255
0 0 255
0 0 255
0 0 254
0 0 255
0 0 255
0 0 255
0 0 255
0 0 255
0 0 254
0 0 255
0 0 255
0 0 255
0 0 255
0 0 254
0 0 252
0 0 254
0 0 255
0 0 254
0 0 254
0 0 253
0 0 255
0 0 255
0 0 255
0 0 253
0 0 252
0 0 254
0 0 254
0 0 254
0 0 255
0 0 253
0 0 254
0 0 252
0 0 254
0 0 254
0 0 255
0 0 254
0 0 250
0 0 255
0 0 255
0 0 254
0 0 253
0 0 254
0 0 255
0 0 254
0 0 253
0 0 253
0 0 254
0 0 254
0 0 252
0 0 253
0 0 249
0 0 254
0 0 253
0 0 253
0 0 254
0 0 250
0 0 255
0 0 252
0 0 253
0 0 255
0 0 254
0 0 253
0 0 252
0 0 250
0 0 254
0 0 252
0 0 250
0 0 254
0 0 253
0 0 248
0 0 252
0 0 253
0 0 252
0 0 252
0 0 252
0 0 249
0 0 250
0 0 252
0 0 252
0 0 252
0 0 253
0 0 252
0 0 252
0 0 249
0 0 249
0 0 248
0 0 250
0 0 252
0 0 252
0 0 245
0 0 250
0 0 249
0 0 245
0 0 253
0 0 249
0 0 248
0 0 252
0 0 249
0 0 248
0 0 249
0 0 248
0 0 249
0 0 246
0 0 240
0 0 245
0 0 242
0 0 246
0 0 249
0 0 241
0 0 246
0 0 248
0 0 242
0 0 246
0 0 242
0 0 241
0 0 240
0 0 248
0 0 244
0 0 241
0 0 237
0 0 244
0 0 241
0 0 241
0 0 237
0 0 236
0 0 237
0 0 238
0 0 238
0 0 237
0 0 237
0 0 240
0 0 237
0 0 231
0 0 230
0 0 228
0 0 227
0 0 240
0 0 230
0 0 231
0 0 238
0 0 230
0 0 224
0 0 230
0 0 217
0 0 212
0 0 218
0 0 215
0 0 224
0 0 226
0 0 220
0 0 209
0 0 217
0 0 227
0 0 214
0 0 204
0 0 211
0 0 206
0 0 196
0 0 194
0 0 209
0 0 191
0 0 171
0 0 198
0 0 165
0 0 171
0 0 155
193 210 242
212 230 255
212 230 255
212 230 255
212 230 255
212 230 255
212 230 255
212 230 255
212 230 255
191 194 215
134 0 0
124 0 0
141 0 0
138 0 0
152 0 0
153 0 0
142 0 0
158 0 0
166 0 0
152 0 0
175 0 0
180 0 0
174 0 0
171 0 0
181 0 0
176 0 0
184 0 0
180 0 0
186 0 0
195 0 0
189 0 0
190 0 0
182 0 0
192 0 0
186 0 0
196 0 0
189 0 0
190 0 0
197 0 0
208 0 0
202 0 0
200 0 0
200 0 0
201 0 0
191 0 0
197 0 0
209 0 0
200 0 0
204 0 0
189 0 0
203 0 0
203 0 0
197 0 0
206 0 0
208 0 0
205 0 0
202 0 0
209 0 0
201 0 0
212 0 0
207 0 0
208 0 0
203 0 0
208 0 0
210 0 0
205 0 0
212 0 0
204 0 0
211 0 0
206 0 0
203 0 0
210 0 0
211 0 0
205 0 0
211 0 0
212 0 0
211 0 0
211 0 0
209 0 0
211 0 0
210 0 0
214 0 0
213 0 0
213 0 0
212 0 0
213 0 0
211 0 0
210 0 0
215 0 0
213 0 0
213 0 0
216 0 0
216 0 0
211 0 0
209 0 0
212 0 0
212 0 0
213 0 0
213 0 0
211 0 0
218 0 0
211 0 0
215 0 0
214 0 0
215 0 0
217 0 0
217 0 0
217 0 0
210 0 0
212 0 0
220 0 0
215 0 0
217 0 0
215 0 0
220 0 0
216 0 0
214 0 0
215 0 0
213 0 0
215 0 0
212 0 0
214 0 0
214 0 0
214 0 0
222 0 0
216 0 0
215 0 0
219 0 0
219 0 0
214 0 0
217 0 0
215 0 0
219 0 0
217 0 0
213 0 0
217 0 0
217 0 0
214 0 0
212 0 0
219 0 0
215 0 0
218 0 0
216 0 0
220 0 0
213 0 0
218 0 0
220 0 0
217 0 0
218 0 0
216 0 0
220 0 0
219 0 0
219 0 0
214 0 0
215 0 0
219 0 0
219 0 0
215 0 0
217 0 0
221 0 0
220 0 0
222 0 0
213 0 0
217 0 0
218 0 0
219 0 0
221 0 0
217 0 0
216 0 0
217 0 0
216 0 0
217 0 0
219 0 0
215 0 0
215 0 0
218 0 0
219 0 0
216 0 0
221 0 0
216 0 0
221 0 0
218 0 0
217 0 0
215 0 0
221 0 0
219 0 0
217 0 0
215 0 0
217 0 0
219 0 0
219 0 0
216 0 0
217 0 0
219 0 0
219 0 0
220 0 0
215 0 0
217 0 0
218 0 0
219 0 0
217 0 0
217 0 0
219 0 0
217 0 0
218 0 0
0 0 255
0 0 255
0 0 255
0 0 255
0 0 255
0 0 255
0 0 255
0 0 255
0 0 255
0 0 254
0 0 255
0 0 254
0 0 255
0 0 254
0 0 255
0 0 255
0 0 254
0 0 255
0 0 255
0 0 255
0 0 254
0 0 255
0 0 253
0 0 255
0 0 255
0 0 255
0 0 254
0 0 255
0 0 255
0 0 255
0 0 255
0 0 255
0 0 255
0 0 254
0 0 255
0 0 255
0 0 255
0 0 254
0 0 255
0 0 253
0 0 254
0 0 254
0 0 255
0 0 254
0 0 255
0 0 254
0 0 255
0 0 255
0 0 255
0 0 254
0 0 254
0 0 255
0 0 254
0 0 255
0 0 255
0 0 254
0 0 255
0 0 255
0 0 252
0 0 252
0 0 254
0 0 254
0 0 252
0 0 255
0 0 253
0 0 254
0 0 255
0 0 253
0 0 252
0 0 254
0 0 254
0 0 255
0 0 252
0 0 254
0 0 255
0 0 253
0 0 250
0 0 252
0 0 252
0 0 253
0 0 255
0 0 255
0 0 253
0 0 252
0 0 252
0 0 254
0 0 255
0 0 252
0 0 254
0 0 254
0 0 255
0 0 254
0 0 252
0 0 249
0 0 252
0 0 250
0 0 249
0 0 254
0 0 250
0 0 252
0 0 253
0 0 252
0 0 253
0 0 249
0 0 252
0 0 252
0 0 254
0 0 255
0 0 250
0 0 250
0 0 252
0 0 250
0 0 253
0 0 253
0 0 244
0 0 246
0 0 253
0 0 245
0 0 250
0 0 249
0 0 246
0 0 252
0 0 246
0 0 245
0 0 246
0 0 248
0 0 249
0 0 252
0 0 246
0 0 246
0 0 244
0 0 250
0 0 238
0 0 242
0 0 244
0 0 248
0 0 249
0 0 245
0 0 244
0 0 245
0 0 246
0 0 242
0 0 246
0 0 248
0 0 240
0 0 246
0 0 245
0 0 241
0 0 242
0 0 246
0 0 245
0 0 244
0 0 241
0 0 244
0 0 241
0 0 245
0 0 233
0 0 241
0 0 226
0 0 238
0 0 231
0 0 238
0 0 230
0 0 240
0 0 228
0 0 236
0 0 227
0 0 233
0 0 234
0 0 224
0 0 231
0 0 230
0 0 233
0 0 218
0 0 226
0 0 218
0 0 212
0 0 217
0 0 212
0 0 217
0 0 223
0 0 203
0 0 199
0 0 217
0 0 191
0 0 204
0 0 199
0 0 198
0 0 194
0 0 169
0 0 184
0 0 175
0 0 165
0 0 171
0 0 159
127 138 198
212 230 255
212 230 255
212 230 255
212 230 255
212 230 255
212 230 255
212 230 255
212 230 255
163 153 169
139 0 0
137 0 0
144 0 0
149 0 0
134 0 0
155 0 0
172 0 0
157 0 0
163 0 0
162 0 0
165 0 0
175 0 0
174 0 0
177 0 0
188 0 0
183 0 0
190 0 0
184 0 0
190 0 0
192 0 0
193 0 0
193 0 0
191 0 0
198 0 0
196 0 0
191 0 0
191 0 0
195 0 0
201 0 0
188 0 0
193 0 0
203 0 0
196 0 0
199 0 0
196 0 0
205 0 0
189 0 0
202 0 0
194 0 0
207 0 0
199 0 0
209 0 0
203 0 0
199 0 0
198 0 0
209 0 0
209 0 0
203 0 0
208 0 0
210 0 0
201 0 0
205 0 0
209 0 0
214 0 0
210 0 0
196 0 0
206 0 0
207 0 0
203 0 0
210 0 0
201 0 0
213 0 0
209 0 0
209 0 0
214 0 0
208 0 0
213 0 0
207 0 0
213 0 0
213 0 0
213 0 0
208 0 0
207 0 0
218 0 0
211 0 0
215 0 0
213 0 0
213 0 0
213 0 0
216 0 0
211 0 0
214 0 0
219 0 0
217 0 0
213 0 0
213 0 0
210 0 0
218 0 0
218 0 0
213 0 0
210 0 0
211 0 0
220 0 0
211 0 0
211 0 0
212 0 0
213 0 0
216 0 0
217 0 0
213 0 0
217 0 0
210 0 0
215 0 0
216 0 0
216 0 0
218 0 0
214 0 0
214 0 0
215 0 0
214 0 0
215 0 0
215 0 0
215 0 0
215 0 0
215 0 0
216 0 0
214 0 0
218 0 0
216 0 0
212 0 0
219 0 0
216 0 0
217 0 0
221 0 0
214 0 0
219 0 0
216 0 0
217 0 0
216 0 0
211 0 0
215 0 0
218 0 0
216 0 0
217 0 0
219 0 0
221 0 0
216 0 0
218 0 0
214 0 0
215 0 0
220 0 0
219 0 0
221 0 0
218 0 0
219 0 0
214 0 0
218 0 0
218 0 0
220 0 0
217 0 0
219 0 0
220 0 0
214 0 0
219 0 0
217 0 0
213 0 0
215 0 0
218 0 0
218 0 0
219 0 0
216 0 0
217 0 0
220 0 0
219 0 0
219 0 0
218 0 0
219 0 0
219 0 0
219 0 0
216 0 0
220 0 0
220 0 0
218 0 0
217 0 0
216 0 0
219 0 0
217 0 0
217 0 0
217 0 0
219 0 0
222 0 0
218 0 0
222 0 0
222 0 0
220 0 0
220 0 0
218 0 0
216 0 0
216 0 0
220 0 0
220 0 0
216 0 0
217 0 0
217 0 0
217 0 0
0 0 255
0 0 255
0 0 255
0 0 255
0 0 255
0 0 255
0 0 255
0 0 255
0 0 255
0 0 255
0 0 255
0 0 255
0 0 254
0 0 255
0 0 255
0 0 254
0 0 255
0 0 255
0 0 254
0 0 255
0 0 254
0 0 255
0 0 255
0 0 255
0 0 255
0 0 255
0 0 254
0 0 255
0 0 255
0 0 253
0 0 253
0 0 255
0 0 255
0 0 255
0 0 255
0 0 255
0 0 254
0 0 254
0 0 255
0 0 255
0 0 255
0 0 255
0 0 255
0 0 254
0 0 255
0 0 255
0 0 255
0 0 254
0 0 255
0 0 254
0 0 255
0 0 254
0 0 254
0 0 254
0 0 254
0 0 254
0 0 255
0 0 252
0 0 253
0 0 255
0 0 254
0 0 255
0 0 253
0 0 254
0 0 253
0 0 252
0 0 255
0 0 254
0 0 254
0 0 255
0 0 254
0 0 253
0 0 254
0 0 254
0 0 254
0 0 254
0 0 254
0 0 253
0 0 254
0 0 254
0 0 253
0 0 253
0 0 254
0 0 246
0 0 254
0 0 255
0 0 254
0 0 252
0 0 253
0 0 248
0 0 253
0 0 253
0 0 254
0 0 252
0 0 253
0 0 252
0 0 252
0 0 250
0 0 252
0 0 250
0 0 252
0 0 250
0 0 250
0 0 253
0 0 248
0 0 248
0 0 246
0 0 253
0 0 254
0 0 245
0 0 252
0 0 250
0 0 249
0 0 252
0 0 248
0 0 249
0 0 249
0 0 249
0 0 246
0 0 250
0 0 245
0 0 254
0 0 246
0 0 249
0 0 249
0 0 248
0 0 248
0 0 248
0 0 250
0 0 250
0 0 249
0 0 245
0 0 245
0 0 246
0 0 245
0 0 245
0 0 244
0 0 240
0 0 245
0 0 238
0 0 241
0 0 242
0 0 246
0 0 240
0 0 244
0 0 246
0 0 250
0 0 242
0 0 242
0 0 242
0 0 240
0 0 237
0 0 238
0 0 240
0 0 240
0 0 241
0 0 240
0 0 236
0 0 234
0 0 231
0 0 236
0 0 231
0 0 234
0 0 230
0 0 226
0 0 233
0 0 241
0 0 234
0 0 226
0 0 218
0 0 226
0 0 214
0 0 221
0 0 228
0 0 228
0 0 217
0 0 217
0 0 221
0 0 215
0 0 215
0 0 206
0 0 198
0 0 204
0 0 212
0 0 209
0 0 217
0 0 182
0 0 203
0 0 198
0 0 211
0 0 191
0 0 171
0 0 182
0 0 173
0 0 155
60 65 144
209 227 253
212 231 255
212 231 255
212 231 255
212 231 255
212 231 255
212 231 255
210 227 252
116 46 51
120 0 0
123 0 0
149 0 0
158 0 0
169 0 0
157 0 0
164 0 0
160 0 0
173 0 0
181 0 0
180 0 0
181 0 0
178 0 0
181 0 0
174 0 0
186 0 0
188 0 0
189 0 0
187 0 0
185 0 0
185 0 0
192 0 0
190 0 0
191 0 0
188 0 0
192 0 0
199 0 0
200 0 0
197 0 0
200 0 0
192 0 0
198 0 0
201 0 0
206 0 0
200 0 0
198 0 0
204 0 0
205 0 0
207 0 0
205 0 0
205 0 0
206 0 0
203 0 0
210 0 0
201 0 0
204 0 0
208 0 0
200 0 0
207 0 0
209 0 0
205 0 0
208 0 0
210 0 0
200 0 0
199 0 0
197 0 0
210 0 0
211 0 0
206 0 0
205 0 0
206 0 0
208 0 0
210 0 0
207 0 0
215 0 0
206 0 0
212 0 0
215 0 0
209 0 0
211 0 0
217 0 0
208 0 0
213 0 0
214 0 0
211 0 0
215 0 0
211 0 0
203 0 0
217 0 0
210 0 0
206 0 0
213 0 0
211 0 0
213 0 0
214 0 0
218 0 0
211 0 0
209 0 0
216 0 0
209 0 0
215 0 0
211 0 0
215 0 0
217 0 0
216 0 0
215 0 0
218 0 0
216 0 0
215 0 0
214 0 0
215 0 0
217 0 0
214 0 0
218 0 0
215 0 0
218 0 0
213 0 0
216 0 0
216 0 0
214 0 0
218 0 0
211 0 0
216 0 0
219 0 0
212 0 0
216 0 0
217 0 0
216 0 0
214 0 0
216 0 0
218 0 0
218 0 0
216 0 0
220 0 0
212 0 0
217 0 0
216 0 0
214 0 0
217 0 0
215 0 0
217 0 0
216 0 0
215 0 0
218 0 0
219 0 0
217 0 0
220 0 0
216 0 0
215 0 0
217 0 0
218 0 0
218 0 0
217 0 0
216 0 0
217 0 0
220 0 0
221 0 0
215 0 0
217 0 0
216 0 0
221 0 0
215 0 0
218 0 0
214 0 0
217 0 0
216 0 0
219 0 0
218 0 0
218 0 0
219 0 0
219 0 0
215 0 0
219 0 0
217 0 0
220 0 0
218 0 0
219 0 0
217 0 0
219 0 0
219 0 0
216 0 0
221 0 0
220 0 0
216 0 0
219 0 0
219 0 0
220 0 0
217 0 0
217 0 0
218 0 0
217 0 0
217 0 0
220 0 0
223 0 0
216 0 0
222 0 0
217 0 0
215 0 0
217 0 0
219 0 0
218 0 0
218 0 0
222 0 0
221 0 0
221 0 0
0 0 255
0 0 255
0 0 255
0 0 255
0 0 255
0 0 255
0 0 255
0 0 255
0 0 255
0 0 255
0 0 255
0 0 255
0 0 255
0 0 255
0 0 255
0 0 255
0 0 255
0 0 255
0 0 255
0 0 254
0 0 254
0 0 255
0 0 254
0 0 254
0 0 255
0 0 255
0 0 255
0 0 255
0 0 254
0 0 254
0 0 255
0 0 255
0 0 254
0 0 255
0 0 254
0 0 255
0 0 255
0 0 255
0 0 254
0 0 255
0 0 254
0 0 255
0 0 254
0 0 254
0 0 255
0 0 254
0 0 253
0 0 253
0 0 254
0 0 253
0 0 255
0 0 255
0 0 255
0 0 254
0 0 255
0 0 254
0 0 254
0 0 255
0 0 255
0 0 255
0 0 254
0 0 254
0 0 255
0 0 253
0 0 253
0 0 252
0 0 255
0 0 255
0 0 252
0 0 253
0 0 254
0 0 254
0 0 254
0 0 255
0 0 254
0 0 250
0 0 255
0 0 253
0 0 254
0 0 252
0 0 248
0 0 253
0 0 253
0 0 254
0 0 254
0 0 252
0 0 252
0 0 254
0 0 255
0 0 253
0 0 253
0 0 250
0 0 250
0 0 253
0 0 252
0 0 252
0 0 253
0 0 249
0 0 250
0 0 246
0 0 253
0 0 253
0 0 250
0 0 254
0 0 254
0 0 252
0 0 254
0 0 250
0 0 249
0 0 252
0 0 249
0 0 250
0 0 253
0 0 253
0 0 250
0 0 254
0 0 242
0 0 246
0 0 253
0 0 248
0 0 252
0 0 253
0 0 245
0 0 246
0 0 248
0 0 252
0 0 245
0 0 241
0 0 254
0 0 246
0 0 242
0 0 250
0 0 241
0 0 250
0 0 245
0 0 246
0 0 245
0 0 242
0 0 248
0 0 240
0 0 241
0 0 244
0 0 250
0 0 241
0 0 244
0 0 242
0 0 242
0 0 248
0 0 244
0 0 242
0 0 242
0 0 237
0 0 238
0 0 244
0 0 244
0 0 234
0 0 237
0 0 231
0 0 233
0 0 223
0 0 231
0 0 227
0 0 228
0 0 233
0 0 233
0 0 233
0 0 234
0 0 230
0 0 234
0 0 236
0 0 226
0 0 224
0 0 231
0 0 228
0 0 223
0 0 214
0 0 217
0 0 228
0 0 218
0 0 209
0 0 211
0 0 207
0 0 211
0 0 211
0 0 201
0 0 194
0 0 212
0 0 193
0 0 186
0 0 199
0 0 188
0 0 167
0 0 171
0 0 173
0 0 161
0 0 153
174 189 218
213 231 255
213 231 255
213 231 255
213 231 255
213 231 255
213 231 255
177 183 203
103 0 0
126 0 0
141 0 0
131 0 0
158 0 0
144 0 0
136 0 0
155 0 0
153 0 0
164 0 0
176 0 0
167 0 0
172 0 0
175 0 0
172 0 0
174 0 0
187 0 0
175 0 0
182 0 0
188 0 0
189 0 0
193 0 0
183 0 0
184 0 0
193 0 0
189 0 0
195 0 0
185 0 0
188 0 0
197 0 0
204 0 0
196 0 0
196 0 0
201 0 0
200 0 0
196 0 0
202 0 0
211 0 0
209 0 0
203 0 0
206 0 0
201 0 0
201 0 0
197 0 0
205 0 0
209 0 0
210 0 0
203 0 0
211 0 0
206 0 0
212 0 0
204 0 0
209 0 0
208 0 0
209 0 0
203 0 0
211 0 0
208 0 0
208 0 0
209 0 0
208 0 0
213 0 0
214 0 0
205 0 0
207 0 0
216 0 0
211 0 0
212 0 0
208 0 0
209 0 0
212 0 0
206 0 0
208 0 0
218 0 0
201 0 0
206 0 0
219 0 0
214 0 0
215 0 0
209 0 0
210 0 0
210 0 0
216 0 0
207 0 0
216 0 0
214 0 0
213 0 0
215 0 0
212 0 0
213 0 0
215 0 0
208 0 0
214 0 0
218 0 0
211 0 0
214 0 0
209 0 0
218 0 0
215 0 0
219 0 0
213 0 0
211 0 0
213 0 0
213 0 0
218 0 0
219 0 0
215 0 0
216 0 0
213 0 0
213 0 0
218 0 0
215 0 0
214 0 0
213 0 0
219 0 0
215 0 0
218 0 0
209 0 0
217 0 0
217 0 0
215 0 0
213 0 0
217 0 0
220 0 0
218 0 0
216 0 0
215 0 0
219 0 0
216 0 0
219 0 0
220 0 0
216 0 0
215 0 0
216 0 0
212 0 0
219 0 0
217 0 0
216 0 0
215 0 0
219 0 0
217 0 0
216 0 0
218 0 0
217 0 0
218 0 0
216 0 0
219 0 0
225 0 0
218 0 0
218 0 0
221 0 0
217 0 0
218 0 0
218 0 0
216 0 0
218 0 0
215 0 0
218 0 0
217 0 0
219 0 0
216 0 0
217 0 0
218 0 0
219 0 0
218 0 0
218 0 0
218 0 0
214 0 0
217 0 0
218 0 0
218 0 0
221 0 0
219 0 0
218 0 0
219 0 0
221 0 0
220 0 0
216 0 0
219 0 0
219 0 0
212 0 0
220 0 0
217 0 0
219 0 0
219 0 0
214 0 0
218 0 0
219 0 0
219 0 0
217 0 0
222 0 0
220 0 0
216 0 0
218 0 0
221 0 0
220 0 0
0 0 255
0 0 255
0 0 255
0 0 255
0 0 255
0 0 255
0 0 255
0 0 255
0 0 255
0 0 255
0 0 255
0 0 255
0 0 255
0 0 255
0 0 255
0 0 255
0 0 255
0 0 254
0 0 255
0 0 255
0 0 254
0 0 255
0 0 255
0 0 255
0 0 255
0 0 255
0 0 254
0 0 255
0 0 255
0 0 255
0 0 255
0 0 253
0 0 255
0 0 255
0 0 253
0 0 255
0 0 253
0 0 254
0 0 255
0 0 254
0 0 253
0 0 254
0 0 255
0 0 254
0 0 255
0 0 255
0 0 255
0 0 253
0 0 253
0 0 254
0 0 255
0 0 254
0 0 254
0 0 254
0 0 254
0 0 255
0 0 254
0 0 254
0 0 254
0 0 254
0 0 253
0 0 255
0 0 253
0 0 254
0 0 254
0 0 254
0 0 253
0 0 253
0 0 255
0 0 253
0 0 255
0 0 252
0 0 254
0 0 254
0 0 255
0 0 253
0 0 250
0 0 255
0 0 252
0 0 254
0 0 252
0 0 253
0 0 253
0 0 254
0 0 250
0 0 253
0 0 249
0 0 252
0 0 254
0 0 255
0 0 252
0 0 252
0 0 252
0 0 246
0 0 250
0 0 253
0 0 254
0 0 253
0 0 252
0 0 253
0 0 253
0 0 249
0 0 252
0 0 250
0 0 249
0 0 249
0 0 250
0 0 250
0 0 252
0 0 252
0 0 250
0 0 252
0 0 250
0 0 250
0 0 250
0 0 249
0 0 249
0 0 250
0 0 254
0 0 249
0 0 254
0 0 250
0 0 242
0 0 245
0 0 250
0 0 245
0 0 250
0 0 253
0 0 248
0 0 249
0 0 253
0 0 253
0 0 252
0 0 242
0 0 252
0 0 246
0 0 238
0 0 246
0 0 245
0 0 249
0 0 244
0 0 244
0 0 238
0 0 245
0 0 242
0 0 241
0 0 244
0 0 242
0 0 242
0 0 241
0 0 242
0 0 248
0 0 241
0 0 242
0 0 236
0 0 236
0 0 241
0 0 236
0 0 237
0 0 236
0 0 238
0 0 238
0 0 236
0 0 230
0 0 233
0 0 236
0 0 236
0 0 223
0 0 236
0 0 233
0 0 226
0 0 230
0 0 218
0 0 223
0 0 233
0 0 228
0 0 226
0 0 220
0 0 218
0 0 220
0 0 199
0 0 206
0 0 209
0 0 206
0 0 198
0 0 203
0 0 212
0 0 184
0 0 203
0 0 189
0 0 194
0 0 177
0 0 182
0 0 153
0 0 149
0 0 130
126 136 198
213 231 255
213 231 255
213 231 255
213 231 255
213 231 255
213 231 255
164 138 153
117 0 0
126 0 0
140 0 0
143 0 0
146 0 0
151 0 0
145 0 0
167 0 0
175 0 0
167 0 0
171 0 0
172 0 0
160 0 0
165 0 0
181 0 0
187 0 0
178 0 0
181 0 0
182 0 0
185 0 0
183 0 0
185 0 0
193 0 0
199 0 0
192 0 0
176 0 0
191 0 0
197 0 0
190 0 0
207 0 0
183 0 0
196 0 0
196 0 0
197 0 0
197 0 0
197 0 0
187 0 0
203 0 0
202 0 0
197 0 0
205 0 0
195 0 0
205 0 0
206 0 0
196 0 0
202 0 0
208 0 0
204 0 0
201 0 0
209 0 0
199 0 0
203 0 0
210 0 0
208 0 0
206 0 0
207 0 0
213 0 0
212 0 0
210 0 0
204 0 0
203 0 0
214 0 0
209 0 0
209 0 0
214 0 0
212 0 0
212 0 0
211 0 0
207 0 0
213 0 0
216 0 0
211 0 0
207 0 0
208 0 0
213 0 0
212 0 0
216 0 0
217 0 0
210 0 0
211 0 0
218 0 0
212 0 0
212 0 0
217 0 0
210 0 0
211 0 0
211 0 0
214 0 0
213 0 0
212 0 0
216 0 0
213 0 0
217 0 0
214 0 0
217 0 0
215 0 0
214 0 0
212 0 0
212 0 0
218 0 0
217 0 0
212 0 0
217 0 0
215 0 0
213 0 0
214 0 0
213 0 0
216 0 0
217 0 0
215 0 0
215 0 0
217 0 0
219 0 0
214 0 0
217 0 0
219 0 0
218 0 0
218 0 0
211 0 0
216 0 0
218 0 0
220 0 0
218 0 0
216 0 0
218 0 0
217 0 0
216 0 0
215 0 0
217 0 0
216 0 0
220 0 0
214 0 0
218 0 0
218 0 0
219 0 0
221 0 0
216 0 0
216 0 0
214 0 0
218 0 0
219 0 0
221 0 0
216 0 0
217 0 0
216 0 0
217 0 0
223 0 0
215 0 0
217 0 0
216 0 0
217 0 0
218 0 0
218 0 0
217 0 0
213 0 0
219 0 0
217 0 0
213 0 0
216 0 0
219 0 0
219 0 0
217 0 0
217 0 0
219 0 0
219 0 0
220 0 0
223 0 0
221 0 0
216 0 0
219 0 0
218 0 0
217 0 0
217 0 0
219 0 0
220 0 0
218 0 0
221 0 0
217 0 0
223 0 0
222 0 0
218 0 0
218 0 0
218 0 0
220 0 0
222 0 0
221 0 0
220 0 0
220 0 0
220 0 0
218 0 0
220 0 0
220 0 0
218 0 0
219 0 0
221 0 0
220 0 0
0 0 255
0 0 255
0 0 255
0 0 255
0 0 255
0 0 255
0 0 255
0 0 254
0 0 255
0 0 255
0 0 255
0 0 254
0 0 255
0 0 255
0 0 255
0 0 254
0 0 255
0 0 255
0 0 255
0 0 255
0 0 253
0 0 254
0 0 255
0 0 254
0 0 255
0 0 255
0 0 254
0 0 252
0 0 255
0 0 255
0 0 255
0 0 255
0 0 253
0 0 254
0 0 253
0 0 253
0 0 255
0 0 255
0 0 254
0 0 254
0 0 255
0 0 253
0 0 255
0 0 253
0 0 255
0 0 254
0 0 252
0 0 255
0 0 255
0 0 255
0 0 253
0 0 254
0 0 254
0 0 254
0 0 255
0 0 254
0 0 255
0 0 254
0 0 255
0 0 252
0 0 255
0 0 253
0 0 255
0 0 252
0 0 255
0 0 253
0 0 254
0 0 253
0 0 255
0 0 255
0 0 255
0 0 254
0 0 254
0 0 252
0 0 250
0 0 253
0 0 255
0 0 252
0 0 254
0 0 253
0 0 254
0 0 250
0 0 254
0 0 255
0 0 254
0 0 254
0 0 253
0 0 254
0 0 253
0 0 254
0 0 250
0 0 252
0 0 253
0 0 254
0 0 252
0 0 252
0 0 253
0 0 246
0 0 253
0 0 254
0 0 254
0 0 249
0 0 254
0 0 255
0 0 252
0 0 246
0 0 253
0 0 246
0 0 249
0 0 246
0 0 248
0 0 252
0 0 249
0 0 249
0 0 246
0 0 254
0 0 245
0 0 254
0 0 255
0 0 249
0 0 245
0 0 248
0 0 246
0 0 249
0 0 252
0 0 253
0 0 249
0 0 245
0 0 246
0 0 250
0 0 244
0 0 246
0 0 244
0 0 240
0 0 245
0 0 244
0 0 241
0 0 248
0 0 245
0 0 242
0 0 250
0 0 249
0 0 241
0 0 245
0 0 241
0 0 245
0 0 241
0 0 242
0 0 238
0 0 249
0 0 241
0 0 237
0 0 236
0 0 240
0 0 242
0 0 236
0 0 240
0 0 241
0 0 236
0 0 244
0 0 238
0 0 234
0 0 228
0 0 227
0 0 242
0 0 231
0 0 230
0 0 236
0 0 237
0 0 217
0 0 230
0 0 226
0 0 231
0 0 233
0 0 228
0 0 220
0 0 221
0 0 218
0 0 226
0 0 221
0 0 214
0 0 203
0 0 207
0 0 209
0 0 196
0 0 203
0 0 194
0 0 193
0 0 182
0 0 207
0 0 161
0 0 184
0 0 175
0 0 163
0 0 144
0 0 155
52 56 147
212 230 255
213 231 255
213 231 255
213 231 255
213 231 255
212 230 254
100 51 57
120 0 0
137 0 0
124 0 0
136 0 0
152 0 0
135 0 0
151 0 0
164 0 0
158 0 0
166 0 0
162 0 0
181 0 0
172 0 0
178 0 0
185 0 0
172 0 0
183 0 0
191 0 0
193 0 0
183 0 0
190 0 0
187 0 0
180 0 0
191 0 0
199 0 0
182 0 0
196 0 0
190 0 0
193 0 0
192 0 0
196 0 0
197 0 0
196 0 0
206 0 0
199 0 0
192 0 0
202 0 0
203 0 0
209 0 0
194 0 0
176 0 0
201 0 0
202 0 0
201 0 0
213 0 0
211 0 0
199 0 0
204 0 0
201 0 0
209 0 0
205 0 0
203 0 0
198 0 0
204 0 0
209 0 0
204 0 0
211 0 0
214 0 0
204 0 0
212 0 0
207 0 0
207 0 0
209 0 0
209 0 0
213 0 0
212 0 0
207 0 0
215 0 0
210 0 0
209 0 0
210 0 0
208 0 0
209 0 0
211 0 0
214 0 0
216 0 0
216 0 0
215 0 0
215 0 0
212 0 0
216 0 0
211 0 0
216 0 0
211 0 0
212 0 0
215 0 0
211 0 0
214 0 0
215 0 0
218 0 0
212 0 0
215 0 0
218 0 0
214 0 0
217 0 0
213 0 0
215 0 0
212 0 0
216 0 0
216 0 0
214 0 0
216 0 0
212 0 0
215 0 0
212 0 0
210 0 0
215 0 0
216 0 0
216 0 0
216 0 0
211 0 0
219 0 0
215 0 0
217 0 0
217 0 0
218 0 0
216 0 0
219 0 0
219 0 0
217 0 0
216 0 0
216 0 0
219 0 0
214 0 0
217 0 0
218 0 0
215 0 0
216 0 0
221 0 0
215 0 0
217 0 0
221 0 0
218 0 0
216 0 0
217 0 0
217 0 0
220 0 0
219 0 0
220 0 0
215 0 0
218 0 0
221 0 0
222 0 0
216 0 0
218 0 0
214 0 0
219 0 0
220 0 0
221 0 0
220 0 0
215 0 0
222 0 0
220 0 0
215 0 0
216 0 0
217 0 0
218 0 0
220 0 0
221 0 0
221 0 0
220 0 0
220 0 0
218 0 0
219 0 0
218 0 0
215 0 0
217 0 0
220 0 0
218 0 0
222 0 0
217 0 0
221 0 0
218 0 0
222 0 0
218 0 0
219 0 0
220 0 0
216 0 0
219 0 0
216 0 0
220 0 0
220 0 0
216 0 0
218 0 0
218 0 0
219 0 0
224 0 0
220 0 0
218 0 0
216 0 0
216 0 0
218 0 0
218 0 0
219 0 0
218 0 0
220 0 0
0 0 255
0 0 255
0 0 254
0 0 255
0 0 255
0 0 255
0 0 255
0 0 254
0 0 255
0 0 255
0 0 254
0 0 255
0 0 255
0 0 255
0 0 255
0 0 255
0 0 255
0 0 255
0 0 255
0 0 255
0 0 255
0 0 255
0 0 255
0 0 255
0 0 255
0 0 255
0 0 255
0 0 255
0 0 255
0 0 255
0 0 255
0 0 255
0 0 253
0 0 254
0 0 255
0 0 255
0 0 255
0 0 254
0 0 255
0 0 255
0 0 255
0 0 255
0 0 253
0 0 254
0 0 253
0 0 255
0 0 254
0 0 254
0 0 255
0 0 255
0 0 254
0 0 255
0 0 254
0 0 255
0 0 255
0 0 255
0 0 255
0 0 254
0 0 253
0 0 254
0 0 253
0 0 253
0 0 250
0 0 254
0 0 254
0 0 253
0 0 254
0 0 255
0 0 252
0 0 252
0 0 254
0 0 255
0 0 254
0 0 253
0 0 255
0 0 253
0 0 253
0 0 254
0 0 252
0 0 249
0 0 254
0 0 252
0 0 253
0 0 252
0 0 253
0 0 252
0 0 253
0 0 255
0 0 254
0 0 250
0 0 253
0 0 249
0 0 252
0 0 253
0 0 250
0 0 254
0 0 250
0 0 250
0 0 252
0 0 254
0 0 253
0 0 248
0 0 249
0 0 249
0 0 248
0 0 252
0 0 248
0 0 252
0 0 250
0 0 253
0 0 250
0 0 250
0 0 246
0 0 252
0 0 249
0 0 244
0 0 249
0 0 253
0 0 252
0 0 245
0 0 246
0 0 250
0 0 252
0 0 250
0 0 246
0 0 242
0 0 250
0 0 248
0 0 246
0 0 250
0 0 248
0 0 248
0 0 240
0 0 246
0 0 245
0 0 246
0 0 245
0 0 252
0 0 242
0 0 250
0 0 245
0 0 241
0 0 244
0 0 242
0 0 246
0 0 238
0 0 244
0 0 237
0 0 238
0 0 244
0 0 245
0 0 237
0 0 242
0 0 227
0 0 244
0 0 241
0 0 236
0 0 246
0 0 245
0 0 237
0 0 234
0 0 234
0 0 236
0 0 226
0 0 234
0 0 233
0 0 233
0 0 231
0 0 226
0 0 236
0 0 230
0 0 226
0 0 224
0 0 218
0 0 220
0 0 218
0 0 215
0 0 217
0 0 218
0 0 212
0 0 196
0 0 207
0 0 203
0 0 199
0 0 204
0 0 194
0 0 201
0 0 186
0 0 193
0 0 198
0 0 184
0 0 186
0 0 155
0 0 165
0 0 165
0 0 147
0 0 157
176 191 221
214 231 255
214 231 255
214 231 255
214 231 255
181 192 212
100 0 0
122 0 0
132 0 0
126 0 0
143 0 0
160 0 0
154 0 0
157 0 0
167 0 0
169 0 0
174 0 0
171 0 0
175 0 0
168 0 0
167 0 0
179 0 0
186 0 0
181 0 0
190 0 0
186 0 0
175 0 0
184 0 0
188 0 0
183 0 0
186 0 0
180 0 0
203 0 0
197 0 0
196 0 0
195 0 0
199 0 0
192 0 0
196 0 0
197 0 0
198 0 0
204 0 0
199 0 0
195 0 0
199 0 0
206 0 0
199 0 0
210 0 0
206 0 0
204 0 0
203 0 0
205 0 0
206 0 0
206 0 0
207 0 0
204 0 0
210 0 0
209 0 0
206 0 0
212 0 0
211 0 0
203 0 0
205 0 0
206 0 0
210 0 0
211 0 0
207 0 0
205 0 0
213 0 0
202 0 0
213 0 0
212 0 0
210 0 0
209 0 0
213 0 0
219 0 0
212 0 0
216 0 0
209 0 0
213 0 0
212 0 0
210 0 0
207 0 0
212 0 0
210 0 0
213 0 0
212 0 0
214 0 0
215 0 0
216 0 0
206 0 0
216 0 0
219 0 0
217 0 0
212 0 0
212 0 0
210 0 0
215 0 0
210 0 0
215 0 0
216 0 0
215 0 0
212 0 0
218 0 0
215 0 0
214 0 0
216 0 0
218 0 0
215 0 0
215 0 0
214 0 0
217 0 0
215 0 0
215 0 0
213 0 0
217 0 0
219 0 0
217 0 0
214 0 0
216 0 0
217 0 0
216 0 0
212 0 0
213 0 0
215 0 0
220 0 0
216 0 0
216 0 0
218 0 0
216 0 0
219 0 0
214 0 0
220 0 0
214 0 0
219 0 0
216 0 0
219 0 0
219 0 0
214 0 0
217 0 0
216 0 0
216 0 0
218 0 0
215 0 0
217 0 0
218 0 0
219 0 0
219 0 0
219 0 0
215 0 0
219 0 0
219 0 0
222 0 0
217 0 0
220 0 0
222 0 0
215 0 0
218 0 0
220 0 0
220 0 0
216 0 0
217 0 0
220 0 0
215 0 0
219 0 0
217 0 0
219 0 0
217 0 0
221 0 0
218 0 0
217 0 0
222 0 0
218 0 0
220 0 0
218 0 0
218 0 0
217 0 0
220 0 0
216 0 0
220 0 0
213 0 0
217 0 0
219 0 0
222 0 0
221 0 0
219 0 0
217 0 0
218 0 0
219 0 0
219 0 0
223 0 0
218 0 0
219 0 0
216 0 0
223 0 0
217 0 0
216 0 0
215 0 0
216 0 0
218 0 0
221 0 0
220 0 0
217 0 0
0 0 255
0 0 255
0 0 255
0 0 255
0 0 255
0 0 255
0 0 255
0 0 254
0 0 255
0 0 255
0 0 255
0 0 255
0 0 255
0 0 254
0 0 255
0 0 254
0 0 255
0 0 255
0 0 255
0 0 255
0 0 254
0 0 255
0 0 255
0 0 255
0 0 255
0 0 254
0 0 255
0 0 254
0 0 255
0 0 255
0 0 255
0 0 255
0 0 255
0 0 254
0 0 255
0 0 255
0 0 254
0 0 255
0 0 254
0 0 254
0 0 253
0 0 254
0 0 254
0 0 254
0 0 254
0 0 254
0 0 255
0 0 254
0 0 255
0 0 255
0 0 255
0 0 253
0 0 255
0 0 254
0 0 254
0 0 254
0 0 253
0 0 253
0 0 255
0 0 253
0 0 252
0 0 253
0 0 255
0 0 252
0 0 254
0 0 255
0 0 254
0 0 255
0 0 253
0 0 254
0 0 254
0 0 252
0 0 253
0 0 254
0 0 254
0 0 252
0 0 255
0 0 255
0 0 250
0 0 255
0 0 254
0 0 252
0 0 253
0 0 252
0 0 254
0 0 252
0 0 252
0 0 255
0 0 250
0 0 253
0 0 254
0 0 252
0 0 252
0 0 255
0 0 250
0 0 253
0 0 255
0 0 254
0 0 253
0 0 250
0 0 248
0 0 252
0 0 249
0 0 252
0 0 248
0 0 249
0 0 254
0 0 248
0 0 254
0 0 249
0 0 255
0 0 250
0 0 254
0 0 249
0 0 254
0 0 253
0 0 245
0 0 246
0 0 248
0 0 254
0 0 246
0 0 253
0 0 250
0 0 236
0 0 248
0 0 250
0 0 248
0 0 246
0 0 245
0 0 249
0 0 246
0 0 244
0 0 248
0 0 250
0 0 248
0 0 249
0 0 245
0 0 248
0 0 245
0 0 252
0 0 241
0 0 246
0 0 242
0 0 240
0 0 245
0 0 240
0 0 236
0 0 245
0 0 245
0 0 241
0 0 244
0 0 245
0 0 242
0 0 237
0 0 234
0 0 240
0 0 236
0 0 237
0 0 230
0 0 231
0 0 234
0 0 238
0 0 234
0 0 246
0 0 234
0 0 236
0 0 226
0 0 226
0 0 231
0 0 234
0 0 234
0 0 226
0 0 223
0 0 224
0 0 238
0 0 217
0 0 224
0 0 215
0 0 217
0 0 207
0 0 215
0 0 207
0 0 211
0 0 212
0 0 198
0 0 211
0 0 189
0 0 199
0 0 181
0 0 175
0 0 191
0 0 181
0 0 167
0 0 163
0 0 167
0 0 157
0 0 147
147 159 201
214 232 255
214 232 255
214 232 255
214 232 255
161 157 173
119 0 0
118 0 0
125 0 0
136 0 0
137 0 0
142 0 0
146 0 0
158 0 0
159 0 0
170 0 0
172 0 0
180 0 0
167 0 0
176 0 0
169 0 0
186 0 0
175 0 0
171 0 0
183 0 0
188 0 0
190 0 0
196 0 0
192 0 0
186 0 0
188 0 0
190 0 0
190 0 0
192 0 0
202 0 0
192 0 0
196 0 0
191 0 0
199 0 0
194 0 0
200 0 0
194 0 0
198 0 0
195 0 0
201 0 0
203 0 0
208 0 0
196 0 0
197 0 0
202 0 0
198 0 0
204 0 0
199 0 0
200 0 0
201 0 0
204 0 0
207 0 0
206 0 0
210 0 0
206 0 0
207 0 0
210 0 0
203 0 0
216 0 0
208 0 0
203 0 0
208 0 0
210 0 0
213 0 0
210 0 0
214 0 0
209 0 0
212 0 0
215 0 0
214 0 0
208 0 0
207 0 0
204 0 0
215 0 0
214 0 0
211 0 0
208 0 0
212 0 0
214 0 0
213 0 0
216 0 0
211 0 0
221 0 0
215 0 0
217 0 0
213 0 0
216 0 0
214 0 0
212 0 0
217 0 0
214 0 0
216 0 0
213 0 0
215 0 0
221 0 0
213 0 0
214 0 0
217 0 0
215 0 0
217 0 0
217 0 0
220 0 0
215 0 0
216 0 0
219 0 0
213 0 0
219 0 0
220 0 0
218 0 0
215 0 0
215 0 0
216 0 0
218 0 0
219 0 0
219 0 0
216 0 0
219 0 0
215 0 0
218 0 0
216 0 0
216 0 0
215 0 0
214 0 0
215 0 0
218 0 0
217 0 0
217 0 0
218 0 0
214 0 0
219 0 0
216 0 0
220 0 0
218 0 0
215 0 0
215 0 0
217 0 0
215 0 0
216 0 0
219 0 0
217 0 0
219 0 0
219 0 0
217 0 0
219 0 0
217 0 0
220 0 0
215 0 0
217 0 0
219 0 0
219 0 0
220 0 0
220 0 0
220 0 0
218 0 0
220 0 0
218 0 0
216 0 0
220 0 0
217 0 0
217 0 0
221 0 0
220 0 0
219 0 0
220 0 0
214 0 0
221 0 0
217 0 0
219 0 0
218 0 0
216 0 0
220 0 0
218 0 0
218 0 0
215 0 0
220 0 0
217 0 0
220 0 0
221 0 0
219 0 0
219 0 0
220 0 0
219 0 0
221 0 0
223 0 0
218 0 0
223 0 0
221 0 0
222 0 0
218 0 0
218 0 0
220 0 0
220 0 0
217 0 0
220 0 0
219 0 0
217 0 0
220 0 0
218 0 0
0 0 253
0 0 255
0 0 255
0 0 255
0 0 255
0 0 254
0 0 255
0 0 255
0 0 255
0 0 255
0 0 255
0 0 255
0 0 254
0 0 254
0 0 255
0 0 255
0 0 254
0 0 255
0 0 255
0 0 254
0 0 255
0 0 255
0 0 255
0 0 255
0 0 255
0 0 254
0 0 254
0 0 255
0 0 255
0 0 255
0 0 255
0 0 255
0 0 255
0 0 255
0 0 255
0 0 255
0 0 254
0 0 255
0 0 255
0 0 255
0 0 255
0 0 255
0 0 253
0 0 255
0 0 254
0 0 253
0 0 255
0 0 255
0 0 255
0 0 253
0 0 254
0 0 253
0 0 255
0 0 255
0 0 253
0 0 253
0 0 255
0 0 253
0 0 254
0 0 253
0 0 255
0 0 254
0 0 252
0 0 255
0 0 255
0 0 253
0 0 253
0 0 255
0 0 254
0 0 254
0 0 254
0 0 252
0 0 253
0 0 253
0 0 250
0 0 254
0 0 252
0 0 253
0 0 252
0 0 253
0 0 250
0 0 254
0 0 253
0 0 254
0 0 253
0 0 254
0 0 252
0 0 254
0 0 253
0 0 254
0 0 253
0 0 255
0 0 249
0 0 252
0 0 254
0 0 252
0 0 254
0 0 253
0 0 253
0 0 253
0 0 254
0 0 253
0 0 253
0 0 245
0 0 250
0 0 248
0 0 249
0 0 250
0 0 248
0 0 248
0 0 250
0 0 250
0 0 252
0 0 250
0 0 250
0 0 245
0 0 250
0 0 249
0 0 250
0 0 244
0 0 249
0 0 249
0 0 248
0 0 246
0 0 246
0 0 253
0 0 249
0 0 248
0 0 244
0 0 248
0 0 242
0 0 245
0 0 250
0 0 249
0 0 248
0 0 246
0 0 248
0 0 246
0 0 246
0 0 241
0 0 241
0 0 241
0 0 252
0 0 241
0 0 244
0 0 246
0 0 241
0 0 244
0 0 234
0 0 241
0 0 245
0 0 233
0 0 244
0 0 236
0 0 237
0 0 234
0 0 234
0 0 238
0 0 238
0 0 236
0 0 234
0 0 231
0 0 233
0 0 240
0 0 240
0 0 233
0 0 230
0 0 231
0 0 238
0 0 233
0 0 244
0 0 224
0 0 230
0 0 215
0 0 227
0 0 223
0 0 212
0 0 226
0 0 220
0 0 214
0 0 228
0 0 199
0 0 212
0 0 206
0 0 212
0 0 198
0 0 206
0 0 198
0 0 198
0 0 184
0 0 193
0 0 179
0 0 159
0 0 161
0 0 163
0 0 155
0 0 153
100 108 169
215 232 255
215 232 255
215 232 255
215 232 255
117 98 108
100 0 0
126 0 0
127 0 0
138 0 0
139 0 0
153 0 0
142 0 0
160 0 0
166 0 0
166 0 0
165 0 0
176 0 0
159 0 0
175 0 0
175 0 0
174 0 0
182 0 0
190 0 0
189 0 0
177 0 0
183 0 0
188 0 0
194 0 0
188 0 0
196 0 0
189 0 0
195 0 0
191 0 0
188 0 0
193 0 0
193 0 0
196 0 0
205 0 0
195 0 0
202 0 0
200 0 0
203 0 0
208 0 0
200 0 0
197 0 0
201 0 0
200 0 0
202 0 0
203 0 0
203 0 0
203 0 0
203 0 0
202 0 0
211 0 0
205 0 0
199 0 0
205 0 0
207 0 0
208 0 0
208 0 0
217 0 0
213 0 0
210 0 0
207 0 0
200 0 0
207 0 0
214 0 0
210 0 0
213 0 0
213 0 0
211 0 0
215 0 0
215 0 0
214 0 0
212 0 0
217 0 0
209 0 0
214 0 0
207 0 0
211 0 0
212 0 0
213 0 0
214 0 0
215 0 0
209 0 0
215 0 0
209 0 0
210 0 0
215 0 0
216 0 0
213 0 0
219 0 0
214 0 0
215 0 0
220 0 0
216 0 0
213 0 0
208 0 0
215 0 0
220 0 0
218 0 0
214 0 0
217 0 0
217 0 0
217 0 0
211 0 0
220 0 0
218 0 0
220 0 0
218 0 0
219 0 0
216 0 0
217 0 0
216 0 0
220 0 0
215 0 0
216 0 0
218 0 0
220 0 0
218 0 0
217 0 0
221 0 0
218 0 0
221 0 0
216 0 0
218 0 0
213 0 0
214 0 0
215 0 0
216 0 0
219 0 0
218 0 0
216 0 0
216 0 0
215 0 0
217 0 0
221 0 0
218 0 0
214 0 0
215 0 0
219 0 0
218 0 0
216 0 0
216 0 0
218 0 0
220 0 0
222 0 0
217 0 0
220 0 0
216 0 0
221 0 0
220 0 0
216 0 0
216 0 0
216 0 0
213 0 0
218 0 0
219 0 0
218 0 0
220 0 0
219 0 0
217 0 0
220 0 0
218 0 0
222 0 0
215 0 0
221 0 0
216 0 0
221 0 0
218 0 0
220 0 0
219 0 0
221 0 0
221 0 0
218 0 0
223 0 0
216 0 0
220 0 0
219 0 0
216 0 0
215 0 0
219 0 0
219 0 0
218 0 0
219 0 0
220 0 0
221 0 0
218 0 0
217 0 0
219 0 0
221 0 0
220 0 0
216 0 0
222 0 0
219 0 0
222 0 0
219 0 0
220 0 0
217 0 0
221 0 0
221 0 0
219 0 0
0 0 255
0 0 255
0 0 255
0 0 255
0 0 254
0 0 255
0 0 255
0 0 255
0 0 255
0 0 255
0 0 254
0 0 255
0 0 255
0 0 255
0 0 255
0 0 255
0 0 255
0 0 255
0 0 254
0 0 255
0 0 255
0 0 254
0 0 254
0 0 255
0 0 254
0 0 255
0 0 255
0 0 253
0 0 254
0 0 255
0 0 253
0 0 255
0 0 255
0 0 255
0 0 255
0 0 255
0 0 255
0 0 255
0 0 255
0 0 255
0 0 254
0 0 255
0 0 254
0 0 255
0 0 255
0 0 254
0 0 254
0 0 254
0 0 255
0 0 254
0 0 255
0 0 254
0 0 254
0 0 253
0 0 255
0 0 255
0 0 255
0 0 255
0 0 255
0 0 255
0 0 254
0 0 252
0 0 255
0 0 254
0 0 253
0 0 255
0 0 255
0 0 254
0 0 253
0 0 255
0 0 254
0 0 252
0 0 254
0 0 254
0 0 253
0 0 255
0 0 252
0 0 253
0 0 253
0 0 253
0 0 255
0 0 252
0 0 252
0 0 254
0 0 254
0 0 254
0 0 253
0 0 248
0 0 252
0 0 253
0 0 252
0 0 254
0 0 253
0 0 255
0 0 254
0 0 250
0 0 249
0 0 253
0 0 252
0 0 248
0 0 253
0 0 252
0 0 250
0 0 248
0 0 252
0 0 252
0 0 252
0 0 252
0 0 250
0 0 248
0 0 253
0 0 250
0 0 246
0 0 246
0 0 254
0 0 253
0 0 249
0 0 254
0 0 254
0 0 248
0 0 250
0 0 248
0 0 253
0 0 248
0 0 250
0 0 246
0 0 246
0 0 246
0 0 252
0 0 249
0 0 250
0 0 252
0 0 246
0 0 248
0 0 249
0 0 250
0 0 245
0 0 244
0 0 245
0 0 246
0 0 250
0 0 245
0 0 241
0 0 240
0 0 242
0 0 245
0 0 240
0 0 244
0 0 242
0 0 246
0 0 236
0 0 242
0 0 242
0 0 234
0 0 238
0 0 241
0 0 234
0 0 234
0 0 241
0 0 240
0 0 224
0 0 231
0 0 236
0 0 228
0 0 237
0 0 236
0 0 227
0 0 228
0 0 223
0 0 231
0 0 231
0 0 228
0 0 220
0 0 224
0 0 230
0 0 233
0 0 233
0 0 206
0 0 212
0 0 214
0 0 215
0 0 214
0 0 224
0 0 209
0 0 182
0 0 193
0 0 186
0 0 188
0 0 188
0 0 182
0 0 153
0 0 181
0 0 179
0 0 167
0 0 155
0 0 155
0 0 128
21 23 142
208 225 249
215 232 255
215 232 255
207 223 245
94 0 0
111 0 0
123 0 0
128 0 0
150 0 0
133 0 0
131 0 0
157 0 0
164 0 0
146 0 0
172 0 0
177 0 0
164 0 0
174 0 0
184 0 0
172 0 0
171 0 0
185 0 0
182 0 0
190 0 0
190 0 0
176 0 0
175 0 0
197 0 0
183 0 0
196 0 0
193 0 0
198 0 0
189 0 0
204 0 0
200 0 0
188 0 0
204 0 0
196 0 0
194 0 0
208 0 0
199 0 0
203 0 0
188 0 0
197 0 0
194 0 0
212 0 0
204 0 0
206 0 0
202 0 0
204 0 0
202 0 0
205 0 0
204 0 0
207 0 0
206 0 0
207 0 0
207 0 0
205 0 0
210 0 0
216 0 0
211 0 0
214 0 0
211 0 0
211 0 0
212 0 0
210 0 0
212 0 0
213 0 0
211 0 0
210 0 0
209 0 0
208 0 0
207 0 0
210 0 0
210 0 0
208 0 0
212 0 0
213 0 0
213 0 0
219 0 0
215 0 0
212 0 0
208 0 0
212 0 0
216 0 0
218 0 0
214 0 0
218 0 0
216 0 0
215 0 0
216 0 0
213 0 0
217 0 0
216 0 0
213 0 0
220 0 0
215 0 0
215 0 0
213 0 0
214 0 0
216 0 0
214 0 0
217 0 0
216 0 0
214 0 0
209 0 0
214 0 0
214 0 0
213 0 0
213 0 0
214 0 0
220 0 0
219 0 0
214 0 0
215 0 0
218 0 0
212 0 0
214 0 0
217 0 0
214 0 0
215 0 0
217 0 0
218 0 0
219 0 0
215 0 0
218 0 0
213 0 0
217 0 0
217 0 0
217 0 0
220 0 0
216 0 0
217 0 0
218 0 0
221 0 0
220 0 0
218 0 0
217 0 0
215 0 0
219 0 0
218 0 0
217 0 0
216 0 0
218 0 0
217 0 0
219 0 0
220 0 0
214 0 0
220 0 0
216 0 0
216 0 0
218 0 0
219 0 0
222 0 0
216 0 0
221 0 0
216 0 0
219 0 0
218 0 0
216 0 0
219 0 0
219 0 0
219 0 0
218 0 0
222 0 0
221 0 0
221 0 0
224 0 0
220 0 0
218 0 0
220 0 0
219 0 0
219 0 0
217 0 0
217 0 0
221 0 0
218 0 0
219 0 0
217 0 0
222 0 0
221 0 0
221 0 0
223 0 0
220 0 0
221 0 0
218 0 0
218 0 0
220 0 0
221 0 0
223 0 0
222 0 0
219 0 0
220 0 0
221 0 0
222 0 0
218 0 0
221 0 0
220 0 0
217 0 0
218 0 0
220 0 0
216 0 0
0 0 255
0 0 255
0 0 255
0 0 255
0 0 255
0 0 255
0 0 255
0 0 255
0 0 255
0 0 255
0 0 255
0 0 255
0 0 255
0 0 254
0 0 255
0 0 255
0 0 255
0 0 254
0 0 255
0 0 253
0 0 254
0 0 255
0 0 254
0 0 255
0 0 255
0 0 255
0 0 255
0 0 255
0 0 255
0 0 255
0 0 254
0 0 255
0 0 255
0 0 254
0 0 254
0 0 255
0 0 254
0 0 255
0 0 255
0 0 254
0 0 255
0 0 255
0 0 254
0 0 252
0 0 255
0 0 254
0 0 254
0 0 255
0 0 255
0 0 255
0 0 255
0 0 254
0 0 255
0 0 254
0 0 255
0 0 254
0 0 254
0 0 253
0 0 253
0 0 253
0 0 255
0 0 255
0 0 254
0 0 255
0 0 255
0 0 253
0 0 255
0 0 255
0 0 254
0 0 254
0 0 253
0 0 255
0 0 253
0 0 254
0 0 254
0 0 252
0 0 249
0 0 250
0 0 255
0 0 255
0 0 252
0 0 252
0 0 252
0 0 253
0 0 255
0 0 254
0 0 250
0 0 255
0 0 250
0 0 253
0 0 252
0 0 252
0 0 252
0 0 255
0 0 253
0 0 249
0 0 253
0 0 250
0 0 250
0 0 254
0 0 250
0 0 252
0 0 242
0 0 252
0 0 253
0 0 252
0 0 252
0 0 252
0 0 252
0 0 254
0 0 249
0 0 253
0 0 246
0 0 249
0 0 246
0 0 252
0 0 250
0 0 249
0 0 246
0 0 241
0 0 250
0 0 248
0 0 249
0 0 253
0 0 252
0 0 241
0 0 242
0 0 250
0 0 252
0 0 249
0 0 249
0 0 245
0 0 241
0 0 248
0 0 250
0 0 252
0 0 242
0 0 248
0 0 242
0 0 246
0 0 242
0 0 245
0 0 236
0 0 242
0 0 242
0 0 244
0 0 249
0 0 242
0 0 230
0 0 241
0 0 240
0 0 242
0 0 240
0 0 230
0 0 234
0 0 238
0 0 228
0 0 240
0 0 234
0 0 237
0 0 236
0 0 237
0 0 242
0 0 248
0 0 233
0 0 237
0 0 224
0 0 223
0 0 230
0 0 224
0 0 221
0 0 217
0 0 218
0 0 221
0 0 220
0 0 226
0 0 224
0 0 194
0 0 223
0 0 215
0 0 224
0 0 214
0 0 201
0 0 196
0 0 220
0 0 184
0 0 194
0 0 201
0 0 163
0 0 184
0 0 181
0 0 182
0 0 167
0 0 171
0 0 147
0 0 153
0 0 135
0 0 133
185 200 228
215 232 255
215 232 255
197 208 228
95 0 0
83 0 0
119 0 0
124 0 0
148 0 0
151 0 0
147 0 0
149 0 0
137 0 0
161 0 0
150 0 0
163 0 0
168 0 0
182 0 0
181 0 0
179 0 0
180 0 0
185 0 0
178 0 0
184 0 0
188 0 0
186 0 0
186 0 0
190 0 0
189 0 0
188 0 0
188 0 0
195 0 0
196 0 0
193 0 0
195 0 0
202 0 0
193 0 0
201 0 0
200 0 0
202 0 0
202 0 0
199 0 0
203 0 0
201 0 0
207 0 0
212 0 0
199 0 0
200 0 0
207 0 0
207 0 0
202 0 0
206 0 0
209 0 0
198 0 0
205 0 0
208 0 0
210 0 0
210 0 0
208 0 0
207 0 0
212 0 0
211 0 0
209 0 0
205 0 0
217 0 0
208 0 0
215 0 0
214 0 0
213 0 0
210 0 0
203 0 0
209 0 0
215 0 0
214 0 0
211 0 0
208 0 0
214 0 0
211 0 0
213 0 0
218 0 0
207 0 0
219 0 0
214 0 0
211 0 0
208 0 0
216 0 0
213 0 0
210 0 0
216 0 0
214 0 0
218 0 0
212 0 0
215 0 0
214 0 0
218 0 0
215 0 0
215 0 0
212 0 0
215 0 0
215 0 0
213 0 0
210 0 0
219 0 0
217 0 0
211 0 0
215 0 0
215 0 0
218 0 0
216 0 0
215 0 0
216 0 0
219 0 0
217 0 0
221 0 0
218 0 0
216 0 0
216 0 0
215 0 0
218 0 0
220 0 0
217 0 0
218 0 0
215 0 0
217 0 0
217 0 0
221 0 0
220 0 0
215 0 0
220 0 0
213 0 0
220 0 0
218 0 0
212 0 0
214 0 0
218 0 0
214 0 0
220 0 0
221 0 0
220 0 0
219 0 0
221 0 0
221 0 0
221 0 0
218 0 0
218 0 0
217 0 0
215 0 0
221 0 0
215 0 0
222 0 0
220 0 0
217 0 0
218 0 0
216 0 0
215 0 0
219 0 0
219 0 0
223 0 0
219 0 0
218 0 0
218 0 0
216 0 0
217 0 0
218 0 0
220 0 0
221 0 0
219 0 0
220 0 0
216 0 0
221 0 0
216 0 0
215 0 0
220 0 0
217 0 0
221 0 0
221 0 0
217 0 0
218 0 0
214 0 0
221 0 0
225 0 0
222 0 0
221 0 0
218 0 0
217 0 0
216 0 0
220 0 0
221 0 0
219 0 0
221 0 0
217 0 0
214 0 0
220 0 0
220 0 0
220 0 0
220 0 0
217 0 0
220 0 0
217 0 0
220 0 0
220 0 0
221 0 0
0 0 255
0 0 255
0 0 255
0 0 255
0 0 255
0 0 255
0 0 255
0 0 255
0 0 255
0 0 255
0 0 255
0 0 254
0 0 255
0 0 255
0 0 255
0 0 255
0 0 254
0 0 255
0 0 255
0 0 255
0 0 255
0 0 255
0 0 255
0 0 255
0 0 255
0 0 254
0 0 255
0 0 255
0 0 255
0 0 255
0 0 255
0 0 255
0 0 255
0 0 255
0 0 254
0 0 255
0 0 255
0 0 254
0 0 254
0 0 255
0 0 254
0 0 255
0 0 254
0 0 254
0 0 255
0 0 254
0 0 255
0 0 254
0 0 254
0 0 255
0 0 254
0 0 254
0 0 253
0 0 255
0 0 255
0 0 254
0 0 253
0 0 254
0 0 255
0 0 253
0 0 254
0 0 252
0 0 254
0 0 255
0 0 254
0 0 254
0 0 252
0 0 254
0 0 255
0 0 254
0 0 252
0 0 254
0 0 255
0 0 250
0 0 253
0 0 248
0 0 252
0 0 253
0 0 255
0 0 253
0 0 254
0 0 254
0 0 254
0 0 253
0 0 254
0 0 248
0 0 254
0 0 254
0 0 252
0 0 253
0 0 254
0 0 248
0 0 252
0 0 249
0 0 252
0 0 250
0 0 252
0 0 252
0 0 254
0 0 248
0 0 252
0 0 254
0 0 248
0 0 249
0 0 250
0 0 249
0 0 255
0 0 254
0 0 250
0 0 250
0 0 252
0 0 252
0 0 245
0 0 249
0 0 249
0 0 249
0 0 252
0 0 246
0 0 248
0 0 250
0 0 245
0 0 246
0 0 248
0 0 245
0 0 249
0 0 249
0 0 245
0 0 244
0 0 249
0 0 245
0 0 241
0 0 246
0 0 242
0 0 248
0 0 249
0 0 246
0 0 250
0 0 248
0 0 241
0 0 246
0 0 240
0 0 249
0 0 245
0 0 242
0 0 245
0 0 245
0 0 248
0 0 241
0 0 244
0 0 240
0 0 241
0 0 240
0 0 240
0 0 242
0 0 241
0 0 238
0 0 230
0 0 231
0 0 236
0 0 236
0 0 237
0 0 233
0 0 234
0 0 236
0 0 241
0 0 227
0 0 228
0 0 227
0 0 238
0 0 228
0 0 234
0 0 227
0 0 230
0 0 211
0 0 227
0 0 230
0 0 217
0 0 220
0 0 218
0 0 204
0 0 207
0 0 214
0 0 204
0 0 207
0 0 201
0 0 199
0 0 203
0 0 203
0 0 201
0 0 186
0 0 189
0 0 181
0 0 177
0 0 177
0 0 151
0 0 163
0 0 122
0 0 135
151 163 204
216 232 255
216 232 255
147 145 159
92 0 0
106 0 0
135 0 0
118 0 0
139 0 0
149 0 0
170 0 0
164 0 0
153 0 0
160 0 0
167 0 0
159 0 0
182 0 0
174 0 0
172 0 0
181 0 0
171 0 0
175 0 0
182 0 0
187 0 0
187 0 0
183 0 0
192 0 0
186 0 0
188 0 0
192 0 0
196 0 0
195 0 0
199 0 0
198 0 0
188 0 0
191 0 0
197 0 0
189 0 0
201 0 0
202 0 0
204 0 0
208 0 0
191 0 0
200 0 0
202 0 0
201 0 0
208 0 0
203 0 0
204 0 0
197 0 0
205 0 0
209 0 0
206 0 0
208 0 0
204 0 0
207 0 0
204 0 0
211 0 0
204 0 0
209 0 0
215 0 0
208 0 0
213 0 0
207 0 0
207 0 0
211 0 0
201 0 0
213 0 0
205 0 0
209 0 0
205 0 0
211 0 0
213 0 0
211 0 0
215 0 0
211 0 0
212 0 0
215 0 0
218 0 0
215 0 0
212 0 0
216 0 0
210 0 0
213 0 0
220 0 0
214 0 0
214 0 0
208 0 0
214 0 0
211 0 0
221 0 0
216 0 0
218 0 0
212 0 0
215 0 0
218 0 0
209 0 0
208 0 0
212 0 0
217 0 0
213 0 0
216 0 0
220 0 0
210 0 0
214 0 0
214 0 0
216 0 0
217 0 0
220 0 0
220 0 0
217 0 0
213 0 0
218 0 0
217 0 0
222 0 0
218 0 0
218 0 0
218 0 0
215 0 0
218 0 0
215 0 0
221 0 0
219 0 0
222 0 0
221 0 0
218 0 0
218 0 0
221 0 0
218 0 0
216 0 0
219 0 0
222 0 0
220 0 0
215 0 0
218 0 0
214 0 0
215 0 0
221 0 0
216 0 0
219 0 0
217 0 0
223 0 0
216 0 0
217 0 0
220 0 0
219 0 0
220 0 0
221 0 0
216 0 0
215 0 0
222 0 0
217 0 0
219 0 0
214 0 0
220 0 0
220 0 0
217 0 0
217 0 0
219 0 0
220 0 0
220 0 0
220 0 0
218 0 0
216 0 0
219 0 0
222 0 0
220 0 0
219 0 0
217 0 0
220 0 0
221 0 0
219 0 0
219 0 0
218 0 0
219 0 0
220 0 0
218 0 0
219 0 0
221 0 0
215 0 0
218 0 0
220 0 0
216 0 0
222 0 0
221 0 0
219 0 0
218 0 0
218 0 0
217 0 0
219 0 0
219 0 0
219 0 0
221 0 0
221 0 0
216 0 0
217 0 0
221 0 0
225 0 0
221 0 0
223 0 0
218 0 0
223 0 0
0 0 254
0 0 255
0 0 255
0 0 255
0 0 255
0 0 255
0 0 255
0 0 255
0 0 254
0 0 255
0 0 255
0 0 255
0 0 255
0 0 255
0 0 255
0 0 255
0 0 255
0 0 255
0 0 255
0 0 255
0 0 255
0 0 255
0 0 255
0 0 254
0 0 254
0 0 254
0 0 255
0 0 255
0 0 255
0 0 254
0 0 255
0 0 255
0 0 254
0 0 255
0 0 255
0 0 254
0 0 255
0 0 254
0 0 255
0 0 254
0 0 255
0 0 254
0 0 255
0 0 254
0 0 255
0 0 255
0 0 254
0 0 253
0 0 252
0 0 255
0 0 255
0 0 255
0 0 254
0 0 255
0 0 255
0 0 255
0 0 255
0 0 254
0 0 255
0 0 253
0 0 255
0 0 254
0 0 254
0 0 255
0 0 254
0 0 254
0 0 253
0 0 254
0 0 253
0 0 253
0 0 253
0 0 252
0 0 249
0 0 254
0 0 252
0 0 255
0 0 254
0 0 252
0 0 253
0 0 250
0 0 253
0 0 252
0 0 250
0 0 255
0 0 254
0 0 253
0 0 253
0 0 250
0 0 250
0 0 254
0 0 253
0 0 255
0 0 255
0 0 252
0 0 253
0 0 246
0 0 252
0 0 255
0 0 250
0 0 249
0 0 249
0 0 253
0 0 252
0 0 254
0 0 249
0 0 250
0 0 253
0 0 250
0 0 254
0 0 246
0 0 246
0 0 249
0 0 248
0 0 250
0 0 249
0 0 248
0 0 250
0 0 248
0 0 246
0 0 252
0 0 252
0 0 248
0 0 246
0 0 254
0 0 249
0 0 252
0 0 250
0 0 242
0 0 245
0 0 244
0 0 250
0 0 246
0 0 244
0 0 248
0 0 248
0 0 252
0 0 246
0 0 242
0 0 240
0 0 248
0 0 248
0 0 245
0 0 242
0 0 250
0 0 244
0 0 245
0 0 245
0 0 242
0 0 244
0 0 242
0 0 237
0 0 237
0 0 242
0 0 241
0 0 244
0 0 228
0 0 244
0 0 236
0 0 234
0 0 242
0 0 236
0 0 236
0 0 233
0 0 230
0 0 233
0 0 241
0 0 228
0 0 238
0 0 230
0 0 218
0 0 220
0 0 224
0 0 227
0 0 223
0 0 211
0 0 226
0 0 207
0 0 204
0 0 211
0 0 217
0 0 220
0 0 214
0 0 214
0 0 212
0 0 188
0 0 204
0 0 199
0 0 191
0 0 188
0 0 189
0 0 182
0 0 171
0 0 179
0 0 153
0 0 163
0 0 155
0 0 135
0 0 125
108 116 155
216 233 255
216 233 255
119 111 122
90 0 0
108 0 0
106 0 0
136 0 0
121 0 0
147 0 0
148 0 0
150 0 0
143 0 0
152 0 0
164 0 0
172 0 0
175 0 0
173 0 0
172 0 0
167 0 0
177 0 0
176 0 0
183 0 0
182 0 0
185 0 0
190 0 0
191 0 0
192 0 0
192 0 0
185 0 0
198 0 0
190 0 0
190 0 0
193 0 0
201 0 0
200 0 0
193 0 0
205 0 0
194 0 0
200 0 0
207 0 0
199 0 0
203 0 0
194 0 0
196 0 0
204 0 0
201 0 0
210 0 0
205 0 0
205 0 0
197 0 0
201 0 0
205 0 0
207 0 0
211 0 0
208 0 0
209 0 0
202 0 0
205 0 0
209 0 0
215 0 0
210 0 0
209 0 0
208 0 0
208 0 0
214 0 0
213 0 0
209 0 0
216 0 0
214 0 0
212 0 0
217 0 0
211 0 0
207 0 0
219 0 0
219 0 0
213 0 0
210 0 0
215 0 0
212 0 0
220 0 0
214 0 0
216 0 0
217 0 0
211 0 0
216 0 0
214 0 0
212 0 0
218 0 0
213 0 0
214 0 0
218 0 0
214 0 0
211 0 0
217 0 0
216 0 0
216 0 0
212 0 0
215 0 0
213 0 0
213 0 0
211 0 0
210 0 0
218 0 0
211 0 0
214 0 0
221 0 0
214 0 0
218 0 0
217 0 0
220 0 0
220 0 0
217 0 0
216 0 0
214 0 0
218 0 0
213 0 0
215 0 0
215 0 0
216 0 0
217 0 0
219 0 0
213 0 0
221 0 0
222 0 0
218 0 0
216 0 0
214 0 0
219 0 0
221 0 0
220 0 0
218 0 0
220 0 0
222 0 0
216 0 0
221 0 0
219 0 0
220 0 0
215 0 0
221 0 0
218 0 0
220 0 0
218 0 0
220 0 0
220 0 0
220 0 0
219 0 0
218 0 0
216 0 0
217 0 0
219 0 0
221 0 0
217 0 0
217 0 0
220 0 0
220 0 0
220 0 0
218 0 0
219 0 0
218 0 0
221 0 0
221 0 0
220 0 0
219 0 0
217 0 0
217 0 0
223 0 0
217 0 0
220 0 0
220 0 0
219 0 0
219 0 0
218 0 0
221 0 0
221 0 0
218 0 0
221 0 0
220 0 0
219 0 0
219 0 0
217 0 0
218 0 0
218 0 0
216 0 0
221 0 0
220 0 0
219 0 0
220 0 0
219 0 0
221 0 0
219 0 0
219 0 0
222 0 0
221 0 0
220 0 0
219 0 0
219 0 0
220 0 0
219 0 0
219 0 0
216 0 0
221 0 0
0 0 255
0 0 255
0 0 255
0 0 255
0 0 255
0 0 255
0 0 255
0 0 255
0 0 255
0 0 255
0 0 255
0 0 254
0 0 255
0 0 255
0 0 255
0 0 255
0 0 255
0 0 255
0 0 255
0 0 255
0 0 255
0 0 255
0 0 255
0 0 255
0 0 253
0 0 253
0 0 255
0 0 254
0 0 255
0 0 255
0 0 255
0 0 255
0 0 255
0 0 255
0 0 255
0 0 254
0 0 254
0 0 255
0 0 255
0 0 255
0 0 253
0 0 254
0 0 255
0 0 255
0 0 253
0 0 255
0 0 254
0 0 255
0 0 255
0 0 255
0 0 255
0 0 255
0 0 254
0 0 254
0 0 252
0 0 254
0 0 254
0 0 254
0 0 254
0 0 250
0 0 253
0 0 254
0 0 255
0 0 255
0 0 255
0 0 254
0 0 253
0 0 255
0 0 254
0 0 255
0 0 255
0 0 250
0 0 254
0 0 255
0 0 255
0 0 252
0 0 255
0 0 252
0 0 249
0 0 255
0 0 253
0 0 253
0 0 250
0 0 253
0 0 254
0 0 252
0 0 254
0 0 253
0 0 249
0 0 255
0 0 248
0 0 252
0 0 252
0 0 252
0 0 252
0 0 252
0 0 252
0 0 252
0 0 250
0 0 249
0 0 250
0 0 250
0 0 249
0 0 246
0 0 250
0 0 250
0 0 250
0 0 253
0 0 253
0 0 254
0 0 250
0 0 254
0 0 253
0 0 252
0 0 246
0 0 253
0 0 248
0 0 252
0 0 252
0 0 252
0 0 246
0 0 250
0 0 250
0 0 249
0 0 248
0 0 250
0 0 246
0 0 252
0 0 252
0 0 250
0 0 246
0 0 246
0 0 245
0 0 242
0 0 244
0 0 245
0 0 249
0 0 246
0 0 236
0 0 249
0 0 246
0 0 234
0 0 242
0 0 237
0 0 238
0 0 240
0 0 242
0 0 240
0 0 237
0 0 237
0 0 244
0 0 241
0 0 238
0 0 245
0 0 244
0 0 230
0 0 237
0 0 234
0 0 237
0 0 234
0 0 233
0 0 228
0 0 231
0 0 240
0 0 227
0 0 237
0 0 228
0 0 218
0 0 226
0 0 228
0 0 237
0 0 233
0 0 226
0 0 224
0 0 215
0 0 217
0 0 221
0 0 227
0 0 218
0 0 214
0 0 224
0 0 223
0 0 211
0 0 211
0 0 199
0 0 201
0 0 182
0 0 199
0 0 196
0 0 186
0 0 186
0 0 182
0 0 177
0 0 169
0 0 163
0 0 135
0 0 133
0 0 122
53 57 108
217 233 255
216 233 255
109 57 62
96 0 0
102 0 0
132 0 0
126 0 0
142 0 0
147 0 0
151 0 0
173 0 0
171 0 0
164 0 0
157 0 0
169 0 0
166 0 0
172 0 0
175 0 0
186 0 0
183 0 0
190 0 0
174 0 0
174 0 0
184 0 0
179 0 0
186 0 0
187 0 0
193 0 0
185 0 0
194 0 0
187 0 0
196 0 0
195 0 0
204 0 0
199 0 0
192 0 0
194 0 0
201 0 0
195 0 0
198 0 0
198 0 0
202 0 0
205 0 0
205 0 0
210 0 0
206 0 0
211 0 0
204 0 0
204 0 0
195 0 0
211 0 0
209 0 0
212 0 0
206 0 0
206 0 0
204 0 0
207 0 0
210 0 0
204 0 0
211 0 0
201 0 0
206 0 0
208 0 0
212 0 0
205 0 0
213 0 0
209 0 0
214 0 0
206 0 0
208 0 0
208 0 0
210 0 0
206 0 0
217 0 0
210 0 0
218 0 0
214 0 0
212 0 0
213 0 0
211 0 0
213 0 0
213 0 0
215 0 0
214 0 0
212 0 0
212 0 0
218 0 0
212 0 0
217 0 0
213 0 0
213 0 0
212 0 0
219 0 0
217 0 0
216 0 0
217 0 0
210 0 0
215 0 0
217 0 0
213 0 0
222 0 0
215 0 0
213 0 0
215 0 0
219 0 0
219 0 0
217 0 0
219 0 0
218 0 0
220 0 0
218 0 0
209 0 0
215 0 0
221 0 0
215 0 0
220 0 0
212 0 0
213 0 0
218 0 0
215 0 0
216 0 0
219 0 0
213 0 0
215 0 0
217 0 0
225 0 0
211 0 0
217 0 0
219 0 0
216 0 0
222 0 0
220 0 0
216 0 0
219 0 0
221 0 0
221 0 0
217 0 0
216 0 0
216 0 0
219 0 0
222 0 0
219 0 0
217 0 0
216 0 0
219 0 0
216 0 0
219 0 0
223 0 0
219 0 0
219 0 0
218 0 0
219 0 0
219 0 0
216 0 0
220 0 0
220 0 0
218 0 0
220 0 0
219 0 0
218 0 0
220 0 0
217 0 0
218 0 0
219 0 0
216 0 0
220 0 0
220 0 0
219 0 0
220 0 0
217 0 0
219 0 0
221 0 0
218 0 0
217 0 0
217 0 0
222 0 0
220 0 0
216 0 0
217 0 0
219 0 0
216 0 0
217 0 0
219 0 0
218 0 0
217 0 0
219 0 0
220 0 0
222 0 0
221 0 0
219 0 0
217 0 0
220 0 0
222 0 0
218 0 0
219 0 0
219 0 0
219 0 0
222 0 0
220 0 0
222 0 0
217 0 0
0 0 255
0 0 255
0 0 255
0 0 254
0 0 255
0 0 255
0 0 255
0 0 254
0 0 255
0 0 255
0 0 255
0 0 254
0 0 255
0 0 255
0 0 255
0 0 255
0 0 255
0 0 255
0 0 255
0 0 255
0 0 255
0 0 254
0 0 255
0 0 255
0 0 255
0 0 255
0 0 255
0 0 255
0 0 254
0 0 255
0 0 255
0 0 255
0 0 255
0 0 255
0 0 255
0 0 255
0 0 254
0 0 254
0 0 254
0 0 255
0 0 254
0 0 254
0 0 253
0 0 254
0 0 255
0 0 254
0 0 254
0 0 254
0 0 255
0 0 255
0 0 254
0 0 255
0 0 255
0 0 255
0 0 255
0 0 253
0 0 254
0 0 254
0 0 253
0 0 253
0 0 253
0 0 253
0 0 255
0 0 254
0 0 253
0 0 250
0 0 253
0 0 249
0 0 254
0 0 255
0 0 255
0 0 255
0 0 253
0 0 252
0 0 255
0 0 253
0 0 255
0 0 252
0 0 252
0 0 255
0 0 253
0 0 253
0 0 254
0 0 254
0 0 250
0 0 253
0 0 253
0 0 253
0 0 254
0 0 252
0 0 250
0 0 249
0 0 254
0 0 255
0 0 250
0 0 253
0 0 253
0 0 249
0 0 253
0 0 252
0 0 252
0 0 249
0 0 252
0 0 248
0 0 252
0 0 248
0 0 245
0 0 253
0 0 249
0 0 253
0 0 248
0 0 249
0 0 245
0 0 250
0 0 252
0 0 248
0 0 252
0 0 248
0 0 248
0 0 252
0 0 248
0 0 248
0 0 249
0 0 249
0 0 245
0 0 249
0 0 249
0 0 242
0 0 252
0 0 241
0 0 242
0 0 249
0 0 245
0 0 249
0 0 248
0 0 244
0 0 249
0 0 238
0 0 244
0 0 246
0 0 249
0 0 241
0 0 245
0 0 248
0 0 234
0 0 238
0 0 242
0 0 240
0 0 240
0 0 245
0 0 242
0 0 241
0 0 245
0 0 226
0 0 245
0 0 241
0 0 234
0 0 230
0 0 234
0 0 228
0 0 227
0 0 230
0 0 237
0 0 233
0 0 217
0 0 220
0 0 231
0 0 237
0 0 227
0 0 234
0 0 221
0 0 217
0 0 233
0 0 212
0 0 226
0 0 221
0 0 231
0 0 220
0 0 214
0 0 211
0 0 215
0 0 201
0 0 215
0 0 199
0 0 191
0 0 199
0 0 207
0 0 194
0 0 171
0 0 179
0 0 179
0 0 179
0 0 182
0 0 169
0 0 159
0 0 137
0 0 144
0 0 99
0 0 102
208 224 248
206 221 242
74 0 0
97 0 0
110 0 0
132 0 0
149 0 0
122 0 0
154 0 0
138 0 0
149 0 0
157 0 0
155 0 0
154 0 0
163 0 0
176 0 0
168 0 0
173 0 0
176 0 0
183 0 0
179 0 0
178 0 0
183 0 0
197 0 0
185 0 0
189 0 0
196 0 0
192 0 0
188 0 0
191 0 0
197 0 0
198 0 0
202 0 0
201 0 0
191 0 0
194 0 0
196 0 0
200 0 0
203 0 0
207 0 0
198 0 0
204 0 0
200 0 0
208 0 0
202 0 0
192 0 0
206 0 0
208 0 0
207 0 0
204 0 0
207 0 0
209 0 0
208 0 0
204 0 0
205 0 0
206 0 0
207 0 0
207 0 0
206 0 0
207 0 0
204 0 0
214 0 0
211 0 0
211 0 0
210 0 0
214 0 0
203 0 0
213 0 0
216 0 0
209 0 0
214 0 0
223 0 0
220 0 0
211 0 0
215 0 0
209 0 0
209 0 0
211 0 0
218 0 0
214 0 0
212 0 0
215 0 0
217 0 0
212 0 0
214 0 0
215 0 0
218 0 0
219 0 0
216 0 0
219 0 0
219 0 0
214 0 0
214 0 0
215 0 0
217 0 0
216 0 0
219 0 0
216 0 0
215 0 0
216 0 0
215 0 0
211 0 0
219 0 0
217 0 0
220 0 0
209 0 0
219 0 0
214 0 0
215 0 0
218 0 0
213 0 0
212 0 0
217 0 0
215 0 0
216 0 0
217 0 0
218 0 0
215 0 0
220 0 0
219 0 0
218 0 0
218 0 0
217 0 0
217 0 0
213 0 0
214 0 0
217 0 0
216 0 0
219 0 0
215 0 0
217 0 0
218 0 0
219 0 0
217 0 0
219 0 0
218 0 0
219 0 0
217 0 0
218 0 0
220 0 0
216 0 0
219 0 0
219 0 0
218 0 0
218 0 0
220 0 0
221 0 0
221 0 0
220 0 0
218 0 0
220 0 0
219 0 0
220 0 0
221 0 0
219 0 0
214 0 0
221 0 0
219 0 0
220 0 0
216 0 0
221 0 0
221 0 0
220 0 0
217 0 0
221 0 0
218 0 0
217 0 0
220 0 0
223 0 0
219 0 0
224 0 0
222 0 0
220 0 0
217 0 0
220 0 0
220 0 0
218 0 0
222 0 0
221 0 0
223 0 0
220 0 0
218 0 0
218 0 0
217 0 0
216 0 0
217 0 0
219 0 0
219 0 0
220 0 0
219 0 0
219 0 0
220 0 0
219 0 0
219 0 0
216 0 0
221 0 0
219 0 0
224 0 0
220 0 0
217 0 0
217 0 0
0 0 255
0 0 255
0 0 255
0 0 255
0 0 255
0 0 255
0 0 255
0 0 255
0 0 255
0 0 255
0 0 255
0 0 255
0 0 255
0 0 255
0 0 255
0 0 254
0 0 255
0 0 255
0 0 255
0 0 255
0 0 254
0 0 255
0 0 255
0 0 254
0 0 255
0 0 255
0 0 255
0 0 255
0 0 253
0 0 255
0 0 255
0 0 255
0 0 255
0 0 254
0 0 255
0 0 255
0 0 255
0 0 255
0 0 255
0 0 254
0 0 253
0 0 253
0 0 255
0 0 255
0 0 255
0 0 254
0 0 255
0 0 254
0 0 255
0 0 255
0 0 255
0 0 254
0 0 254
0 0 254
0 0 255
0 0 254
0 0 253
0 0 253
0 0 252
0 0 255
0 0 253
0 0 254
0 0 255
0 0 254
0 0 253
0 0 252
0 0 253
0 0 246
0 0 252
0 0 253
0 0 250
0 0 254
0 0 254
0 0 250
0 0 252
0 0 253
0 0 252
0 0 255
0 0 255
0 0 255
0 0 253
0 0 253
0 0 254
0 0 252
0 0 254
0 0 253
0 0 252
0 0 254
0 0 254
0 0 252
0 0 253
0 0 252
0 0 252
0 0 255
0 0 255
0 0 253
0 0 253
0 0 249
0 0 250
0 0 255
0 0 252
0 0 253
0 0 253
0 0 252
0 0 253
0 0 246
0 0 252
0 0 252
0 0 246
0 0 250
0 0 254
0 0 244
0 0 252
0 0 253
0 0 250
0 0 246
0 0 246
0 0 248
0 0 253
0 0 249
0 0 248
0 0 248
0 0 249
0 0 244
0 0 250
0 0 245
0 0 246
0 0 246
0 0 248
0 0 242
0 0 250
0 0 244
0 0 250
0 0 250
0 0 246
0 0 245
0 0 242
0 0 241
0 0 248
0 0 242
0 0 245
0 0 244
0 0 240
0 0 244
0 0 237
0 0 244
0 0 245
0 0 238
0 0 242
0 0 231
0 0 242
0 0 244
0 0 238
0 0 237
0 0 238
0 0 233
0 0 238
0 0 233
0 0 240
0 0 234
0 0 233
0 0 231
0 0 237
0 0 227
0 0 231
0 0 236
0 0 231
0 0 224
0 0 234
0 0 234
0 0 228
0 0 214
0 0 221
0 0 212
0 0 227
0 0 209
0 0 212
0 0 215
0 0 217
0 0 217
0 0 211
0 0 217
0 0 212
0 0 211
0 0 209
0 0 203
0 0 198
0 0 196
0 0 181
0 0 186
0 0 196
0 0 171
0 0 177
0 0 175
0 0 169
0 0 144
0 0 122
0 0 125
0 0 76
186 199 224
190 201 220
83 0 0
110 0 0
104 0 0
124 0 0
134 0 0
136 0 0
143 0 0
152 0 0
150 0 0
153 0 0
165 0 0
173 0 0
162 0 0
163 0 0
174 0 0
171 0 0
184 0 0
183 0 0
174 0 0
191 0 0
180 0 0
182 0 0
194 0 0
188 0 0
192 0 0
191 0 0
193 0 0
193 0 0
187 0 0
200 0 0
205 0 0
198 0 0
198 0 0
202 0 0
203 0 0
200 0 0
207 0 0
200 0 0
205 0 0
202 0 0
197 0 0
202 0 0
206 0 0
201 0 0
194 0 0
211 0 0
208 0 0
204 0 0
212 0 0
212 0 0
207 0 0
212 0 0
207 0 0
209 0 0
212 0 0
215 0 0
208 0 0
206 0 0
207 0 0
211 0 0
215 0 0
215 0 0
207 0 0
208 0 0
207 0 0
208 0 0
209 0 0
212 0 0
209 0 0
209 0 0
216 0 0
216 0 0
218 0 0
216 0 0
213 0 0
219 0 0
214 0 0
212 0 0
216 0 0
210 0 0
217 0 0
215 0 0
215 0 0
215 0 0
217 0 0
215 0 0
218 0 0
219 0 0
212 0 0
218 0 0
220 0 0
206 0 0
215 0 0
215 0 0
215 0 0
215 0 0
217 0 0
213 0 0
217 0 0
215 0 0
222 0 0
215 0 0
215 0 0
220 0 0
216 0 0
216 0 0
220 0 0
216 0 0
217 0 0
215 0 0
215 0 0
217 0 0
215 0 0
217 0 0
220 0 0
215 0 0
222 0 0
220 0 0
214 0 0
213 0 0
219 0 0
219 0 0
217 0 0
218 0 0
218 0 0
218 0 0
213 0 0
224 0 0
216 0 0
224 0 0
220 0 0
217 0 0
220 0 0
221 0 0
219 0 0
218 0 0
222 0 0
219 0 0
217 0 0
223 0 0
221 0 0
215 0 0
218 0 0
221 0 0
220 0 0
220 0 0
222 0 0
219 0 0
217 0 0
219 0 0
218 0 0
216 0 0
220 0 0
221 0 0
221 0 0
218 0 0
220 0 0
217 0 0
220 0 0
218 0 0
218 0 0
220 0 0
217 0 0
221 0 0
219 0 0
219 0 0
217 0 0
222 0 0
219 0 0
222 0 0
218 0 0
221 0 0
220 0 0
217 0 0
217 0 0
222 0 0
219 0 0
219 0 0
220 0 0
216 0 0
219 0 0
220 0 0
220 0 0
221 0 0
220 0 0
219 0 0
220 0 0
220 0 0
218 0 0
221 0 0
220 0 0
221 0 0
222 0 0
220 0 0
221 0 0
221 0 0
223 0 0
218 0 0
219 0 0
0 0 255
0 0 255
0 0 255
0 0 255
0 0 254
0 0 255
0 0 255
0 0 255
0 0 255
0 0 255
0 0 254
0 0 255
0 0 255
0 0 254
0 0 255
0 0 255
0 0 255
0 0 255
0 0 254
0 0 255
0 0 255
0 0 255
0 0 255
0 0 255
0 0 255
0 0 255
0 0 254
0 0 254
0 0 255
0 0 255
0 0 255
0 0 255
0 0 255
0 0 255
0 0 255
0 0 255
0 0 255
0 0 255
0 0 255
0 0 254
0 0 255
0 0 253
0 0 253
0 0 255
0 0 253
0 0 255
0 0 254
0 0 254
0 0 254
0 0 255
0 0 255
0 0 255
0 0 252
0 0 253
0 0 255
0 0 254
0 0 253
0 0 253
0 0 254
0 0 253
0 0 255
0 0 254
0 0 254
0 0 252
0 0 254
0 0 255
0 0 255
0 0 255
0 0 252
0 0 252
0 0 253
0 0 254
0 0 254
0 0 252
0 0 253
0 0 252
0 0 254
0 0 254
0 0 252
0 0 252
0 0 253
0 0 253
0 0 253
0 0 252
0 0 254
0 0 252
0 0 253
0 0 252
0 0 253
0 0 252
0 0 254
0 0 255
0 0 253
0 0 254
0 0 246
0 0 253
0 0 252
0 0 248
0 0 255
0 0 252
0 0 253
0 0 248
0 0 254
0 0 250
0 0 249
0 0 246
0 0 249
0 0 250
0 0 252
0 0 252
0 0 246
0 0 249
0 0 249
0 0 253
0 0 253
0 0 249
0 0 254
0 0 249
0 0 246
0 0 249
0 0 249
0 0 248
0 0 253
0 0 253
0 0 250
0 0 246
0 0 246
0 0 245
0 0 244
0 0 249
0 0 249
0 0 245
0 0 248
0 0 252
0 0 248
0 0 246
0 0 249
0 0 244
0 0 241
0 0 240
0 0 248
0 0 238
0 0 245
0 0 241
0 0 246
0 0 240
0 0 241
0 0 241
0 0 237
0 0 244
0 0 236
0 0 241
0 0 246
0 0 242
0 0 237
0 0 245
0 0 236
0 0 244
0 0 246
0 0 233
0 0 233
0 0 233
0 0 230
0 0 227
0 0 227
0 0 246
0 0 231
0 0 228
0 0 226
0 0 218
0 0 227
0 0 223
0 0 223
0 0 212
0 0 221
0 0 214
0 0 215
0 0 204
0 0 206
0 0 217
0 0 218
0 0 221
0 0 206
0 0 217
0 0 203
0 0 198
0 0 204
0 0 191
0 0 188
0 0 199
0 0 186
0 0 189
0 0 159
0 0 161
0 0 155
0 0 144
0 0 140
0 0 128
0 0 120
157 168 191
182 192 211
60 0 0
94 0 0
119 0 0
108 0 0
137 0 0
137 0 0
159 0 0
144 0 0
167 0 0
161 0 0
164 0 0
172 0 0
168 0 0
174 0 0
177 0 0
175 0 0
175 0 0
179 0 0
174 0 0
197 0 0
192 0 0
188 0 0
183 0 0
194 0 0
189 0 0
193 0 0
189 0 0
199 0 0
202 0 0
197 0 0
198 0 0
192 0 0
198 0 0
194 0 0
196 0 0
196 0 0
215 0 0
199 0 0
200 0 0
205 0 0
195 0 0
205 0 0
205 0 0
199 0 0
205 0 0
205 0 0
206 0 0
205 0 0
204 0 0
208 0 0
210 0 0
206 0 0
200 0 0
207 0 0
208 0 0
203 0 0
211 0 0
212 0 0
205 0 0
211 0 0
213 0 0
216 0 0
216 0 0
213 0 0
214 0 0
208 0 0
213 0 0
209 0 0
214 0 0
213 0 0
220 0 0
215 0 0
211 0 0
211 0 0
211 0 0
212 0 0
215 0 0
218 0 0
215 0 0
218 0 0
216 0 0
216 0 0
208 0 0
212 0 0
214 0 0
218 0 0
219 0 0
214 0 0
215 0 0
217 0 0
211 0 0
219 0 0
216 0 0
223 0 0
213 0 0
217 0 0
218 0 0
215 0 0
216 0 0
218 0 0
219 0 0
221 0 0
211 0 0
212 0 0
220 0 0
213 0 0
214 0 0
220 0 0
217 0 0
220 0 0
220 0 0
222 0 0
218 0 0
219 0 0
213 0 0
219 0 0
219 0 0
210 0 0
216 0 0
217 0 0
215 0 0
222 0 0
220 0 0
218 0 0
222 0 0
218 0 0
217 0 0
219 0 0
219 0 0
221 0 0
218 0 0
219 0 0
216 0 0
222 0 0
222 0 0
221 0 0
219 0 0
219 0 0
223 0 0
221 0 0
217 0 0
217 0 0
219 0 0
214 0 0
215 0 0
217 0 0
221 0 0
218 0 0
221 0 0
221 0 0
220 0 0
220 0 0
223 0 0
219 0 0
219 0 0
215 0 0
218 0 0
222 0 0
220 0 0
216 0 0
219 0 0
220 0 0
219 0 0
222 0 0
220 0 0
220 0 0
217 0 0
224 0 0
222 0 0
219 0 0
219 0 0
219 0 0
220 0 0
220 0 0
221 0 0
218 0 0
220 0 0
216 0 0
221 0 0
219 0 0
219 0 0
221 0 0
221 0 0
217 0 0
221 0 0
220 0 0
222 0 0
222 0 0
223 0 0
221 0 0
218 0 0
221 0 0
220 0 0
223 0 0
224 0 0
218 0 0
221 0 0
221 0 0
223 0 0
0 0 255
0 0 255
0 0 255
0 0 255
0 0 255
0 0 255
0 0 255
0 0 255
0 0 255
0 0 255
0 0 255
0 0 254
0 0 255
0 0 255
0 0 255
0 0 254
0 0 255
0 0 255
0 0 255
0 0 255
0 0 255
0 0 255
0 0 255
0 0 255
0 0 254
0 0 255
0 0 255
0 0 255
0 0 255
0 0 255
0 0 255
0 0 255
0 0 255
0 0 254
0 0 254
0 0 254
0 0 255
0 0 254
0 0 255
0 0 255
0 0 254
0 0 254
0 0 254
0 0 255
0 0 253
0 0 253
0 0 253
0 0 255
0 0 255
0 0 255
0 0 253
0 0 250
0 0 255
0 0 255
0 0 255
0 0 255
0 0 254
0 0 254
0 0 255
0 0 255
0 0 255
0 0 254
0 0 254
0 0 254
0 0 254
0 0 252
0 0 253
0 0 250
0 0 252
0 0 254
0 0 255
0 0 255
0 0 252
0 0 254
0 0 254
0 0 254
0 0 252
0 0 253
0 0 252
0 0 248
0 0 253
0 0 253
0 0 253
0 0 253
0 0 252
0 0 255
0 0 252
0 0 249
0 0 254
0 0 246
0 0 254
0 0 253
0 0 254
0 0 253
0 0 255
0 0 253
0 0 252
0 0 246
0 0 254
0 0 242
0 0 252
0 0 250
0 0 253
0 0 250
0 0 252
0 0 250
0 0 249
0 0 252
0 0 254
0 0 249
0 0 249
0 0 252
0 0 250
0 0 250
0 0 254
0 0 248
0 0 249
0 0 246
0 0 249
0 0 250
0 0 248
0 0 250
0 0 246
0 0 248
0 0 248
0 0 249
0 0 254
0 0 246
0 0 245
0 0 242
0 0 244
0 0 250
0 0 246
0 0 248
0 0 244
0 0 242
0 0 245
0 0 248
0 0 250
0 0 238
0 0 248
0 0 244
0 0 242
0 0 238
0 0 237
0 0 246
0 0 246
0 0 240
0 0 241
0 0 238
0 0 241
0 0 244
0 0 237
0 0 242
0 0 236
0 0 241
0 0 237
0 0 237
0 0 237
0 0 228
0 0 241
0 0 230
0 0 220
0 0 236
0 0 234
0 0 237
0 0 234
0 0 224
0 0 227
0 0 231
0 0 228
0 0 217
0 0 217
0 0 218
0 0 214
0 0 230
0 0 204
0 0 221
0 0 221
0 0 209
0 0 217
0 0 193
0 0 206
0 0 209
0 0 215
0 0 193
0 0 207
0 0 186
0 0 199
0 0 196
0 0 173
0 0 177
0 0 175
0 0 155
0 0 157
0 0 151
0 0 130
0 0 111
0 0 102
157 168 194
147 151 165
73 0 0
90 0 0
119 0 0
134 0 0
121 0 0
153 0 0
140 0 0
150 0 0
157 0 0
152 0 0
176 0 0
163 0 0
153 0 0
179 0 0
167 0 0
171 0 0
186 0 0
177 0 0
191 0 0
184 0 0
185 0 0
193 0 0
185 0 0
192 0 0
182 0 0
201 0 0
204 0 0
196 0 0
205 0 0
206 0 0
207 0 0
192 0 0
198 0 0
198 0 0
207 0 0
200 0 0
206 0 0
201 0 0
193 0 0
202 0 0
202 0 0
198 0 0
206 0 0
204 0 0
206 0 0
207 0 0
212 0 0
204 0 0
207 0 0
206 0 0
204 0 0
199 0 0
210 0 0
212 0 0
215 0 0
213 0 0
214 0 0
210 0 0
213 0 0
205 0 0
212 0 0
208 0 0
210 0 0
213 0 0
207 0 0
200 0 0
216 0 0
215 0 0
214 0 0
216 0 0
208 0 0
211 0 0
216 0 0
216 0 0
214 0 0
210 0 0
215 0 0
207 0 0
218 0 0
212 0 0
214 0 0
219 0 0
214 0 0
218 0 0
214 0 0
218 0 0
213 0 0
219 0 0
215 0 0
213 0 0
213 0 0
215 0 0
219 0 0
217 0 0
212 0 0
216 0 0
213 0 0
216 0 0
220 0 0
214 0 0
210 0 0
215 0 0
216 0 0
213 0 0
222 0 0
216 0 0
219 0 0
217 0 0
218 0 0
216 0 0
221 0 0
218 0 0
219 0 0
216 0 0
219 0 0
221 0 0
216 0 0
220 0 0
216 0 0
220 0 0
218 0 0
220 0 0
218 0 0
218 0 0
216 0 0
217 0 0
216 0 0
215 0 0
216 0 0
218 0 0
220 0 0
218 0 0
218 0 0
212 0 0
218 0 0
222 0 0
219 0 0
221 0 0
221 0 0
218 0 0
220 0 0
222 0 0
218 0 0
220 0 0
221 0 0
216 0 0
221 0 0
224 0 0
219 0 0
222 0 0
217 0 0
217 0 0
218 0 0
220 0 0
216 0 0
216 0 0
224 0 0
223 0 0
220 0 0
220 0 0
221 0 0
224 0 0
219 0 0
220 0 0
219 0 0
219 0 0
221 0 0
218 0 0
219 0 0
219 0 0
224 0 0
220 0 0
222 0 0
220 0 0
220 0 0
217 0 0
218 0 0
218 0 0
222 0 0
216 0 0
219 0 0
219 0 0
218 0 0
216 0 0
220 0 0
222 0 0
221 0 0
218 0 0
220 0 0
224 0 0
220 0 0
221 0 0
221 0 0
222 0 0
218 0 0
221 0 0
218 0 0
220 0 0
221 0 0
0 0 255
0 0 255
0 0 255
0 0 255
0 0 255
0 0 255
0 0 255
0 0 255
0 0 254
0 0 255
0 0 255
0 0 255
0 0 254
0 0 255
0 0 255
0 0 255
0 0 255
0 0 255
0 0 255
0 0 255
0 0 254
0 0 255
0 0 255
0 0 255
0 0 255
0 0 255
0 0 255
0 0 255
0 0 255
0 0 254
0 0 255
0 0 253
0 0 254
0 0 254
0 0 255
0 0 255
0 0 254
0 0 250
0 0 255
0 0 255
0 0 255
0 0 255
0 0 254
0 0 255
0 0 253
0 0 255
0 0 254
0 0 254
0 0 254
0 0 254
0 0 252
0 0 254
0 0 250
0 0 255
0 0 254
0 0 253
0 0 255
0 0 255
0 0 254
0 0 253
0 0 254
0 0 255
0 0 253
0 0 255
0 0 254
0 0 253
0 0 255
0 0 254
0 0 255
0 0 253
0 0 255
0 0 255
0 0 255
0 0 254
0 0 254
0 0 252
0 0 254
0 0 255
0 0 254
0 0 252
0 0 252
0 0 255
0 0 253
0 0 245
0 0 252
0 0 253
0 0 252
0 0 255
0 0 255
0 0 249
0 0 253
0 0 254
0 0 254
0 0 250
0 0 249
0 0 254
0 0 252
0 0 254
0 0 252
0 0 253
0 0 253
0 0 252
0 0 249
0 0 252
0 0 250
0 0 252
0 0 249
0 0 253
0 0 252
0 0 250
0 0 250
0 0 254
0 0 252
0 0 245
0 0 250
0 0 248
0 0 249
0 0 250
0 0 249
0 0 246
0 0 253
0 0 246
0 0 248
0 0 245
0 0 248
0 0 252
0 0 250
0 0 249
0 0 250
0 0 249
0 0 246
0 0 252
0 0 238
0 0 246
0 0 252
0 0 238
0 0 246
0 0 241
0 0 245
0 0 244
0 0 241
0 0 245
0 0 244
0 0 240
0 0 237
0 0 241
0 0 245
0 0 240
0 0 242
0 0 242
0 0 245
0 0 234
0 0 234
0 0 241
0 0 233
0 0 238
0 0 233
0 0 230
0 0 236
0 0 236
0 0 230
0 0 242
0 0 227
0 0 231
0 0 238
0 0 226
0 0 226
0 0 226
0 0 233
0 0 234
0 0 238
0 0 220
0 0 204
0 0 228
0 0 218
0 0 214
0 0 228
0 0 215
0 0 217
0 0 209
0 0 221
0 0 203
0 0 201
0 0 215
0 0 211
0 0 206
0 0 199
0 0 193
0 0 182
0 0 182
0 0 177
0 0 179
0 0 196
0 0 165
0 0 161
0 0 144
0 0 153
0 0 125
0 0 92
129 138 161
144 150 163
73 0 0
92 0 0
120 0 0
112 0 0
129 0 0
128 0 0
145 0 0
157 0 0
149 0 0
160 0 0
155 0 0
164 0 0
174 0 0
182 0 0
175 0 0
175 0 0
178 0 0
182 0 0
189 0 0
176 0 0
190 0 0
186 0 0
195 0 0
192 0 0
182 0 0
198 0 0
199 0 0
203 0 0
192 0 0
187 0 0
188 0 0
194 0 0
203 0 0
201 0 0
193 0 0
196 0 0
195 0 0
206 0 0
195 0 0
198 0 0
205 0 0
203 0 0
206 0 0
202 0 0
203 0 0
211 0 0
204 0 0
208 0 0
207 0 0
206 0 0
206 0 0
210 0 0
210 0 0
210 0 0
211 0 0
207 0 0
217 0 0
210 0 0
211 0 0
208 0 0
210 0 0
213 0 0
214 0 0
210 0 0
207 0 0
211 0 0
211 0 0
214 0 0
211 0 0
214 0 0
210 0 0
210 0 0
206 0 0
209 0 0
215 0 0
218 0 0
221 0 0
213 0 0
212 0 0
206 0 0
215 0 0
213 0 0
217 0 0
210 0 0
217 0 0
219 0 0
217 0 0
217 0 0
220 0 0
217 0 0
217 0 0
217 0 0
211 0 0
215 0 0
215 0 0
219 0 0
213 0 0
219 0 0
218 0 0
213 0 0
219 0 0
215 0 0
221 0 0
217 0 0
220 0 0
218 0 0
216 0 0
220 0 0
217 0 0
218 0 0
217 0 0
216 0 0
216 0 0
217 0 0
217 0 0
218 0 0
214 0 0
219 0 0
217 0 0
216 0 0
221 0 0
220 0 0
214 0 0
213 0 0
221 0 0
217 0 0
217 0 0
221 0 0
222 0 0
219 0 0
224 0 0
217 0 0
219 0 0
215 0 0
218 0 0
215 0 0
220 0 0
221 0 0
219 0 0
216 0 0
222 0 0
216 0 0
219 0 0
222 0 0
221 0 0
218 0 0
220 0 0
218 0 0
221 0 0
216 0 0
219 0 0
219 0 0
217 0 0
220 0 0
221 0 0
220 0 0
220 0 0
220 0 0
224 0 0
219 0 0
217 0 0
221 0 0
221 0 0
223 0 0
220 0 0
220 0 0
219 0 0
220 0 0
219 0 0
225 0 0
221 0 0
223 0 0
222 0 0
220 0 0
223 0 0
222 0 0
221 0 0
223 0 0
218 0 0
222 0 0
223 0 0
221 0 0
220 0 0
222 0 0
219 0 0
221 0 0
220 0 0
221 0 0
220 0 0
220 0 0
218 0 0
217 0 0
220 0 0
220 0 0
222 0 0
219 0 0
221 0 0
219 0 0
221 0 0
0 0 255
0 0 255
0 0 255
0 0 255
0 0 255
0 0 255
0 0 254
0 0 255
0 0 255
0 0 255
0 0 255
0 0 255
0 0 255
0 0 255
0 0 255
0 0 255
0 0 254
0 0 255
0 0 254
0 0 255
0 0 255
0 0 255
0 0 254
0 0 255
0 0 255
0 0 255
0 0 255
0 0 255
0 0 255
0 0 255
0 0 252
0 0 255
0 0 255
0 0 255
0 0 254
0 0 255
0 0 255
0 0 255
0 0 255
0 0 255
0 0 255
0 0 254
0 0 254
0 0 254
0 0 255
0 0 255
0 0 254
0 0 254
0 0 254
0 0 255
0 0 255
0 0 255
0 0 253
0 0 255
0 0 253
0 0 254
0 0 253
0 0 255
0 0 254
0 0 254
0 0 254
0 0 253
0 0 255
0 0 254
0 0 254
0 0 254
0 0 255
0 0 254
0 0 254
0 0 255
0 0 252
0 0 253
0 0 255
0 0 255
0 0 253
0 0 253
0 0 254
0 0 255
0 0 254
0 0 253
0 0 254
0 0 254
0 0 253
0 0 252
0 0 254
0 0 254
0 0 250
0 0 254
0 0 254
0 0 252
0 0 252
0 0 250
0 0 253
0 0 252
0 0 253
0 0 254
0 0 248
0 0 249
0 0 252
0 0 252
0 0 249
0 0 252
0 0 252
0 0 252
0 0 250
0 0 250
0 0 250
0 0 246
0 0 244
0 0 250
0 0 246
0 0 252
0 0 250
0 0 253
0 0 249
0 0 253
0 0 244
0 0 248
0 0 249
0 0 250
0 0 252
0 0 248
0 0 245
0 0 242
0 0 249
0 0 245
0 0 248
0 0 250
0 0 249
0 0 245
0 0 249
0 0 242
0 0 250
0 0 244
0 0 248
0 0 242
0 0 246
0 0 246
0 0 237
0 0 242
0 0 242
0 0 246
0 0 241
0 0 252
0 0 238
0 0 245
0 0 246
0 0 242
0 0 240
0 0 238
0 0 248
0 0 238
0 0 249
0 0 238
0 0 236
0 0 231
0 0 238
0 0 234
0 0 238
0 0 237
0 0 241
0 0 231
0 0 224
0 0 238
0 0 233
0 0 230
0 0 226
0 0 233
0 0 224
0 0 223
0 0 217
0 0 226
0 0 226
0 0 220
0 0 223
0 0 231
0 0 221
0 0 214
0 0 221
0 0 207
0 0 207
0 0 212
0 0 209
0 0 207
0 0 198
0 0 212
0 0 191
0 0 203
0 0 191
0 0 186
0 0 186
0 0 175
0 0 171
0 0 149
0 0 161
0 0 163
0 0 122
0 0 99
0 0 80
118 126 149
112 110 120
89 0 0
106 0 0
114 0 0
122 0 0
112 0 0
131 0 0
144 0 0
134 0 0
162 0 0
162 0 0
166 0 0
150 0 0
169 0 0
183 0 0
161 0 0
182 0 0
167 0 0
172 0 0
178 0 0
195 0 0
186 0 0
182 0 0
193 0 0
170 0 0
186 0 0
188 0 0
188 0 0
198 0 0
195 0 0
190 0 0
190 0 0
195 0 0
196 0 0
207 0 0
204 0 0
201 0 0
199 0 0
209 0 0
195 0 0
195 0 0
204 0 0
189 0 0
209 0 0
203 0 0
205 0 0
208 0 0
202 0 0
208 0 0
211 0 0
211 0 0
214 0 0
212 0 0
203 0 0
207 0 0
218 0 0
213 0 0
210 0 0
207 0 0
215 0 0
213 0 0
214 0 0
206 0 0
211 0 0
210 0 0
214 0 0
213 0 0
207 0 0
211 0 0
214 0 0
216 0 0
214 0 0
209 0 0
216 0 0
219 0 0
215 0 0
216 0 0
211 0 0
210 0 0
219 0 0
210 0 0
211 0 0
215 0 0
212 0 0
215 0 0
221 0 0
218 0 0
209 0 0
217 0 0
212 0 0
216 0 0
216 0 0
219 0 0
216 0 0
214 0 0
219 0 0
220 0 0
213 0 0
218 0 0
217 0 0
215 0 0
213 0 0
217 0 0
219 0 0
218 0 0
215 0 0
214 0 0
219 0 0
218 0 0
219 0 0
216 0 0
217 0 0
220 0 0
219 0 0
218 0 0
217 0 0
217 0 0
218 0 0
224 0 0
221 0 0
218 0 0
217 0 0
219 0 0
221 0 0
215 0 0
216 0 0
217 0 0
214 0 0
220 0 0
218 0 0
220 0 0
221 0 0
222 0 0
222 0 0
219 0 0
219 0 0
224 0 0
220 0 0
218 0 0
221 0 0
219 0 0
219 0 0
222 0 0
220 0 0
217 0 0
217 0 0
220 0 0
222 0 0
221 0 0
220 0 0
219 0 0
217 0 0
219 0 0
225 0 0
216 0 0
220 0 0
216 0 0
219 0 0
222 0 0
221 0 0
219 0 0
223 0 0
216 0 0
218 0 0
222 0 0
217 0 0
220 0 0
221 0 0
218 0 0
224 0 0
224 0 0
216 0 0
217 0 0
221 0 0
222 0 0
221 0 0
219 0 0
223 0 0
220 0 0
221 0 0
221 0 0
223 0 0
219 0 0
218 0 0
223 0 0
223 0 0
219 0 0
222 0 0
223 0 0
218 0 0
216 0 0
220 0 0
220 0 0
216 0 0
223 0 0
224 0 0
218 0 0
220 0 0
221 0 0
221 0 0
0 0 255
0 0 255
0 0 255
0 0 255
0 0 255
0 0 255
0 0 255
0 0 255
0 0 255
0 0 255
0 0 255
0 0 255
0 0 255
0 0 255
0 0 255
0 0 255
0 0 255
0 0 255
0 0 255
0 0 254
0 0 255
0 0 255
0 0 255
0 0 255
0 0 255
0 0 255
0 0 253
0 0 255
0 0 255
0 0 254
0 0 254
0 0 255
0 0 255
0 0 255
0 0 255
0 0 255
0 0 255
0 0 253
0 0 253
0 0 255
0 0 254
0 0 255
0 0 255
0 0 255
0 0 255
0 0 254
0 0 255
0 0 254
0 0 254
0 0 255
0 0 254
0 0 252
0 0 253
0 0 254
0 0 254
0 0 254
0 0 255
0 0 255
0 0 255
0 0 254
0 0 253
0 0 254
0 0 253
0 0 254
0 0 253
0 0 255
0 0 255
0 0 254
0 0 254
0 0 253
0 0 253
0 0 254
0 0 254
0 0 252
0 0 253
0 0 253
0 0 254
0 0 252
0 0 254
0 0 254
0 0 255
0 0 253
0 0 250
0 0 252
0 0 253
0 0 252
0 0 253
0 0 252
0 0 253
0 0 252
0 0 255
0 0 252
0 0 253
0 0 254
0 0 250
0 0 255
0 0 253
0 0 254
0 0 250
0 0 253
0 0 252
0 0 250
0 0 250
0 0 250
0 0 248
0 0 248
0 0 253
0 0 249
0 0 250
0 0 252
0 0 252
0 0 248
0 0 255
0 0 255
0 0 248
0 0 253
0 0 249
0 0 250
0 0 249
0 0 246
0 0 253
0 0 250
0 0 242
0 0 245
0 0 245
0 0 244
0 0 249
0 0 244
0 0 249
0 0 249
0 0 248
0 0 245
0 0 240
0 0 246
0 0 248
0 0 254
0 0 242
0 0 249
0 0 240
0 0 245
0 0 249
0 0 240
0 0 241
0 0 242
0 0 249
0 0 242
0 0 238
0 0 238
0 0 249
0 0 242
0 0 237
0 0 238
0 0 242
0 0 242
0 0 231
0 0 245
0 0 233
0 0 240
0 0 242
0 0 227
0 0 238
0 0 230
0 0 230
0 0 231
0 0 224
0 0 226
0 0 231
0 0 231
0 0 221
0 0 227
0 0 227
0 0 227
0 0 224
0 0 218
0 0 215
0 0 218
0 0 215
0 0 215
0 0 230
0 0 214
0 0 211
0 0 196
0 0 211
0 0 206
0 0 214
0 0 193
0 0 199
0 0 198
0 0 188
0 0 211
0 0 173
0 0 186
0 0 167
0 0 167
0 0 159
0 0 144
0 0 137
0 0 125
0 0 80
69 74 95
110 105 114
64 0 0
101 0 0
100 0 0
105 0 0
151 0 0
147 0 0
152 0 0
142 0 0
152 0 0
160 0 0
164 0 0
173 0 0
159 0 0
175 0 0
175 0 0
181 0 0
181 0 0
177 0 0
186 0 0
170 0 0
180 0 0
190 0 0
191 0 0
184 0 0
185 0 0
180 0 0
192 0 0
197 0 0
188 0 0
195 0 0
196 0 0
203 0 0
200 0 0
203 0 0
199 0 0
204 0 0
194 0 0
201 0 0
195 0 0
198 0 0
206 0 0
205 0 0
209 0 0
209 0 0
206 0 0
202 0 0
209 0 0
209 0 0
206 0 0
205 0 0
206 0 0
205 0 0
209 0 0
216 0 0
215 0 0
213 0 0
208 0 0
212 0 0
210 0 0
205 0 0
211 0 0
202 0 0
210 0 0
210 0 0
215 0 0
209 0 0
212 0 0
217 0 0
213 0 0
214 0 0
209 0 0
213 0 0
214 0 0
218 0 0
214 0 0
215 0 0
214 0 0
215 0 0
215 0 0
215 0 0
212 0 0
214 0 0
210 0 0
214 0 0
216 0 0
221 0 0
217 0 0
213 0 0
212 0 0
218 0 0
218 0 0
213 0 0
218 0 0
212 0 0
213 0 0
218 0 0
219 0 0
217 0 0
220 0 0
217 0 0
215 0 0
217 0 0
219 0 0
218 0 0
221 0 0
218 0 0
220 0 0
222 0 0
219 0 0
215 0 0
218 0 0
223 0 0
216 0 0
220 0 0
216 0 0
216 0 0
220 0 0
219 0 0
223 0 0
217 0 0
217 0 0
220 0 0
221 0 0
219 0 0
221 0 0
217 0 0
216 0 0
220 0 0
217 0 0
215 0 0
219 0 0
219 0 0
220 0 0
219 0 0
223 0 0
219 0 0
217 0 0
218 0 0
218 0 0
219 0 0
220 0 0
220 0 0
223 0 0
217 0 0
221 0 0
222 0 0
222 0 0
224 0 0
221 0 0
219 0 0
223 0 0
215 0 0
221 0 0
220 0 0
218 0 0
220 0 0
218 0 0
220 0 0
221 0 0
221 0 0
218 0 0
220 0 0
221 0 0
219 0 0
221 0 0
217 0 0
220 0 0
224 0 0
218 0 0
221 0 0
218 0 0
219 0 0
217 0 0
221 0 0
217 0 0
222 0 0
223 0 0
221 0 0
221 0 0
221 0 0
221 0 0
222 0 0
221 0 0
221 0 0
224 0 0
221 0 0
217 0 0
219 0 0
221 0 0
222 0 0
217 0 0
222 0 0
218 0 0
220 0 0
223 0 0
220 0 0
220 0 0
218 0 0
220 0 0
0 0 255
0 0 255
0 0 255
0 0 255
0 0 255
0 0 255
0 0 255
0 0 255
0 0 255
0 0 255
0 0 254
0 0 255
0 0 255
0 0 253
0 0 255
0 0 255
0 0 255
0 0 255
0 0 255
0 0 255
0 0 255
0 0 255
0 0 254
0 0 255
0 0 254
0 0 255
0 0 255
0 0 255
0 0 254
0 0 254
0 0 255
0 0 255
0 0 255
0 0 254
0 0 253
0 0 254
0 0 255
0 0 255
0 0 255
0 0 255
0 0 253
0 0 253
0 0 255
0 0 255
0 0 255
0 0 255
0 0 254
0 0 255
0 0 254
0 0 253
0 0 254
0 0 255
0 0 254
0 0 255
0 0 254
0 0 255
0 0 254
0 0 255
0 0 252
0 0 255
0 0 250
0 0 253
0 0 254
0 0 254
0 0 254
0 0 253
0 0 253
0 0 253
0 0 253
0 0 255
0 0 254
0 0 249
0 0 250
0 0 255
0 0 254
0 0 254
0 0 253
0 0 253
0 0 254
0 0 252
0 0 255
0 0 252
0 0 252
0 0 252
0 0 250
0 0 253
0 0 252
0 0 249
0 0 253
0 0 254
0 0 253
0 0 249
0 0 252
0 0 253
0 0 250
0 0 254
0 0 253
0 0 249
0 0 253
0 0 250
0 0 248
0 0 253
0 0 255
0 0 252
0 0 245
0 0 246
0 0 248
0 0 253
0 0 253
0 0 246
0 0 249
0 0 248
0 0 249
0 0 250
0 0 253
0 0 249
0 0 244
0 0 250
0 0 241
0 0 246
0 0 252
0 0 242
0 0 244
0 0 245
0 0 248
0 0 252
0 0 248
0 0 248
0 0 248
0 0 244
0 0 245
0 0 240
0 0 248
0 0 246
0 0 242
0 0 245
0 0 244
0 0 249
0 0 237
0 0 245
0 0 242
0 0 242
0 0 236
0 0 244
0 0 246
0 0 240
0 0 238
0 0 248
0 0 231
0 0 242
0 0 244
0 0 233
0 0 237
0 0 236
0 0 242
0 0 244
0 0 244
0 0 244
0 0 237
0 0 236
0 0 236
0 0 237
0 0 233
0 0 231
0 0 233
0 0 233
0 0 231
0 0 223
0 0 224
0 0 224
0 0 234
0 0 227
0 0 223
0 0 211
0 0 215
0 0 221
0 0 220
0 0 224
0 0 207
0 0 211
0 0 221
0 0 209
0 0 211
0 0 211
0 0 193
0 0 193
0 0 182
0 0 204
0 0 184
0 0 191
0 0 182
0 0 175
0 0 193
0 0 147
0 0 140
0 0 135
0 0 133
0 0 111
0 0 88
53 57 84
84 66 72
73 0 0
100 0 0
98 0 0
124 0 0
119 0 0
144 0 0
143 0 0
142 0 0
157 0 0
158 0 0
162 0 0
171 0 0
176 0 0
180 0 0
167 0 0
177 0 0
186 0 0
179 0 0
188 0 0
187 0 0
191 0 0
194 0 0
188 0 0
180 0 0
189 0 0
191 0 0
185 0 0
195 0 0
197 0 0
204 0 0
196 0 0
201 0 0
205 0 0
196 0 0
202 0 0
198 0 0
194 0 0
201 0 0
205 0 0
201 0 0
200 0 0
205 0 0
205 0 0
202 0 0
205 0 0
210 0 0
202 0 0
209 0 0
208 0 0
202 0 0
209 0 0
207 0 0
211 0 0
207 0 0
203 0 0
209 0 0
212 0 0
208 0 0
209 0 0
215 0 0
211 0 0
211 0 0
210 0 0
213 0 0
211 0 0
211 0 0
216 0 0
217 0 0
205 0 0
214 0 0
216 0 0
208 0 0
218 0 0
215 0 0
214 0 0
215 0 0
210 0 0
219 0 0
218 0 0
214 0 0
219 0 0
218 0 0
217 0 0
216 0 0
214 0 0
218 0 0
218 0 0
210 0 0
214 0 0
216 0 0
217 0 0
219 0 0
220 0 0
216 0 0
221 0 0
215 0 0
217 0 0
219 0 0
221 0 0
218 0 0
220 0 0
219 0 0
218 0 0
214 0 0
218 0 0
217 0 0
220 0 0
221 0 0
218 0 0
219 0 0
215 0 0
221 0 0
221 0 0
219 0 0
219 0 0
220 0 0
219 0 0
219 0 0
219 0 0
220 0 0
219 0 0
216 0 0
223 0 0
218 0 0
222 0 0
221 0 0
219 0 0
217 0 0
217 0 0
220 0 0
219 0 0
223 0 0
219 0 0
221 0 0
222 0 0
214 0 0
221 0 0
218 0 0
222 0 0
220 0 0
220 0 0
219 0 0
218 0 0
217 0 0
217 0 0
218 0 0
222 0 0
220 0 0
222 0 0
218 0 0
221 0 0
220 0 0
215 0 0
217 0 0
218 0 0
224 0 0
225 0 0
221 0 0
217 0 0
219 0 0
224 0 0
224 0 0
220 0 0
221 0 0
220 0 0
220 0 0
218 0 0
217 0 0
219 0 0
222 0 0
220 0 0
223 0 0
217 0 0
217 0 0
220 0 0
221 0 0
221 0 0
221 0 0
224 0 0
220 0 0
221 0 0
222 0 0
221 0 0
222 0 0
220 0 0
221 0 0
218 0 0
219 0 0
221 0 0
221 0 0
222 0 0
222 0 0
217 0 0
219 0 0
219 0 0
218 0 0
220 0 0
219 0 0
222 0 0
0 0 255
0 0 255
0 0 255
0 0 255
0 0 255
0 0 255
0 0 255
0 0 255
0 0 255
0 0 255
0 0 255
0 0 254
0 0 255
0 0 255
0 0 254
0 0 255
0 0 255
0 0 255
0 0 255
0 0 253
0 0 255
0 0 255
0 0 255
0 0 254
0 0 255
0 0 254
0 0 255
0 0 255
0 0 255
0 0 255
0 0 255
0 0 255
0 0 253
0 0 255
0 0 254
0 0 255
0 0 255
0 0 253
0 0 254
0 0 255
0 0 255
0 0 255
0 0 252
0 0 255
0 0 255
0 0 254
0 0 254
0 0 255
0 0 253
0 0 254
0 0 254
0 0 254
0 0 254
0 0 255
0 0 252
0 0 254
0 0 253
0 0 254
0 0 253
0 0 255
0 0 254
0 0 253
0 0 250
0 0 255
0 0 255
0 0 255
0 0 255
0 0 255
0 0 255
0 0 253
0 0 253
0 0 254
0 0 253
0 0 252
0 0 252
0 0 254
0 0 254
0 0 254
0 0 250
0 0 253
0 0 253
0 0 254
0 0 255
0 0 255
0 0 252
0 0 253
0 0 252
0 0 253
0 0 252
0 0 253
0 0 250
0 0 252
0 0 250
0 0 253
0 0 252
0 0 254
0 0 250
0 0 252
0 0 254
0 0 250
0 0 252
0 0 248
0 0 249
0 0 252
0 0 253
0 0 248
0 0 252
0 0 249
0 0 252
0 0 250
0 0 253
0 0 250
0 0 249
0 0 252
0 0 245
0 0 249
0 0 249
0 0 250
0 0 249
0 0 246
0 0 248
0 0 241
0 0 248
0 0 244
0 0 250
0 0 249
0 0 242
0 0 245
0 0 245
0 0 249
0 0 250
0 0 248
0 0 242
0 0 244
0 0 249
0 0 246
0 0 245
0 0 245
0 0 241
0 0 244
0 0 238
0 0 240
0 0 244
0 0 241
0 0 248
0 0 250
0 0 240
0 0 241
0 0 238
0 0 238
0 0 241
0 0 242
0 0 238
0 0 245
0 0 240
0 0 240
0 0 240
0 0 230
0 0 226
0 0 231
0 0 231
0 0 234
0 0 230
0 0 234
0 0 230
0 0 230
0 0 230
0 0 224
0 0 227
0 0 231
0 0 227
0 0 224
0 0 228
0 0 227
0 0 226
0 0 227
0 0 218
0 0 223
0 0 227
0 0 215
0 0 212
0 0 203
0 0 223
0 0 207
0 0 203
0 0 188
0 0 188
0 0 194
0 0 193
0 0 196
0 0 167
0 0 182
0 0 155
0 0 161
0 0 153
0 0 135
0 0 135
0 0 102
0 0 105
62 66 102
82 52 57
94 0 0
108 0 0
95 0 0
121 0 0
124 0 0
134 0 0
138 0 0
152 0 0
149 0 0
162 0 0
163 0 0
167 0 0
180 0 0
171 0 0
173 0 0
185 0 0
182 0 0
193 0 0
187 0 0
186 0 0
183 0 0
181 0 0
197 0 0
204 0 0
190 0 0
195 0 0
195 0 0
194 0 0
196 0 0
201 0 0
191 0 0
193 0 0
201 0 0
199 0 0
199 0 0
189 0 0
203 0 0
208 0 0
206 0 0
203 0 0
200 0 0
206 0 0
202 0 0
210 0 0
202 0 0
205 0 0
201 0 0
205 0 0
212 0 0
203 0 0
215 0 0
214 0 0
209 0 0
209 0 0
211 0 0
216 0 0
208 0 0
213 0 0
209 0 0
205 0 0
214 0 0
205 0 0
212 0 0
211 0 0
214 0 0
214 0 0
208 0 0
219 0 0
206 0 0
209 0 0
215 0 0
216 0 0
217 0 0
217 0 0
209 0 0
215 0 0
215 0 0
215 0 0
218 0 0
222 0 0
215 0 0
220 0 0
219 0 0
220 0 0
217 0 0
213 0 0
214 0 0
204 0 0
218 0 0
222 0 0
216 0 0
215 0 0
220 0 0
218 0 0
216 0 0
220 0 0
215 0 0
217 0 0
215 0 0
218 0 0
222 0 0
221 0 0
215 0 0
216 0 0
222 0 0
216 0 0
219 0 0
220 0 0
220 0 0
219 0 0
211 0 0
220 0 0
219 0 0
216 0 0
220 0 0
219 0 0
222 0 0
220 0 0
219 0 0
215 0 0
212 0 0
216 0 0
216 0 0
220 0 0
219 0 0
220 0 0
221 0 0
221 0 0
221 0 0
215 0 0
218 0 0
220 0 0
219 0 0
220 0 0
224 0 0
219 0 0
219 0 0
217 0 0
221 0 0
221 0 0
219 0 0
214 0 0
219 0 0
216 0 0
220 0 0
222 0 0
218 0 0
218 0 0
220 0 0
222 0 0
217 0 0
221 0 0
221 0 0
218 0 0
217 0 0
222 0 0
221 0 0
222 0 0
223 0 0
222 0 0
221 0 0
220 0 0
216 0 0
217 0 0
214 0 0
221 0 0
222 0 0
219 0 0
225 0 0
220 0 0
223 0 0
221 0 0
221 0 0
217 0 0
218 0 0
219 0 0
216 0 0
219 0 0
223 0 0
220 0 0
221 0 0
219 0 0
224 0 0
220 0 0
221 0 0
222 0 0
219 0 0
221 0 0
223 0 0
221 0 0
222 0 0
222 0 0
222 0 0
221 0 0
219 0 0
226 0 0
216 0 0
218 0 0
219 0 0
0 0 255
0 0 254
0 0 255
0 0 255
0 0 255
0 0 255
0 0 255
0 0 255
0 0 254
0 0 255
0 0 255
0 0 255
0 0 255
0 0 254
0 0 255
0 0 254
0 0 255
0 0 255
0 0 254
0 0 255
0 0 254
0 0 254
0 0 252
0 0 254
0 0 254
0 0 255
0 0 255
0 0 255
0 0 254
0 0 255
0 0 254
0 0 254
0 0 254
0 0 254
0 0 255
0 0 255
0 0 255
0 0 254
0 0 254
0 0 255
0 0 254
0 0 255
0 0 254
0 0 254
0 0 255
0 0 255
0 0 254
0 0 255
0 0 253
0 0 255
0 0 254
0 0 254
0 0 254
0 0 254
0 0 254
0 0 254
0 0 254
0 0 255
0 0 255
0 0 254
0 0 254
0 0 255
0 0 253
0 0 253
0 0 254
0 0 250
0 0 253
0 0 254
0 0 254
0 0 255
0 0 253
0 0 253
0 0 254
0 0 254
0 0 250
0 0 250
0 0 253
0 0 254
0 0 253
0 0 254
0 0 254
0 0 253
0 0 254
0 0 255
0 0 253
0 0 254
0 0 253
0 0 250
0 0 252
0 0 252
0 0 250
0 0 252
0 0 249
0 0 249
0 0 246
0 0 252
0 0 250
0 0 252
0 0 249
0 0 250
0 0 254
0 0 252
0 0 252
0 0 252
0 0 249
0 0 252
0 0 248
0 0 246
0 0 253
0 0 246
0 0 250
0 0 249
0 0 246
0 0 245
0 0 250
0 0 248
0 0 252
0 0 249
0 0 246
0 0 249
0 0 246
0 0 248
0 0 249
0 0 253
0 0 244
0 0 245
0 0 242
0 0 252
0 0 254
0 0 253
0 0 245
0 0 246
0 0 249
0 0 252
0 0 242
0 0 245
0 0 240
0 0 246
0 0 249
0 0 245
0 0 244
0 0 246
0 0 244
0 0 236
0 0 249
0 0 237
0 0 248
0 0 233
0 0 248
0 0 238
0 0 241
0 0 234
0 0 245
0 0 242
0 0 246
0 0 241
0 0 240
0 0 241
0 0 240
0 0 234
0 0 237
0 0 233
0 0 234
0 0 237
0 0 231
0 0 233
0 0 224
0 0 220
0 0 228
0 0 230
0 0 218
0 0 228
0 0 231
0 0 228
0 0 236
0 0 217
0 0 212
0 0 221
0 0 212
0 0 217
0 0 214
0 0 209
0 0 209
0 0 212
0 0 212
0 0 204
0 0 203
0 0 196
0 0 193
0 0 193
0 0 184
0 0 167
0 0 163
0 0 171
0 0 142
0 0 108
0 0 114
0 0 133
0 0 105
44 47 67
64 33 36
69 0 0
100 0 0
111 0 0
119 0 0
129 0 0
134 0 0
144 0 0
153 0 0
166 0 0
154 0 0
169 0 0
172 0 0
171 0 0
164 0 0
167 0 0
177 0 0
179 0 0
182 0 0
178 0 0
185 0 0
187 0 0
185 0 0
189 0 0
190 0 0
198 0 0
197 0 0
197 0 0
185 0 0
198 0 0
196 0 0
192 0 0
194 0 0
199 0 0
196 0 0
201 0 0
206 0 0
196 0 0
206 0 0
201 0 0
199 0 0
201 0 0
200 0 0
204 0 0
202 0 0
207 0 0
209 0 0
214 0 0
210 0 0
205 0 0
205 0 0
203 0 0
211 0 0
212 0 0
206 0 0
209 0 0
211 0 0
209 0 0
205 0 0
205 0 0
208 0 0
220 0 0
215 0 0
204 0 0
207 0 0
214 0 0
212 0 0
212 0 0
218 0 0
208 0 0
203 0 0
216 0 0
214 0 0
210 0 0
214 0 0
220 0 0
220 0 0
215 0 0
215 0 0
219 0 0
215 0 0
213 0 0
217 0 0
217 0 0
216 0 0
214 0 0
221 0 0
213 0 0
216 0 0
223 0 0
219 0 0
219 0 0
220 0 0
215 0 0
219 0 0
218 0 0
218 0 0
219 0 0
216 0 0
221 0 0
216 0 0
216 0 0
218 0 0
215 0 0
220 0 0
220 0 0
215 0 0
215 0 0
218 0 0
218 0 0
216 0 0
221 0 0
214 0 0
222 0 0
217 0 0
220 0 0
218 0 0
219 0 0
218 0 0
216 0 0
219 0 0
222 0 0
214 0 0
217 0 0
221 0 0
216 0 0
220 0 0
220 0 0
218 0 0
221 0 0
217 0 0
216 0 0
217 0 0
220 0 0
225 0 0
216 0 0
219 0 0
218 0 0
218 0 0
214 0 0
216 0 0
221 0 0
222 0 0
220 0 0
215 0 0
223 0 0
217 0 0
219 0 0
219 0 0
220 0 0
220 0 0
220 0 0
219 0 0
223 0 0
220 0 0
220 0 0
220 0 0
220 0 0
217 0 0
222 0 0
225 0 0
219 0 0
221 0 0
217 0 0
218 0 0
220 0 0
219 0 0
218 0 0
219 0 0
218 0 0
221 0 0
221 0 0
220 0 0
222 0 0
224 0 0
218 0 0
217 0 0
224 0 0
219 0 0
223 0 0
218 0 0
220 0 0
222 0 0
222 0 0
220 0 0
223 0 0
218 0 0
223 0 0
222 0 0
222 0 0
222 0 0
224 0 0
220 0 0
219 0 0
222 0 0
220 0 0
222 0 0
221 0 0
220 0 0
222 0 0
0 0 255
0 0 255
0 0 255
0 0 255
0 0 255
0 0 255
0 0 255
0 0 255
0 0 255
0 0 255
0 0 255
0 0 255
0 0 255
0 0 255
0 0 255
0 0 255
0 0 255
0 0 255
0 0 254
0 0 255
0 0 255
0 0 253
0 0 255
0 0 255
0 0 254
0 0 255
0 0 255
0 0 255
0 0 255
0 0 255
0 0 255
0 0 254
0 0 255
0 0 255
0 0 255
0 0 255
0 0 255
0 0 255
0 0 255
0 0 255
0 0 254
0 0 254
0 0 255
0 0 254
0 0 253
0 0 254
0 0 255
0 0 254
0 0 255
0 0 252
0 0 254
0 0 254
0 0 255
0 0 255
0 0 255
0 0 252
0 0 255
0 0 255
0 0 254
0 0 253
0 0 255
0 0 252
0 0 253
0 0 255
0 0 255
0 0 252
0 0 249
0 0 252
0 0 250
0 0 255
0 0 250
0 0 254
0 0 253
0 0 250
0 0 253
0 0 249
0 0 253
0 0 254
0 0 254
0 0 254
0 0 253
0 0 255
0 0 253
0 0 253
0 0 255
0 0 253
0 0 253
0 0 253
0 0 252
0 0 254
0 0 252
0 0 253
0 0 253
0 0 249
0 0 249
0 0 250
0 0 250
0 0 253
0 0 250
0 0 249
0 0 253
0 0 254
0 0 253
0 0 249
0 0 248
0 0 249
0 0 250
0 0 253
0 0 250
0 0 249
0 0 249
0 0 248
0 0 250
0 0 246
0 0 250
0 0 248
0 0 252
0 0 248
0 0 248
0 0 254
0 0 252
0 0 248
0 0 248
0 0 246
0 0 248
0 0 242
0 0 252
0 0 245
0 0 250
0 0 245
0 0 248
0 0 242
0 0 249
0 0 246
0 0 246
0 0 246
0 0 241
0 0 246
0 0 244
0 0 248
0 0 237
0 0 246
0 0 244
0 0 246
0 0 237
0 0 233
0 0 236
0 0 242
0 0 242
0 0 240
0 0 238
0 0 245
0 0 237
0 0 240
0 0 238
0 0 238
0 0 234
0 0 230
0 0 236
0 0 234
0 0 238
0 0 231
0 0 238
0 0 237
0 0 241
0 0 217
0 0 227
0 0 230
0 0 228
0 0 233
0 0 233
0 0 224
0 0 221
0 0 231
0 0 227
0 0 212
0 0 220
0 0 218
0 0 211
0 0 212
0 0 207
0 0 199
0 0 214
0 0 198
0 0 193
0 0 207
0 0 215
0 0 199
0 0 191
0 0 194
0 0 182
0 0 179
0 0 171
0 0 169
0 0 169
0 0 142
0 0 99
0 0 95
0 0 95
31 33 84
42 23 25
83 0 0
102 0 0
110 0 0
131 0 0
133 0 0
147 0 0
154 0 0
147 0 0
173 0 0
159 0 0
164 0 0
171 0 0
163 0 0
179 0 0
166 0 0
179 0 0
178 0 0
184 0 0
182 0 0
190 0 0
187 0 0
192 0 0
186 0 0
188 0 0
183 0 0
187 0 0
195 0 0
201 0 0
191 0 0
201 0 0
196 0 0
193 0 0
207 0 0
197 0 0
204 0 0
204 0 0
208 0 0
211 0 0
198 0 0
204 0 0
208 0 0
199 0 0
208 0 0
206 0 0
200 0 0
211 0 0
207 0 0
212 0 0
208 0 0
211 0 0
205 0 0
211 0 0
213 0 0
212 0 0
211 0 0
211 0 0
212 0 0
212 0 0
213 0 0
209 0 0
213 0 0
211 0 0
213 0 0
210 0 0
215 0 0
206 0 0
212 0 0
205 0 0
215 0 0
215 0 0
211 0 0
213 0 0
215 0 0
211 0 0
213 0 0
213 0 0
214 0 0
219 0 0
212 0 0
219 0 0
217 0 0
216 0 0
216 0 0
216 0 0
211 0 0
218 0 0
213 0 0
221 0 0
220 0 0
215 0 0
216 0 0
213 0 0
215 0 0
212 0 0
214 0 0
216 0 0
221 0 0
216 0 0
219 0 0
219 0 0
222 0 0
219 0 0
217 0 0
217 0 0
219 0 0
218 0 0
216 0 0
217 0 0
219 0 0
212 0 0
219 0 0
221 0 0
217 0 0
218 0 0
217 0 0
217 0 0
221 0 0
217 0 0
214 0 0
218 0 0
220 0 0
217 0 0
220 0 0
215 0 0
220 0 0
217 0 0
222 0 0
221 0 0
220 0 0
220 0 0
221 0 0
220 0 0
217 0 0
221 0 0
218 0 0
222 0 0
221 0 0
217 0 0
219 0 0
218 0 0
216 0 0
219 0 0
220 0 0
222 0 0
223 0 0
219 0 0
219 0 0
219 0 0
222 0 0
222 0 0
222 0 0
222 0 0
219 0 0
223 0 0
221 0 0
222 0 0
220 0 0
220 0 0
222 0 0
217 0 0
222 0 0
216 0 0
222 0 0
225 0 0
221 0 0
220 0 0
223 0 0
219 0 0
220 0 0
224 0 0
222 0 0
221 0 0
222 0 0
222 0 0
222 0 0
221 0 0
220 0 0
222 0 0
219 0 0
221 0 0
221 0 0
220 0 0
223 0 0
223 0 0
222 0 0
219 0 0
221 0 0
219 0 0
221 0 0
221 0 0
221 0 0
222 0 0
219 0 0
224 0 0
221 0 0
221 0 0
221 0 0
221 0 0
224 0 0
0 0 255
0 0 255
0 0 254
0 0 255
0 0 255
0 0 255
0 0 255
0 0 254
0 0 255
0 0 255
0 0 255
0 0 255
0 0 255
0 0 255
0 0 255
0 0 255
0 0 255
0 0 255
0 0 255
0 0 255
0 0 255
0 0 254
0 0 255
0 0 254
0 0 255
0 0 254
0 0 255
0 0 255
0 0 255
0 0 254
0 0 255
0 0 255
0 0 255
0 0 255
0 0 255
0 0 254
0 0 255
0 0 254
0 0 253
0 0 254
0 0 254
0 0 255
0 0 253
0 0 254
0 0 253
0 0 255
0 0 255
0 0 255
0 0 255
0 0 255
0 0 254
0 0 255
0 0 254
0 0 255
0 0 255
0 0 253
0 0 253
0 0 252
0 0 254
0 0 255
0 0 253
0 0 255
0 0 255
0 0 253
0 0 254
0 0 254
0 0 254
0 0 254
0 0 254
0 0 253
0 0 253
0 0 252
0 0 254
0 0 252
0 0 254
0 0 254
0 0 254
0 0 252
0 0 253
0 0 254
0 0 254
0 0 254
0 0 254
0 0 252
0 0 253
0 0 252
0 0 254
0 0 249
0 0 253
0 0 252
0 0 249
0 0 253
0 0 250
0 0 252
0 0 246
0 0 248
0 0 254
0 0 252
0 0 252
0 0 250
0 0 253
0 0 252
0 0 253
0 0 245
0 0 250
0 0 253
0 0 249
0 0 252
0 0 250
0 0 250
0 0 253
0 0 250
0 0 249
0 0 250
0 0 250
0 0 252
0 0 242
0 0 246
0 0 254
0 0 246
0 0 254
0 0 252
0 0 249
0 0 249
0 0 245
0 0 253
0 0 254
0 0 250
0 0 245
0 0 250
0 0 245
0 0 244
0 0 248
0 0 250
0 0 244
0 0 240
0 0 249
0 0 245
0 0 246
0 0 246
0 0 244
0 0 248
0 0 245
0 0 246
0 0 240
0 0 245
0 0 248
0 0 241
0 0 234
0 0 245
0 0 238
0 0 236
0 0 241
0 0 242
0 0 242
0 0 241
0 0 233
0 0 237
0 0 236
0 0 227
0 0 245
0 0 231
0 0 236
0 0 237
0 0 231
0 0 238
0 0 237
0 0 230
0 0 223
0 0 224
0 0 226
0 0 227
0 0 221
0 0 227
0 0 223
0 0 230
0 0 226
0 0 206
0 0 211
0 0 212
0 0 198
0 0 214
0 0 207
0 0 209
0 0 207
0 0 199
0 0 186
0 0 188
0 0 201
0 0 184
0 0 169
0 0 193
0 0 177
0 0 140
0 0 165
0 0 147
0 0 142
0 0 125
0 0 88
0 0 67
50 0 0
87 0 0
95 0 0
101 0 0
124 0 0
128 0 0
141 0 0
162 0 0
148 0 0
161 0 0
161 0 0
161 0 0
170 0 0
166 0 0
168 0 0
183 0 0
185 0 0
172 0 0
185 0 0
180 0 0
187 0 0
184 0 0
189 0 0
186 0 0
189 0 0
182 0 0
198 0 0
199 0 0
196 0 0
199 0 0
188 0 0
199 0 0
196 0 0
201 0 0
206 0 0
204 0 0
202 0 0
193 0 0
206 0 0
199 0 0
204 0 0
209 0 0
208 0 0
208 0 0
195 0 0
205 0 0
206 0 0
214 0 0
207 0 0
205 0 0
202 0 0
203 0 0
208 0 0
212 0 0
208 0 0
211 0 0
216 0 0
214 0 0
205 0 0
212 0 0
209 0 0
208 0 0
207 0 0
210 0 0
211 0 0
209 0 0
209 0 0
216 0 0
206 0 0
209 0 0
214 0 0
211 0 0
210 0 0
217 0 0
208 0 0
214 0 0
211 0 0
214 0 0
209 0 0
215 0 0
213 0 0
216 0 0
217 0 0
216 0 0
215 0 0
218 0 0
217 0 0
220 0 0
220 0 0
218 0 0
218 0 0
213 0 0
215 0 0
216 0 0
212 0 0
219 0 0
218 0 0
220 0 0
210 0 0
221 0 0
213 0 0
220 0 0
217 0 0
220 0 0
222 0 0
213 0 0
221 0 0
218 0 0
220 0 0
222 0 0
219 0 0
220 0 0
226 0 0
219 0 0
217 0 0
221 0 0
214 0 0
220 0 0
222 0 0
219 0 0
219 0 0
219 0 0
218 0 0
219 0 0
219 0 0
218 0 0
218 0 0
222 0 0
225 0 0
219 0 0
220 0 0
219 0 0
216 0 0
217 0 0
218 0 0
216 0 0
220 0 0
220 0 0
222 0 0
219 0 0
221 0 0
220 0 0
219 0 0
215 0 0
218 0 0
219 0 0
222 0 0
218 0 0
221 0 0
219 0 0
220 0 0
223 0 0
220 0 0
221 0 0
221 0 0
219 0 0
223 0 0
220 0 0
221 0 0
222 0 0
220 0 0
222 0 0
219 0 0
222 0 0
221 0 0
219 0 0
226 0 0
220 0 0
222 0 0
223 0 0
222 0 0
219 0 0
223 0 0
221 0 0
221 0 0
222 0 0
217 0 0
224 0 0
221 0 0
222 0 0
224 0 0
222 0 0
221 0 0
220 0 0
221 0 0
219 0 0
221 0 0
221 0 0
220 0 0
221 0 0
221 0 0
226 0 0
222 0 0
220 0 0
224 0 0
224 0 0
220 0 0
224 0 0
222 0 0
221 0 0
0 0 255
0 0 254
0 0 255
0 0 255
0 0 255
0 0 255
0 0 255
0 0 255
0 0 255
0 0 255
0 0 254
0 0 255
0 0 255
0 0 255
0 0 255
0 0 255
0 0 254
0 0 254
0 0 255
0 0 255
0 0 255
0 0 254
0 0 254
0 0 255
0 0 255
0 0 255
0 0 255
0 0 254
0 0 254
0 0 254
0 0 255
0 0 254
0 0 254
0 0 255
0 0 254
0 0 254
0 0 254
0 0 254
0 0 254
0 0 255
0 0 254
0 0 255
0 0 253
0 0 254
0 0 254
0 0 254
0 0 254
0 0 254
0 0 255
0 0 254
0 0 254
0 0 255
0 0 254
0 0 255
0 0 254
0 0 255
0 0 254
0 0 254
0 0 253
0 0 255
0 0 253
0 0 253
0 0 253
0 0 252
0 0 254
0 0 255
0 0 255
0 0 255
0 0 253
0 0 253
0 0 253
0 0 254
0 0 254
0 0 255
0 0 249
0 0 254
0 0 253
0 0 255
0 0 255
0 0 253
0 0 255
0 0 255
0 0 254
0 0 252
0 0 250
0 0 252
0 0 254
0 0 254
0 0 255
0 0 253
0 0 249
0 0 250
0 0 250
0 0 249
0 0 254
0 0 254
0 0 254
0 0 253
0 0 253
0 0 250
0 0 249
0 0 248
0 0 253
0 0 250
0 0 253
0 0 250
0 0 252
0 0 250
0 0 252
0 0 246
0 0 252
0 0 249
0 0 253
0 0 252
0 0 250
0 0 248
0 0 248
0 0 250
0 0 252
0 0 248
0 0 246
0 0 252
0 0 248
0 0 246
0 0 249
0 0 240
0 0 244
0 0 254
0 0 245
0 0 250
0 0 242
0 0 246
0 0 246
0 0 241
0 0 248
0 0 244
0 0 248
0 0 245
0 0 240
0 0 240
0 0 238
0 0 241
0 0 245
0 0 240
0 0 240
0 0 245
0 0 246
0 0 237
0 0 228
0 0 242
0 0 238
0 0 241
0 0 248
0 0 238
0 0 240
0 0 245
0 0 236
0 0 230
0 0 231
0 0 238
0 0 234
0 0 233
0 0 233
0 0 220
0 0 237
0 0 240
0 0 231
0 0 224
0 0 223
0 0 226
0 0 223
0 0 220
0 0 230
0 0 212
0 0 215
0 0 233
0 0 226
0 0 221
0 0 212
0 0 214
0 0 214
0 0 206
0 0 199
0 0 199
0 0 198
0 0 191
0 0 209
0 0 188
0 0 196
0 0 199
0 0 188
0 0 189
0 0 175
0 0 157
0 0 153
0 0 142
0 0 153
0 0 108
0 0 67
0 0 67
58 0 0
91 0 0
92 0 0
121 0 0
130 0 0
140 0 0
150 0 0
147 0 0
154 0 0
162 0 0
155 0 0
159 0 0
158 0 0
178 0 0
172 0 0
175 0 0
188 0 0
175 0 0
194 0 0
175 0 0
188 0 0
185 0 0
186 0 0
184 0 0
203 0 0
195 0 0
191 0 0
192 0 0
200 0 0
204 0 0
198 0 0
199 0 0
194 0 0
207 0 0
195 0 0
195 0 0
199 0 0
197 0 0
204 0 0
204 0 0
203 0 0
200 0 0
209 0 0
195 0 0
209 0 0
209 0 0
206 0 0
214 0 0
209 0 0
209 0 0
212 0 0
203 0 0
212 0 0
207 0 0
214 0 0
215 0 0
212 0 0
213 0 0
208 0 0
214 0 0
203 0 0
217 0 0
212 0 0
210 0 0
204 0 0
210 0 0
210 0 0
215 0 0
213 0 0
211 0 0
214 0 0
218 0 0
215 0 0
217 0 0
215 0 0
214 0 0
213 0 0
214 0 0
211 0 0
212 0 0
214 0 0
211 0 0
218 0 0
216 0 0
218 0 0
218 0 0
215 0 0
216 0 0
216 0 0
218 0 0
218 0 0
221 0 0
217 0 0
219 0 0
220 0 0
213 0 0
219 0 0
215 0 0
217 0 0
224 0 0
215 0 0
213 0 0
220 0 0
215 0 0
216 0 0
221 0 0
218 0 0
217 0 0
218 0 0
224 0 0
218 0 0
220 0 0
216 0 0
220 0 0
216 0 0
223 0 0
223 0 0
222 0 0
215 0 0
219 0 0
219 0 0
219 0 0
216 0 0
221 0 0
219 0 0
218 0 0
220 0 0
221 0 0
219 0 0
217 0 0
221 0 0
223 0 0
213 0 0
220 0 0
217 0 0
222 0 0
219 0 0
223 0 0
223 0 0
220 0 0
215 0 0
223 0 0
221 0 0
219 0 0
223 0 0
222 0 0
221 0 0
223 0 0
221 0 0
222 0 0
223 0 0
222 0 0
223 0 0
222 0 0
221 0 0
218 0 0
222 0 0
220 0 0
219 0 0
221 0 0
221 0 0
220 0 0
221 0 0
224 0 0
220 0 0
223 0 0
221 0 0
220 0 0
221 0 0
220 0 0
226 0 0
222 0 0
221 0 0
223 0 0
219 0 0
220 0 0
221 0 0
220 0 0
221 0 0
220 0 0
224 0 0
219 0 0
224 0 0
219 0 0
218 0 0
218 0 0
221 0 0
222 0 0
223 0 0
221 0 0
222 0 0
220 0 0
222 0 0
219 0 0
220 0 0
222 0 0
222 0 0
223 0 0
222 0 0
222 0 0
0 0 255
0 0 255
0 0 255
0 0 255
0 0 255
0 0 255
0 0 255
0 0 255
0 0 255
0 0 255
0 0 255
0 0 255
0 0 255
0 0 255
0 0 255
0 0 255
0 0 254
0 0 255
0 0 254
0 0 255
0 0 255
0 0 255
0 0 255
0 0 255
0 0 255
0 0 254
0 0 254
0 0 255
0 0 254
0 0 255
0 0 255
0 0 254
0 0 255
0 0 254
0 0 255
0 0 255
0 0 253
0 0 255
0 0 255
0 0 252
0 0 254
0 0 253
0 0 255
0 0 254
0 0 252
0 0 255
0 0 255
0 0 254
0 0 253
0 0 254
0 0 254
0 0 255
0 0 254
0 0 255
0 0 254
0 0 254
0 0 255
0 0 253
0 0 255
0 0 252
0 0 254
0 0 254
0 0 255
0 0 255
0 0 255
0 0 249
0 0 253
0 0 254
0 0 253
0 0 248
0 0 253
0 0 255
0 0 255
0 0 254
0 0 249
0 0 252
0 0 250
0 0 255
0 0 252
0 0 254
0 0 250
0 0 250
0 0 255
0 0 253
0 0 252
0 0 252
0 0 254
0 0 248
0 0 252
0 0 254
0 0 252
0 0 252
0 0 254
0 0 252
0 0 249
0 0 254
0 0 252
0 0 249
0 0 253
0 0 244
0 0 253
0 0 249
0 0 254
0 0 250
0 0 250
0 0 248
0 0 249
0 0 252
0 0 253
0 0 245
0 0 249
0 0 252
0 0 252
0 0 253
0 0 248
0 0 248
0 0 245
0 0 253
0 0 246
0 0 246
0 0 248
0 0 242
0 0 248
0 0 249
0 0 249
0 0 245
0 0 250
0 0 250
0 0 249
0 0 250
0 0 250
0 0 245
0 0 246
0 0 250
0 0 242
0 0 248
0 0 248
0 0 245
0 0 249
0 0 242
0 0 248
0 0 245
0 0 248
0 0 242
0 0 244
0 0 249
0 0 237
0 0 248
0 0 245
0 0 245
0 0 231
0 0 242
0 0 246
0 0 241
0 0 238
0 0 228
0 0 240
0 0 237
0 0 236
0 0 241
0 0 223
0 0 241
0 0 231
0 0 237
0 0 234
0 0 237
0 0 220
0 0 234
0 0 226
0 0 228
0 0 231
0 0 221
0 0 220
0 0 221
0 0 221
0 0 218
0 0 218
0 0 221
0 0 207
0 0 207
0 0 207
0 0 226
0 0 203
0 0 206
0 0 215
0 0 188
0 0 201
0 0 199
0 0 181
0 0 198
0 0 182
0 0 184
0 0 179
0 0 140
0 0 153
0 0 142
0 0 102
0 0 114
0 0 102
38 40 67
50 23 25
81 0 0
115 0 0
99 0 0
129 0 0
136 0 0
141 0 0
158 0 0
161 0 0
161 0 0
170 0 0
168 0 0
142 0 0
167 0 0
169 0 0
183 0 0
192 0 0
180 0 0
182 0 0
187 0 0
180 0 0
185 0 0
196 0 0
192 0 0
189 0 0
199 0 0
206 0 0
194 0 0
193 0 0
191 0 0
190 0 0
200 0 0
198 0 0
198 0 0
200 0 0
204 0 0
210 0 0
207 0 0
198 0 0
209 0 0
202 0 0
205 0 0
209 0 0
213 0 0
200 0 0
210 0 0
206 0 0
204 0 0
208 0 0
214 0 0
205 0 0
210 0 0
206 0 0
205 0 0
211 0 0
206 0 0
204 0 0
209 0 0
213 0 0
215 0 0
217 0 0
210 0 0
207 0 0
216 0 0
219 0 0
210 0 0
210 0 0
210 0 0
218 0 0
217 0 0
213 0 0
214 0 0
218 0 0
210 0 0
212 0 0
218 0 0
212 0 0
210 0 0
220 0 0
211 0 0
220 0 0
211 0 0
211 0 0
221 0 0
217 0 0
216 0 0
217 0 0
220 0 0
217 0 0
214 0 0
214 0 0
223 0 0
215 0 0
218 0 0
216 0 0
219 0 0
215 0 0
222 0 0
216 0 0
221 0 0
215 0 0
220 0 0
217 0 0
217 0 0
219 0 0
222 0 0
218 0 0
221 0 0
222 0 0
215 0 0
218 0 0
222 0 0
216 0 0
217 0 0
218 0 0
220 0 0
217 0 0
218 0 0
220 0 0
220 0 0
219 0 0
219 0 0
223 0 0
223 0 0
222 0 0
219 0 0
219 0 0
219 0 0
217 0 0
219 0 0
220 0 0
223 0 0
221 0 0
223 0 0
220 0 0
219 0 0
216 0 0
217 0 0
223 0 0
221 0 0
218 0 0
218 0 0
223 0 0
217 0 0
223 0 0
221 0 0
218 0 0
221 0 0
221 0 0
220 0 0
223 0 0
223 0 0
224 0 0
218 0 0
226 0 0
220 0 0
221 0 0
220 0 0
222 0 0
223 0 0
221 0 0
218 0 0
219 0 0
218 0 0
218 0 0
222 0 0
226 0 0
221 0 0
223 0 0
222 0 0
222 0 0
221 0 0
222 0 0
223 0 0
221 0 0
221 0 0
225 0 0
220 0 0
220 0 0
224 0 0
219 0 0
220 0 0
220 0 0
223 0 0
222 0 0
218 0 0
222 0 0
224 0 0
220 0 0
222 0 0
220 0 0
220 0 0
224 0 0
219 0 0
221 0 0
222 0 0
224 0 0
219 0 0
224 0 0
218 0 0
0 0 255
0 0 255
0 0 255
0 0 255
0 0 255
0 0 255
0 0 255
0 0 255
0 0 255
0 0 255
0 0 255
0 0 255
0 0 254
0 0 255
0 0 255
0 0 255
0 0 255
0 0 255
0 0 255
0 0 255
0 0 255
0 0 255
0 0 255
0 0 255
0 0 255
0 0 254
0 0 255
0 0 255
0 0 255
0 0 254
0 0 255
0 0 254
0 0 255
0 0 254
0 0 255
0 0 255
0 0 255
0 0 255
0 0 254
0 0 255
0 0 255
0 0 254
0 0 252
0 0 255
0 0 255
0 0 254
0 0 254
0 0 255
0 0 255
0 0 255
0 0 254
0 0 253
0 0 254
0 0 254
0 0 252
0 0 254
0 0 255
0 0 254
0 0 255
0 0 255
0 0 250
0 0 253
0 0 254
0 0 253
0 0 253
0 0 254
0 0 252
0 0 254
0 0 253
0 0 255
0 0 255
0 0 254
0 0 254
0 0 254
0 0 253
0 0 254
0 0 252
0 0 254
0 0 254
0 0 254
0 0 254
0 0 255
0 0 253
0 0 253
0 0 253
0 0 254
0 0 254
0 0 250
0 0 253
0 0 253
0 0 254
0 0 253
0 0 250
0 0 249
0 0 250
0 0 253
0 0 252
0 0 254
0 0 252
0 0 255
0 0 252
0 0 253
0 0 252
0 0 253
0 0 240
0 0 245
0 0 250
0 0 254
0 0 249
0 0 250
0 0 254
0 0 249
0 0 245
0 0 253
0 0 253
0 0 250
0 0 250
0 0 249
0 0 249
0 0 248
0 0 248
0 0 250
0 0 242
0 0 250
0 0 244
0 0 252
0 0 249
0 0 246
0 0 241
0 0 246
0 0 242
0 0 248
0 0 241
0 0 245
0 0 244
0 0 250
0 0 246
0 0 246
0 0 248
0 0 252
0 0 248
0 0 245
0 0 253
0 0 248
0 0 241
0 0 237
0 0 245
0 0 245
0 0 244
0 0 240
0 0 233
0 0 250
0 0 237
0 0 244
0 0 242
0 0 234
0 0 240
0 0 233
0 0 242
0 0 233
0 0 238
0 0 238
0 0 236
0 0 231
0 0 230
0 0 244
0 0 227
0 0 238
0 0 228
0 0 228
0 0 228
0 0 231
0 0 226
0 0 224
0 0 224
0 0 228
0 0 224
0 0 226
0 0 207
0 0 214
0 0 209
0 0 206
0 0 209
0 0 209
0 0 196
0 0 203
0 0 214
0 0 194
0 0 193
0 0 179
0 0 175
0 0 194
0 0 177
0 0 159
0 0 171
0 0 167
0 0 130
0 0 111
0 0 88
31 33 80
78 62 67
110 0 0
108 0 0
115 0 0
135 0 0
139 0 0
141 0 0
156 0 0
154 0 0
138 0 0
162 0 0
170 0 0
160 0 0
167 0 0
169 0 0
166 0 0
173 0 0
194 0 0
186 0 0
178 0 0
191 0 0
197 0 0
185 0 0
193 0 0
200 0 0
192 0 0
195 0 0
194 0 0
205 0 0
191 0 0
210 0 0
187 0 0
202 0 0
196 0 0
200 0 0
209 0 0
196 0 0
193 0 0
193 0 0
204 0 0
199 0 0
207 0 0
208 0 0
209 0 0
208 0 0
204 0 0
214 0 0
206 0 0
199 0 0
211 0 0
210 0 0
206 0 0
206 0 0
208 0 0
216 0 0
211 0 0
207 0 0
212 0 0
212 0 0
207 0 0
215 0 0
212 0 0
211 0 0
211 0 0
213 0 0
217 0 0
207 0 0
215 0 0
207 0 0
213 0 0
212 0 0
218 0 0
216 0 0
211 0 0
211 0 0
220 0 0
212 0 0
213 0 0
217 0 0
218 0 0
212 0 0
213 0 0
215 0 0
218 0 0
213 0 0
212 0 0
218 0 0
214 0 0
219 0 0
220 0 0
217 0 0
221 0 0
219 0 0
216 0 0
218 0 0
219 0 0
221 0 0
221 0 0
219 0 0
220 0 0
213 0 0
218 0 0
222 0 0
224 0 0
218 0 0
216 0 0
215 0 0
221 0 0
216 0 0
223 0 0
219 0 0
217 0 0
220 0 0
222 0 0
219 0 0
218 0 0
220 0 0
218 0 0
214 0 0
218 0 0
220 0 0
223 0 0
217 0 0
220 0 0
222 0 0
221 0 0
220 0 0
222 0 0
223 0 0
217 0 0
221 0 0
220 0 0
220 0 0
222 0 0
221 0 0
223 0 0
224 0 0
221 0 0
223 0 0
221 0 0
216 0 0
219 0 0
217 0 0
221 0 0
223 0 0
222 0 0
221 0 0
219 0 0
223 0 0
219 0 0
216 0 0
220 0 0
219 0 0
221 0 0
222 0 0
220 0 0
218 0 0
221 0 0
219 0 0
223 0 0
220 0 0
219 0 0
218 0 0
222 0 0
223 0 0
221 0 0
221 0 0
221 0 0
220 0 0
222 0 0
221 0 0
224 0 0
224 0 0
219 0 0
220 0 0
219 0 0
221 0 0
223 0 0
217 0 0
224 0 0
222 0 0
222 0 0
224 0 0
221 0 0
222 0 0
220 0 0
222 0 0
224 0 0
222 0 0
219 0 0
222 0 0
220 0 0
224 0 0
223 0 0
222 0 0
224 0 0
220 0 0
221 0 0
223 0 0
218 0 0
0 0 255
0 0 255
0 0 255
0 0 255
0 0 255
0 0 255
0 0 255
0 0 255
0 0 255
0 0 255
0 0 255
0 0 255
0 0 254
0 0 255
0 0 255
0 0 255
0 0 255
0 0 255
0 0 255
0 0 255
0 0 254
0 0 255
0 0 255
0 0 254
0 0 254
0 0 255
0 0 254
0 0 254
0 0 255
0 0 254
0 0 255
0 0 255
0 0 255
0 0 255
0 0 255
0 0 255
0 0 254
0 0 255
0 0 255
0 0 255
0 0 253
0 0 254
0 0 253
0 0 254
0 0 255
0 0 255
0 0 255
0 0 253
0 0 255
0 0 254
0 0 255
0 0 254
0 0 254
0 0 253
0 0 252
0 0 254
0 0 253
0 0 254
0 0 254
0 0 255
0 0 255
0 0 252
0 0 253
0 0 254
0 0 250
0 0 254
0 0 255
0 0 254
0 0 254
0 0 255
0 0 254
0 0 254
0 0 254
0 0 252
0 0 254
0 0 252
0 0 252
0 0 252
0 0 252
0 0 253
0 0 254
0 0 252
0 0 252
0 0 253
0 0 250
0 0 254
0 0 250
0 0 253
0 0 252
0 0 254
0 0 254
0 0 250
0 0 252
0 0 246
0 0 252
0 0 255
0 0 254
0 0 252
0 0 250
0 0 253
0 0 248
0 0 249
0 0 252
0 0 246
0 0 252
0 0 248
0 0 249
0 0 246
0 0 249
0 0 249
0 0 246
0 0 250
0 0 252
0 0 245
0 0 249
0 0 249
0 0 245
0 0 252
0 0 250
0 0 249
0 0 249
0 0 245
0 0 250
0 0 252
0 0 253
0 0 248
0 0 252
0 0 249
0 0 250
0 0 252
0 0 248
0 0 244
0 0 250
0 0 244
0 0 244
0 0 242
0 0 249
0 0 241
0 0 244
0 0 236
0 0 249
0 0 237
0 0 241
0 0 242
0 0 242
0 0 245
0 0 240
0 0 241
0 0 237
0 0 249
0 0 242
0 0 237
0 0 240
0 0 240
0 0 231
0 0 240
0 0 236
0 0 240
0 0 227
0 0 242
0 0 238
0 0 236
0 0 237
0 0 236
0 0 236
0 0 240
0 0 217
0 0 223
0 0 230
0 0 234
0 0 227
0 0 234
0 0 221
0 0 217
0 0 214
0 0 223
0 0 217
0 0 217
0 0 214
0 0 211
0 0 201
0 0 206
0 0 211
0 0 214
0 0 196
0 0 198
0 0 206
0 0 189
0 0 189
0 0 203
0 0 198
0 0 169
0 0 169
0 0 149
0 0 157
0 0 157
0 0 153
0 0 125
0 0 117
59 62 84
93 82 88
89 0 0
93 0 0
105 0 0
130 0 0
146 0 0
123 0 0
150 0 0
175 0 0
158 0 0
162 0 0
159 0 0
163 0 0
174 0 0
185 0 0
189 0 0
181 0 0
183 0 0
192 0 0
186 0 0
192 0 0
195 0 0
191 0 0
184 0 0
192 0 0
182 0 0
197 0 0
200 0 0
204 0 0
189 0 0
203 0 0
201 0 0
201 0 0
190 0 0
203 0 0
202 0 0
187 0 0
200 0 0
205 0 0
216 0 0
205 0 0
210 0 0
206 0 0
209 0 0
205 0 0
203 0 0
202 0 0
212 0 0
205 0 0
194 0 0
216 0 0
207 0 0
216 0 0
214 0 0
204 0 0
210 0 0
216 0 0
213 0 0
211 0 0
211 0 0
216 0 0
215 0 0
211 0 0
211 0 0
210 0 0
205 0 0
208 0 0
213 0 0
216 0 0
215 0 0
219 0 0
218 0 0
218 0 0
217 0 0
213 0 0
209 0 0
215 0 0
210 0 0
214 0 0
215 0 0
213 0 0
216 0 0
212 0 0
220 0 0
210 0 0
217 0 0
213 0 0
215 0 0
218 0 0
216 0 0
219 0 0
214 0 0
218 0 0
219 0 0
220 0 0
221 0 0
215 0 0
216 0 0
216 0 0
217 0 0
214 0 0
212 0 0
215 0 0
222 0 0
219 0 0
220 0 0
220 0 0
219 0 0
220 0 0
218 0 0
220 0 0
222 0 0
217 0 0
223 0 0
217 0 0
222 0 0
220 0 0
221 0 0
224 0 0
220 0 0
220 0 0
222 0 0
223 0 0
222 0 0
217 0 0
219 0 0
224 0 0
217 0 0
221 0 0
216 0 0
219 0 0
219 0 0
223 0 0
223 0 0
221 0 0
220 0 0
222 0 0
218 0 0
222 0 0
220 0 0
219 0 0
226 0 0
219 0 0
221 0 0
222 0 0
222 0 0
219 0 0
218 0 0
219 0 0
222 0 0
218 0 0
220 0 0
220 0 0
218 0 0
220 0 0
222 0 0
218 0 0
220 0 0
224 0 0
221 0 0
221 0 0
224 0 0
222 0 0
218 0 0
222 0 0
223 0 0
224 0 0
223 0 0
222 0 0
217 0 0
217 0 0
220 0 0
220 0 0
217 0 0
218 0 0
221 0 0
225 0 0
223 0 0
221 0 0
221 0 0
226 0 0
224 0 0
220 0 0
223 0 0
223 0 0
222 0 0
219 0 0
221 0 0
221 0 0
221 0 0
222 0 0
220 0 0
218 0 0
222 0 0
220 0 0
225 0 0
222 0 0
221 0 0
222 0 0
223 0 0
0 0 255
0 0 255
0 0 255
0 0 255
0 0 255
0 0 255
0 0 255
0 0 255
0 0 255
0 0 255
0 0 254
0 0 255
0 0 255
0 0 255
0 0 255
0 0 255
0 0 255
0 0 255
0 0 255
0 0 255
0 0 254
0 0 254
0 0 253
0 0 255
0 0 254
0 0 255
0 0 255
0 0 255
0 0 255
0 0 255
0 0 255
0 0 254
0 0 253
0 0 255
0 0 255
0 0 255
0 0 255
0 0 254
0 0 254
0 0 254
0 0 253
0 0 255
0 0 255
0 0 255
0 0 253
0 0 254
0 0 255
0 0 255
0 0 253
0 0 255
0 0 254
0 0 254
0 0 253
0 0 254
0 0 252
0 0 255
0 0 255
0 0 254
0 0 253
0 0 253
0 0 255
0 0 253
0 0 255
0 0 253
0 0 254
0 0 254
0 0 255
0 0 253
0 0 254
0 0 254
0 0 253
0 0 254
0 0 254
0 0 252
0 0 254
0 0 254
0 0 255
0 0 254
0 0 252
0 0 252
0 0 253
0 0 254
0 0 254
0 0 254
0 0 253
0 0 253
0 0 255
0 0 253
0 0 253
0 0 254
0 0 252
0 0 252
0 0 252
0 0 249
0 0 250
0 0 253
0 0 253
0 0 254
0 0 254
0 0 254
0 0 253
0 0 253
0 0 246
0 0 253
0 0 255
0 0 253
0 0 250
0 0 250
0 0 246
0 0 253
0 0 253
0 0 248
0 0 248
0 0 248
0 0 248
0 0 249
0 0 249
0 0 246
0 0 249
0 0 245
0 0 248
0 0 252
0 0 250
0 0 240
0 0 252
0 0 252
0 0 253
0 0 244
0 0 246
0 0 242
0 0 246
0 0 246
0 0 244
0 0 245
0 0 250
0 0 245
0 0 245
0 0 238
0 0 248
0 0 245
0 0 238
0 0 245
0 0 237
0 0 244
0 0 241
0 0 248
0 0 242
0 0 238
0 0 236
0 0 237
0 0 234
0 0 237
0 0 240
0 0 241
0 0 241
0 0 236
0 0 228
0 0 236
0 0 242
0 0 230
0 0 240
0 0 240
0 0 228
0 0 226
0 0 236
0 0 231
0 0 233
0 0 233
0 0 226
0 0 228
0 0 226
0 0 217
0 0 231
0 0 215
0 0 228
0 0 204
0 0 227
0 0 218
0 0 223
0 0 217
0 0 217
0 0 203
0 0 198
0 0 207
0 0 209
0 0 203
0 0 203
0 0 193
0 0 179
0 0 186
0 0 163
0 0 189
0 0 179
0 0 159
0 0 149
0 0 157
0 0 137
0 0 120
0 0 105
89 94 108
121 113 122
78 0 0
85 0 0
109 0 0
127 0 0
142 0 0
137 0 0
154 0 0
162 0 0
158 0 0
150 0 0
170 0 0
175 0 0
173 0 0
172 0 0
176 0 0
192 0 0
183 0 0
175 0 0
194 0 0
184 0 0
189 0 0
184 0 0
193 0 0
191 0 0
195 0 0
202 0 0
197 0 0
194 0 0
188 0 0
192 0 0
200 0 0
198 0 0
205 0 0
208 0 0
198 0 0
209 0 0
214 0 0
206 0 0
193 0 0
205 0 0
205 0 0
212 0 0
203 0 0
204 0 0
207 0 0
215 0 0
208 0 0
205 0 0
204 0 0
214 0 0
212 0 0
213 0 0
212 0 0
217 0 0
203 0 0
214 0 0
215 0 0
217 0 0
214 0 0
212 0 0
213 0 0
216 0 0
216 0 0
209 0 0
212 0 0
212 0 0
216 0 0
211 0 0
216 0 0
215 0 0
211 0 0
209 0 0
211 0 0
217 0 0
215 0 0
220 0 0
212 0 0
218 0 0
218 0 0
217 0 0
219 0 0
215 0 0
221 0 0
212 0 0
217 0 0
215 0 0
218 0 0
219 0 0
219 0 0
219 0 0
212 0 0
213 0 0
219 0 0
215 0 0
218 0 0
221 0 0
219 0 0
218 0 0
216 0 0
219 0 0
219 0 0
223 0 0
215 0 0
220 0 0
218 0 0
221 0 0
220 0 0
219 0 0
221 0 0
220 0 0
221 0 0
217 0 0
222 0 0
218 0 0
221 0 0
214 0 0
221 0 0
222 0 0
216 0 0
215 0 0
220 0 0
217 0 0
218 0 0
220 0 0
219 0 0
219 0 0
221 0 0
223 0 0
223 0 0
217 0 0
219 0 0
221 0 0
218 0 0
225 0 0
223 0 0
221 0 0
221 0 0
220 0 0
223 0 0
217 0 0
221 0 0
223 0 0
218 0 0
221 0 0
226 0 0
223 0 0
220 0 0
218 0 0
216 0 0
222 0 0
220 0 0
225 0 0
219 0 0
221 0 0
224 0 0
222 0 0
221 0 0
221 0 0
218 0 0
225 0 0
222 0 0
217 0 0
222 0 0
223 0 0
217 0 0
222 0 0
226 0 0
224 0 0
219 0 0
224 0 0
220 0 0
223 0 0
217 0 0
219 0 0
224 0 0
222 0 0
219 0 0
221 0 0
219 0 0
220 0 0
222 0 0
220 0 0
222 0 0
220 0 0
221 0 0
221 0 0
221 0 0
222 0 0
224 0 0
222 0 0
221 0 0
221 0 0
222 0 0
218 0 0
223 0 0
223 0 0
222 0 0
222 0 0
225 0 0
0 0 255
0 0 255
0 0 255
0 0 255
0 0 255
0 0 255
0 0 255
0 0 255
0 0 255
0 0 254
0 0 255
0 0 255
0 0 255
0 0 255
0 0 254
0 0 255
0 0 255
0 0 255
0 0 255
0 0 255
0 0 255
0 0 255
0 0 255
0 0 255
0 0 255
0 0 255
0 0 254
0 0 253
0 0 255
0 0 254
0 0 255
0 0 254
0 0 255
0 0 254
0 0 255
0 0 255
0 0 255
0 0 255
0 0 255
0 0 255
0 0 255
0 0 255
0 0 255
0 0 254
0 0 255
0 0 255
0 0 252
0 0 254
0 0 255
0 0 255
0 0 255
0 0 254
0 0 254
0 0 253
0 0 254
0 0 255
0 0 254
0 0 255
0 0 255
0 0 254
0 0 254
0 0 253
0 0 254
0 0 252
0 0 255
0 0 255
0 0 253
0 0 254
0 0 246
0 0 255
0 0 253
0 0 250
0 0 252
0 0 252
0 0 255
0 0 253
0 0 252
0 0 252
0 0 249
0 0 250
0 0 255
0 0 252
0 0 253
0 0 249
0 0 252
0 0 252
0 0 253
0 0 253
0 0 249
0 0 250
0 0 248
0 0 250
0 0 249
0 0 253
0 0 255
0 0 252
0 0 246
0 0 250
0 0 253
0 0 249
0 0 249
0 0 252
0 0 253
0 0 253
0 0 253
0 0 252
0 0 249
0 0 245
0 0 252
0 0 246
0 0 249
0 0 249
0 0 244
0 0 248
0 0 249
0 0 246
0 0 241
0 0 253
0 0 250
0 0 249
0 0 253
0 0 250
0 0 252
0 0 248
0 0 253
0 0 242
0 0 250
0 0 242
0 0 244
0 0 249
0 0 244
0 0 245
0 0 249
0 0 245
0 0 252
0 0 242
0 0 246
0 0 246
0 0 234
0 0 242
0 0 249
0 0 245
0 0 245
0 0 244
0 0 242
0 0 241
0 0 241
0 0 240
0 0 238
0 0 237
0 0 241
0 0 226
0 0 241
0 0 238
0 0 223
0 0 242
0 0 244
0 0 234
0 0 228
0 0 237
0 0 230
0 0 228
0 0 240
0 0 234
0 0 242
0 0 215
0 0 220
0 0 230
0 0 231
0 0 230
0 0 228
0 0 227
0 0 224
0 0 218
0 0 221
0 0 217
0 0 221
0 0 212
0 0 204
0 0 218
0 0 199
0 0 204
0 0 207
0 0 211
0 0 209
0 0 201
0 0 182
0 0 199
0 0 191
0 0 198
0 0 175
0 0 169
0 0 161
0 0 159
0 0 151
0 0 157
0 0 135
0 0 114
0 0 76
120 127 149
124 113 122
90 0 0
117 0 0
125 0 0
140 0 0
131 0 0
143 0 0
149 0 0
146 0 0
167 0 0
167 0 0
174 0 0
162 0 0
184 0 0
175 0 0
173 0 0
189 0 0
180 0 0
178 0 0
196 0 0
183 0 0
195 0 0
189 0 0
199 0 0
193 0 0
190 0 0
188 0 0
195 0 0
199 0 0
191 0 0
205 0 0
207 0 0
205 0 0
207 0 0
206 0 0
202 0 0
196 0 0
201 0 0
207 0 0
196 0 0
210 0 0
212 0 0
206 0 0
204 0 0
205 0 0
206 0 0
213 0 0
207 0 0
213 0 0
204 0 0
210 0 0
212 0 0
210 0 0
214 0 0
212 0 0
198 0 0
209 0 0
213 0 0
215 0 0
205 0 0
212 0 0
218 0 0
207 0 0
212 0 0
221 0 0
216 0 0
214 0 0
218 0 0
215 0 0
214 0 0
208 0 0
218 0 0
214 0 0
217 0 0
217 0 0
219 0 0
215 0 0
215 0 0
216 0 0
215 0 0
217 0 0
219 0 0
213 0 0
208 0 0
219 0 0
219 0 0
215 0 0
217 0 0
214 0 0
216 0 0
222 0 0
219 0 0
213 0 0
218 0 0
216 0 0
216 0 0
216 0 0
215 0 0
216 0 0
219 0 0
221 0 0
221 0 0
216 0 0
222 0 0
218 0 0
221 0 0
213 0 0
221 0 0
222 0 0
215 0 0
216 0 0
223 0 0
216 0 0
216 0 0
218 0 0
221 0 0
223 0 0
222 0 0
216 0 0
220 0 0
222 0 0
221 0 0
219 0 0
220 0 0
218 0 0
219 0 0
220 0 0
217 0 0
217 0 0
224 0 0
215 0 0
217 0 0
220 0 0
220 0 0
221 0 0
215 0 0
223 0 0
217 0 0
222 0 0
223 0 0
219 0 0
222 0 0
219 0 0
218 0 0
223 0 0
223 0 0
220 0 0
223 0 0
220 0 0
218 0 0
223 0 0
220 0 0
218 0 0
221 0 0
226 0 0
220 0 0
218 0 0
218 0 0
222 0 0
221 0 0
220 0 0
224 0 0
224 0 0
222 0 0
220 0 0
226 0 0
223 0 0
219 0 0
222 0 0
224 0 0
218 0 0
226 0 0
221 0 0
219 0 0
220 0 0
220 0 0
221 0 0
224 0 0
224 0 0
220 0 0
222 0 0
222 0 0
220 0 0
223 0 0
221 0 0
224 0 0
224 0 0
222 0 0
224 0 0
222 0 0
222 0 0
224 0 0
222 0 0
218 0 0
221 0 0
221 0 0
220 0 0
221 0 0
223 0 0
225 0 0
0 0 255
0 0 255
0 0 255
0 0 255
0 0 254
0 0 255
0 0 255
0 0 255
0 0 255
0 0 255
0 0 255
0 0 254
0 0 255
0 0 255
0 0 254
0 0 255
0 0 255
0 0 254
0 0 255
0 0 255
0 0 255
0 0 254
0 0 255
0 0 255
0 0 255
0 0 255
0 0 254
0 0 254
0 0 255
0 0 255
0 0 255
0 0 255
0 0 255
0 0 254
0 0 254
0 0 254
0 0 255
0 0 255
0 0 254
0 0 255
0 0 255
0 0 255
0 0 254
0 0 255
0 0 255
0 0 255
0 0 254
0 0 253
0 0 255
0 0 255
0 0 255
0 0 255
0 0 254
0 0 254
0 0 253
0 0 254
0 0 255
0 0 255
0 0 253
0 0 254
0 0 255
0 0 253
0 0 255
0 0 252
0 0 253
0 0 253
0 0 252
0 0 254
0 0 250
0 0 253
0 0 250
0 0 255
0 0 254
0 0 249
0 0 252
0 0 255
0 0 254
0 0 253
0 0 254
0 0 254
0 0 253
0 0 253
0 0 253
0 0 255
0 0 254
0 0 253
0 0 253
0 0 250
0 0 248
0 0 249
0 0 253
0 0 250
0 0 255
0 0 254
0 0 249
0 0 253
0 0 254
0 0 252
0 0 254
0 0 249
0 0 253
0 0 245
0 0 250
0 0 249
0 0 249
0 0 248
0 0 253
0 0 252
0 0 249
0 0 253
0 0 252
0 0 253
0 0 250
0 0 249
0 0 246
0 0 246
0 0 249
0 0 246
0 0 250
0 0 250
0 0 253
0 0 250
0 0 248
0 0 246
0 0 252
0 0 252
0 0 248
0 0 249
0 0 246
0 0 245
0 0 244
0 0 250
0 0 242
0 0 249
0 0 250
0 0 245
0 0 240
0 0 245
0 0 245
0 0 245
0 0 246
0 0 238
0 0 237
0 0 242
0 0 242
0 0 245
0 0 241
0 0 246
0 0 240
0 0 244
0 0 244
0 0 240
0 0 248
0 0 241
0 0 240
0 0 244
0 0 241
0 0 233
0 0 236
0 0 236
0 0 234
0 0 230
0 0 233
0 0 234
0 0 228
0 0 233
0 0 240
0 0 226
0 0 223
0 0 231
0 0 226
0 0 224
0 0 220
0 0 220
0 0 214
0 0 227
0 0 214
0 0 203
0 0 207
0 0 203
0 0 215
0 0 207
0 0 220
0 0 207
0 0 201
0 0 198
0 0 206
0 0 194
0 0 191
0 0 182
0 0 184
0 0 153
0 0 169
0 0 163
0 0 128
0 0 144
0 0 125
0 0 125
0 0 108
128 136 155
141 138 149
70 0 0
118 0 0
131 0 0
139 0 0
128 0 0
155 0 0
143 0 0
156 0 0
161 0 0
165 0 0
165 0 0
170 0 0
174 0 0
172 0 0
184 0 0
183 0 0
184 0 0
189 0 0
189 0 0
174 0 0
189 0 0
183 0 0
183 0 0
197 0 0
193 0 0
201 0 0
196 0 0
192 0 0
203 0 0
195 0 0
201 0 0
196 0 0
200 0 0
188 0 0
206 0 0
204 0 0
206 0 0
202 0 0
207 0 0
214 0 0
200 0 0
213 0 0
203 0 0
212 0 0
209 0 0
202 0 0
208 0 0
218 0 0
211 0 0
205 0 0
211 0 0
212 0 0
217 0 0
208 0 0
207 0 0
210 0 0
211 0 0
216 0 0
208 0 0
210 0 0
215 0 0
206 0 0
216 0 0
213 0 0
205 0 0
209 0 0
211 0 0
215 0 0
212 0 0
218 0 0
217 0 0
218 0 0
216 0 0
214 0 0
218 0 0
211 0 0
223 0 0
221 0 0
217 0 0
218 0 0
219 0 0
220 0 0
214 0 0
219 0 0
213 0 0
215 0 0
219 0 0
220 0 0
213 0 0
215 0 0
219 0 0
218 0 0
222 0 0
222 0 0
220 0 0
215 0 0
217 0 0
221 0 0
220 0 0
218 0 0
221 0 0
219 0 0
222 0 0
218 0 0
220 0 0
219 0 0
216 0 0
225 0 0
222 0 0
226 0 0
220 0 0
222 0 0
219 0 0
220 0 0
219 0 0
219 0 0
222 0 0
218 0 0
225 0 0
222 0 0
226 0 0
220 0 0
222 0 0
219 0 0
219 0 0
215 0 0
224 0 0
219 0 0
221 0 0
220 0 0
220 0 0
220 0 0
224 0 0
220 0 0
225 0 0
221 0 0
220 0 0
218 0 0
223 0 0
222 0 0
222 0 0
223 0 0
221 0 0
217 0 0
217 0 0
221 0 0
219 0 0
220 0 0
222 0 0
222 0 0
224 0 0
224 0 0
220 0 0
222 0 0
220 0 0
223 0 0
222 0 0
221 0 0
217 0 0
220 0 0
221 0 0
216 0 0
223 0 0
220 0 0
223 0 0
218 0 0
222 0 0
225 0 0
222 0 0
220 0 0
221 0 0
218 0 0
222 0 0
223 0 0
222 0 0
218 0 0
221 0 0
220 0 0
222 0 0
223 0 0
220 0 0
220 0 0
217 0 0
222 0 0
220 0 0
224 0 0
224 0 0
223 0 0
223 0 0
220 0 0
219 0 0
226 0 0
224 0 0
219 0 0
219 0 0
220 0 0
220 0 0
221 0 0
221 0 0
0 0 255
0 0 255
0 0 255
0 0 255
0 0 255
0 0 255
0 0 255
0 0 255
0 0 255
0 0 255
0 0 255
0 0 254
0 0 254
0 0 255
0 0 255
0 0 255
0 0 255
0 0 255
0 0 255
0 0 254
0 0 255
0 0 255
0 0 255
0 0 254
0 0 255
0 0 254
0 0 255
0 0 255
0 0 254
0 0 255
0 0 254
0 0 255
0 0 255
0 0 254
0 0 255
0 0 255
0 0 255
0 0 254
0 0 253
0 0 255
0 0 253
0 0 255
0 0 254
0 0 254
0 0 255
0 0 255
0 0 254
0 0 255
0 0 254
0 0 255
0 0 254
0 0 254
0 0 254
0 0 255
0 0 254
0 0 254
0 0 254
0 0 253
0 0 255
0 0 255
0 0 254
0 0 254
0 0 254
0 0 250
0 0 254
0 0 253
0 0 253
0 0 255
0 0 255
0 0 254
0 0 254
0 0 253
0 0 249
0 0 253
0 0 254
0 0 252
0 0 246
0 0 254
0 0 254
0 0 250
0 0 255
0 0 253
0 0 254
0 0 255
0 0 253
0 0 245
0 0 250
0 0 252
0 0 253
0 0 252
0 0 253
0 0 252
0 0 253
0 0 254
0 0 253
0 0 252
0 0 248
0 0 250
0 0 250
0 0 253
0 0 252
0 0 250
0 0 253
0 0 254
0 0 249
0 0 253
0 0 252
0 0 252
0 0 253
0 0 250
0 0 253
0 0 245
0 0 250
0 0 248
0 0 249
0 0 253
0 0 253
0 0 245
0 0 246
0 0 252
0 0 252
0 0 250
0 0 245
0 0 238
0 0 248
0 0 248
0 0 252
0 0 246
0 0 245
0 0 250
0 0 249
0 0 248
0 0 249
0 0 250
0 0 244
0 0 249
0 0 248
0 0 238
0 0 241
0 0 241
0 0 252
0 0 246
0 0 238
0 0 246
0 0 246
0 0 244
0 0 248
0 0 241
0 0 228
0 0 237
0 0 246
0 0 240
0 0 234
0 0 234
0 0 245
0 0 236
0 0 246
0 0 240
0 0 234
0 0 246
0 0 238
0 0 236
0 0 224
0 0 237
0 0 230
0 0 228
0 0 233
0 0 228
0 0 227
0 0 224
0 0 231
0 0 236
0 0 230
0 0 220
0 0 231
0 0 231
0 0 212
0 0 223
0 0 211
0 0 221
0 0 189
0 0 212
0 0 215
0 0 196
0 0 206
0 0 189
0 0 201
0 0 204
0 0 181
0 0 184
0 0 191
0 0 161
0 0 161
0 0 144
0 0 153
0 0 144
0 0 144
0 0 130
0 0 92
145 154 173
169 169 182
78 0 0
121 0 0
130 0 0
131 0 0
145 0 0
160 0 0
162 0 0
148 0 0
158 0 0
173 0 0
167 0 0
183 0 0
175 0 0
176 0 0
181 0 0
186 0 0
188 0 0
179 0 0
193 0 0
184 0 0
187 0 0
182 0 0
196 0 0
190 0 0
197 0 0
193 0 0
195 0 0
192 0 0
199 0 0
195 0 0
186 0 0
197 0 0
198 0 0
208 0 0
200 0 0
196 0 0
202 0 0
204 0 0
201 0 0
206 0 0
204 0 0
207 0 0
201 0 0
208 0 0
206 0 0
217 0 0
212 0 0
205 0 0
206 0 0
211 0 0
212 0 0
203 0 0
214 0 0
211 0 0
217 0 0
211 0 0
215 0 0
210 0 0
214 0 0
198 0 0
209 0 0
213 0 0
212 0 0
212 0 0
210 0 0
207 0 0
218 0 0
215 0 0
208 0 0
217 0 0
216 0 0
214 0 0
214 0 0
215 0 0
216 0 0
215 0 0
221 0 0
211 0 0
213 0 0
222 0 0
218 0 0
218 0 0
219 0 0
221 0 0
217 0 0
216 0 0
217 0 0
217 0 0
215 0 0
220 0 0
219 0 0
217 0 0
217 0 0
220 0 0
220 0 0
219 0 0
220 0 0
222 0 0
217 0 0
219 0 0
217 0 0
221 0 0
220 0 0
224 0 0
220 0 0
219 0 0
218 0 0
219 0 0
220 0 0
217 0 0
219 0 0
220 0 0
220 0 0
222 0 0
224 0 0
221 0 0
219 0 0
219 0 0
220 0 0
218 0 0
216 0 0
221 0 0
215 0 0
222 0 0
219 0 0
221 0 0
222 0 0
222 0 0
220 0 0
217 0 0
220 0 0
220 0 0
222 0 0
223 0 0
222 0 0
218 0 0
221 0 0
222 0 0
219 0 0
222 0 0
222 0 0
220 0 0
223 0 0
221 0 0
222 0 0
222 0 0
220 0 0
219 0 0
221 0 0
221 0 0
223 0 0
224 0 0
221 0 0
221 0 0
219 0 0
223 0 0
223 0 0
220 0 0
221 0 0
221 0 0
223 0 0
220 0 0
225 0 0
221 0 0
220 0 0
220 0 0
220 0 0
221 0 0
222 0 0
223 0 0
221 0 0
223 0 0
217 0 0
223 0 0
218 0 0
223 0 0
220 0 0
220 0 0
224 0 0
220 0 0
221 0 0
223 0 0
221 0 0
226 0 0
219 0 0
224 0 0
220 0 0
223 0 0
222 0 0
222 0 0
223 0 0
223 0 0
219 0 0
222 0 0
218 0 0
221 0 0
220 0 0
223 0 0
223 0 0
0 0 255
0 0 255
0 0 255
0 0 255
0 0 255
0 0 255
0 0 255
0 0 255
0 0 255
0 0 255
0 0 255
0 0 255
0 0 255
0 0 255
0 0 254
0 0 255
0 0 255
0 0 255
0 0 254
0 0 254
0 0 254
0 0 254
0 0 254
0 0 255
0 0 255
0 0 255
0 0 254
0 0 253
0 0 254
0 0 255
0 0 255
0 0 255
0 0 255
0 0 255
0 0 255
0 0 255
0 0 254
0 0 255
0 0 255
0 0 255
0 0 253
0 0 255
0 0 254
0 0 255
0 0 254
0 0 255
0 0 254
0 0 254
0 0 255
0 0 255
0 0 255
0 0 255
0 0 254
0 0 253
0 0 253
0 0 252
0 0 252
0 0 254
0 0 254
0 0 255
0 0 254
0 0 255
0 0 254
0 0 252
0 0 254
0 0 254
0 0 254
0 0 253
0 0 252
0 0 254
0 0 253
0 0 254
0 0 254
0 0 255
0 0 254
0 0 253
0 0 252
0 0 254
0 0 254
0 0 253
0 0 255
0 0 255
0 0 252
0 0 249
0 0 252
0 0 254
0 0 254
0 0 255
0 0 254
0 0 249
0 0 250
0 0 250
0 0 249
0 0 254
0 0 249
0 0 253
0 0 252
0 0 253
0 0 250
0 0 250
0 0 254
0 0 248
0 0 254
0 0 254
0 0 249
0 0 254
0 0 255
0 0 250
0 0 254
0 0 252
0 0 252
0 0 250
0 0 252
0 0 245
0 0 249
0 0 246
0 0 250
0 0 242
0 0 248
0 0 248
0 0 246
0 0 248
0 0 250
0 0 253
0 0 248
0 0 250
0 0 244
0 0 245
0 0 250
0 0 245
0 0 242
0 0 244
0 0 252
0 0 250
0 0 240
0 0 246
0 0 244
0 0 245
0 0 244
0 0 244
0 0 242
0 0 246
0 0 244
0 0 241
0 0 244
0 0 246
0 0 237
0 0 244
0 0 246
0 0 244
0 0 236
0 0 240
0 0 237
0 0 240
0 0 234
0 0 230
0 0 245
0 0 234
0 0 240
0 0 237
0 0 238
0 0 233
0 0 224
0 0 227
0 0 236
0 0 226
0 0 231
0 0 231
0 0 218
0 0 240
0 0 231
0 0 223
0 0 231
0 0 215
0 0 224
0 0 221
0 0 207
0 0 207
0 0 212
0 0 227
0 0 201
0 0 211
0 0 206
0 0 203
0 0 184
0 0 204
0 0 184
0 0 189
0 0 196
0 0 171
0 0 179
0 0 163
0 0 171
0 0 157
0 0 151
0 0 151
0 0 135
0 0 125
0 0 92
172 182 198
184 191 206
87 0 0
103 0 0
133 0 0
121 0 0
136 0 0
169 0 0
150 0 0
147 0 0
147 0 0
149 0 0
176 0 0
184 0 0
184 0 0
177 0 0
178 0 0
185 0 0
184 0 0
191 0 0
184 0 0
175 0 0
180 0 0
182 0 0
185 0 0
196 0 0
196 0 0
190 0 0
199 0 0
202 0 0
207 0 0
200 0 0
200 0 0
202 0 0
202 0 0
204 0 0
204 0 0
206 0 0
204 0 0
212 0 0
213 0 0
200 0 0
211 0 0
202 0 0
206 0 0
210 0 0
201 0 0
211 0 0
212 0 0
213 0 0
199 0 0
214 0 0
204 0 0
208 0 0
215 0 0
209 0 0
211 0 0
210 0 0
216 0 0
209 0 0
212 0 0
209 0 0
210 0 0
214 0 0
205 0 0
220 0 0
214 0 0
209 0 0
223 0 0
215 0 0
217 0 0
210 0 0
217 0 0
213 0 0
214 0 0
215 0 0
217 0 0
215 0 0
210 0 0
219 0 0
218 0 0
213 0 0
218 0 0
221 0 0
209 0 0
215 0 0
221 0 0
216 0 0
219 0 0
217 0 0
216 0 0
215 0 0
218 0 0
224 0 0
220 0 0
218 0 0
220 0 0
223 0 0
214 0 0
217 0 0
219 0 0
222 0 0
213 0 0
217 0 0
218 0 0
221 0 0
214 0 0
217 0 0
218 0 0
225 0 0
223 0 0
224 0 0
219 0 0
221 0 0
220 0 0
223 0 0
222 0 0
221 0 0
226 0 0
219 0 0
219 0 0
220 0 0
217 0 0
221 0 0
218 0 0
222 0 0
221 0 0
217 0 0
220 0 0
219 0 0
222 0 0
221 0 0
221 0 0
221 0 0
219 0 0
217 0 0
220 0 0
219 0 0
219 0 0
223 0 0
219 0 0
219 0 0
219 0 0
218 0 0
220 0 0
224 0 0
223 0 0
224 0 0
222 0 0
223 0 0
223 0 0
221 0 0
221 0 0
221 0 0
222 0 0
222 0 0
221 0 0
220 0 0
224 0 0
221 0 0
223 0 0
216 0 0
218 0 0
224 0 0
219 0 0
226 0 0
221 0 0
223 0 0
224 0 0
221 0 0
218 0 0
222 0 0
222 0 0
224 0 0
219 0 0
221 0 0
213 0 0
222 0 0
226 0 0
226 0 0
222 0 0
224 0 0
225 0 0
221 0 0
224 0 0
221 0 0
222 0 0
221 0 0
222 0 0
221 0 0
222 0 0
222 0 0
219 0 0
222 0 0
221 0 0
223 0 0
219 0 0
221 0 0
222 0 0
222 0 0
219 0 0
0 0 255
0 0 255
0 0 255
0 0 255
0 0 255
0 0 254
0 0 254
0 0 255
0 0 255
0 0 255
0 0 255
0 0 255
0 0 255
0 0 255
0 0 255
0 0 255
0 0 255
0 0 255
0 0 255
0 0 255
0 0 254
0 0 255
0 0 255
0 0 255
0 0 252
0 0 255
0 0 254
0 0 254
0 0 254
0 0 255
0 0 255
0 0 255
0 0 255
0 0 254
0 0 254
0 0 255
0 0 255
0 0 255
0 0 255
0 0 254
0 0 254
0 0 255
0 0 254
0 0 254
0 0 255
0 0 255
0 0 255
0 0 255
0 0 254
0 0 255
0 0 252
0 0 254
0 0 253
0 0 255
0 0 255
0 0 254
0 0 255
0 0 255
0 0 254
0 0 254
0 0 253
0 0 254
0 0 253
0 0 254
0 0 255
0 0 253
0 0 252
0 0 250
0 0 253
0 0 253
0 0 253
0 0 253
0 0 254
0 0 254
0 0 253
0 0 254
0 0 253
0 0 254
0 0 254
0 0 253
0 0 252
0 0 250
0 0 252
0 0 254
0 0 252
0 0 252
0 0 250
0 0 254
0 0 255
0 0 254
0 0 250
0 0 254
0 0 253
0 0 252
0 0 254
0 0 249
0 0 250
0 0 252
0 0 254
0 0 249
0 0 250
0 0 248
0 0 252
0 0 245
0 0 253
0 0 253
0 0 249
0 0 246
0 0 245
0 0 250
0 0 248
0 0 253
0 0 244
0 0 249
0 0 250
0 0 249
0 0 252
0 0 252
0 0 245
0 0 245
0 0 249
0 0 250
0 0 244
0 0 248
0 0 248
0 0 250
0 0 245
0 0 249
0 0 245
0 0 252
0 0 248
0 0 254
0 0 248
0 0 236
0 0 245
0 0 250
0 0 248
0 0 241
0 0 238
0 0 248
0 0 245
0 0 245
0 0 237
0 0 244
0 0 241
0 0 246
0 0 242
0 0 245
0 0 242
0 0 241
0 0 241
0 0 242
0 0 234
0 0 236
0 0 245
0 0 237
0 0 248
0 0 233
0 0 242
0 0 231
0 0 231
0 0 233
0 0 240
0 0 230
0 0 230
0 0 237
0 0 231
0 0 228
0 0 238
0 0 228
0 0 212
0 0 231
0 0 223
0 0 228
0 0 226
0 0 218
0 0 220
0 0 220
0 0 218
0 0 230
0 0 215
0 0 217
0 0 209
0 0 196
0 0 207
0 0 203
0 0 191
0 0 191
0 0 184
0 0 188
0 0 181
0 0 182
0 0 155
0 0 182
0 0 163
0 0 149
0 0 133
0 0 137
0 0 88
204 215 238
202 210 226
101 0 0
74 0 0
124 0 0
133 0 0
145 0 0
159 0 0
145 0 0
157 0 0
162 0 0
163 0 0
155 0 0
178 0 0
166 0 0
177 0 0
181 0 0
188 0 0
181 0 0
172 0 0
190 0 0
196 0 0
193 0 0
184 0 0
202 0 0
194 0 0
196 0 0
202 0 0
202 0 0
193 0 0
201 0 0
201 0 0
192 0 0
201 0 0
199 0 0
211 0 0
208 0 0
204 0 0
209 0 0
210 0 0
200 0 0
215 0 0
216 0 0
213 0 0
213 0 0
213 0 0
206 0 0
208 0 0
209 0 0
208 0 0
214 0 0
211 0 0
217 0 0
213 0 0
209 0 0
211 0 0
212 0 0
216 0 0
211 0 0
219 0 0
211 0 0
213 0 0
211 0 0
220 0 0
220 0 0
222 0 0
219 0 0
214 0 0
214 0 0
212 0 0
213 0 0
212 0 0
211 0 0
213 0 0
213 0 0
210 0 0
219 0 0
219 0 0
221 0 0
220 0 0
214 0 0
216 0 0
215 0 0
220 0 0
215 0 0
222 0 0
218 0 0
217 0 0
215 0 0
220 0 0
218 0 0
216 0 0
216 0 0
216 0 0
220 0 0
223 0 0
217 0 0
222 0 0
217 0 0
219 0 0
223 0 0
220 0 0
217 0 0
218 0 0
221 0 0
221 0 0
222 0 0
217 0 0
218 0 0
224 0 0
221 0 0
214 0 0
218 0 0
222 0 0
221 0 0
222 0 0
220 0 0
222 0 0
221 0 0
223 0 0
216 0 0
221 0 0
220 0 0
224 0 0
217 0 0
223 0 0
223 0 0
222 0 0
222 0 0
221 0 0
218 0 0
221 0 0
222 0 0
218 0 0
221 0 0
219 0 0
223 0 0
221 0 0
221 0 0
223 0 0
220 0 0
223 0 0
222 0 0
225 0 0
222 0 0
219 0 0
222 0 0
223 0 0
220 0 0
222 0 0
221 0 0
221 0 0
219 0 0
218 0 0
221 0 0
222 0 0
222 0 0
219 0 0
223 0 0
223 0 0
220 0 0
223 0 0
219 0 0
225 0 0
221 0 0
218 0 0
218 0 0
224 0 0
222 0 0
222 0 0
225 0 0
221 0 0
222 0 0
219 0 0
221 0 0
221 0 0
219 0 0
223 0 0
225 0 0
221 0 0
223 0 0
223 0 0
216 0 0
219 0 0
225 0 0
225 0 0
226 0 0
224 0 0
221 0 0
225 0 0
222 0 0
223 0 0
225 0 0
226 0 0
224 0 0
222 0 0
222 0 0
221 0 0
223 0 0
222 0 0
223 0 0
0 0 255
0 0 255
0 0 255
0 0 255
0 0 255
0 0 254
0 0 255
0 0 255
0 0 255
0 0 254
0 0 255
0 0 254
0 0 255
0 0 255
0 0 254
0 0 255
0 0 254
0 0 255
0 0 255
0 0 255
0 0 254
0 0 255
0 0 255
0 0 255
0 0 255
0 0 255
0 0 255
0 0 255
0 0 254
0 0 255
0 0 255
0 0 255
0 0 253
0 0 255
0 0 254
0 0 254
0 0 255
0 0 255
0 0 255
0 0 254
0 0 254
0 0 255
0 0 255
0 0 252
0 0 254
0 0 255
0 0 254
0 0 254
0 0 255
0 0 255
0 0 255
0 0 254
0 0 255
0 0 253
0 0 253
0 0 254
0 0 255
0 0 255
0 0 253
0 0 255
0 0 253
0 0 255
0 0 255
0 0 255
0 0 254
0 0 250
0 0 255
0 0 255
0 0 254
0 0 255
0 0 253
0 0 254
0 0 254
0 0 254
0 0 255
0 0 252
0 0 255
0 0 254
0 0 252
0 0 254
0 0 254
0 0 252
0 0 255
0 0 254
0 0 249
0 0 252
0 0 254
0 0 253
0 0 252
0 0 252
0 0 254
0 0 255
0 0 254
0 0 250
0 0 253
0 0 253
0 0 253
0 0 254
0 0 250
0 0 253
0 0 248
0 0 252
0 0 249
0 0 248
0 0 250
0 0 249
0 0 254
0 0 250
0 0 250
0 0 252
0 0 250
0 0 248
0 0 254
0 0 249
0 0 249
0 0 249
0 0 246
0 0 250
0 0 244
0 0 253
0 0 250
0 0 248
0 0 244
0 0 246
0 0 244
0 0 249
0 0 248
0 0 248
0 0 246
0 0 250
0 0 245
0 0 244
0 0 252
0 0 248
0 0 246
0 0 246
0 0 244
0 0 245
0 0 250
0 0 242
0 0 238
0 0 244
0 0 245
0 0 242
0 0 248
0 0 245
0 0 248
0 0 240
0 0 242
0 0 245
0 0 242
0 0 231
0 0 245
0 0 242
0 0 237
0 0 244
0 0 237
0 0 236
0 0 231
0 0 236
0 0 234
0 0 234
0 0 238
0 0 234
0 0 230
0 0 228
0 0 233
0 0 231
0 0 227
0 0 220
0 0 228
0 0 230
0 0 224
0 0 228
0 0 224
0 0 224
0 0 238
0 0 224
0 0 215
0 0 223
0 0 207
0 0 204
0 0 207
0 0 215
0 0 209
0 0 204
0 0 206
0 0 196
0 0 188
0 0 201
0 0 194
0 0 179
0 0 144
0 0 142
0 0 157
0 0 153
0 0 135
0 0 122
0 0 84
217 229 248
215 227 244
86 0 0
96 0 0
117 0 0
140 0 0
143 0 0
148 0 0
160 0 0
157 0 0
165 0 0
155 0 0
154 0 0
169 0 0
174 0 0
170 0 0
180 0 0
184 0 0
183 0 0
187 0 0
187 0 0
183 0 0
193 0 0
196 0 0
189 0 0
197 0 0
194 0 0
197 0 0
210 0 0
198 0 0
198 0 0
203 0 0
201 0 0
202 0 0
206 0 0
201 0 0
202 0 0
198 0 0
206 0 0
203 0 0
204 0 0
209 0 0
202 0 0
207 0 0
214 0 0
204 0 0
220 0 0
215 0 0
210 0 0
208 0 0
213 0 0
202 0 0
214 0 0
204 0 0
208 0 0
216 0 0
210 0 0
214 0 0
219 0 0
214 0 0
210 0 0
213 0 0
215 0 0
216 0 0
217 0 0
218 0 0
215 0 0
212 0 0
216 0 0
209 0 0
217 0 0
212 0 0
218 0 0
221 0 0
211 0 0
218 0 0
212 0 0
215 0 0
217 0 0
222 0 0
216 0 0
215 0 0
218 0 0
218 0 0
214 0 0
220 0 0
223 0 0
219 0 0
221 0 0
217 0 0
216 0 0
214 0 0
219 0 0
219 0 0
220 0 0
220 0 0
220 0 0
216 0 0
224 0 0
224 0 0
222 0 0
217 0 0
219 0 0
218 0 0
218 0 0
216 0 0
221 0 0
221 0 0
224 0 0
221 0 0
219 0 0
217 0 0
220 0 0
224 0 0
218 0 0
220 0 0
220 0 0
222 0 0
222 0 0
218 0 0
222 0 0
219 0 0
222 0 0
217 0 0
219 0 0
220 0 0
225 0 0
220 0 0
224 0 0
221 0 0
222 0 0
223 0 0
223 0 0
223 0 0
218 0 0
220 0 0
224 0 0
220 0 0
221 0 0
222 0 0
219 0 0
220 0 0
221 0 0
222 0 0
220 0 0
221 0 0
222 0 0
221 0 0
224 0 0
222 0 0
222 0 0
220 0 0
223 0 0
221 0 0
224 0 0
223 0 0
223 0 0
225 0 0
221 0 0
224 0 0
221 0 0
222 0 0
224 0 0
218 0 0
221 0 0
224 0 0
219 0 0
221 0 0
221 0 0
220 0 0
223 0 0
221 0 0
226 0 0
219 0 0
221 0 0
225 0 0
223 0 0
222 0 0
222 0 0
222 0 0
219 0 0
223 0 0
221 0 0
219 0 0
224 0 0
222 0 0
219 0 0
222 0 0
220 0 0
225 0 0
224 0 0
220 0 0
223 0 0
222 0 0
223 0 0
221 0 0
222 0 0
229 0 0
219 0 0
221 0 0
221 0 0
0 0 255
0 0 255
0 0 254
0 0 255
0 0 255
0 0 255
0 0 255
0 0 255
0 0 255
0 0 255
0 0 253
0 0 255
0 0 255
0 0 255
0 0 255
0 0 255
0 0 255
0 0 255
0 0 255
0 0 255
0 0 255
0 0 255
0 0 255
0 0 255
0 0 255
0 0 255
0 0 255
0 0 254
0 0 255
0 0 252
0 0 255
0 0 255
0 0 255
0 0 255
0 0 255
0 0 255
0 0 254
0 0 254
0 0 254
0 0 255
0 0 255
0 0 255
0 0 255
0 0 255
0 0 255
0 0 255
0 0 253
0 0 254
0 0 254
0 0 255
0 0 252
0 0 255
0 0 254
0 0 253
0 0 254
0 0 253
0 0 253
0 0 254
0 0 255
0 0 253
0 0 255
0 0 255
0 0 254
0 0 254
0 0 250
0 0 250
0 0 255
0 0 253
0 0 253
0 0 254
0 0 253
0 0 253
0 0 255
0 0 254
0 0 250
0 0 254
0 0 254
0 0 254
0 0 252
0 0 254
0 0 253
0 0 252
0 0 254
0 0 253
0 0 255
0 0 253
0 0 253
0 0 252
0 0 253
0 0 254
0 0 253
0 0 253
0 0 248
0 0 249
0 0 253
0 0 252
0 0 252
0 0 250
0 0 252
0 0 253
0 0 254
0 0 253
0 0 254
0 0 250
0 0 248
0 0 248
0 0 248
0 0 252
0 0 250
0 0 248
0 0 244
0 0 253
0 0 249
0 0 250
0 0 249
0 0 253
0 0 255
0 0 248
0 0 252
0 0 252
0 0 250
0 0 250
0 0 248
0 0 244
0 0 250
0 0 248
0 0 246
0 0 249
0 0 248
0 0 249
0 0 249
0 0 245
0 0 248
0 0 242
0 0 252
0 0 245
0 0 245
0 0 246
0 0 245
0 0 242
0 0 241
0 0 250
0 0 240
0 0 241
0 0 248
0 0 248
0 0 240
0 0 238
0 0 238
0 0 246
0 0 236
0 0 241
0 0 238
0 0 228
0 0 241
0 0 234
0 0 245
0 0 242
0 0 245
0 0 236
0 0 226
0 0 234
0 0 237
0 0 226
0 0 231
0 0 237
0 0 238
0 0 227
0 0 233
0 0 233
0 0 231
0 0 237
0 0 220
0 0 228
0 0 227
0 0 226
0 0 196
0 0 224
0 0 226
0 0 226
0 0 207
0 0 206
0 0 211
0 0 203
0 0 215
0 0 201
0 0 181
0 0 194
0 0 189
0 0 177
0 0 186
0 0 173
0 0 169
0 0 163
0 0 140
0 0 151
0 0 147
0 0 128
81 86 133
226 238 255
226 238 255
88 67 72
92 0 0
134 0 0
138 0 0
133 0 0
154 0 0
164 0 0
171 0 0
166 0 0
167 0 0
160 0 0
166 0 0
170 0 0
169 0 0
186 0 0
174 0 0
178 0 0
191 0 0
182 0 0
181 0 0
189 0 0
197 0 0
189 0 0
194 0 0
195 0 0
191 0 0
192 0 0
198 0 0
206 0 0
193 0 0
202 0 0
197 0 0
202 0 0
212 0 0
194 0 0
197 0 0
205 0 0
206 0 0
205 0 0
198 0 0
203 0 0
208 0 0
207 0 0
210 0 0
203 0 0
203 0 0
213 0 0
215 0 0
210 0 0
208 0 0
211 0 0
213 0 0
215 0 0
215 0 0
214 0 0
213 0 0
215 0 0
211 0 0
213 0 0
218 0 0
210 0 0
212 0 0
215 0 0
217 0 0
217 0 0
213 0 0
219 0 0
216 0 0
223 0 0
215 0 0
217 0 0
213 0 0
217 0 0
217 0 0
210 0 0
216 0 0
219 0 0
221 0 0
219 0 0
221 0 0
219 0 0
211 0 0
219 0 0
216 0 0
214 0 0
219 0 0
220 0 0
217 0 0
217 0 0
217 0 0
221 0 0
218 0 0
221 0 0
223 0 0
217 0 0
218 0 0
213 0 0
218 0 0
218 0 0
219 0 0
219 0 0
222 0 0
220 0 0
219 0 0
223 0 0
222 0 0
216 0 0
218 0 0
219 0 0
220 0 0
219 0 0
219 0 0
220 0 0
220 0 0
224 0 0
221 0 0
221 0 0
218 0 0
218 0 0
221 0 0
217 0 0
222 0 0
223 0 0
217 0 0
222 0 0
218 0 0
219 0 0
225 0 0
216 0 0
220 0 0
218 0 0
224 0 0
220 0 0
217 0 0
222 0 0
222 0 0
220 0 0
220 0 0
224 0 0
219 0 0
223 0 0
219 0 0
223 0 0
219 0 0
222 0 0
224 0 0
222 0 0
220 0 0
221 0 0
218 0 0
223 0 0
221 0 0
223 0 0
221 0 0
218 0 0
222 0 0
224 0 0
221 0 0
222 0 0
223 0 0
224 0 0
220 0 0
221 0 0
224 0 0
221 0 0
220 0 0
223 0 0
219 0 0
223 0 0
224 0 0
226 0 0
224 0 0
221 0 0
221 0 0
223 0 0
221 0 0
223 0 0
223 0 0
223 0 0
220 0 0
223 0 0
222 0 0
220 0 0
220 0 0
224 0 0
220 0 0
221 0 0
225 0 0
225 0 0
225 0 0
222 0 0
221 0 0
219 0 0
221 0 0
226 0 0
225 0 0
225 0 0
224 0 0
222 0 0
0 0 255
0 0 255
0 0 255
0 0 255
0 0 255
0 0 255
0 0 255
0 0 255
0 0 255
0 0 255
0 0 255
0 0 255
0 0 255
0 0 255
0 0 254
0 0 255
0 0 254
0 0 255
0 0 255
0 0 255
0 0 255
0 0 255
0 0 255
0 0 255
0 0 255
0 0 255
0 0 255
0 0 254
0 0 255
0 0 254
0 0 255
0 0 255
0 0 255
0 0 255
0 0 255
0 0 255
0 0 255
0 0 255
0 0 254
0 0 255
0 0 254
0 0 254
0 0 255
0 0 254
0 0 253
0 0 254
0 0 253
0 0 255
0 0 255
0 0 255
0 0 255
0 0 254
0 0 255
0 0 252
0 0 254
0 0 255
0 0 254
0 0 255
0 0 255
0 0 254
0 0 252
0 0 254
0 0 254
0 0 254
0 0 250
0 0 254
0 0 253
0 0 255
0 0 254
0 0 254
0 0 254
0 0 255
0 0 255
0 0 253
0 0 253
0 0 253
0 0 254
0 0 254
0 0 253
0 0 250
0 0 252
0 0 254
0 0 250
0 0 252
0 0 254
0 0 250
0 0 253
0 0 250
0 0 253
0 0 253
0 0 255
0 0 250
0 0 246
0 0 252
0 0 253
0 0 252
0 0 248
0 0 250
0 0 252
0 0 252
0 0 249
0 0 252
0 0 255
0 0 253
0 0 252
0 0 254
0 0 252
0 0 244
0 0 253
0 0 250
0 0 250
0 0 253
0 0 248
0 0 254
0 0 240
0 0 253
0 0 246
0 0 249
0 0 246
0 0 241
0 0 246
0 0 245
0 0 241
0 0 246
0 0 249
0 0 249
0 0 244
0 0 245
0 0 248
0 0 249
0 0 242
0 0 240
0 0 249
0 0 248
0 0 245
0 0 244
0 0 241
0 0 245
0 0 241
0 0 246
0 0 248
0 0 241
0 0 244
0 0 244
0 0 248
0 0 242
0 0 237
0 0 241
0 0 242
0 0 245
0 0 242
0 0 241
0 0 244
0 0 240
0 0 242
0 0 241
0 0 226
0 0 234
0 0 234
0 0 240
0 0 230
0 0 240
0 0 234
0 0 242
0 0 234
0 0 242
0 0 227
0 0 236
0 0 227
0 0 230
0 0 228
0 0 240
0 0 226
0 0 220
0 0 209
0 0 214
0 0 215
0 0 226
0 0 220
0 0 209
0 0 226
0 0 217
0 0 203
0 0 207
0 0 203
0 0 204
0 0 186
0 0 186
0 0 201
0 0 189
0 0 184
0 0 169
0 0 169
0 0 159
0 0 159
0 0 159
0 0 130
0 0 128
115 121 159
226 238 255
226 238 255
151 130 140
110 0 0
114 0 0
139 0 0
143 0 0
146 0 0
156 0 0
168 0 0
160 0 0
177 0 0
190 0 0
178 0 0
186 0 0
185 0 0
169 0 0
190 0 0
184 0 0
203 0 0
188 0 0
177 0 0
195 0 0
179 0 0
196 0 0
189 0 0
201 0 0
199 0 0
202 0 0
200 0 0
198 0 0
199 0 0
201 0 0
208 0 0
206 0 0
210 0 0
200 0 0
204 0 0
206 0 0
208 0 0
203 0 0
205 0 0
212 0 0
209 0 0
208 0 0
217 0 0
205 0 0
217 0 0
207 0 0
208 0 0
210 0 0
213 0 0
217 0 0
218 0 0
210 0 0
214 0 0
210 0 0
215 0 0
215 0 0
210 0 0
208 0 0
212 0 0
215 0 0
211 0 0
211 0 0
214 0 0
216 0 0
213 0 0
212 0 0
208 0 0
214 0 0
215 0 0
218 0 0
215 0 0
216 0 0
214 0 0
218 0 0
216 0 0
208 0 0
218 0 0
217 0 0
220 0 0
218 0 0
217 0 0
214 0 0
217 0 0
217 0 0
221 0 0
219 0 0
216 0 0
215 0 0
218 0 0
215 0 0
222 0 0
218 0 0
222 0 0
218 0 0
217 0 0
215 0 0
223 0 0
222 0 0
220 0 0
224 0 0
220 0 0
220 0 0
218 0 0
216 0 0
221 0 0
221 0 0
217 0 0
217 0 0
222 0 0
223 0 0
219 0 0
216 0 0
222 0 0
217 0 0
222 0 0
223 0 0
220 0 0
221 0 0
220 0 0
222 0 0
219 0 0
218 0 0
223 0 0
221 0 0
220 0 0
217 0 0
219 0 0
222 0 0
223 0 0
222 0 0
222 0 0
221 0 0
220 0 0
220 0 0
221 0 0
221 0 0
222 0 0
221 0 0
223 0 0
223 0 0
223 0 0
222 0 0
222 0 0
220 0 0
220 0 0
222 0 0
220 0 0
222 0 0
221 0 0
222 0 0
221 0 0
220 0 0
222 0 0
224 0 0
222 0 0
221 0 0
222 0 0
226 0 0
223 0 0
219 0 0
224 0 0
221 0 0
224 0 0
222 0 0
221 0 0
220 0 0
221 0 0
219 0 0
224 0 0
223 0 0
224 0 0
223 0 0
218 0 0
219 0 0
222 0 0
222 0 0
224 0 0
225 0 0
220 0 0
221 0 0
226 0 0
219 0 0
220 0 0
223 0 0
222 0 0
222 0 0
223 0 0
224 0 0
224 0 0
226 0 0
220 0 0
223 0 0
224 0 0
223 0 0
221 0 0
225 0 0
224 0 0
224 0 0
0 0 255
0 0 255
0 0 255
0 0 255
0 0 254
0 0 255
0 0 255
0 0 255
0 0 255
0 0 255
0 0 255
0 0 255
0 0 255
0 0 255
0 0 254
0 0 255
0 0 255
0 0 253
0 0 255
0 0 254
0 0 254
0 0 254
0 0 255
0 0 255
0 0 254
0 0 254
0 0 255
0 0 255
0 0 255
0 0 255
0 0 255
0 0 255
0 0 255
0 0 255
0 0 255
0 0 254
0 0 254
0 0 254
0 0 253
0 0 254
0 0 255
0 0 255
0 0 254
0 0 255
0 0 254
0 0 254
0 0 255
0 0 255
0 0 255
0 0 252
0 0 255
0 0 255
0 0 255
0 0 255
0 0 254
0 0 254
0 0 255
0 0 254
0 0 253
0 0 254
0 0 254
0 0 255
0 0 254
0 0 252
0 0 254
0 0 255
0 0 253
0 0 253
0 0 255
0 0 253
0 0 254
0 0 254
0 0 252
0 0 255
0 0 252
0 0 253
0 0 252
0 0 255
0 0 255
0 0 252
0 0 253
0 0 255
0 0 255
0 0 254
0 0 252
0 0 253
0 0 253
0 0 255
0 0 254
0 0 253
0 0 249
0 0 252
0 0 252
0 0 254
0 0 254
0 0 253
0 0 250
0 0 249
0 0 253
0 0 249
0 0 248
0 0 252
0 0 254
0 0 253
0 0 252
0 0 249
0 0 253
0 0 249
0 0 250
0 0 253
0 0 246
0 0 252
0 0 245
0 0 244
0 0 244
0 0 248
0 0 252
0 0 250
0 0 246
0 0 254
0 0 252
0 0 241
0 0 252
0 0 252
0 0 246
0 0 246
0 0 248
0 0 250
0 0 246
0 0 246
0 0 246
0 0 241
0 0 248
0 0 244
0 0 244
0 0 244
0 0 245
0 0 241
0 0 234
0 0 245
0 0 244
0 0 242
0 0 246
0 0 245
0 0 237
0 0 242
0 0 246
0 0 240
0 0 231
0 0 248
0 0 241
0 0 236
0 0 240
0 0 248
0 0 238
0 0 238
0 0 234
0 0 230
0 0 234
0 0 234
0 0 241
0 0 228
0 0 227
0 0 228
0 0 227
0 0 236
0 0 234
0 0 226
0 0 223
0 0 218
0 0 231
0 0 236
0 0 227
0 0 228
0 0 234
0 0 215
0 0 227
0 0 224
0 0 215
0 0 226
0 0 199
0 0 220
0 0 218
0 0 206
0 0 209
0 0 193
0 0 186
0 0 194
0 0 173
0 0 179
0 0 181
0 0 189
0 0 179
0 0 153
0 0 167
0 0 133
0 0 147
0 0 142
172 182 209
227 239 255
227 239 255
158 156 167
109 0 0
133 0 0
101 0 0
157 0 0
161 0 0
161 0 0
153 0 0
158 0 0
180 0 0
162 0 0
174 0 0
180 0 0
181 0 0
177 0 0
181 0 0
177 0 0
192 0 0
189 0 0
194 0 0
192 0 0
198 0 0
187 0 0
200 0 0
205 0 0
199 0 0
192 0 0
197 0 0
200 0 0
201 0 0
198 0 0
191 0 0
207 0 0
205 0 0
204 0 0
210 0 0
213 0 0
211 0 0
211 0 0
205 0 0
202 0 0
211 0 0
208 0 0
209 0 0
210 0 0
200 0 0
217 0 0
210 0 0
210 0 0
212 0 0
213 0 0
212 0 0
219 0 0
221 0 0
215 0 0
211 0 0
213 0 0
206 0 0
212 0 0
209 0 0
214 0 0
214 0 0
216 0 0
211 0 0
218 0 0
217 0 0
218 0 0
213 0 0
211 0 0
213 0 0
219 0 0
216 0 0
221 0 0
217 0 0
212 0 0
221 0 0
222 0 0
222 0 0
220 0 0
215 0 0
212 0 0
213 0 0
223 0 0
217 0 0
226 0 0
220 0 0
214 0 0
215 0 0
216 0 0
219 0 0
219 0 0
208 0 0
219 0 0
220 0 0
218 0 0
220 0 0
221 0 0
220 0 0
221 0 0
219 0 0
222 0 0
223 0 0
221 0 0
221 0 0
220 0 0
215 0 0
224 0 0
218 0 0
223 0 0
225 0 0
220 0 0
221 0 0
221 0 0
215 0 0
222 0 0
222 0 0
224 0 0
222 0 0
218 0 0
213 0 0
219 0 0
222 0 0
224 0 0
221 0 0
223 0 0
219 0 0
226 0 0
222 0 0
225 0 0
222 0 0
225 0 0
222 0 0
222 0 0
219 0 0
220 0 0
223 0 0
221 0 0
219 0 0
221 0 0
220 0 0
224 0 0
223 0 0
223 0 0
225 0 0
223 0 0
219 0 0
223 0 0
220 0 0
222 0 0
223 0 0
221 0 0
225 0 0
221 0 0
223 0 0
221 0 0
220 0 0
221 0 0
220 0 0
224 0 0
222 0 0
219 0 0
223 0 0
220 0 0
221 0 0
223 0 0
221 0 0
221 0 0
222 0 0
222 0 0
222 0 0
224 0 0
222 0 0
223 0 0
225 0 0
225 0 0
223 0 0
224 0 0
217 0 0
224 0 0
224 0 0
225 0 0
222 0 0
224 0 0
224 0 0
224 0 0
226 0 0
221 0 0
221 0 0
222 0 0
220 0 0
221 0 0
220 0 0
219 0 0
225 0 0
221 0 0
222 0 0
219 0 0
223 0 0
225 0 0
0 0 255
0 0 255
0 0 254
0 0 255
0 0 255
0 0 255
0 0 255
0 0 255
0 0 254
0 0 255
0 0 255
0 0 254
0 0 255
0 0 255
0 0 255
0 0 255
0 0 255
0 0 255
0 0 255
0 0 255
0 0 255
0 0 254
0 0 255
0 0 255
0 0 253
0 0 255
0 0 254
0 0 254
0 0 253
0 0 255
0 0 254
0 0 255
0 0 255
0 0 255
0 0 255
0 0 255
0 0 255
0 0 255
0 0 254
0 0 255
0 0 255
0 0 255
0 0 255
0 0 254
0 0 254
0 0 254
0 0 255
0 0 255
0 0 255
0 0 255
0 0 254
0 0 255
0 0 255
0 0 255
0 0 255
0 0 254
0 0 253
0 0 255
0 0 255
0 0 252
0 0 253
0 0 254
0 0 255
0 0 255
0 0 255
0 0 255
0 0 254
0 0 252
0 0 254
0 0 250
0 0 252
0 0 252
0 0 253
0 0 253
0 0 255
0 0 254
0 0 254
0 0 254
0 0 253
0 0 255
0 0 253
0 0 255
0 0 252
0 0 252
0 0 248
0 0 254
0 0 254
0 0 254
0 0 250
0 0 249
0 0 252
0 0 252
0 0 250
0 0 253
0 0 252
0 0 254
0 0 249
0 0 254
0 0 253
0 0 252
0 0 252
0 0 252
0 0 253
0 0 248
0 0 253
0 0 249
0 0 248
0 0 248
0 0 252
0 0 252
0 0 249
0 0 254
0 0 254
0 0 249
0 0 246
0 0 248
0 0 248
0 0 246
0 0 253
0 0 249
0 0 246
0 0 252
0 0 248
0 0 249
0 0 245
0 0 246
0 0 249
0 0 252
0 0 249
0 0 238
0 0 250
0 0 249
0 0 246
0 0 245
0 0 248
0 0 242
0 0 249
0 0 246
0 0 250
0 0 238
0 0 237
0 0 241
0 0 241
0 0 242
0 0 246
0 0 237
0 0 238
0 0 244
0 0 244
0 0 240
0 0 246
0 0 245
0 0 238
0 0 242
0 0 241
0 0 240
0 0 230
0 0 231
0 0 228
0 0 245
0 0 233
0 0 237
0 0 231
0 0 236
0 0 233
0 0 217
0 0 224
0 0 231
0 0 236
0 0 234
0 0 230
0 0 221
0 0 215
0 0 220
0 0 228
0 0 226
0 0 221
0 0 215
0 0 212
0 0 211
0 0 198
0 0 214
0 0 209
0 0 198
0 0 212
0 0 186
0 0 217
0 0 175
0 0 194
0 0 188
0 0 193
0 0 167
0 0 175
0 0 165
0 0 161
0 0 147
0 0 137
0 0 108
183 192 212
227 239 255
227 239 255
192 192 206
136 0 0
116 0 0
137 0 0
139 0 0
162 0 0
150 0 0
155 0 0
170 0 0
146 0 0
175 0 0
168 0 0
183 0 0
175 0 0
175 0 0
185 0 0
177 0 0
178 0 0
185 0 0
183 0 0
185 0 0
196 0 0
198 0 0
190 0 0
199 0 0
203 0 0
205 0 0
208 0 0
199 0 0
200 0 0
209 0 0
201 0 0
201 0 0
207 0 0
208 0 0
206 0 0
205 0 0
208 0 0
206 0 0
210 0 0
213 0 0
207 0 0
208 0 0
207 0 0
203 0 0
211 0 0
205 0 0
207 0 0
209 0 0
208 0 0
214 0 0
211 0 0
215 0 0
216 0 0
213 0 0
219 0 0
220 0 0
218 0 0
211 0 0
216 0 0
218 0 0
209 0 0
222 0 0
219 0 0
210 0 0
211 0 0
212 0 0
221 0 0
218 0 0
219 0 0
221 0 0
218 0 0
223 0 0
218 0 0
220 0 0
216 0 0
217 0 0
213 0 0
215 0 0
221 0 0
219 0 0
213 0 0
219 0 0
212 0 0
217 0 0
221 0 0
215 0 0
216 0 0
219 0 0
220 0 0
217 0 0
216 0 0
215 0 0
220 0 0
218 0 0
218 0 0
220 0 0
221 0 0
220 0 0
223 0 0
216 0 0
217 0 0
221 0 0
222 0 0
222 0 0
214 0 0
222 0 0
225 0 0
216 0 0
219 0 0
218 0 0
219 0 0
222 0 0
221 0 0
222 0 0
216 0 0
219 0 0
219 0 0
224 0 0
219 0 0
219 0 0
221 0 0
220 0 0
220 0 0
225 0 0
222 0 0
220 0 0
220 0 0
220 0 0
223 0 0
225 0 0
222 0 0
221 0 0
222 0 0
217 0 0
218 0 0
219 0 0
225 0 0
221 0 0
223 0 0
220 0 0
220 0 0
223 0 0
220 0 0
224 0 0
221 0 0
222 0 0
223 0 0
222 0 0
222 0 0
227 0 0
221 0 0
219 0 0
224 0 0
224 0 0
225 0 0
222 0 0
223 0 0
220 0 0
220 0 0
221 0 0
223 0 0
223 0 0
223 0 0
223 0 0
222 0 0
223 0 0
220 0 0
224 0 0
221 0 0
222 0 0
224 0 0
225 0 0
225 0 0
224 0 0
222 0 0
222 0 0
227 0 0
227 0 0
223 0 0
221 0 0
220 0 0
223 0 0
221 0 0
226 0 0
225 0 0
222 0 0
221 0 0
224 0 0
220 0 0
222 0 0
223 0 0
223 0 0
225 0 0
222 0 0
223 0 0
226 0 0
226 0 0
221 0 0
0 0 255
0 0 255
0 0 255
0 0 255
0 0 255
0 0 255
0 0 255
0 0 254
0 0 255
0 0 255
0 0 255
0 0 255
0 0 255
0 0 255
0 0 255
0 0 255
0 0 255
0 0 255
0 0 255
0 0 255
0 0 254
0 0 255
0 0 255
0 0 255
0 0 255
0 0 254
0 0 255
0 0 254
0 0 255
0 0 255
0 0 255
0 0 255
0 0 255
0 0 254
0 0 255
0 0 255
0 0 255
0 0 253
0 0 255
0 0 255
0 0 255
0 0 254
0 0 255
0 0 255
0 0 255
0 0 254
0 0 254
0 0 253
0 0 255
0 0 254
0 0 255
0 0 253
0 0 254
0 0 255
0 0 253
0 0 253
0 0 254
0 0 254
0 0 255
0 0 250
0 0 253
0 0 254
0 0 253
0 0 254
0 0 254
0 0 255
0 0 255
0 0 253
0 0 252
0 0 253
0 0 252
0 0 255
0 0 254
0 0 254
0 0 255
0 0 255
0 0 255
0 0 253
0 0 254
0 0 255
0 0 254
0 0 252
0 0 253
0 0 253
0 0 254
0 0 252
0 0 253
0 0 254
0 0 249
0 0 250
0 0 255
0 0 248
0 0 250
0 0 253
0 0 253
0 0 253
0 0 252
0 0 254
0 0 252
0 0 254
0 0 252
0 0 248
0 0 250
0 0 253
0 0 252
0 0 248
0 0 252
0 0 252
0 0 249
0 0 246
0 0 253
0 0 246
0 0 248
0 0 252
0 0 249
0 0 248
0 0 250
0 0 252
0 0 250
0 0 253
0 0 249
0 0 248
0 0 250
0 0 249
0 0 246
0 0 238
0 0 249
0 0 248
0 0 242
0 0 241
0 0 244
0 0 246
0 0 248
0 0 249
0 0 241
0 0 249
0 0 237
0 0 244
0 0 252
0 0 244
0 0 245
0 0 242
0 0 249
0 0 237
0 0 249
0 0 242
0 0 238
0 0 236
0 0 245
0 0 234
0 0 245
0 0 244
0 0 248
0 0 240
0 0 246
0 0 241
0 0 218
0 0 240
0 0 248
0 0 234
0 0 228
0 0 224
0 0 233
0 0 233
0 0 237
0 0 224
0 0 233
0 0 233
0 0 237
0 0 234
0 0 221
0 0 223
0 0 228
0 0 234
0 0 227
0 0 207
0 0 209
0 0 215
0 0 224
0 0 217
0 0 218
0 0 211
0 0 206
0 0 196
0 0 201
0 0 198
0 0 198
0 0 204
0 0 179
0 0 186
0 0 169
0 0 196
0 0 177
0 0 167
0 0 140
0 0 140
0 0 142
0 0 144
219 230 246
227 239 255
227 239 255
221 228 244
117 33 36
123 0 0
138 0 0
148 0 0
135 0 0
150 0 0
152 0 0
169 0 0
165 0 0
162 0 0
183 0 0
169 0 0
182 0 0
177 0 0
188 0 0
189 0 0
191 0 0
189 0 0
190 0 0
187 0 0
192 0 0
199 0 0
197 0 0
196 0 0
203 0 0
196 0 0
195 0 0
199 0 0
200 0 0
196 0 0
199 0 0
211 0 0
209 0 0
208 0 0
200 0 0
206 0 0
215 0 0
208 0 0
209 0 0
200 0 0
199 0 0
212 0 0
213 0 0
212 0 0
210 0 0
214 0 0
211 0 0
207 0 0
211 0 0
216 0 0
216 0 0
211 0 0
217 0 0
214 0 0
216 0 0
221 0 0
207 0 0
217 0 0
209 0 0
215 0 0
214 0 0
217 0 0
210 0 0
218 0 0
218 0 0
211 0 0
217 0 0
211 0 0
215 0 0
220 0 0
220 0 0
214 0 0
216 0 0
220 0 0
217 0 0
221 0 0
221 0 0
216 0 0
220 0 0
217 0 0
217 0 0
222 0 0
217 0 0
214 0 0
220 0 0
215 0 0
217 0 0
220 0 0
221 0 0
222 0 0
223 0 0
216 0 0
221 0 0
215 0 0
215 0 0
217 0 0
217 0 0
220 0 0
218 0 0
216 0 0
218 0 0
217 0 0
220 0 0
217 0 0
223 0 0
219 0 0
222 0 0
219 0 0
222 0 0
218 0 0
221 0 0
222 0 0
223 0 0
221 0 0
221 0 0
222 0 0
221 0 0
220 0 0
221 0 0
214 0 0
219 0 0
218 0 0
225 0 0
219 0 0
228 0 0
221 0 0
222 0 0
219 0 0
221 0 0
220 0 0
221 0 0
224 0 0
225 0 0
222 0 0
221 0 0
219 0 0
219 0 0
225 0 0
225 0 0
221 0 0
225 0 0
223 0 0
224 0 0
219 0 0
221 0 0
223 0 0
219 0 0
224 0 0
221 0 0
227 0 0
222 0 0
221 0 0
225 0 0
223 0 0
227 0 0
220 0 0
223 0 0
224 0 0
222 0 0
222 0 0
221 0 0
224 0 0
225 0 0
225 0 0
225 0 0
223 0 0
222 0 0
222 0 0
221 0 0
222 0 0
224 0 0
224 0 0
221 0 0
223 0 0
221 0 0
223 0 0
223 0 0
225 0 0
223 0 0
223 0 0
224 0 0
222 0 0
222 0 0
225 0 0
221 0 0
226 0 0
224 0 0
225 0 0
226 0 0
224 0 0
222 0 0
224 0 0
223 0 0
225 0 0
224 0 0
220 0 0
222 0 0
224 0 0
0 0 255
0 0 255
0 0 255
0 0 255
0 0 255
0 0 255
0 0 255
0 0 255
0 0 255
0 0 255
0 0 255
0 0 254
0 0 255
0 0 254
0 0 254
0 0 255
0 0 255
0 0 255
0 0 255
0 0 254
0 0 255
0 0 255
0 0 255
0 0 254
0 0 255
0 0 255
0 0 255
0 0 254
0 0 255
0 0 255
0 0 255
0 0 255
0 0 255
0 0 254
0 0 254
0 0 255
0 0 254
0 0 255
0 0 254
0 0 254
0 0 253
0 0 254
0 0 254
0 0 255
0 0 255
0 0 255
0 0 254
0 0 254
0 0 255
0 0 253
0 0 254
0 0 255
0 0 252
0 0 255
0 0 254
0 0 253
0 0 255
0 0 253
0 0 254
0 0 254
0 0 255
0 0 255
0 0 254
0 0 254
0 0 255
0 0 254
0 0 255
0 0 255
0 0 254
0 0 253
0 0 253
0 0 252
0 0 255
0 0 252
0 0 253
0 0 255
0 0 253
0 0 254
0 0 253
0 0 253
0 0 253
0 0 254
0 0 253
0 0 248
0 0 254
0 0 249
0 0 248
0 0 253
0 0 253
0 0 250
0 0 253
0 0 253
0 0 253
0 0 249
0 0 250
0 0 254
0 0 254
0 0 252
0 0 245
0 0 249
0 0 250
0 0 254
0 0 253
0 0 254
0 0 253
0 0 245
0 0 252
0 0 249
0 0 253
0 0 252
0 0 250
0 0 254
0 0 245
0 0 248
0 0 249
0 0 248
0 0 252
0 0 250
0 0 245
0 0 248
0 0 252
0 0 246
0 0 245
0 0 250
0 0 249
0 0 246
0 0 248
0 0 250
0 0 249
0 0 244
0 0 248
0 0 240
0 0 245
0 0 246
0 0 246
0 0 248
0 0 242
0 0 245
0 0 244
0 0 244
0 0 249
0 0 245
0 0 245
0 0 245
0 0 241
0 0 245
0 0 245
0 0 242
0 0 238
0 0 245
0 0 241
0 0 241
0 0 238
0 0 242
0 0 241
0 0 240
0 0 237
0 0 241
0 0 237
0 0 241
0 0 237
0 0 236
0 0 237
0 0 227
0 0 228
0 0 230
0 0 233
0 0 234
0 0 233
0 0 233
0 0 223
0 0 230
0 0 227
0 0 234
0 0 236
0 0 227
0 0 218
0 0 224
0 0 221
0 0 214
0 0 218
0 0 201
0 0 207
0 0 212
0 0 193
0 0 207
0 0 203
0 0 177
0 0 193
0 0 189
0 0 182
0 0 175
0 0 169
0 0 182
0 0 137
0 0 142
0 0 105
107 112 165
228 239 255
228 239 255
228 239 255
228 239 255
156 124 133
108 0 0
142 0 0
152 0 0
153 0 0
157 0 0
173 0 0
175 0 0
181 0 0
178 0 0
162 0 0
164 0 0
176 0 0
185 0 0
176 0 0
197 0 0
192 0 0
199 0 0
198 0 0
192 0 0
188 0 0
199 0 0
197 0 0
195 0 0
204 0 0
199 0 0
199 0 0
205 0 0
213 0 0
205 0 0
203 0 0
204 0 0
198 0 0
204 0 0
213 0 0
205 0 0
214 0 0
202 0 0
212 0 0
205 0 0
208 0 0
213 0 0
216 0 0
214 0 0
212 0 0
214 0 0
211 0 0
213 0 0
211 0 0
208 0 0
202 0 0
211 0 0
214 0 0
214 0 0
214 0 0
217 0 0
210 0 0
213 0 0
220 0 0
209 0 0
217 0 0
213 0 0
219 0 0
214 0 0
223 0 0
210 0 0
215 0 0
223 0 0
218 0 0
217 0 0
215 0 0
219 0 0
217 0 0
216 0 0
216 0 0
216 0 0
222 0 0
214 0 0
218 0 0
218 0 0
215 0 0
218 0 0
217 0 0
221 0 0
222 0 0
225 0 0
218 0 0
215 0 0
222 0 0
220 0 0
224 0 0
218 0 0
224 0 0
214 0 0
221 0 0
218 0 0
220 0 0
223 0 0
221 0 0
219 0 0
214 0 0
220 0 0
219 0 0
219 0 0
218 0 0
215 0 0
223 0 0
224 0 0
219 0 0
223 0 0
223 0 0
218 0 0
222 0 0
217 0 0
222 0 0
219 0 0
222 0 0
219 0 0
223 0 0
221 0 0
222 0 0
222 0 0
220 0 0
219 0 0
219 0 0
220 0 0
223 0 0
222 0 0
219 0 0
224 0 0
220 0 0
226 0 0
225 0 0
221 0 0
221 0 0
221 0 0
219 0 0
219 0 0
224 0 0
222 0 0
221 0 0
222 0 0
224 0 0
221 0 0
223 0 0
220 0 0
221 0 0
218 0 0
222 0 0
220 0 0
221 0 0
222 0 0
220 0 0
222 0 0
223 0 0
222 0 0
224 0 0
223 0 0
219 0 0
222 0 0
223 0 0
224 0 0
223 0 0
224 0 0
223 0 0
223 0 0
220 0 0
220 0 0
225 0 0
222 0 0
223 0 0
221 0 0
225 0 0
225 0 0
221 0 0
226 0 0
222 0 0
224 0 0
222 0 0
223 0 0
225 0 0
224 0 0
221 0 0
223 0 0
224 0 0
222 0 0
226 0 0
227 0 0
223 0 0
224 0 0
222 0 0
223 0 0
223 0 0
223 0 0
224 0 0
219 0 0
225 0 0
221 0 0
0 0 255
0 0 255
0 0 255
0 0 255
0 0 255
0 0 255
0 0 255
0 0 255
0 0 255
0 0 255
0 0 254
0 0 255
0 0 255
0 0 255
0 0 255
0 0 254
0 0 255
0 0 254
0 0 255
0 0 255
0 0 254
0 0 255
0 0 254
0 0 255
0 0 255
0 0 254
0 0 255
0 0 255
0 0 255
0 0 255
0 0 255
0 0 255
0 0 255
0 0 255
0 0 254
0 0 254
0 0 255
0 0 254
0 0 254
0 0 255
0 0 255
0 0 254
0 0 255
0 0 254
0 0 253
0 0 255
0 0 255
0 0 255
0 0 254
0 0 254
0 0 254
0 0 253
0 0 252
0 0 253
0 0 255
0 0 254
0 0 254
0 0 254
0 0 250
0 0 255
0 0 254
0 0 253
0 0 255
0 0 255
0 0 252
0 0 255
0 0 253
0 0 249
0 0 254
0 0 253
0 0 255
0 0 252
0 0 254
0 0 253
0 0 254
0 0 254
0 0 255
0 0 252
0 0 252
0 0 253
0 0 253
0 0 253
0 0 254
0 0 253
0 0 252
0 0 253
0 0 252
0 0 254
0 0 254
0 0 255
0 0 252
0 0 250
0 0 253
0 0 250
0 0 253
0 0 253
0 0 253
0 0 254
0 0 252
0 0 250
0 0 248
0 0 254
0 0 245
0 0 253
0 0 254
0 0 253
0 0 252
0 0 249
0 0 252
0 0 253
0 0 248
0 0 249
0 0 254
0 0 254
0 0 248
0 0 249
0 0 246
0 0 248
0 0 250
0 0 250
0 0 250
0 0 253
0 0 242
0 0 252
0 0 249
0 0 249
0 0 244
0 0 244
0 0 250
0 0 246
0 0 248
0 0 249
0 0 238
0 0 245
0 0 248
0 0 248
0 0 244
0 0 241
0 0 246
0 0 252
0 0 245
0 0 245
0 0 246
0 0 246
0 0 242
0 0 241
0 0 231
0 0 236
0 0 227
0 0 242
0 0 242
0 0 246
0 0 240
0 0 238
0 0 234
0 0 241
0 0 238
0 0 234
0 0 230
0 0 238
0 0 230
0 0 237
0 0 237
0 0 238
0 0 237
0 0 226
0 0 230
0 0 231
0 0 215
0 0 233
0 0 220
0 0 231
0 0 224
0 0 223
0 0 212
0 0 234
0 0 214
0 0 223
0 0 218
0 0 211
0 0 209
0 0 211
0 0 204
0 0 211
0 0 201
0 0 191
0 0 198
0 0 204
0 0 193
0 0 191
0 0 181
0 0 177
0 0 169
0 0 163
0 0 165
0 0 142
0 0 133
164 172 207
228 239 255
228 239 255
228 239 255
228 239 255
182 164 175
145 0 0
146 0 0
134 0 0
153 0 0
149 0 0
172 0 0
146 0 0
162 0 0
159 0 0
170 0 0
178 0 0
183 0 0
176 0 0
160 0 0
180 0 0
174 0 0
187 0 0
183 0 0
187 0 0
196 0 0
205 0 0
199 0 0
191 0 0
198 0 0
199 0 0
194 0 0
201 0 0
205 0 0
208 0 0
207 0 0
199 0 0
205 0 0
209 0 0
215 0 0
212 0 0
202 0 0
204 0 0
215 0 0
209 0 0
206 0 0
213 0 0
204 0 0
211 0 0
215 0 0
215 0 0
206 0 0
207 0 0
217 0 0
215 0 0
217 0 0
221 0 0
219 0 0
217 0 0
219 0 0
210 0 0
209 0 0
215 0 0
217 0 0
215 0 0
212 0 0
214 0 0
211 0 0
211 0 0
216 0 0
217 0 0
218 0 0
215 0 0
215 0 0
217 0 0
214 0 0
216 0 0
218 0 0
216 0 0
218 0 0
219 0 0
219 0 0
218 0 0
217 0 0
223 0 0
217 0 0
224 0 0
218 0 0
222 0 0
220 0 0
221 0 0
221 0 0
220 0 0
219 0 0
215 0 0
220 0 0
220 0 0
225 0 0
219 0 0
219 0 0
221 0 0
218 0 0
220 0 0
214 0 0
216 0 0
227 0 0
216 0 0
221 0 0
222 0 0
221 0 0
225 0 0
222 0 0
219 0 0
220 0 0
222 0 0
220 0 0
227 0 0
222 0 0
223 0 0
225 0 0
217 0 0
221 0 0
222 0 0
220 0 0
217 0 0
223 0 0
224 0 0
224 0 0
224 0 0
218 0 0
219 0 0
222 0 0
217 0 0
224 0 0
225 0 0
221 0 0
222 0 0
217 0 0
220 0 0
224 0 0
222 0 0
224 0 0
220 0 0
222 0 0
224 0 0
222 0 0
221 0 0
218 0 0
225 0 0
223 0 0
220 0 0
221 0 0
221 0 0
223 0 0
225 0 0
223 0 0
222 0 0
222 0 0
223 0 0
223 0 0
225 0 0
226 0 0
226 0 0
221 0 0
221 0 0
224 0 0
221 0 0
224 0 0
225 0 0
222 0 0
224 0 0
219 0 0
224 0 0
222 0 0
222 0 0
222 0 0
224 0 0
220 0 0
222 0 0
223 0 0
223 0 0
225 0 0
221 0 0
222 0 0
220 0 0
222 0 0
225 0 0
226 0 0
220 0 0
226 0 0
222 0 0
227 0 0
223 0 0
226 0 0
223 0 0
218 0 0
221 0 0
221 0 0
225 0 0
222 0 0
224 0 0
226 0 0
220 0 0
0 0 255
0 0 255
0 0 255
0 0 255
0 0 255
0 0 255
0 0 255
0 0 255
0 0 255
0 0 255
0 0 255
0 0 255
0 0 255
0 0 254
0 0 255
0 0 255
0 0 255
0 0 255
0 0 254
0 0 255
0 0 255
0 0 255
0 0 254
0 0 255
0 0 255
0 0 254
0 0 255
0 0 255
0 0 255
0 0 255
0 0 255
0 0 255
0 0 255
0 0 255
0 0 255
0 0 255
0 0 255
0 0 254
0 0 255
0 0 255
0 0 253
0 0 254
0 0 253
0 0 255
0 0 255
0 0 255
0 0 255
0 0 255
0 0 254
0 0 254
0 0 254
0 0 255
0 0 254
0 0 255
0 0 255
0 0 253
0 0 254
0 0 255
0 0 254
0 0 255
0 0 254
0 0 254
0 0 254
0 0 253
0 0 255
0 0 254
0 0 255
0 0 255
0 0 254
0 0 254
0 0 255
0 0 253
0 0 254
0 0 255
0 0 253
0 0 255
0 0 250
0 0 254
0 0 255
0 0 253
0 0 253
0 0 255
0 0 249
0 0 254
0 0 255
0 0 250
0 0 254
0 0 253
0 0 252
0 0 253
0 0 250
0 0 253
0 0 252
0 0 252
0 0 250
0 0 252
0 0 253
0 0 255
0 0 252
0 0 253
0 0 253
0 0 252
0 0 250
0 0 253
0 0 252
0 0 252
0 0 250
0 0 248
0 0 246
0 0 250
0 0 248
0 0 253
0 0 249
0 0 250
0 0 252
0 0 246
0 0 253
0 0 248
0 0 252
0 0 242
0 0 253
0 0 248
0 0 245
0 0 249
0 0 248
0 0 249
0 0 245
0 0 248
0 0 244
0 0 245
0 0 249
0 0 246
0 0 241
0 0 248
0 0 250
0 0 244
0 0 252
0 0 245
0 0 238
0 0 240
0 0 249
0 0 245
0 0 241
0 0 242
0 0 252
0 0 248
0 0 246
0 0 241
0 0 242
0 0 244
0 0 237
0 0 228
0 0 242
0 0 241
0 0 241
0 0 240
0 0 233
0 0 240
0 0 233
0 0 241
0 0 237
0 0 230
0 0 238
0 0 238
0 0 231
0 0 236
0 0 233
0 0 233
0 0 226
0 0 227
0 0 230
0 0 223
0 0 226
0 0 223
0 0 217
0 0 220
0 0 228
0 0 212
0 0 226
0 0 217
0 0 212
0 0 212
0 0 211
0 0 203
0 0 189
0 0 203
0 0 198
0 0 193
0 0 207
0 0 194
0 0 177
0 0 173
0 0 177
0 0 169
0 0 167
0 0 163
0 0 135
191 200 221
228 240 255
228 240 255
228 240 255
228 240 255
214 218 233
113 0 0
164 0 0
135 0 0
146 0 0
158 0 0
156 0 0
169 0 0
180 0 0
173 0 0
153 0 0
168 0 0
192 0 0
180 0 0
188 0 0
202 0 0
172 0 0
190 0 0
191 0 0
193 0 0
190 0 0
189 0 0
195 0 0
193 0 0
197 0 0
201 0 0
198 0 0
190 0 0
200 0 0
201 0 0
197 0 0
209 0 0
200 0 0
204 0 0
210 0 0
212 0 0
201 0 0
197 0 0
206 0 0
197 0 0
210 0 0
211 0 0
213 0 0
209 0 0
214 0 0
211 0 0
220 0 0
219 0 0
206 0 0
216 0 0
215 0 0
209 0 0
213 0 0
210 0 0
216 0 0
213 0 0
215 0 0
213 0 0
221 0 0
216 0 0
218 0 0
216 0 0
219 0 0
218 0 0
211 0 0
216 0 0
217 0 0
218 0 0
214 0 0
224 0 0
216 0 0
212 0 0
211 0 0
214 0 0
213 0 0
218 0 0
215 0 0
220 0 0
211 0 0
214 0 0
222 0 0
219 0 0
218 0 0
216 0 0
217 0 0
216 0 0
223 0 0
217 0 0
217 0 0
219 0 0
217 0 0
221 0 0
221 0 0
222 0 0
220 0 0
220 0 0
224 0 0
226 0 0
220 0 0
218 0 0
223 0 0
220 0 0
222 0 0
225 0 0
224 0 0
222 0 0
225 0 0
222 0 0
211 0 0
226 0 0
219 0 0
222 0 0
225 0 0
223 0 0
222 0 0
220 0 0
222 0 0
222 0 0
221 0 0
222 0 0
220 0 0
216 0 0
223 0 0
219 0 0
224 0 0
220 0 0
224 0 0
222 0 0
221 0 0
219 0 0
227 0 0
224 0 0
223 0 0
222 0 0
221 0 0
227 0 0
223 0 0
219 0 0
223 0 0
224 0 0
223 0 0
222 0 0
223 0 0
223 0 0
221 0 0
224 0 0
227 0 0
221 0 0
219 0 0
223 0 0
222 0 0
225 0 0
221 0 0
222 0 0
223 0 0
224 0 0
221 0 0
224 0 0
221 0 0
225 0 0
222 0 0
224 0 0
222 0 0
222 0 0
222 0 0
222 0 0
227 0 0
225 0 0
221 0 0
222 0 0
222 0 0
217 0 0
224 0 0
222 0 0
223 0 0
223 0 0
224 0 0
223 0 0
225 0 0
225 0 0
222 0 0
225 0 0
224 0 0
221 0 0
221 0 0
221 0 0
225 0 0
222 0 0
220 0 0
222 0 0
221 0 0
222 0 0
223 0 0
224 0 0
223 0 0
219 0 0
221 0 0
224 0 0
0 0 255
0 0 255
0 0 255
0 0 255
0 0 255
0 0 254
0 0 254
0 0 255
0 0 255
0 0 255
0 0 255
0 0 255
0 0 253
0 0 255
0 0 255
0 0 255
0 0 255
0 0 255
0 0 255
0 0 254
0 0 255
0 0 255
0 0 255
0 0 255
0 0 255
0 0 255
0 0 254
0 0 255
0 0 253
0 0 255
0 0 254
0 0 254
0 0 255
0 0 255
0 0 255
0 0 255
0 0 255
0 0 255
0 0 255
0 0 253
0 0 255
0 0 254
0 0 255
0 0 252
0 0 255
0 0 254
0 0 255
0 0 255
0 0 255
0 0 254
0 0 255
0 0 255
0 0 254
0 0 255
0 0 255
0 0 252
0 0 253
0 0 255
0 0 254
0 0 254
0 0 255
0 0 254
0 0 254
0 0 255
0 0 255
0 0 254
0 0 255
0 0 254
0 0 252
0 0 255
0 0 255
0 0 254
0 0 254
0 0 254
0 0 253
0 0 255
0 0 255
0 0 253
0 0 253
0 0 253
0 0 255
0 0 253
0 0 252
0 0 250
0 0 253
0 0 252
0 0 249
0 0 250
0 0 253
0 0 254
0 0 248
0 0 250
0 0 250
0 0 250
0 0 253
0 0 252
0 0 248
0 0 252
0 0 250
0 0 253
0 0 254
0 0 248
0 0 252
0 0 250
0 0 245
0 0 252
0 0 253
0 0 252
0 0 249
0 0 252
0 0 248
0 0 254
0 0 244
0 0 252
0 0 249
0 0 252
0 0 249
0 0 246
0 0 250
0 0 245
0 0 252
0 0 249
0 0 252
0 0 249
0 0 248
0 0 242
0 0 253
0 0 249
0 0 241
0 0 246
0 0 253
0 0 248
0 0 242
0 0 248
0 0 248
0 0 248
0 0 242
0 0 238
0 0 242
0 0 242
0 0 246
0 0 245
0 0 241
0 0 246
0 0 250
0 0 242
0 0 242
0 0 241
0 0 231
0 0 246
0 0 248
0 0 242
0 0 240
0 0 240
0 0 233
0 0 231
0 0 242
0 0 240
0 0 237
0 0 231
0 0 241
0 0 233
0 0 228
0 0 233
0 0 230
0 0 218
0 0 233
0 0 233
0 0 230
0 0 214
0 0 228
0 0 228
0 0 230
0 0 227
0 0 220
0 0 228
0 0 227
0 0 209
0 0 218
0 0 227
0 0 215
0 0 214
0 0 207
0 0 204
0 0 211
0 0 196
0 0 169
0 0 194
0 0 201
0 0 186
0 0 186
0 0 194
0 0 171
0 0 177
0 0 149
0 0 149
56 58 153
223 234 252
229 240 255
229 240 255
229 240 255
229 240 255
226 237 253
156 58 62
150 0 0
128 0 0
154 0 0
157 0 0
166 0 0
158 0 0
182 0 0
177 0 0
179 0 0
183 0 0
184 0 0
181 0 0
190 0 0
191 0 0
192 0 0
191 0 0
185 0 0
183 0 0
190 0 0
205 0 0
196 0 0
200 0 0
193 0 0
206 0 0
192 0 0
205 0 0
199 0 0
205 0 0
193 0 0
206 0 0
208 0 0
202 0 0
206 0 0
205 0 0
208 0 0
215 0 0
215 0 0
215 0 0
210 0 0
211 0 0
210 0 0
208 0 0
215 0 0
217 0 0
206 0 0
212 0 0
212 0 0
216 0 0
220 0 0
218 0 0
209 0 0
219 0 0
216 0 0
220 0 0
219 0 0
221 0 0
211 0 0
216 0 0
221 0 0
214 0 0
211 0 0
220 0 0
223 0 0
221 0 0
220 0 0
210 0 0
218 0 0
217 0 0
213 0 0
216 0 0
221 0 0
216 0 0
217 0 0
219 0 0
218 0 0
216 0 0
214 0 0
218 0 0
216 0 0
218 0 0
218 0 0
220 0 0
218 0 0
219 0 0
219 0 0
220 0 0
220 0 0
219 0 0
216 0 0
223 0 0
218 0 0
221 0 0
226 0 0
220 0 0
222 0 0
219 0 0
221 0 0
222 0 0
221 0 0
222 0 0
219 0 0
218 0 0
222 0 0
222 0 0
219 0 0
221 0 0
217 0 0
218 0 0
225 0 0
220 0 0
223 0 0
222 0 0
222 0 0
220 0 0
220 0 0
218 0 0
221 0 0
219 0 0
225 0 0
222 0 0
222 0 0
222 0 0
227 0 0
217 0 0
220 0 0
221 0 0
221 0 0
220 0 0
224 0 0
220 0 0
220 0 0
223 0 0
223 0 0
218 0 0
223 0 0
221 0 0
225 0 0
225 0 0
221 0 0
225 0 0
223 0 0
220 0 0
220 0 0
220 0 0
224 0 0
221 0 0
226 0 0
223 0 0
221 0 0
223 0 0
224 0 0
221 0 0
220 0 0
223 0 0
222 0 0
225 0 0
224 0 0
221 0 0
226 0 0
220 0 0
225 0 0
224 0 0
223 0 0
223 0 0
224 0 0
224 0 0
222 0 0
225 0 0
224 0 0
225 0 0
227 0 0
221 0 0
223 0 0
225 0 0
223 0 0
222 0 0
222 0 0
224 0 0
225 0 0
222 0 0
223 0 0
225 0 0
226 0 0
219 0 0
223 0 0
223 0 0
222 0 0
222 0 0
224 0 0
224 0 0
222 0 0
221 0 0
225 0 0
223 0 0
222 0 0
226 0 0
0 0 255
0 0 255
0 0 255
0 0 255
0 0 255
0 0 255
0 0 255
0 0 255
0 0 255
0 0 255
0 0 255
0 0 255
0 0 255
0 0 255
0 0 255
0 0 255
0 0 254
0 0 255
0 0 255
0 0 255
0 0 255
0 0 255
0 0 255
0 0 255
0 0 255
0 0 255
0 0 255
0 0 255
0 0 255
0 0 255
0 0 254
0 0 254
0 0 252
0 0 255
0 0 255
0 0 255
0 0 254
0 0 255
0 0 255
0 0 254
0 0 255
0 0 254
0 0 253
0 0 254
0 0 253
0 0 254
0 0 255
0 0 254
0 0 253
0 0 255
0 0 255
0 0 254
0 0 252
0 0 255
0 0 255
0 0 254
0 0 250
0 0 255
0 0 254
0 0 255
0 0 255
0 0 254
0 0 254
0 0 254
0 0 253
0 0 252
0 0 254
0 0 253
0 0 255
0 0 254
0 0 254
0 0 254
0 0 252
0 0 254
0 0 255
0 0 254
0 0 253
0 0 252
0 0 255
0 0 253
0 0 254
0 0 255
0 0 252
0 0 253
0 0 252
0 0 250
0 0 253
0 0 254
0 0 253
0 0 250
0 0 252
0 0 253
0 0 252
0 0 250
0 0 255
0 0 249
0 0 254
0 0 255
0 0 250
0 0 252
0 0 252
0 0 248
0 0 252
0 0 253
0 0 245
0 0 250
0 0 248
0 0 253
0 0 253
0 0 253
0 0 250
0 0 250
0 0 249
0 0 248
0 0 250
0 0 248
0 0 249
0 0 254
0 0 246
0 0 252
0 0 253
0 0 245
0 0 246
0 0 246
0 0 250
0 0 252
0 0 245
0 0 248
0 0 244
0 0 244
0 0 254
0 0 248
0 0 236
0 0 242
0 0 240
0 0 244
0 0 245
0 0 250
0 0 246
0 0 245
0 0 246
0 0 240
0 0 244
0 0 248
0 0 246
0 0 237
0 0 236
0 0 238
0 0 234
0 0 249
0 0 244
0 0 237
0 0 231
0 0 241
0 0 244
0 0 244
0 0 245
0 0 230
0 0 236
0 0 238
0 0 234
0 0 236
0 0 241
0 0 240
0 0 233
0 0 233
0 0 228
0 0 230
0 0 226
0 0 234
0 0 223
0 0 231
0 0 215
0 0 224
0 0 217
0 0 203
0 0 215
0 0 209
0 0 223
0 0 215
0 0 217
0 0 204
0 0 228
0 0 204
0 0 212
0 0 211
0 0 184
0 0 194
0 0 203
0 0 196
0 0 196
0 0 177
0 0 161
0 0 165
0 0 155
0 0 142
127 133 182
229 240 255
229 240 255
229 240 255
229 240 255
229 240 255
229 240 255
178 144 153
135 0 0
146 0 0
169 0 0
134 0 0
151 0 0
179 0 0
168 0 0
168 0 0
167 0 0
178 0 0
185 0 0
186 0 0
185 0 0
185 0 0
187 0 0
192 0 0
204 0 0
192 0 0
202 0 0
200 0 0
199 0 0
198 0 0
207 0 0
193 0 0
203 0 0
206 0 0
205 0 0
207 0 0
198 0 0
199 0 0
209 0 0
214 0 0
210 0 0
207 0 0
202 0 0
206 0 0
215 0 0
215 0 0
210 0 0
212 0 0
208 0 0
210 0 0
210 0 0
204 0 0
210 0 0
207 0 0
207 0 0
214 0 0
207 0 0
211 0 0
214 0 0
217 0 0
217 0 0
218 0 0
209 0 0
214 0 0
216 0 0
216 0 0
219 0 0
219 0 0
224 0 0
217 0 0
214 0 0
212 0 0
220 0 0
221 0 0
215 0 0
217 0 0
213 0 0
218 0 0
214 0 0
217 0 0
219 0 0
221 0 0
220 0 0
214 0 0
223 0 0
216 0 0
206 0 0
223 0 0
226 0 0
223 0 0
222 0 0
222 0 0
213 0 0
212 0 0
220 0 0
218 0 0
218 0 0
218 0 0
220 0 0
215 0 0
218 0 0
220 0 0
218 0 0
222 0 0
223 0 0
221 0 0
221 0 0
224 0 0
218 0 0
222 0 0
224 0 0
224 0 0
222 0 0
224 0 0
223 0 0
222 0 0
221 0 0
218 0 0
223 0 0
222 0 0
218 0 0
225 0 0
221 0 0
220 0 0
222 0 0
223 0 0
224 0 0
218 0 0
222 0 0
220 0 0
224 0 0
224 0 0
222 0 0
224 0 0
219 0 0
222 0 0
223 0 0
219 0 0
223 0 0
224 0 0
225 0 0
223 0 0
224 0 0
223 0 0
222 0 0
225 0 0
224 0 0
219 0 0
222 0 0
225 0 0
222 0 0
225 0 0
221 0 0
220 0 0
222 0 0
225 0 0
225 0 0
223 0 0
225 0 0
223 0 0
225 0 0
225 0 0
220 0 0
224 0 0
221 0 0
222 0 0
220 0 0
225 0 0
220 0 0
224 0 0
224 0 0
226 0 0
225 0 0
225 0 0
221 0 0
221 0 0
223 0 0
223 0 0
224 0 0
224 0 0
227 0 0
223 0 0
226 0 0
223 0 0
223 0 0
222 0 0
221 0 0
226 0 0
228 0 0
225 0 0
225 0 0
220 0 0
222 0 0
221 0 0
225 0 0
221 0 0
225 0 0
224 0 0
224 0 0
222 0 0
222 0 0
225 0 0
222 0 0
225 0 0
0 0 255
0 0 255
0 0 255
0 0 255
0 0 254
0 0 255
0 0 255
0 0 255
0 0 255
0 0 255
0 0 255
0 0 255
0 0 255
0 0 255
0 0 255
0 0 255
0 0 254
0 0 255
0 0 254
0 0 254
0 0 254
0 0 255
0 0 255
0 0 255
0 0 255
0 0 255
0 0 255
0 0 255
0 0 255
0 0 255
0 0 255
0 0 254
0 0 255
0 0 253
0 0 255
0 0 255
0 0 254
0 0 255
0 0 255
0 0 254
0 0 255
0 0 254
0 0 255
0 0 254
0 0 255
0 0 253
0 0 255
0 0 254
0 0 254
0 0 254
0 0 255
0 0 255
0 0 255
0 0 254
0 0 253
0 0 254
0 0 253
0 0 254
0 0 255
0 0 253
0 0 255
0 0 254
0 0 255
0 0 254
0 0 253
0 0 253
0 0 252
0 0 253
0 0 254
0 0 255
0 0 254
0 0 255
0 0 253
0 0 254
0 0 254
0 0 254
0 0 255
0 0 253
0 0 253
0 0 253
0 0 253
0 0 255
0 0 253
0 0 254
0 0 255
0 0 253
0 0 253
0 0 252
0 0 254
0 0 252
0 0 252
0 0 253
0 0 253
0 0 255
0 0 254
0 0 254
0 0 255
0 0 250
0 0 253
0 0 254
0 0 253
0 0 252
0 0 248
0 0 255
0 0 254
0 0 244
0 0 248
0 0 250
0 0 254
0 0 252
0 0 250
0 0 252
0 0 252
0 0 248
0 0 255
0 0 248
0 0 250
0 0 250
0 0 252
0 0 241
0 0 253
0 0 252
0 0 245
0 0 249
0 0 241
0 0 245
0 0 250
0 0 245
0 0 246
0 0 248
0 0 250
0 0 245
0 0 246
0 0 244
0 0 240
0 0 248
0 0 238
0 0 248
0 0 248
0 0 249
0 0 246
0 0 248
0 0 245
0 0 241
0 0 249
0 0 240
0 0 237
0 0 241
0 0 245
0 0 234
0 0 241
0 0 240
0 0 236
0 0 249
0 0 238
0 0 231
0 0 237
0 0 237
0 0 236
0 0 238
0 0 231
0 0 241
0 0 245
0 0 233
0 0 226
0 0 240
0 0 231
0 0 237
0 0 234
0 0 226
0 0 227
0 0 227
0 0 228
0 0 218
0 0 227
0 0 221
0 0 221
0 0 215
0 0 227
0 0 218
0 0 224
0 0 206
0 0 221
0 0 217
0 0 199
0 0 203
0 0 201
0 0 191
0 0 193
0 0 193
0 0 165
0 0 179
0 0 163
0 0 173
0 0 165
0 0 149
185 194 220
229 240 255
229 240 255
229 240 255
229 240 255
229 240 255
229 240 255
201 194 206
151 0 0
157 0 0
169 0 0
159 0 0
165 0 0
164 0 0
186 0 0
171 0 0
177 0 0
180 0 0
188 0 0
174 0 0
187 0 0
184 0 0
192 0 0
192 0 0
185 0 0
199 0 0
190 0 0
202 0 0
197 0 0
189 0 0
207 0 0
200 0 0
193 0 0
205 0 0
193 0 0
207 0 0
200 0 0
204 0 0
196 0 0
205 0 0
196 0 0
211 0 0
220 0 0
216 0 0
208 0 0
206 0 0
217 0 0
209 0 0
212 0 0
206 0 0
219 0 0
215 0 0
211 0 0
214 0 0
209 0 0
215 0 0
211 0 0
208 0 0
222 0 0
211 0 0
211 0 0
217 0 0
216 0 0
216 0 0
217 0 0
208 0 0
218 0 0
210 0 0
219 0 0
216 0 0
217 0 0
216 0 0
216 0 0
220 0 0
217 0 0
213 0 0
218 0 0
217 0 0
216 0 0
219 0 0
213 0 0
218 0 0
217 0 0
222 0 0
218 0 0
221 0 0
222 0 0
216 0 0
219 0 0
219 0 0
218 0 0
222 0 0
218 0 0
219 0 0
224 0 0
222 0 0
223 0 0
218 0 0
225 0 0
221 0 0
222 0 0
221 0 0
226 0 0
222 0 0
219 0 0
220 0 0
224 0 0
225 0 0
224 0 0
221 0 0
220 0 0
223 0 0
223 0 0
221 0 0
219 0 0
214 0 0
220 0 0
222 0 0
221 0 0
220 0 0
219 0 0
222 0 0
223 0 0
220 0 0
222 0 0
224 0 0
222 0 0
220 0 0
225 0 0
225 0 0
221 0 0
225 0 0
221 0 0
217 0 0
221 0 0
225 0 0
222 0 0
221 0 0
222 0 0
224 0 0
224 0 0
224 0 0
223 0 0
222 0 0
223 0 0
226 0 0
221 0 0
226 0 0
223 0 0
226 0 0
225 0 0
220 0 0
220 0 0
224 0 0
225 0 0
224 0 0
220 0 0
224 0 0
223 0 0
219 0 0
223 0 0
227 0 0
222 0 0
222 0 0
227 0 0
221 0 0
222 0 0
225 0 0
222 0 0
222 0 0
224 0 0
226 0 0
225 0 0
223 0 0
225 0 0
225 0 0
222 0 0
221 0 0
222 0 0
225 0 0
221 0 0
220 0 0
222 0 0
222 0 0
225 0 0
222 0 0
221 0 0
220 0 0
224 0 0
226 0 0
221 0 0
222 0 0
223 0 0
224 0 0
222 0 0
225 0 0
223 0 0
222 0 0
224 0 0
220 0 0
225 0 0
224 0 0
223 0 0
223 0 0
0 0 255
0 0 255
0 0 255
0 0 255
0 0 255
0 0 254
0 0 255
0 0 254
0 0 255
0 0 255
0 0 255
0 0 255
0 0 255
0 0 254
0 0 255
0 0 255
0 0 254
0 0 255
0 0 254
0 0 255
0 0 255
0 0 255
0 0 255
0 0 255
0 0 255
0 0 255
0 0 255
0 0 255
0 0 255
0 0 255
0 0 255
0 0 255
0 0 255
0 0 255
0 0 255
0 0 253
0 0 255
0 0 254
0 0 255
0 0 254
0 0 253
0 0 254
0 0 254
0 0 255
0 0 255
0 0 255
0 0 255
0 0 255
0 0 255
0 0 254
0 0 254
0 0 255
0 0 255
0 0 254
0 0 254
0 0 253
0 0 253
0 0 253
0 0 254
0 0 254
0 0 255
0 0 253
0 0 252
0 0 254
0 0 255
0 0 252
0 0 254
0 0 255
0 0 255
0 0 254
0 0 254
0 0 255
0 0 254
0 0 254
0 0 253
0 0 253
0 0 253
0 0 254
0 0 254
0 0 253
0 0 252
0 0 253
0 0 254
0 0 252
0 0 253
0 0 254
0 0 253
0 0 254
0 0 254
0 0 250
0 0 253
0 0 252
0 0 254
0 0 253
0 0 254
0 0 250
0 0 249
0 0 253
0 0 252
0 0 252
0 0 250
0 0 254
0 0 253
0 0 245
0 0 249
0 0 248
0 0 250
0 0 249
0 0 253
0 0 254
0 0 253
0 0 250
0 0 252
0 0 253
0 0 253
0 0 249
0 0 249
0 0 250
0 0 250
0 0 254
0 0 248
0 0 253
0 0 250
0 0 252
0 0 245
0 0 250
0 0 253
0 0 242
0 0 249
0 0 244
0 0 244
0 0 249
0 0 245
0 0 244
0 0 241
0 0 245
0 0 249
0 0 246
0 0 246
0 0 241
0 0 244
0 0 248
0 0 245
0 0 241
0 0 242
0 0 244
0 0 240
0 0 244
0 0 241
0 0 238
0 0 242
0 0 241
0 0 240
0 0 242
0 0 233
0 0 231
0 0 233
0 0 246
0 0 237
0 0 246
0 0 230
0 0 236
0 0 231
0 0 227
0 0 230
0 0 236
0 0 228
0 0 234
0 0 236
0 0 234
0 0 226
0 0 226
0 0 233
0 0 238
0 0 223
0 0 236
0 0 220
0 0 212
0 0 224
0 0 211
0 0 209
0 0 214
0 0 214
0 0 218
0 0 186
0 0 207
0 0 204
0 0 188
0 0 204
0 0 196
0 0 188
0 0 194
0 0 186
0 0 175
0 0 142
46 48 167
226 237 253
230 240 255
230 240 255
230 240 255
230 240 255
230 240 255
230 240 255
229 238 253
142 48 51
153 0 0
152 0 0
168 0 0
167 0 0
170 0 0
175 0 0
173 0 0
168 0 0
180 0 0
173 0 0
175 0 0
189 0 0
192 0 0
180 0 0
199 0 0
203 0 0
205 0 0
212 0 0
200 0 0
205 0 0
202 0 0
199 0 0
206 0 0
203 0 0
199 0 0
201 0 0
193 0 0
212 0 0
204 0 0
206 0 0
208 0 0
207 0 0
203 0 0
207 0 0
206 0 0
212 0 0
211 0 0
204 0 0
215 0 0
213 0 0
205 0 0
205 0 0
214 0 0
212 0 0
215 0 0
213 0 0
203 0 0
214 0 0
212 0 0
218 0 0
219 0 0
213 0 0
214 0 0
217 0 0
218 0 0
215 0 0
213 0 0
221 0 0
218 0 0
214 0 0
217 0 0
215 0 0
211 0 0
222 0 0
221 0 0
222 0 0
214 0 0
217 0 0
217 0 0
218 0 0
218 0 0
220 0 0
214 0 0
219 0 0
218 0 0
214 0 0
219 0 0
219 0 0
218 0 0
218 0 0
219 0 0
216 0 0
219 0 0
221 0 0
219 0 0
223 0 0
218 0 0
218 0 0
214 0 0
222 0 0
223 0 0
221 0 0
222 0 0
221 0 0
228 0 0
221 0 0
224 0 0
221 0 0
224 0 0
217 0 0
222 0 0
225 0 0
222 0 0
225 0 0
220 0 0
226 0 0
215 0 0
222 0 0
222 0 0
221 0 0
225 0 0
222 0 0
221 0 0
223 0 0
225 0 0
223 0 0
221 0 0
221 0 0
226 0 0
224 0 0
224 0 0
222 0 0
219 0 0
223 0 0
223 0 0
220 0 0
221 0 0
224 0 0
222 0 0
224 0 0
221 0 0
221 0 0
224 0 0
224 0 0
222 0 0
222 0 0
219 0 0
220 0 0
224 0 0
223 0 0
222 0 0
223 0 0
222 0 0
223 0 0
225 0 0
227 0 0
224 0 0
223 0 0
221 0 0
226 0 0
221 0 0
224 0 0
224 0 0
226 0 0
223 0 0
223 0 0
222 0 0
223 0 0
222 0 0
221 0 0
222 0 0
221 0 0
221 0 0
223 0 0
222 0 0
225 0 0
221 0 0
222 0 0
223 0 0
226 0 0
224 0 0
224 0 0
223 0 0
219 0 0
224 0 0
220 0 0
225 0 0
222 0 0
219 0 0
222 0 0
227 0 0
222 0 0
224 0 0
223 0 0
223 0 0
224 0 0
226 0 0
224 0 0
225 0 0
224 0 0
221 0 0
225 0 0
224 0 0
223 0 0
223 0 0
0 0 255
0 0 255
0 0 255
0 0 255
0 0 255
0 0 255
0 0 255
0 0 254
0 0 255
0 0 255
0 0 255
0 0 255
0 0 255
0 0 255
0 0 255
0 0 255
0 0 255
0 0 255
0 0 255
0 0 255
0 0 253
0 0 255
0 0 255
0 0 255
0 0 255
0 0 255
0 0 255
0 0 255
0 0 255
0 0 254
0 0 254
0 0 255
0 0 255
0 0 255
0 0 254
0 0 255
0 0 254
0 0 254
0 0 253
0 0 253
0 0 250
0 0 250
0 0 255
0 0 255
0 0 254
0 0 254
0 0 254
0 0 255
0 0 255
0 0 255
0 0 254
0 0 254
0 0 254
0 0 254
0 0 253
0 0 254
0 0 255
0 0 250
0 0 255
0 0 255
0 0 254
0 0 254
0 0 254
0 0 254
0 0 254
0 0 254
0 0 252
0 0 253
0 0 254
0 0 254
0 0 254
0 0 255
0 0 250
0 0 253
0 0 253
0 0 253
0 0 252
0 0 254
0 0 250
0 0 254
0 0 254
0 0 252
0 0 253
0 0 254
0 0 254
0 0 255
0 0 253
0 0 253
0 0 250
0 0 254
0 0 254
0 0 254
0 0 253
0 0 254
0 0 252
0 0 254
0 0 248
0 0 250
0 0 254
0 0 254
0 0 250
0 0 250
0 0 252
0 0 254
0 0 244
0 0 250
0 0 248
0 0 253
0 0 253
0 0 250
0 0 253
0 0 252
0 0 250
0 0 250
0 0 253
0 0 248
0 0 248
0 0 250
0 0 246
0 0 246
0 0 244
0 0 246
0 0 244
0 0 250
0 0 252
0 0 248
0 0 244
0 0 249
0 0 248
0 0 252
0 0 245
0 0 244
0 0 252
0 0 240
0 0 245
0 0 246
0 0 241
0 0 241
0 0 245
0 0 250
0 0 242
0 0 248
0 0 244
0 0 241
0 0 236
0 0 245
0 0 244
0 0 236
0 0 241
0 0 236
0 0 241
0 0 246
0 0 234
0 0 234
0 0 240
0 0 223
0 0 237
0 0 241
0 0 237
0 0 240
0 0 236
0 0 234
0 0 240
0 0 236
0 0 227
0 0 230
0 0 234
0 0 236
0 0 234
0 0 236
0 0 221
0 0 231
0 0 233
0 0 228
0 0 214
0 0 218
0 0 212
0 0 211
0 0 209
0 0 220
0 0 212
0 0 220
0 0 204
0 0 207
0 0 214
0 0 203
0 0 201
0 0 179
0 0 196
0 0 188
0 0 191
0 0 186
0 0 184
0 0 165
0 0 181
138 144 201
230 241 255
230 241 255
230 241 255
230 241 255
230 241 255
230 241 255
230 241 255
230 241 255
190 150 159
152 0 0
153 0 0
153 0 0
162 0 0
168 0 0
174 0 0
183 0 0
181 0 0
191 0 0
189 0 0
186 0 0
188 0 0
188 0 0
184 0 0
182 0 0
201 0 0
184 0 0
191 0 0
197 0 0
190 0 0
204 0 0
191 0 0
203 0 0
198 0 0
205 0 0
199 0 0
207 0 0
195 0 0
201 0 0
207 0 0
209 0 0
201 0 0
212 0 0
208 0 0
204 0 0
208 0 0
208 0 0
215 0 0
206 0 0
208 0 0
219 0 0
204 0 0
216 0 0
212 0 0
212 0 0
209 0 0
215 0 0
215 0 0
210 0 0
219 0 0
213 0 0
215 0 0
214 0 0
221 0 0
214 0 0
211 0 0
215 0 0
226 0 0
219 0 0
210 0 0
217 0 0
214 0 0
218 0 0
220 0 0
218 0 0
222 0 0
220 0 0
216 0 0
215 0 0
220 0 0
219 0 0
220 0 0
222 0 0
220 0 0
213 0 0
223 0 0
218 0 0
219 0 0
216 0 0
218 0 0
221 0 0
220 0 0
221 0 0
217 0 0
222 0 0
221 0 0
221 0 0
221 0 0
222 0 0
223 0 0
222 0 0
228 0 0
215 0 0
220 0 0
220 0 0
221 0 0
221 0 0
227 0 0
221 0 0
223 0 0
219 0 0
224 0 0
216 0 0
216 0 0
221 0 0
218 0 0
219 0 0
224 0 0
221 0 0
224 0 0
224 0 0
224 0 0
225 0 0
218 0 0
222 0 0
223 0 0
216 0 0
222 0 0
224 0 0
226 0 0
223 0 0
226 0 0
223 0 0
229 0 0
223 0 0
222 0 0
223 0 0
224 0 0
218 0 0
223 0 0
227 0 0
225 0 0
218 0 0
224 0 0
222 0 0
224 0 0
220 0 0
223 0 0
225 0 0
223 0 0
228 0 0
223 0 0
227 0 0
224 0 0
220 0 0
226 0 0
220 0 0
221 0 0
223 0 0
223 0 0
222 0 0
224 0 0
223 0 0
224 0 0
224 0 0
225 0 0
222 0 0
224 0 0
225 0 0
228 0 0
226 0 0
225 0 0
220 0 0
221 0 0
223 0 0
224 0 0
224 0 0
224 0 0
223 0 0
224 0 0
222 0 0
222 0 0
225 0 0
225 0 0
222 0 0
225 0 0
225 0 0
223 0 0
221 0 0
221 0 0
222 0 0
227 0 0
225 0 0
225 0 0
228 0 0
222 0 0
221 0 0
227 0 0
223 0 0
225 0 0
224 0 0
228 0 0
224 0 0
221 0 0
225 0 0
0 0 254
0 0 255
0 0 254
0 0 255
0 0 255
0 0 255
0 0 255
0 0 255
0 0 255
0 0 255
0 0 255
0 0 255
0 0 254
0 0 255
0 0 255
0 0 255
0 0 255
0 0 254
0 0 255
0 0 255
0 0 255
0 0 255
0 0 254
0 0 255
0 0 255
0 0 255
0 0 255
0 0 255
0 0 253
0 0 255
0 0 255
0 0 254
0 0 255
0 0 254
0 0 254
0 0 254
0 0 255
0 0 253
0 0 254
0 0 255
0 0 255
0 0 254
0 0 254
0 0 255
0 0 253
0 0 254
0 0 253
0 0 254
0 0 254
0 0 255
0 0 254
0 0 250
0 0 253
0 0 255
0 0 255
0 0 255
0 0 255
0 0 255
0 0 254
0 0 254
0 0 255
0 0 255
0 0 254
0 0 254
0 0 253
0 0 253
0 0 253
0 0 254
0 0 253
0 0 254
0 0 253
0 0 253
0 0 255
0 0 254
0 0 253
0 0 254
0 0 250
0 0 250
0 0 253
0 0 255
0 0 253
0 0 254
0 0 253
0 0 250
0 0 252
0 0 254
0 0 254
0 0 253
0 0 249
0 0 250
0 0 255
0 0 254
0 0 253
0 0 253
0 0 253
0 0 250
0 0 255
0 0 250
0 0 254
0 0 254
0 0 249
0 0 252
0 0 252
0 0 253
0 0 249
0 0 253
0 0 246
0 0 252
0 0 252
0 0 250
0 0 248
0 0 249
0 0 245
0 0 255
0 0 250
0 0 248
0 0 248
0 0 252
0 0 246
0 0 250
0 0 248
0 0 249
0 0 249
0 0 245
0 0 246
0 0 250
0 0 254
0 0 248
0 0 246
0 0 248
0 0 248
0 0 246
0 0 248
0 0 245
0 0 246
0 0 248
0 0 244
0 0 237
0 0 246
0 0 245
0 0 244
0 0 242
0 0 245
0 0 248
0 0 245
0 0 245
0 0 231
0 0 240
0 0 238
0 0 245
0 0 242
0 0 241
0 0 236
0 0 238
0 0 242
0 0 244
0 0 245
0 0 240
0 0 237
0 0 240
0 0 231
0 0 241
0 0 233
0 0 240
0 0 227
0 0 228
0 0 238
0 0 231
0 0 230
0 0 237
0 0 246
0 0 224
0 0 231
0 0 236
0 0 231
0 0 217
0 0 227
0 0 215
0 0 215
0 0 204
0 0 215
0 0 207
0 0 196
0 0 212
0 0 191
0 0 194
0 0 211
0 0 206
0 0 203
0 0 191
0 0 182
0 0 177
0 0 184
0 0 153
0 0 173
205 214 237
230 241 255
230 241 255
230 241 255
230 241 255
230 241 255
230 241 255
230 241 255
230 241 255
212 211 224
165 0 0
167 0 0
176 0 0
169 0 0
162 0 0
168 0 0
189 0 0
180 0 0
180 0 0
189 0 0
176 0 0
184 0 0
191 0 0
190 0 0
195 0 0
192 0 0
194 0 0
198 0 0
202 0 0
196 0 0
200 0 0
201 0 0
204 0 0
199 0 0
207 0 0
204 0 0
209 0 0
209 0 0
207 0 0
202 0 0
212 0 0
203 0 0
203 0 0
201 0 0
204 0 0
208 0 0
217 0 0
213 0 0
218 0 0
214 0 0
213 0 0
210 0 0
209 0 0
218 0 0
213 0 0
213 0 0
212 0 0
214 0 0
209 0 0
213 0 0
210 0 0
215 0 0
216 0 0
217 0 0
227 0 0
216 0 0
219 0 0
217 0 0
219 0 0
221 0 0
217 0 0
212 0 0
216 0 0
214 0 0
221 0 0
215 0 0
215 0 0
219 0 0
221 0 0
216 0 0
217 0 0
213 0 0
222 0 0
224 0 0
224 0 0
228 0 0
213 0 0
216 0 0
217 0 0
216 0 0
214 0 0
218 0 0
219 0 0
220 0 0
219 0 0
221 0 0
218 0 0
224 0 0
224 0 0
219 0 0
219 0 0
221 0 0
221 0 0
222 0 0
218 0 0
222 0 0
224 0 0
219 0 0
221 0 0
222 0 0
221 0 0
215 0 0
224 0 0
222 0 0
227 0 0
221 0 0
216 0 0
218 0 0
223 0 0
221 0 0
223 0 0
218 0 0
217 0 0
225 0 0
223 0 0
226 0 0
224 0 0
221 0 0
223 0 0
224 0 0
224 0 0
222 0 0
224 0 0
219 0 0
224 0 0
225 0 0
223 0 0
227 0 0
225 0 0
224 0 0
224 0 0
224 0 0
223 0 0
223 0 0
225 0 0
222 0 0
223 0 0
224 0 0
222 0 0
223 0 0
222 0 0
223 0 0
221 0 0
222 0 0
222 0 0
223 0 0
225 0 0
227 0 0
225 0 0
224 0 0
226 0 0
227 0 0
224 0 0
225 0 0
221 0 0
225 0 0
223 0 0
223 0 0
225 0 0
222 0 0
224 0 0
223 0 0
223 0 0
218 0 0
224 0 0
224 0 0
226 0 0
224 0 0
225 0 0
226 0 0
224 0 0
224 0 0
224 0 0
226 0 0
222 0 0
225 0 0
223 0 0
223 0 0
223 0 0
226 0 0
223 0 0
226 0 0
225 0 0
220 0 0
224 0 0
221 0 0
222 0 0
220 0 0
222 0 0
222 0 0
221 0 0
224 0 0
224 0 0
224 0 0
224 0 0
0 0 255
0 0 255
0 0 255
0 0 255
0 0 255
0 0 255
0 0 255
0 0 254
0 0 255
0 0 255
0 0 255
0 0 255
0 0 255
0 0 255
0 0 255
0 0 255
0 0 255
0 0 255
0 0 254
0 0 254
0 0 255
0 0 253
0 0 255
0 0 255
0 0 255
0 0 255
0 0 254
0 0 255
0 0 254
0 0 254
0 0 255
0 0 255
0 0 255
0 0 255
0 0 255
0 0 255
0 0 255
0 0 255
0 0 254
0 0 255
0 0 255
0 0 255
0 0 254
0 0 254
0 0 254
0 0 253
0 0 255
0 0 252
0 0 254
0 0 255
0 0 255
0 0 255
0 0 255
0 0 253
0 0 253
0 0 253
0 0 255
0 0 254
0 0 255
0 0 253
0 0 250
0 0 255
0 0 254
0 0 254
0 0 250
0 0 255
0 0 254
0 0 254
0 0 254
0 0 253
0 0 254
0 0 249
0 0 254
0 0 254
0 0 255
0 0 255
0 0 255
0 0 253
0 0 254
0 0 252
0 0 255
0 0 253
0 0 254
0 0 250
0 0 252
0 0 252
0 0 255
0 0 250
0 0 254
0 0 250
0 0 254
0 0 252
0 0 254
0 0 248
0 0 250
0 0 255
0 0 250
0 0 253
0 0 250
0 0 248
0 0 253
0 0 248
0 0 246
0 0 252
0 0 250
0 0 253
0 0 250
0 0 250
0 0 249
0 0 252
0 0 250
0 0 249
0 0 250
0 0 249
0 0 248
0 0 252
0 0 250
0 0 248
0 0 249
0 0 249
0 0 245
0 0 246
0 0 252
0 0 249
0 0 249
0 0 253
0 0 248
0 0 245
0 0 242
0 0 248
0 0 246
0 0 245
0 0 252
0 0 245
0 0 244
0 0 249
0 0 244
0 0 250
0 0 240
0 0 244
0 0 249
0 0 242
0 0 238
0 0 244
0 0 242
0 0 248
0 0 242
0 0 246
0 0 245
0 0 241
0 0 236
0 0 242
0 0 244
0 0 244
0 0 241
0 0 234
0 0 244
0 0 228
0 0 241
0 0 236
0 0 234
0 0 238
0 0 240
0 0 241
0 0 236
0 0 224
0 0 236
0 0 230
0 0 231
0 0 221
0 0 217
0 0 227
0 0 230
0 0 228
0 0 207
0 0 227
0 0 209
0 0 218
0 0 221
0 0 224
0 0 212
0 0 214
0 0 203
0 0 207
0 0 196
0 0 204
0 0 189
0 0 188
0 0 196
0 0 188
0 0 182
0 0 163
0 0 167
0 0 182
89 93 165
231 241 255
231 241 255
231 241 255
231 241 255
231 241 255
231 241 255
231 241 255
231 241 255
231 241 255
231 241 255
173 80 84
163 0 0
180 0 0
157 0 0
175 0 0
173 0 0
179 0 0
183 0 0
179 0 0
196 0 0
184 0 0
194 0 0
194 0 0
192 0 0
203 0 0
189 0 0
191 0 0
198 0 0
204 0 0
211 0 0
192 0 0
205 0 0
197 0 0
201 0 0
203 0 0
199 0 0
203 0 0
203 0 0
208 0 0
211 0 0
205 0 0
212 0 0
204 0 0
214 0 0
212 0 0
210 0 0
215 0 0
211 0 0
211 0 0
205 0 0
218 0 0
213 0 0
216 0 0
214 0 0
215 0 0
215 0 0
212 0 0
220 0 0
211 0 0
215 0 0
210 0 0
210 0 0
213 0 0
214 0 0
218 0 0
214 0 0
217 0 0
217 0 0
219 0 0
214 0 0
217 0 0
214 0 0
219 0 0
220 0 0
221 0 0
216 0 0
217 0 0
211 0 0
215 0 0
225 0 0
226 0 0
221 0 0
221 0 0
214 0 0
219 0 0
216 0 0
220 0 0
226 0 0
224 0 0
216 0 0
219 0 0
222 0 0
221 0 0
221 0 0
219 0 0
220 0 0
224 0 0
217 0 0
221 0 0
221 0 0
223 0 0
219 0 0
219 0 0
222 0 0
221 0 0
225 0 0
223 0 0
220 0 0
220 0 0
222 0 0
222 0 0
225 0 0
221 0 0
222 0 0
222 0 0
224 0 0
218 0 0
221 0 0
224 0 0
220 0 0
221 0 0
225 0 0
222 0 0
223 0 0
223 0 0
220 0 0
224 0 0
226 0 0
224 0 0
222 0 0
222 0 0
222 0 0
223 0 0
220 0 0
223 0 0
222 0 0
222 0 0
226 0 0
219 0 0
223 0 0
221 0 0
221 0 0
221 0 0
226 0 0
221 0 0
220 0 0
222 0 0
223 0 0
224 0 0
220 0 0
228 0 0
227 0 0
222 0 0
225 0 0
225 0 0
224 0 0
222 0 0
226 0 0
218 0 0
227 0 0
221 0 0
227 0 0
226 0 0
223 0 0
224 0 0
225 0 0
223 0 0
224 0 0
222 0 0
224 0 0
224 0 0
225 0 0
217 0 0
221 0 0
225 0 0
225 0 0
229 0 0
225 0 0
220 0 0
221 0 0
221 0 0
224 0 0
225 0 0
224 0 0
223 0 0
227 0 0
226 0 0
224 0 0
223 0 0
222 0 0
223 0 0
226 0 0
224 0 0
225 0 0
221 0 0
225 0 0
225 0 0
219 0 0
225 0 0
223 0 0
222 0 0
224 0 0
227 0 0
228 0 0
223 0 0
0 0 255
0 0 255
0 0 255
0 0 255
0 0 255
0 0 254
0 0 255
0 0 255
0 0 255
0 0 255
0 0 255
0 0 254
0 0 255
0 0 255
0 0 255
0 0 255
0 0 255
0 0 255
0 0 255
0 0 255
0 0 255
0 0 254
0 0 255
0 0 255
0 0 254
0 0 254
0 0 254
0 0 254
0 0 255
0 0 255
0 0 255
0 0 254
0 0 255
0 0 255
0 0 254
0 0 255
0 0 254
0 0 255
0 0 255
0 0 254
0 0 255
0 0 255
0 0 254
0 0 255
0 0 255
0 0 255
0 0 255
0 0 255
0 0 255
0 0 254
0 0 252
0 0 255
0 0 254
0 0 255
0 0 255
0 0 255
0 0 255
0 0 253
0 0 255
0 0 255
0 0 254
0 0 254
0 0 254
0 0 253
0 0 254
0 0 254
0 0 254
0 0 254
0 0 254
0 0 253
0 0 254
0 0 254
0 0 250
0 0 255
0 0 255
0 0 255
0 0 254
0 0 255
0 0 254
0 0 255
0 0 252
0 0 254
0 0 250
0 0 252
0 0 253
0 0 255
0 0 253
0 0 252
0 0 254
0 0 254
0 0 250
0 0 253
0 0 252
0 0 254
0 0 252
0 0 252
0 0 253
0 0 250
0 0 253
0 0 252
0 0 249
0 0 253
0 0 253
0 0 250
0 0 253
0 0 254
0 0 248
0 0 249
0 0 246
0 0 248
0 0 249
0 0 253
0 0 246
0 0 253
0 0 253
0 0 248
0 0 250
0 0 252
0 0 246
0 0 250
0 0 249
0 0 249
0 0 248
0 0 254
0 0 244
0 0 248
0 0 252
0 0 249
0 0 242
0 0 249
0 0 246
0 0 245
0 0 250
0 0 244
0 0 250
0 0 248
0 0 253
0 0 250
0 0 245
0 0 244
0 0 242
0 0 242
0 0 250
0 0 245
0 0 238
0 0 242
0 0 244
0 0 246
0 0 246
0 0 248
0 0 238
0 0 240
0 0 244
0 0 242
0 0 241
0 0 238
0 0 233
0 0 240
0 0 234
0 0 231
0 0 240
0 0 226
0 0 236
0 0 233
0 0 236
0 0 230
0 0 236
0 0 236
0 0 231
0 0 218
0 0 228
0 0 223
0 0 231
0 0 231
0 0 221
0 0 215
0 0 215
0 0 215
0 0 214
0 0 217
0 0 218
0 0 224
0 0 204
0 0 199
0 0 209
0 0 209
0 0 204
0 0 196
0 0 196
0 0 198
0 0 191
0 0 191
0 0 182
0 0 165
173 180 220
231 241 255
231 241 255
231 241 255
231 241 255
231 241 255
231 241 255
231 241 255
231 241 255
231 241 255
231 241 255
202 194 206
164 0 0
166 0 0
170 0 0
180 0 0
170 0 0
181 0 0
186 0 0
188 0 0
188 0 0
188 0 0
180 0 0
187 0 0
198 0 0
186 0 0
192 0 0
202 0 0
191 0 0
201 0 0
206 0 0
199 0 0
205 0 0
201 0 0
209 0 0
204 0 0
213 0 0
203 0 0
211 0 0
213 0 0
203 0 0
204 0 0
216 0 0
193 0 0
206 0 0
212 0 0
201 0 0
207 0 0
218 0 0
206 0 0
215 0 0
215 0 0
221 0 0
216 0 0
201 0 0
212 0 0
219 0 0
216 0 0
205 0 0
215 0 0
215 0 0
215 0 0
212 0 0
214 0 0
218 0 0
217 0 0
220 0 0
216 0 0
214 0 0
222 0 0
218 0 0
216 0 0
219 0 0
218 0 0
215 0 0
217 0 0
221 0 0
221 0 0
221 0 0
216 0 0
220 0 0
211 0 0
219 0 0
219 0 0
222 0 0
219 0 0
220 0 0
222 0 0
215 0 0
220 0 0
221 0 0
224 0 0
221 0 0
218 0 0
220 0 0
218 0 0
220 0 0
220 0 0
221 0 0
223 0 0
217 0 0
223 0 0
223 0 0
219 0 0
222 0 0
223 0 0
218 0 0
219 0 0
218 0 0
225 0 0
224 0 0
225 0 0
225 0 0
225 0 0
222 0 0
226 0 0
220 0 0
226 0 0
226 0 0
223 0 0
226 0 0
224 0 0
225 0 0
223 0 0
227 0 0
222 0 0
224 0 0
219 0 0
223 0 0
220 0 0
220 0 0
223 0 0
220 0 0
225 0 0
222 0 0
225 0 0
220 0 0
223 0 0
222 0 0
221 0 0
229 0 0
224 0 0
225 0 0
224 0 0
222 0 0
224 0 0
225 0 0
223 0 0
224 0 0
222 0 0
222 0 0
225 0 0
223 0 0
223 0 0
223 0 0
224 0 0
225 0 0
228 0 0
226 0 0
223 0 0
222 0 0
223 0 0
223 0 0
226 0 0
221 0 0
225 0 0
227 0 0
222 0 0
224 0 0
225 0 0
226 0 0
225 0 0
224 0 0
224 0 0
224 0 0
224 0 0
223 0 0
223 0 0
222 0 0
224 0 0
225 0 0
222 0 0
225 0 0
226 0 0
223 0 0
224 0 0
224 0 0
223 0 0
225 0 0
221 0 0
225 0 0
221 0 0
222 0 0
223 0 0
224 0 0
223 0 0
225 0 0
222 0 0
225 0 0
221 0 0
227 0 0
225 0 0
226 0 0
226 0 0
224 0 0
225 0 0
0 0 255
0 0 255
0 0 255
0 0 255
0 0 255
0 0 255
0 0 255
0 0 255
0 0 255
0 0 255
0 0 255
0 0 255
0 0 255
0 0 255
0 0 255
0 0 255
0 0 255
0 0 255
0 0 255
0 0 255
0 0 255
0 0 255
0 0 255
0 0 255
0 0 255
0 0 255
0 0 255
0 0 255
0 0 255
0 0 255
0 0 255
0 0 254
0 0 254
0 0 255
0 0 255
0 0 254
0 0 254
0 0 253
0 0 254
0 0 253
0 0 254
0 0 255
0 0 255
0 0 254
0 0 255
0 0 254
0 0 255
0 0 255
0 0 255
0 0 254
0 0 255
0 0 255
0 0 255
0 0 255
0 0 255
0 0 254
0 0 254
0 0 255
0 0 255
0 0 253
0 0 254
0 0 254
0 0 254
0 0 255
0 0 255
0 0 254
0 0 254
0 0 254
0 0 255
0 0 254
0 0 253
0 0 255
0 0 255
0 0 252
0 0 253
0 0 253
0 0 255
0 0 253
0 0 253
0 0 254
0 0 254
0 0 254
0 0 253
0 0 253
0 0 252
0 0 252
0 0 250
0 0 250
0 0 253
0 0 253
0 0 252
0 0 252
0 0 255
0 0 246
0 0 252
0 0 253
0 0 253
0 0 249
0 0 252
0 0 248
0 0 254
0 0 252
0 0 255
0 0 253
0 0 253
0 0 248
0 0 252
0 0 253
0 0 253
0 0 248
0 0 253
0 0 250
0 0 252
0 0 253
0 0 250
0 0 249
0 0 248
0 0 245
0 0 249
0 0 248
0 0 246
0 0 253
0 0 249
0 0 249
0 0 246
0 0 246
0 0 250
0 0 242
0 0 245
0 0 242
0 0 238
0 0 245
0 0 248
0 0 246
0 0 246
0 0 242
0 0 249
0 0 242
0 0 246
0 0 245
0 0 245
0 0 246
0 0 240
0 0 245
0 0 244
0 0 244
0 0 240
0 0 241
0 0 234
0 0 244
0 0 242
0 0 248
0 0 231
0 0 231
0 0 240
0 0 244
0 0 246
0 0 240
0 0 237
0 0 234
0 0 223
0 0 236
0 0 228
0 0 245
0 0 234
0 0 231
0 0 227
0 0 230
0 0 224
0 0 237
0 0 221
0 0 228
0 0 220
0 0 231
0 0 226
0 0 220
0 0 228
0 0 227
0 0 228
0 0 209
0 0 215
0 0 221
0 0 203
0 0 207
0 0 212
0 0 189
0 0 189
0 0 207
0 0 199
0 0 193
0 0 199
0 0 167
0 0 169
56 59 189
224 234 248
231 241 255
231 241 255
231 241 255
231 241 255
231 241 255
231 241 255
231 241 255
231 241 255
231 241 255
231 241 255
225 229 242
157 68 72
166 0 0
165 0 0
184 0 0
174 0 0
170 0 0
189 0 0
193 0 0
187 0 0
183 0 0
188 0 0
188 0 0
208 0 0
202 0 0
193 0 0
200 0 0
199 0 0
207 0 0
202 0 0
201 0 0
207 0 0
197 0 0
199 0 0
204 0 0
197 0 0
210 0 0
204 0 0
211 0 0
217 0 0
211 0 0
209 0 0
212 0 0
208 0 0
196 0 0
207 0 0
209 0 0
212 0 0
211 0 0
216 0 0
220 0 0
214 0 0
213 0 0
218 0 0
213 0 0
214 0 0
215 0 0
210 0 0
216 0 0
221 0 0
212 0 0
226 0 0
217 0 0
215 0 0
217 0 0
216 0 0
221 0 0
217 0 0
218 0 0
223 0 0
216 0 0
218 0 0
218 0 0
215 0 0
220 0 0
213 0 0
219 0 0
217 0 0
220 0 0
219 0 0
219 0 0
210 0 0
216 0 0
218 0 0
223 0 0
220 0 0
219 0 0
219 0 0
220 0 0
222 0 0
218 0 0
219 0 0
221 0 0
219 0 0
221 0 0
223 0 0
215 0 0
218 0 0
221 0 0
220 0 0
228 0 0
221 0 0
221 0 0
220 0 0
220 0 0
221 0 0
219 0 0
218 0 0
223 0 0
219 0 0
215 0 0
221 0 0
222 0 0
221 0 0
227 0 0
221 0 0
222 0 0
223 0 0
225 0 0
221 0 0
226 0 0
220 0 0
222 0 0
221 0 0
225 0 0
223 0 0
220 0 0
222 0 0
216 0 0
227 0 0
224 0 0
219 0 0
222 0 0
225 0 0
225 0 0
220 0 0
222 0 0
224 0 0
223 0 0
225 0 0
223 0 0
227 0 0
225 0 0
219 0 0
218 0 0
224 0 0
227 0 0
226 0 0
227 0 0
224 0 0
224 0 0
220 0 0
223 0 0
225 0 0
224 0 0
224 0 0
224 0 0
225 0 0
223 0 0
221 0 0
225 0 0
226 0 0
226 0 0
226 0 0
225 0 0
222 0 0
227 0 0
222 0 0
226 0 0
225 0 0
223 0 0
228 0 0
225 0 0
224 0 0
225 0 0
224 0 0
221 0 0
219 0 0
221 0 0
223 0 0
225 0 0
223 0 0
225 0 0
224 0 0
224 0 0
226 0 0
227 0 0
220 0 0
222 0 0
220 0 0
225 0 0
224 0 0
224 0 0
222 0 0
220 0 0
227 0 0
219 0 0
223 0 0
228 0 0
226 0 0
228 0 0
227 0 0
227 0 0
225 0 0
225 0 0
0 0 255
0 0 255
0 0 255
0 0 255
0 0 255
0 0 255
0 0 255
0 0 255
0 0 254
0 0 255
0 0 255
0 0 255
0 0 255
0 0 255
0 0 255
0 0 254
0 0 255
0 0 255
0 0 255
0 0 255
0 0 255
0 0 255
0 0 255
0 0 255
0 0 255
0 0 255
0 0 255
0 0 254
0 0 254
0 0 253
0 0 255
0 0 254
0 0 254
0 0 255
0 0 255
0 0 255
0 0 253
0 0 254
0 0 255
0 0 255
0 0 255
0 0 255
0 0 254
0 0 255
0 0 255
0 0 254
0 0 253
0 0 254
0 0 254
0 0 255
0 0 255
0 0 254
0 0 254
0 0 254
0 0 255
0 0 254
0 0 255
0 0 254
0 0 255
0 0 254
0 0 252
0 0 255
0 0 255
0 0 255
0 0 255
0 0 254
0 0 255
0 0 254
0 0 249
0 0 254
0 0 254
0 0 254
0 0 255
0 0 254
0 0 254
0 0 254
0 0 252
0 0 254
0 0 254
0 0 254
0 0 253
0 0 254
0 0 252
0 0 253
0 0 250
0 0 252
0 0 254
0 0 254
0 0 250
0 0 254
0 0 249
0 0 252
0 0 253
0 0 254
0 0 253
0 0 253
0 0 246
0 0 254
0 0 254
0 0 254
0 0 254
0 0 252
0 0 250
0 0 249
0 0 252
0 0 249
0 0 252
0 0 253
0 0 246
0 0 252
0 0 246
0 0 250
0 0 254
0 0 249
0 0 249
0 0 249
0 0 249
0 0 250
0 0 254
0 0 249
0 0 252
0 0 250
0 0 250
0 0 249
0 0 246
0 0 249
0 0 241
0 0 249
0 0 245
0 0 242
0 0 248
0 0 246
0 0 249
0 0 242
0 0 241
0 0 244
0 0 249
0 0 250
0 0 248
0 0 249
0 0 240
0 0 245
0 0 242
0 0 246
0 0 240
0 0 241
0 0 242
0 0 241
0 0 240
0 0 242
0 0 240
0 0 246
0 0 242
0 0 242
0 0 245
0 0 236
0 0 244
0 0 240
0 0 230
0 0 241
0 0 245
0 0 230
0 0 228
0 0 233
0 0 236
0 0 228
0 0 230
0 0 233
0 0 234
0 0 224
0 0 221
0 0 236
0 0 237
0 0 215
0 0 223
0 0 226
0 0 234
0 0 221
0 0 212
0 0 223
0 0 201
0 0 220
0 0 217
0 0 223
0 0 198
0 0 203
0 0 206
0 0 201
0 0 203
0 0 207
0 0 191
0 0 173
0 0 175
152 158 209
232 242 255
232 242 255
232 242 255
232 242 255
232 242 255
232 242 255
232 242 255
232 242 255
232 242 255
232 242 255
232 242 255
232 242 255
204 169 179
174 0 0
170 0 0
167 0 0
189 0 0
190 0 0
175 0 0
182 0 0
176 0 0
184 0 0
193 0 0
197 0 0
187 0 0
195 0 0
198 0 0
205 0 0
202 0 0
204 0 0
189 0 0
202 0 0
201 0 0
205 0 0
204 0 0
204 0 0
202 0 0
202 0 0
201 0 0
207 0 0
206 0 0
211 0 0
215 0 0
211 0 0
216 0 0
210 0 0
207 0 0
216 0 0
204 0 0
214 0 0
214 0 0
216 0 0
221 0 0
211 0 0
210 0 0
218 0 0
213 0 0
216 0 0
211 0 0
216 0 0
210 0 0
212 0 0
224 0 0
217 0 0
213 0 0
213 0 0
214 0 0
214 0 0
218 0 0
219 0 0
218 0 0
214 0 0
215 0 0
220 0 0
224 0 0
216 0 0
216 0 0
221 0 0
221 0 0
214 0 0
220 0 0
219 0 0
212 0 0
223 0 0
222 0 0
218 0 0
223 0 0
221 0 0
221 0 0
225 0 0
221 0 0
226 0 0
220 0 0
221 0 0
219 0 0
226 0 0
223 0 0
225 0 0
218 0 0
224 0 0
223 0 0
221 0 0
220 0 0
224 0 0
226 0 0
225 0 0
226 0 0
224 0 0
225 0 0
218 0 0
225 0 0
226 0 0
225 0 0
225 0 0
223 0 0
226 0 0
223 0 0
222 0 0
224 0 0
223 0 0
221 0 0
225 0 0
223 0 0
217 0 0
225 0 0
224 0 0
224 0 0
224 0 0
222 0 0
221 0 0
221 0 0
223 0 0
223 0 0
219 0 0
224 0 0
229 0 0
223 0 0
219 0 0
228 0 0
218 0 0
227 0 0
218 0 0
221 0 0
223 0 0
222 0 0
222 0 0
224 0 0
225 0 0
223 0 0
222 0 0
226 0 0
227 0 0
223 0 0
223 0 0
226 0 0
221 0 0
224 0 0
223 0 0
225 0 0
224 0 0
226 0 0
226 0 0
224 0 0
224 0 0
230 0 0
221 0 0
224 0 0
219 0 0
226 0 0
221 0 0
224 0 0
223 0 0
225 0 0
227 0 0
223 0 0
228 0 0
221 0 0
223 0 0
222 0 0
225 0 0
224 0 0
223 0 0
225 0 0
224 0 0
222 0 0
224 0 0
224 0 0
224 0 0
224 0 0
225 0 0
224 0 0
221 0 0
222 0 0
222 0 0
223 0 0
223 0 0
224 0 0
227 0 0
221 0 0
225 0 0
226 0 0
223 0 0
223 0 0
221 0 0
225 0 0
223 0 0
0 0 255
0 0 255
0 0 255
0 0 255
0 0 255
0 0 255
0 0 255
0 0 255
0 0 255
0 0 255
0 0 255
0 0 255
0 0 255
0 0 255
0 0 255
0 0 255
0 0 255
0 0 255
0 0 255
0 0 254
0 0 255
0 0 255
0 0 255
0 0 255
0 0 255
0 0 255
0 0 255
0 0 255
0 0 255
0 0 255
0 0 254
0 0 254
0 0 255
0 0 254
0 0 254
0 0 255
0 0 254
0 0 255
0 0 253
0 0 255
0 0 255
0 0 255
0 0 255
0 0 254
0 0 255
0 0 253
0 0 254
0 0 255
0 0 255
0 0 255
0 0 255
0 0 255
0 0 250
0 0 255
0 0 255
0 0 254
0 0 253
0 0 253
0 0 254
0 0 252
0 0 254
0 0 255
0 0 255
0 0 254
0 0 254
0 0 254
0 0 255
0 0 255
0 0 255
0 0 254
0 0 255
0 0 255
0 0 254
0 0 255
0 0 254
0 0 254
0 0 252
0 0 255
0 0 254
0 0 254
0 0 252
0 0 250
0 0 250
0 0 255
0 0 253
0 0 252
0 0 252
0 0 252
0 0 254
0 0 254
0 0 254
0 0 254
0 0 253
0 0 249
0 0 248
0 0 254
0 0 249
0 0 253
0 0 250
0 0 254
0 0 252
0 0 252
0 0 252
0 0 253
0 0 245
0 0 250
0 0 249
0 0 250
0 0 245
0 0 250
0 0 245
0 0 250
0 0 244
0 0 250
0 0 252
0 0 252
0 0 244
0 0 245
0 0 246
0 0 248
0 0 245
0 0 252
0 0 249
0 0 252
0 0 248
0 0 250
0 0 244
0 0 248
0 0 252
0 0 244
0 0 248
0 0 249
0 0 252
0 0 236
0 0 252
0 0 244
0 0 250
0 0 242
0 0 245
0 0 245
0 0 242
0 0 246
0 0 238
0 0 245
0 0 244
0 0 245
0 0 240
0 0 246
0 0 244
0 0 241
0 0 244
0 0 245
0 0 241
0 0 244
0 0 237
0 0 238
0 0 233
0 0 231
0 0 234
0 0 241
0 0 231
0 0 228
0 0 241
0 0 228
0 0 227
0 0 227
0 0 230
0 0 228
0 0 241
0 0 224
0 0 228
0 0 231
0 0 231
0 0 234
0 0 223
0 0 226
0 0 223
0 0 217
0 0 221
0 0 217
0 0 217
0 0 220
0 0 215
0 0 209
0 0 218
0 0 198
0 0 189
0 0 199
0 0 199
0 0 191
0 0 182
0 0 175
32 34 182
220 229 253
232 242 255
232 242 255
232 242 255
232 242 255
232 242 255
232 242 255
232 242 255
232 242 255
232 242 255
232 242 255
232 242 255
232 242 255
227 227 240
168 34 36
154 0 0
181 0 0
181 0 0
168 0 0
163 0 0
189 0 0
195 0 0
193 0 0
180 0 0
192 0 0
204 0 0
194 0 0
198 0 0
205 0 0
197 0 0
200 0 0
202 0 0
205 0 0
200 0 0
201 0 0
193 0 0
206 0 0
202 0 0
208 0 0
211 0 0
199 0 0
205 0 0
215 0 0
208 0 0
212 0 0
212 0 0
214 0 0
216 0 0
216 0 0
213 0 0
210 0 0
211 0 0
214 0 0
216 0 0
213 0 0
219 0 0
213 0 0
213 0 0
216 0 0
219 0 0
217 0 0
213 0 0
220 0 0
222 0 0
216 0 0
214 0 0
211 0 0
219 0 0
214 0 0
222 0 0
216 0 0
215 0 0
215 0 0
217 0 0
218 0 0
218 0 0
219 0 0
220 0 0
221 0 0
218 0 0
214 0 0
217 0 0
218 0 0
219 0 0
221 0 0
225 0 0
216 0 0
221 0 0
221 0 0
222 0 0
217 0 0
213 0 0
219 0 0
222 0 0
224 0 0
221 0 0
223 0 0
220 0 0
224 0 0
224 0 0
219 0 0
226 0 0
223 0 0
220 0 0
223 0 0
223 0 0
221 0 0
216 0 0
219 0 0
221 0 0
220 0 0
227 0 0
218 0 0
223 0 0
223 0 0
223 0 0
227 0 0
222 0 0
216 0 0
222 0 0
219 0 0
228 0 0
225 0 0
218 0 0
221 0 0
225 0 0
226 0 0
223 0 0
222 0 0
224 0 0
225 0 0
224 0 0
219 0 0
225 0 0
223 0 0
221 0 0
223 0 0
220 0 0
228 0 0
224 0 0
225 0 0
226 0 0
221 0 0
225 0 0
217 0 0
224 0 0
226 0 0
224 0 0
226 0 0
222 0 0
224 0 0
226 0 0
224 0 0
223 0 0
221 0 0
225 0 0
224 0 0
225 0 0
226 0 0
222 0 0
224 0 0
224 0 0
222 0 0
223 0 0
225 0 0
223 0 0
225 0 0
225 0 0
227 0 0
222 0 0
220 0 0
226 0 0
226 0 0
222 0 0
223 0 0
226 0 0
225 0 0
221 0 0
223 0 0
222 0 0
222 0 0
225 0 0
225 0 0
223 0 0
221 0 0
223 0 0
225 0 0
223 0 0
224 0 0
223 0 0
224 0 0
225 0 0
223 0 0
222 0 0
224 0 0
223 0 0
223 0 0
224 0 0
226 0 0
223 0 0
229 0 0
224 0 0
223 0 0
225 0 0
225 0 0
222 0 0
224 0 0
0 0 255
0 0 255
0 0 255
0 0 255
0 0 255
0 0 255
0 0 255
0 0 255
0 0 255
0 0 255
0 0 255
0 0 255
0 0 255
0 0 255
0 0 255
0 0 255
0 0 254
0 0 255
0 0 255
0 0 254
0 0 255
0 0 255
0 0 255
0 0 255
0 0 255
0 0 254
0 0 255
0 0 255
0 0 255
0 0 255
0 0 255
0 0 255
0 0 255
0 0 253
0 0 254
0 0 255
0 0 255
0 0 255
0 0 255
0 0 255
0 0 255
0 0 254
0 0 255
0 0 254
0 0 255
0 0 253
0 0 254
0 0 255
0 0 255
0 0 255
0 0 255
0 0 254
0 0 254
0 0 254
0 0 254
0 0 255
0 0 254
0 0 253
0 0 255
0 0 254
0 0 255
0 0 253
0 0 254
0 0 254
0 0 253
0 0 253
0 0 255
0 0 254
0 0 255
0 0 253
0 0 254
0 0 254
0 0 255
0 0 250
0 0 254
0 0 254
0 0 253
0 0 253
0 0 253
0 0 253
0 0 253
0 0 254
0 0 250
0 0 253
0 0 252
0 0 250
0 0 254
0 0 250
0 0 253
0 0 254
0 0 254
0 0 253
0 0 250
0 0 253
0 0 253
0 0 253
0 0 250
0 0 254
0 0 250
0 0 254
0 0 252
0 0 254
0 0 248
0 0 250
0 0 253
0 0 254
0 0 252
0 0 255
0 0 248
0 0 253
0 0 249
0 0 245
0 0 248
0 0 248
0 0 254
0 0 252
0 0 244
0 0 253
0 0 249
0 0 248
0 0 248
0 0 248
0 0 250
0 0 250
0 0 248
0 0 246
0 0 249
0 0 245
0 0 244
0 0 244
0 0 248
0 0 245
0 0 244
0 0 246
0 0 250
0 0 245
0 0 241
0 0 242
0 0 245
0 0 246
0 0 241
0 0 245
0 0 245
0 0 245
0 0 237
0 0 249
0 0 250
0 0 249
0 0 236
0 0 244
0 0 244
0 0 246
0 0 241
0 0 246
0 0 238
0 0 248
0 0 245
0 0 246
0 0 240
0 0 237
0 0 241
0 0 234
0 0 231
0 0 230
0 0 236
0 0 238
0 0 238
0 0 237
0 0 236
0 0 227
0 0 228
0 0 221
0 0 231
0 0 220
0 0 233
0 0 218
0 0 223
0 0 215
0 0 220
0 0 204
0 0 212
0 0 211
0 0 214
0 0 207
0 0 212
0 0 196
0 0 204
0 0 209
0 0 191
0 0 198
0 0 184
0 0 188
154 160 220
232 242 255
232 242 255
232 242 255
232 242 255
232 242 255
232 242 255
232 242 255
232 242 255
232 242 255
232 242 255
232 242 255
232 242 255
232 242 255
232 242 255
194 153 161
195 0 0
173 0 0
171 0 0
173 0 0
171 0 0
191 0 0
183 0 0
197 0 0
185 0 0
195 0 0
196 0 0
195 0 0
193 0 0
202 0 0
191 0 0
195 0 0
204 0 0
213 0 0
198 0 0
193 0 0
207 0 0
203 0 0
207 0 0
216 0 0
208 0 0
199 0 0
212 0 0
211 0 0
211 0 0
215 0 0
211 0 0
218 0 0
219 0 0
214 0 0
213 0 0
213 0 0
208 0 0
220 0 0
217 0 0
213 0 0
217 0 0
214 0 0
212 0 0
219 0 0
210 0 0
215 0 0
217 0 0
218 0 0
219 0 0
214 0 0
219 0 0
218 0 0
219 0 0
210 0 0
222 0 0
222 0 0
217 0 0
216 0 0
214 0 0
219 0 0
222 0 0
219 0 0
221 0 0
224 0 0
220 0 0
223 0 0
223 0 0
216 0 0
218 0 0
218 0 0
225 0 0
227 0 0
221 0 0
217 0 0
217 0 0
218 0 0
219 0 0
220 0 0
210 0 0
220 0 0
216 0 0
225 0 0
223 0 0
221 0 0
222 0 0
221 0 0
219 0 0
225 0 0
222 0 0
221 0 0
228 0 0
223 0 0
221 0 0
224 0 0
223 0 0
225 0 0
224 0 0
218 0 0
224 0 0
224 0 0
226 0 0
221 0 0
225 0 0
225 0 0
216 0 0
222 0 0
225 0 0
223 0 0
223 0 0
222 0 0
225 0 0
221 0 0
220 0 0
223 0 0
221 0 0
226 0 0
226 0 0
223 0 0
226 0 0
227 0 0
223 0 0
227 0 0
225 0 0
223 0 0
223 0 0
223 0 0
227 0 0
226 0 0
224 0 0
223 0 0
225 0 0
226 0 0
226 0 0
225 0 0
224 0 0
224 0 0
226 0 0
223 0 0
225 0 0
226 0 0
224 0 0
224 0 0
222 0 0
225 0 0
228 0 0
225 0 0
223 0 0
223 0 0
228 0 0
225 0 0
224 0 0
226 0 0
223 0 0
223 0 0
225 0 0
223 0 0
223 0 0
224 0 0
226 0 0
223 0 0
226 0 0
226 0 0
225 0 0
225 0 0
226 0 0
224 0 0
223 0 0
222 0 0
224 0 0
228 0 0
223 0 0
225 0 0
225 0 0
224 0 0
223 0 0
223 0 0
227 0 0
225 0 0
221 0 0
224 0 0
224 0 0
221 0 0
225 0 0
227 0 0
221 0 0
227 0 0
226 0 0
224 0 0
223 0 0
224 0 0
221 0 0
227 0 0
0 0 255
0 0 254
0 0 255
0 0 254
0 0 255
0 0 254
0 0 255
0 0 255
0 0 255
0 0 255
0 0 255
0 0 255
0 0 255
0 0 255
0 0 255
0 0 254
0 0 255
0 0 255
0 0 255
0 0 255
0 0 255
0 0 254
0 0 255
0 0 254
0 0 254
0 0 255
0 0 255
0 0 255
0 0 254
0 0 255
0 0 255
0 0 255
0 0 255
0 0 255
0 0 255
0 0 255
0 0 253
0 0 254
0 0 255
0 0 253
0 0 254
0 0 254
0 0 255
0 0 253
0 0 255
0 0 255
0 0 254
0 0 254
0 0 255
0 0 255
0 0 253
0 0 254
0 0 253
0 0 255
0 0 254
0 0 254
0 0 254
0 0 253
0 0 253
0 0 255
0 0 254
0 0 255
0 0 254
0 0 252
0 0 253
0 0 252
0 0 253
0 0 255
0 0 252
0 0 253
0 0 254
0 0 252
0 0 255
0 0 250
0 0 252
0 0 254
0 0 254
0 0 254
0 0 253
0 0 253
0 0 253
0 0 254
0 0 255
0 0 255
0 0 250
0 0 253
0 0 253
0 0 254
0 0 254
0 0 249
0 0 255
0 0 252
0 0 250
0 0 253
0 0 250
0 0 249
0 0 252
0 0 254
0 0 250
0 0 252
0 0 253
0 0 252
0 0 252
0 0 252
0 0 254
0 0 249
0 0 250
0 0 254
0 0 252
0 0 250
0 0 248
0 0 249
0 0 253
0 0 249
0 0 248
0 0 246
0 0 249
0 0 253
0 0 246
0 0 246
0 0 246
0 0 248
0 0 250
0 0 248
0 0 244
0 0 249
0 0 249
0 0 241
0 0 242
0 0 246
0 0 253
0 0 249
0 0 249
0 0 245
0 0 245
0 0 249
0 0 246
0 0 245
0 0 245
0 0 245
0 0 245
0 0 248
0 0 242
0 0 246
0 0 241
0 0 245
0 0 249
0 0 237
0 0 248
0 0 248
0 0 245
0 0 234
0 0 234
0 0 242
0 0 245
0 0 234
0 0 241
0 0 237
0 0 237
0 0 241
0 0 231
0 0 237
0 0 242
0 0 226
0 0 228
0 0 228
0 0 244
0 0 233
0 0 233
0 0 227
0 0 223
0 0 221
0 0 238
0 0 233
0 0 228
0 0 230
0 0 218
0 0 217
0 0 226
0 0 224
0 0 209
0 0 224
0 0 211
0 0 218
0 0 193
0 0 199
0 0 211
0 0 199
0 0 189
0 0 194
0 0 189
40 42 182
221 230 248
233 242 255
233 242 255
233 242 255
233 242 255
233 242 255
233 242 255
233 242 255
233 242 255
233 242 255
233 242 255
233 242 255
233 242 255
233 242 255
233 242 255
224 222 234
184 34 36
173 0 0
193 0 0
180 0 0
182 0 0
191 0 0
194 0 0
193 0 0
194 0 0
192 0 0
183 0 0
192 0 0
190 0 0
192 0 0
196 0 0
201 0 0
205 0 0
208 0 0
206 0 0
204 0 0
210 0 0
212 0 0
203 0 0
213 0 0
212 0 0
208 0 0
202 0 0
213 0 0
213 0 0
219 0 0
206 0 0
210 0 0
209 0 0
217 0 0
219 0 0
213 0 0
214 0 0
207 0 0
212 0 0
216 0 0
212 0 0
219 0 0
211 0 0
212 0 0
217 0 0
218 0 0
220 0 0
216 0 0
212 0 0
216 0 0
220 0 0
220 0 0
218 0 0
218 0 0
214 0 0
218 0 0
216 0 0
219 0 0
222 0 0
219 0 0
222 0 0
223 0 0
222 0 0
216 0 0
216 0 0
221 0 0
219 0 0
218 0 0
222 0 0
219 0 0
217 0 0
223 0 0
221 0 0
217 0 0
219 0 0
227 0 0
222 0 0
214 0 0
225 0 0
218 0 0
223 0 0
219 0 0
218 0 0
223 0 0
224 0 0
221 0 0
224 0 0
221 0 0
222 0 0
221 0 0
219 0 0
224 0 0
221 0 0
220 0 0
224 0 0
227 0 0
223 0 0
224 0 0
221 0 0
220 0 0
225 0 0
224 0 0
224 0 0
220 0 0
225 0 0
222 0 0
223 0 0
224 0 0
223 0 0
221 0 0
223 0 0
223 0 0
221 0 0
223 0 0
225 0 0
222 0 0
226 0 0
222 0 0
223 0 0
226 0 0
224 0 0
222 0 0
227 0 0
229 0 0
226 0 0
223 0 0
223 0 0
225 0 0
225 0 0
223 0 0
221 0 0
226 0 0
227 0 0
229 0 0
222 0 0
226 0 0
226 0 0
225 0 0
225 0 0
226 0 0
225 0 0
227 0 0
227 0 0
223 0 0
224 0 0
227 0 0
224 0 0
226 0 0
226 0 0
222 0 0
223 0 0
225 0 0
230 0 0
223 0 0
224 0 0
222 0 0
223 0 0
227 0 0
221 0 0
225 0 0
225 0 0
226 0 0
228 0 0
225 0 0
226 0 0
223 0 0
224 0 0
225 0 0
222 0 0
230 0 0
223 0 0
221 0 0
225 0 0
225 0 0
227 0 0
219 0 0
225 0 0
226 0 0
224 0 0
229 0 0
226 0 0
226 0 0
222 0 0
225 0 0
225 0 0
222 0 0
226 0 0
223 0 0
221 0 0
223 0 0
223 0 0
223 0 0
0 0 255
0 0 255
0 0 255
0 0 255
0 0 255
0 0 255
0 0 255
0 0 255
0 0 255
0 0 255
0 0 255
0 0 255
0 0 255
0 0 255
0 0 255
0 0 255
0 0 255
0 0 255
0 0 255
0 0 255
0 0 254
0 0 254
0 0 255
0 0 255
0 0 255
0 0 255
0 0 255
0 0 255
0 0 254
0 0 254
0 0 255
0 0 255
0 0 255
0 0 255
0 0 255
0 0 255
0 0 255
0 0 255
0 0 255
0 0 254
0 0 255
0 0 255
0 0 254
0 0 255
0 0 255
0 0 254
0 0 255
0 0 255
0 0 255
0 0 255
0 0 255
0 0 254
0 0 255
0 0 255
0 0 252
0 0 254
0 0 255
0 0 253
0 0 254
0 0 253
0 0 255
0 0 255
0 0 254
0 0 253
0 0 255
0 0 254
0 0 254
0 0 253
0 0 252
0 0 255
0 0 254
0 0 254
0 0 249
0 0 254
0 0 253
0 0 252
0 0 253
0 0 254
0 0 253
0 0 253
0 0 253
0 0 254
0 0 252
0 0 254
0 0 252
0 0 252
0 0 249
0 0 252
0 0 252
0 0 255
0 0 252
0 0 252
0 0 254
0 0 253
0 0 250
0 0 249
0 0 252
0 0 249
0 0 248
0 0 250
0 0 250
0 0 245
0 0 252
0 0 254
0 0 248
0 0 246
0 0 248
0 0 253
0 0 248
0 0 250
0 0 248
0 0 249
0 0 249
0 0 253
0 0 244
0 0 249
0 0 252
0 0 248
0 0 250
0 0 252
0 0 245
0 0 248
0 0 248
0 0 245
0 0 252
0 0 244
0 0 249
0 0 250
0 0 246
0 0 248
0 0 242
0 0 245
0 0 248
0 0 236
0 0 245
0 0 237
0 0 248
0 0 250
0 0 250
0 0 245
0 0 245
0 0 238
0 0 245
0 0 242
0 0 245
0 0 246
0 0 242
0 0 238
0 0 242
0 0 245
0 0 242
0 0 242
0 0 237
0 0 234
0 0 234
0 0 233
0 0 238
0 0 240
0 0 233
0 0 241
0 0 242
0 0 241
0 0 233
0 0 234
0 0 227
0 0 234
0 0 234
0 0 228
0 0 223
0 0 234
0 0 220
0 0 220
0 0 226
0 0 209
0 0 236
0 0 228
0 0 221
0 0 214
0 0 226
0 0 220
0 0 217
0 0 220
0 0 218
0 0 207
0 0 207
0 0 211
0 0 206
0 0 212
0 0 206
0 0 194
0 0 196
149 155 226
233 242 255
233 242 255
233 242 255
233 242 255
233 242 255
233 242 255
233 242 255
233 242 255
233 242 255
233 242 255
233 242 255
233 242 255
233 242 255
233 242 255
233 242 255
233 242 255
204 153 161
173 0 0
182 0 0
196 0 0
187 0 0
192 0 0
178 0 0
198 0 0
183 0 0
200 0 0
178 0 0
200 0 0
195 0 0
195 0 0
195 0 0
198 0 0
202 0 0
208 0 0
206 0 0
204 0 0
192 0 0
199 0 0
209 0 0
211 0 0
214 0 0
209 0 0
206 0 0
197 0 0
204 0 0
222 0 0
209 0 0
223 0 0
211 0 0
211 0 0
215 0 0
222 0 0
210 0 0
218 0 0
204 0 0
216 0 0
210 0 0
217 0 0
219 0 0
215 0 0
215 0 0
214 0 0
215 0 0
222 0 0
219 0 0
214 0 0
222 0 0
216 0 0
223 0 0
215 0 0
216 0 0
216 0 0
220 0 0
224 0 0
224 0 0
220 0 0
215 0 0
216 0 0
223 0 0
217 0 0
218 0 0
221 0 0
219 0 0
225 0 0
227 0 0
218 0 0
218 0 0
223 0 0
221 0 0
224 0 0
224 0 0
216 0 0
219 0 0
225 0 0
225 0 0
221 0 0
225 0 0
223 0 0
219 0 0
212 0 0
218 0 0
223 0 0
219 0 0
224 0 0
223 0 0
223 0 0
217 0 0
225 0 0
229 0 0
221 0 0
224 0 0
225 0 0
222 0 0
224 0 0
223 0 0
219 0 0
222 0 0
223 0 0
219 0 0
221 0 0
224 0 0
223 0 0
223 0 0
224 0 0
225 0 0
227 0 0
224 0 0
224 0 0
224 0 0
224 0 0
221 0 0
227 0 0
224 0 0
223 0 0
223 0 0
225 0 0
226 0 0
224 0 0
223 0 0
226 0 0
223 0 0
227 0 0
225 0 0
222 0 0
222 0 0
226 0 0
225 0 0
225 0 0
223 0 0
223 0 0
226 0 0
222 0 0
226 0 0
223 0 0
225 0 0
223 0 0
219 0 0
223 0 0
224 0 0
224 0 0
232 0 0
224 0 0
226 0 0
223 0 0
225 0 0
225 0 0
225 0 0
223 0 0
226 0 0
223 0 0
225 0 0
225 0 0
225 0 0
223 0 0
225 0 0
226 0 0
226 0 0
225 0 0
226 0 0
222 0 0
227 0 0
226 0 0
225 0 0
224 0 0
224 0 0
222 0 0
225 0 0
220 0 0
226 0 0
226 0 0
224 0 0
225 0 0
229 0 0
226 0 0
225 0 0
224 0 0
225 0 0
223 0 0
227 0 0
224 0 0
224 0 0
222 0 0
225 0 0
226 0 0
223 0 0
224 0 0
227 0 0
224 0 0
0 0 255
0 0 255
0 0 255
0 0 254
0 0 255
0 0 255
0 0 255
0 0 255
0 0 255
0 0 255
0 0 255
0 0 255
0 0 255
0 0 255
0 0 254
0 0 255
0 0 255
0 0 254
0 0 255
0 0 255
0 0 255
0 0 255
0 0 255
0 0 255
0 0 255
0 0 255
0 0 255
0 0 255
0 0 255
0 0 255
0 0 254
0 0 255
0 0 255
0 0 254
0 0 255
0 0 255
0 0 255
0 0 255
0 0 255
0 0 255
0 0 255
0 0 254
0 0 254
0 0 255
0 0 255
0 0 255
0 0 255
0 0 255
0 0 255
0 0 255
0 0 254
0 0 255
0 0 255
0 0 254
0 0 253
0 0 255
0 0 255
0 0 254
0 0 255
0 0 255
0 0 255
0 0 249
0 0 254
0 0 255
0 0 250
0 0 255
0 0 252
0 0 249
0 0 254
0 0 254
0 0 255
0 0 253
0 0 254
0 0 253
0 0 252
0 0 253
0 0 252
0 0 250
0 0 253
0 0 253
0 0 254
0 0 253
0 0 252
0 0 254
0 0 253
0 0 254
0 0 254
0 0 254
0 0 254
0 0 253
0 0 250
0 0 253
0 0 253
0 0 255
0 0 252
0 0 253
0 0 254
0 0 253
0 0 246
0 0 254
0 0 252
0 0 254
0 0 250
0 0 249
0 0 254
0 0 253
0 0 250
0 0 252
0 0 252
0 0 254
0 0 249
0 0 252
0 0 253
0 0 249
0 0 246
0 0 248
0 0 250
0 0 250
0 0 249
0 0 253
0 0 249
0 0 250
0 0 244
0 0 250
0 0 250
0 0 245
0 0 250
0 0 246
0 0 253
0 0 248
0 0 252
0 0 244
0 0 246
0 0 250
0 0 241
0 0 249
0 0 245
0 0 245
0 0 242
0 0 249
0 0 246
0 0 252
0 0 242
0 0 241
0 0 244
0 0 245
0 0 245
0 0 238
0 0 244
0 0 238
0 0 241
0 0 236
0 0 236
0 0 246
0 0 248
0 0 240
0 0 241
0 0 238
0 0 236
0 0 233
0 0 236
0 0 234
0 0 240
0 0 234
0 0 223
0 0 236
0 0 237
0 0 234
0 0 238
0 0 227
0 0 231
0 0 224
0 0 224
0 0 231
0 0 231
0 0 226
0 0 223
0 0 224
0 0 220
0 0 211
0 0 217
0 0 209
0 0 214
0 0 194
0 0 215
0 0 201
0 0 193
0 0 182
0 0 204
0 0 196
52 54 207
219 227 248
233 242 255
233 242 255
233 242 255
233 242 255
233 242 255
233 242 255
233 242 255
233 242 255
233 242 255
233 242 255
233 242 255
233 242 255
233 242 255
233 242 255
233 242 255
233 242 255
232 235 248
183 59 62
189 0 0
189 0 0
180 0 0
192 0 0
183 0 0
176 0 0
188 0 0
194 0 0
192 0 0
208 0 0
187 0 0
199 0 0
202 0 0
204 0 0
198 0 0
209 0 0
205 0 0
205 0 0
211 0 0
205 0 0
210 0 0
196 0 0
200 0 0
218 0 0
215 0 0
207 0 0
211 0 0
218 0 0
212 0 0
219 0 0
210 0 0
216 0 0
212 0 0
206 0 0
211 0 0
220 0 0
218 0 0
218 0 0
211 0 0
215 0 0
214 0 0
214 0 0
209 0 0
219 0 0
219 0 0
215 0 0
214 0 0
218 0 0
214 0 0
210 0 0
218 0 0
227 0 0
217 0 0
221 0 0
220 0 0
220 0 0
218 0 0
220 0 0
219 0 0
217 0 0
220 0 0
221 0 0
227 0 0
216 0 0
221 0 0
222 0 0
221 0 0
219 0 0
222 0 0
223 0 0
219 0 0
225 0 0
226 0 0
218 0 0
222 0 0
223 0 0
219 0 0
219 0 0
215 0 0
225 0 0
221 0 0
223 0 0
222 0 0
222 0 0
222 0 0
223 0 0
229 0 0
218 0 0
221 0 0
219 0 0
224 0 0
224 0 0
224 0 0
223 0 0
223 0 0
227 0 0
219 0 0
220 0 0
225 0 0
220 0 0
224 0 0
225 0 0
223 0 0
224 0 0
229 0 0
225 0 0
222 0 0
221 0 0
226 0 0
227 0 0
224 0 0
227 0 0
225 0 0
225 0 0
224 0 0
227 0 0
221 0 0
223 0 0
226 0 0
222 0 0
224 0 0
222 0 0
224 0 0
229 0 0
226 0 0
224 0 0
226 0 0
224 0 0
222 0 0
221 0 0
225 0 0
224 0 0
225 0 0
226 0 0
223 0 0
230 0 0
222 0 0
224 0 0
227 0 0
226 0 0
224 0 0
221 0 0
222 0 0
226 0 0
225 0 0
222 0 0
225 0 0
225 0 0
223 0 0
226 0 0
225 0 0
224 0 0
223 0 0
223 0 0
224 0 0
224 0 0
226 0 0
228 0 0
225 0 0
225 0 0
223 0 0
226 0 0
224 0 0
226 0 0
225 0 0
228 0 0
224 0 0
224 0 0
226 0 0
227 0 0
220 0 0
225 0 0
222 0 0
227 0 0
224 0 0
221 0 0
226 0 0
224 0 0
226 0 0
225 0 0
225 0 0
226 0 0
226 0 0
223 0 0
225 0 0
224 0 0
224 0 0
224 0 0
222 0 0
224 0 0
0 0 255
0 0 255
0 0 255
0 0 255
0 0 255
0 0 255
0 0 255
0 0 255
0 0 255
0 0 255
0 0 255
0 0 255
0 0 255
0 0 255
0 0 255
0 0 255
0 0 255
0 0 255
0 0 255
0 0 255
0 0 254
0 0 255
0 0 255
0 0 254
0 0 255
0 0 255
0 0 255
0 0 255
0 0 255
0 0 255
0 0 255
0 0 255
0 0 255
0 0 254
0 0 255
0 0 254
0 0 254
0 0 254
0 0 254
0 0 254
0 0 253
0 0 254
0 0 255
0 0 254
0 0 254
0 0 254
0 0 255
0 0 254
0 0 255
0 0 255
0 0 255
0 0 255
0 0 255
0 0 255
0 0 254
0 0 254
0 0 255
0 0 253
0 0 255
0 0 254
0 0 254
0 0 254
0 0 253
0 0 254
0 0 255
0 0 254
0 0 254
0 0 255
0 0 255
0 0 253
0 0 255
0 0 254
0 0 254
0 0 253
0 0 254
0 0 255
0 0 255
0 0 252
0 0 255
0 0 253
0 0 253
0 0 255
0 0 252
0 0 250
0 0 253
0 0 250
0 0 255
0 0 253
0 0 253
0 0 253
0 0 253
0 0 253
0 0 252
0 0 254
0 0 252
0 0 252
0 0 252
0 0 252
0 0 254
0 0 253
0 0 252
0 0 253
0 0 252
0 0 252
0 0 253
0 0 248
0 0 253
0 0 254
0 0 249
0 0 250
0 0 253
0 0 252
0 0 252
0 0 246
0 0 248
0 0 248
0 0 250
0 0 249
0 0 248
0 0 245
0 0 250
0 0 253
0 0 250
0 0 250
0 0 248
0 0 250
0 0 246
0 0 245
0 0 244
0 0 244
0 0 248
0 0 248
0 0 240
0 0 244
0 0 250
0 0 246
0 0 250
0 0 245
0 0 248
0 0 242
0 0 248
0 0 242
0 0 241
0 0 238
0 0 248
0 0 236
0 0 245
0 0 237
0 0 236
0 0 250
0 0 242
0 0 242
0 0 244
0 0 242
0 0 245
0 0 240
0 0 244
0 0 241
0 0 236
0 0 240
0 0 240
0 0 236
0 0 237
0 0 236
0 0 240
0 0 230
0 0 233
0 0 238
0 0 236
0 0 231
0 0 223
0 0 231
0 0 228
0 0 230
0 0 217
0 0 217
0 0 218
0 0 233
0 0 227
0 0 221
0 0 198
0 0 207
0 0 218
0 0 207
0 0 212
0 0 207
0 0 198
0 0 209
0 0 193
0 0 191
158 164 230
234 243 255
234 243 255
234 243 255
234 243 255
234 243 255
234 243 255
234 243 255
234 243 255
234 243 255
234 243 255
234 243 255
234 243 255
234 243 255
234 243 255
234 243 255
234 243 255
234 243 255
234 243 255
214 164 173
201 0 0
188 0 0
177 0 0
196 0 0
193 0 0
200 0 0
199 0 0
201 0 0
206 0 0
200 0 0
188 0 0
193 0 0
194 0 0
191 0 0
205 0 0
205 0 0
195 0 0
210 0 0
191 0 0
204 0 0
206 0 0
194 0 0
204 0 0
198 0 0
210 0 0
208 0 0
214 0 0
210 0 0
220 0 0
211 0 0
219 0 0
207 0 0
204 0 0
209 0 0
217 0 0
213 0 0
218 0 0
224 0 0
212 0 0
206 0 0
206 0 0
216 0 0
215 0 0
211 0 0
215 0 0
222 0 0
220 0 0
213 0 0
217 0 0
218 0 0
214 0 0
220 0 0
217 0 0
217 0 0
222 0 0
215 0 0
217 0 0
218 0 0
222 0 0
222 0 0
221 0 0
224 0 0
225 0 0
216 0 0
221 0 0
221 0 0
223 0 0
217 0 0
221 0 0
221 0 0
220 0 0
227 0 0
224 0 0
221 0 0
225 0 0
224 0 0
218 0 0
221 0 0
219 0 0
215 0 0
217 0 0
223 0 0
227 0 0
225 0 0
226 0 0
221 0 0
223 0 0
222 0 0
216 0 0
218 0 0
221 0 0
225 0 0
220 0 0
221 0 0
228 0 0
220 0 0
222 0 0
224 0 0
221 0 0
223 0 0
227 0 0
220 0 0
222 0 0
223 0 0
223 0 0
225 0 0
221 0 0
223 0 0
225 0 0
225 0 0
222 0 0
224 0 0
220 0 0
222 0 0
219 0 0
225 0 0
223 0 0
222 0 0
228 0 0
221 0 0
224 0 0
228 0 0
225 0 0
224 0 0
221 0 0
223 0 0
226 0 0
223 0 0
224 0 0
226 0 0
228 0 0
222 0 0
227 0 0
225 0 0
220 0 0
222 0 0
223 0 0
227 0 0
224 0 0
223 0 0
225 0 0
220 0 0
224 0 0
223 0 0
226 0 0
226 0 0
224 0 0
222 0 0
224 0 0
224 0 0
221 0 0
225 0 0
222 0 0
224 0 0
222 0 0
223 0 0
224 0 0
228 0 0
224 0 0
224 0 0
224 0 0
225 0 0
227 0 0
223 0 0
225 0 0
227 0 0
228 0 0
223 0 0
226 0 0
228 0 0
225 0 0
222 0 0
224 0 0
222 0 0
224 0 0
222 0 0
227 0 0
225 0 0
227 0 0
226 0 0
224 0 0
224 0 0
224 0 0
224 0 0
229 0 0
223 0 0
224 0 0
227 0 0
224 0 0
227 0 0
0 0 255
0 0 255
0 0 255
0 0 255
0 0 255
0 0 255
0 0 255
0 0 255
0 0 255
0 0 255
0 0 255
0 0 255
0 0 255
0 0 255
0 0 255
0 0 255
0 0 255
0 0 255
0 0 255
0 0 255
0 0 255
0 0 255
0 0 255
0 0 254
0 0 255
0 0 254
0 0 254
0 0 255
0 0 255
0 0 255
0 0 255
0 0 254
0 0 254
0 0 254
0 0 255
0 0 255
0 0 255
0 0 255
0 0 252
0 0 255
0 0 255
0 0 253
0 0 254
0 0 255
0 0 254
0 0 255
0 0 253
0 0 255
0 0 255
0 0 254
0 0 252
0 0 255
0 0 255
0 0 255
0 0 253
0 0 255
0 0 255
0 0 254
0 0 254
0 0 253
0 0 253
0 0 254
0 0 255
0 0 255
0 0 253
0 0 255
0 0 254
0 0 255
0 0 252
0 0 255
0 0 254
0 0 254
0 0 254
0 0 255
0 0 254
0 0 254
0 0 252
0 0 254
0 0 254
0 0 253
0 0 250
0 0 249
0 0 250
0 0 254
0 0 253
0 0 255
0 0 253
0 0 252
0 0 252
0 0 254
0 0 252
0 0 253
0 0 252
0 0 255
0 0 253
0 0 250
0 0 254
0 0 253
0 0 252
0 0 252
0 0 249
0 0 250
0 0 252
0 0 248
0 0 250
0 0 255
0 0 254
0 0 254
0 0 249
0 0 255
0 0 248
0 0 249
0 0 249
0 0 250
0 0 249
0 0 246
0 0 245
0 0 249
0 0 249
0 0 250
0 0 248
0 0 254
0 0 248
0 0 249
0 0 250
0 0 249
0 0 249
0 0 246
0 0 245
0 0 250
0 0 249
0 0 248
0 0 252
0 0 248
0 0 248
0 0 249
0 0 242
0 0 245
0 0 242
0 0 242
0 0 248
0 0 245
0 0 246
0 0 245
0 0 241
0 0 244
0 0 241
0 0 246
0 0 240
0 0 238
0 0 245
0 0 246
0 0 237
0 0 246
0 0 245
0 0 246
0 0 245
0 0 234
0 0 241
0 0 234
0 0 240
0 0 233
0 0 244
0 0 234
0 0 230
0 0 226
0 0 240
0 0 230
0 0 233
0 0 238
0 0 236
0 0 234
0 0 230
0 0 231
0 0 228
0 0 224
0 0 207
0 0 218
0 0 211
0 0 220
0 0 220
0 0 207
0 0 221
0 0 209
0 0 201
0 0 204
0 0 214
0 0 214
0 0 186
90 94 207
227 235 252
234 243 255
234 243 255
234 243 255
234 243 255
234 243 255
234 243 255
234 243 255
234 243 255
234 243 255
234 243 255
234 243 255
234 243 255
234 243 255
234 243 255
234 243 255
234 243 255
234 243 255
234 243 255
230 234 246
203 91 95
193 0 0
200 0 0
195 0 0
185 0 0
214 0 0
200 0 0
204 0 0
199 0 0
214 0 0
200 0 0
210 0 0
194 0 0
208 0 0
204 0 0
210 0 0
210 0 0
207 0 0
205 0 0
212 0 0
208 0 0
216 0 0
211 0 0
208 0 0
210 0 0
219 0 0
212 0 0
213 0 0
212 0 0
207 0 0
215 0 0
209 0 0
225 0 0
203 0 0
212 0 0
221 0 0
225 0 0
214 0 0
218 0 0
209 0 0
210 0 0
216 0 0
216 0 0
212 0 0
227 0 0
214 0 0
220 0 0
221 0 0
213 0 0
224 0 0
219 0 0
219 0 0
215 0 0
219 0 0
216 0 0
218 0 0
219 0 0
219 0 0
219 0 0
220 0 0
221 0 0
219 0 0
219 0 0
220 0 0
223 0 0
224 0 0
222 0 0
217 0 0
219 0 0
223 0 0
225 0 0
226 0 0
220 0 0
223 0 0
222 0 0
218 0 0
226 0 0
222 0 0
223 0 0
216 0 0
226 0 0
223 0 0
222 0 0
222 0 0
224 0 0
220 0 0
222 0 0
218 0 0
226 0 0
220 0 0
223 0 0
222 0 0
223 0 0
223 0 0
224 0 0
222 0 0
221 0 0
222 0 0
222 0 0
223 0 0
223 0 0
226 0 0
226 0 0
227 0 0
227 0 0
224 0 0
225 0 0
224 0 0
225 0 0
224 0 0
222 0 0
223 0 0
223 0 0
225 0 0
224 0 0
227 0 0
222 0 0
227 0 0
220 0 0
225 0 0
225 0 0
221 0 0
220 0 0
226 0 0
226 0 0
220 0 0
227 0 0
223 0 0
225 0 0
222 0 0
218 0 0
224 0 0
226 0 0
222 0 0
223 0 0
223 0 0
226 0 0
226 0 0
225 0 0
226 0 0
223 0 0
227 0 0
220 0 0
228 0 0
228 0 0
228 0 0
224 0 0
225 0 0
223 0 0
223 0 0
226 0 0
225 0 0
228 0 0
225 0 0
223 0 0
224 0 0
229 0 0
221 0 0
224 0 0
226 0 0
225 0 0
225 0 0
224 0 0
226 0 0
223 0 0
223 0 0
228 0 0
226 0 0
224 0 0
227 0 0
224 0 0
228 0 0
229 0 0
228 0 0
224 0 0
224 0 0
227 0 0
225 0 0
224 0 0
227 0 0
225 0 0
226 0 0
228 0 0
225 0 0
225 0 0
224 0 0
225 0 0
227 0 0
224 0 0
223 0 0
0 0 255
0 0 255
0 0 255
0 0 255
0 0 255
0 0 254
0 0 255
0 0 255
0 0 255
0 0 255
0 0 255
0 0 255
0 0 255
0 0 255
0 0 255
0 0 255
0 0 255
0 0 255
0 0 255
0 0 255
0 0 255
0 0 255
0 0 255
0 0 255
0 0 255
0 0 255
0 0 255
0 0 255
0 0 255
0 0 255
0 0 255
0 0 254
0 0 255
0 0 255
0 0 255
0 0 255
0 0 255
0 0 254
0 0 255
0 0 255
0 0 255
0 0 255
0 0 254
0 0 254
0 0 253
0 0 255
0 0 253
0 0 255
0 0 255
0 0 254
0 0 254
0 0 255
0 0 255
0 0 253
0 0 253
0 0 254
0 0 255
0 0 254
0 0 254
0 0 254
0 0 254
0 0 254
0 0 254
0 0 254
0 0 254
0 0 253
0 0 253
0 0 254
0 0 250
0 0 255
0 0 253
0 0 252
0 0 255
0 0 254
0 0 255
0 0 255
0 0 253
0 0 255
0 0 254
0 0 253
0 0 253
0 0 254
0 0 255
0 0 253
0 0 252
0 0 253
0 0 255
0 0 252
0 0 254
0 0 255
0 0 250
0 0 254
0 0 254
0 0 254
0 0 249
0 0 253
0 0 253
0 0 253
0 0 249
0 0 253
0 0 249
0 0 252
0 0 250
0 0 253
0 0 250
0 0 254
0 0 250
0 0 249
0 0 252
0 0 250
0 0 252
0 0 242
0 0 250
0 0 252
0 0 248
0 0 246
0 0 249
0 0 249
0 0 249
0 0 252
0 0 245
0 0 250
0 0 250
0 0 248
0 0 245
0 0 249
0 0 245
0 0 246
0 0 246
0 0 250
0 0 248
0 0 249
0 0 249
0 0 248
0 0 249
0 0 241
0 0 250
0 0 249
0 0 245
0 0 240
0 0 250
0 0 242
0 0 250
0 0 240
0 0 245
0 0 254
0 0 240
0 0 245
0 0 246
0 0 248
0 0 237
0 0 236
0 0 237
0 0 238
0 0 240
0 0 240
0 0 249
0 0 241
0 0 240
0 0 242
0 0 238
0 0 228
0 0 234
0 0 231
0 0 226
0 0 234
0 0 234
0 0 227
0 0 237
0 0 244
0 0 231
0 0 223
0 0 231
0 0 221
0 0 221
0 0 223
0 0 226
0 0 209
0 0 224
0 0 212
0 0 226
0 0 212
0 0 224
0 0 217
0 0 211
0 0 221
0 0 212
0 0 201
0 0 214
190 197 240
234 243 255
234 243 255
234 243 255
234 243 255
234 243 255
234 243 255
234 243 255
234 243 255
234 243 255
234 243 255
234 243 255
234 243 255
234 243 255
234 243 255
234 243 255
234 243 255
234 243 255
234 243 255
234 243 255
234 243 255
215 196 206
207 0 0
190 0 0
196 0 0
192 0 0
195 0 0
197 0 0
184 0 0
188 0 0
199 0 0
196 0 0
210 0 0
201 0 0
210 0 0
206 0 0
206 0 0
206 0 0
207 0 0
213 0 0
213 0 0
215 0 0
208 0 0
209 0 0
218 0 0
220 0 0
206 0 0
214 0 0
200 0 0
212 0 0
205 0 0
211 0 0
211 0 0
214 0 0
218 0 0
218 0 0
214 0 0
218 0 0
220 0 0
218 0 0
220 0 0
211 0 0
217 0 0
217 0 0
220 0 0
219 0 0
225 0 0
220 0 0
219 0 0
206 0 0
212 0 0
217 0 0
225 0 0
222 0 0
215 0 0
222 0 0
217 0 0
221 0 0
219 0 0
218 0 0
219 0 0
224 0 0
219 0 0
216 0 0
226 0 0
219 0 0
222 0 0
221 0 0
219 0 0
222 0 0
223 0 0
222 0 0
221 0 0
221 0 0
219 0 0
224 0 0
224 0 0
227 0 0
224 0 0
225 0 0
225 0 0
224 0 0
217 0 0
225 0 0
223 0 0
224 0 0
222 0 0
225 0 0
223 0 0
223 0 0
224 0 0
227 0 0
226 0 0
223 0 0
229 0 0
223 0 0
222 0 0
224 0 0
225 0 0
222 0 0
224 0 0
226 0 0
221 0 0
228 0 0
222 0 0
225 0 0
222 0 0
227 0 0
224 0 0
224 0 0
223 0 0
223 0 0
221 0 0
220 0 0
223 0 0
223 0 0
230 0 0
221 0 0
221 0 0
225 0 0
230 0 0
220 0 0
223 0 0
223 0 0
222 0 0
225 0 0
223 0 0
228 0 0
225 0 0
224 0 0
227 0 0
227 0 0
224 0 0
223 0 0
221 0 0
226 0 0
225 0 0
227 0 0
223 0 0
227 0 0
227 0 0
223 0 0
225 0 0
227 0 0
226 0 0
226 0 0
227 0 0
227 0 0
223 0 0
222 0 0
229 0 0
223 0 0
225 0 0
227 0 0
225 0 0
223 0 0
226 0 0
224 0 0
222 0 0
221 0 0
224 0 0
227 0 0
224 0 0
225 0 0
226 0 0
227 0 0
226 0 0
227 0 0
223 0 0
223 0 0
226 0 0
229 0 0
222 0 0
228 0 0
225 0 0
223 0 0
224 0 0
225 0 0
222 0 0
226 0 0
226 0 0
223 0 0
226 0 0
224 0 0
224 0 0
226 0 0
222 0 0
226 0 0
227 0 0
224 0 0
221 0 0
0 0 255
0 0 255
0 0 255
0 0 255
0 0 255
0 0 255
0 0 255
0 0 255
0 0 255
0 0 255
0 0 255
0 0 255
0 0 255
0 0 254
0 0 255
0 0 255
0 0 254
0 0 255
0 0 255
0 0 253
0 0 255
0 0 254
0 0 255
0 0 255
0 0 255
0 0 255
0 0 254
0 0 255
0 0 255
0 0 255
0 0 255
0 0 255
0 0 254
0 0 254
0 0 255
0 0 254
0 0 255
0 0 254
0 0 255
0 0 255
0 0 254
0 0 255
0 0 254
0 0 254
0 0 255
0 0 255
0 0 255
0 0 254
0 0 255
0 0 255
0 0 255
0 0 254
0 0 255
0 0 255
0 0 255
0 0 254
0 0 254
0 0 253
0 0 255
0 0 254
0 0 255
0 0 254
0 0 255
0 0 254
0 0 254
0 0 255
0 0 254
0 0 254
0 0 254
0 0 254
0 0 253
0 0 254
0 0 255
0 0 253
0 0 254
0 0 253
0 0 253
0 0 255
0 0 253
0 0 253
0 0 253
0 0 253
0 0 250
0 0 254
0 0 253
0 0 253
0 0 253
0 0 253
0 0 252
0 0 255
0 0 254
0 0 253
0 0 250
0 0 253
0 0 253
0 0 249
0 0 252
0 0 253
0 0 250
0 0 252
0 0 252
0 0 254
0 0 248
0 0 250
0 0 255
0 0 252
0 0 252
0 0 255
0 0 250
0 0 252
0 0 250
0 0 252
0 0 250
0 0 252
0 0 250
0 0 253
0 0 249
0 0 250
0 0 252
0 0 244
0 0 250
0 0 249
0 0 248
0 0 248
0 0 250
0 0 248
0 0 238
0 0 250
0 0 245
0 0 246
0 0 246
0 0 248
0 0 248
0 0 245
0 0 246
0 0 241
0 0 244
0 0 245
0 0 245
0 0 250
0 0 238
0 0 240
0 0 241
0 0 250
0 0 246
0 0 249
0 0 242
0 0 242
0 0 245
0 0 241
0 0 242
0 0 241
0 0 240
0 0 236
0 0 242
0 0 241
0 0 240
0 0 230
0 0 237
0 0 241
0 0 237
0 0 244
0 0 231
0 0 231
0 0 233
0 0 221
0 0 231
0 0 230
0 0 240
0 0 228
0 0 231
0 0 217
0 0 217
0 0 228
0 0 224
0 0 227
0 0 237
0 0 215
0 0 218
0 0 220
0 0 206
0 0 211
0 0 217
0 0 211
0 0 209
0 0 199
0 0 203
0 0 211
124 128 214
235 243 255
235 243 255
235 243 255
235 243 255
235 243 255
235 243 255
235 243 255
235 243 255
235 243 255
235 243 255
235 243 255
235 243 255
235 243 255
235 243 255
235 243 255
235 243 255
235 243 255
235 243 255
235 243 255
235 243 255
235 243 255
235 243 255
206 150 157
192 0 0
191 0 0
192 0 0
192 0 0
206 0 0
190 0 0
194 0 0
204 0 0
208 0 0
199 0 0
200 0 0
207 0 0
194 0 0
212 0 0
195 0 0
211 0 0
213 0 0
208 0 0
214 0 0
208 0 0
220 0 0
210 0 0
205 0 0
217 0 0
207 0 0
220 0 0
209 0 0
216 0 0
213 0 0
209 0 0
211 0 0
214 0 0
217 0 0
214 0 0
214 0 0
214 0 0
217 0 0
212 0 0
205 0 0
216 0 0
216 0 0
217 0 0
211 0 0
215 0 0
217 0 0
220 0 0
222 0 0
219 0 0
222 0 0
222 0 0
213 0 0
225 0 0
219 0 0
222 0 0
218 0 0
223 0 0
217 0 0
225 0 0
212 0 0
222 0 0
224 0 0
221 0 0
218 0 0
220 0 0
219 0 0
223 0 0
224 0 0
222 0 0
224 0 0
221 0 0
223 0 0
225 0 0
223 0 0
227 0 0
219 0 0
226 0 0
220 0 0
225 0 0
219 0 0
220 0 0
228 0 0
220 0 0
224 0 0
221 0 0
225 0 0
225 0 0
223 0 0
226 0 0
222 0 0
221 0 0
222 0 0
230 0 0
224 0 0
221 0 0
224 0 0
223 0 0
222 0 0
224 0 0
224 0 0
227 0 0
224 0 0
225 0 0
227 0 0
228 0 0
222 0 0
224 0 0
222 0 0
223 0 0
225 0 0
226 0 0
225 0 0
226 0 0
225 0 0
224 0 0
222 0 0
227 0 0
227 0 0
227 0 0
221 0 0
224 0 0
226 0 0
228 0 0
228 0 0
226 0 0
226 0 0
226 0 0
223 0 0
226 0 0
227 0 0
227 0 0
226 0 0
224 0 0
223 0 0
227 0 0
222 0 0
223 0 0
228 0 0
226 0 0
226 0 0
225 0 0
225 0 0
228 0 0
225 0 0
223 0 0
225 0 0
224 0 0
224 0 0
226 0 0
228 0 0
225 0 0
223 0 0
225 0 0
227 0 0
225 0 0
226 0 0
223 0 0
227 0 0
225 0 0
225 0 0
222 0 0
225 0 0
224 0 0
226 0 0
226 0 0
224 0 0
224 0 0
228 0 0
225 0 0
222 0 0
225 0 0
224 0 0
224 0 0
225 0 0
223 0 0
224 0 0
226 0 0
222 0 0
226 0 0
225 0 0
223 0 0
229 0 0
226 0 0
225 0 0
227 0 0
227 0 0
227 0 0
222 0 0
225 0 0
0 0 255
0 0 255
0 0 255
0 0 255
0 0 255
0 0 255
0 0 255
0 0 255
0 0 255
0 0 255
0 0 255
0 0 255
0 0 255
0 0 254
0 0 255
0 0 255
0 0 255
0 0 255
0 0 254
0 0 255
0 0 255
0 0 255
0 0 255
0 0 255
0 0 255
0 0 255
0 0 255
0 0 255
0 0 255
0 0 255
0 0 255
0 0 255
0 0 255
0 0 255
0 0 255
0 0 255
0 0 255
0 0 254
0 0 254
0 0 255
0 0 255
0 0 255
0 0 255
0 0 254
0 0 255
0 0 254
0 0 255
0 0 255
0 0 255
0 0 255
0 0 255
0 0 253
0 0 253
0 0 254
0 0 255
0 0 255
0 0 254
0 0 253
0 0 255
0 0 253
0 0 255
0 0 255
0 0 252
0 0 254
0 0 254
0 0 254
0 0 253
0 0 254
0 0 254
0 0 254
0 0 253
0 0 255
0 0 252
0 0 254
0 0 254
0 0 252
0 0 254
0 0 253
0 0 254
0 0 253
0 0 254
0 0 250
0 0 249
0 0 252
0 0 254
0 0 252
0 0 254
0 0 249
0 0 254
0 0 255
0 0 253
0 0 254
0 0 252
0 0 248
0 0 253
0 0 250
0 0 253
0 0 244
0 0 254
0 0 254
0 0 250
0 0 250
0 0 246
0 0 253
0 0 252
0 0 248
0 0 252
0 0 249
0 0 248
0 0 253
0 0 252
0 0 248
0 0 249
0 0 253
0 0 250
0 0 250
0 0 246
0 0 252
0 0 248
0 0 242
0 0 253
0 0 249
0 0 249
0 0 246
0 0 248
0 0 249
0 0 246
0 0 246
0 0 248
0 0 249
0 0 249
0 0 244
0 0 238
0 0 242
0 0 244
0 0 249
0 0 246
0 0 242
0 0 248
0 0 249
0 0 241
0 0 241
0 0 241
0 0 244
0 0 238
0 0 245
0 0 244
0 0 241
0 0 241
0 0 245
0 0 241
0 0 240
0 0 244
0 0 241
0 0 244
0 0 236
0 0 238
0 0 245
0 0 226
0 0 236
0 0 237
0 0 242
0 0 236
0 0 236
0 0 233
0 0 242
0 0 231
0 0 227
0 0 236
0 0 227
0 0 236
0 0 236
0 0 226
0 0 226
0 0 221
0 0 228
0 0 224
0 0 221
0 0 220
0 0 226
0 0 217
0 0 211
0 0 220
0 0 215
0 0 206
0 0 199
0 0 204
52 54 209
220 228 250
235 243 255
235 243 255
235 243 255
235 243 255
235 243 255
235 243 255
235 243 255
235 243 255
235 243 255
235 243 255
235 243 255
235 243 255
235 243 255
235 243 255
235 243 255
235 243 255
235 243 255
235 243 255
235 243 255
235 243 255
235 243 255
235 243 255
229 222 233
214 42 44
192 0 0
188 0 0
209 0 0
192 0 0
209 0 0
216 0 0
198 0 0
199 0 0
205 0 0
197 0 0
197 0 0
200 0 0
211 0 0
209 0 0
216 0 0
209 0 0
211 0 0
213 0 0
214 0 0
205 0 0
215 0 0
210 0 0
217 0 0
219 0 0
207 0 0
210 0 0
211 0 0
213 0 0
210 0 0
219 0 0
214 0 0
211 0 0
220 0 0
219 0 0
217 0 0
215 0 0
218 0 0
224 0 0
225 0 0
220 0 0
218 0 0
209 0 0
215 0 0
219 0 0
225 0 0
223 0 0
222 0 0
226 0 0
214 0 0
223 0 0
219 0 0
219 0 0
224 0 0
217 0 0
223 0 0
219 0 0
217 0 0
222 0 0
224 0 0
219 0 0
220 0 0
225 0 0
220 0 0
223 0 0
219 0 0
221 0 0
220 0 0
217 0 0
224 0 0
218 0 0
223 0 0
223 0 0
225 0 0
224 0 0
214 0 0
221 0 0
221 0 0
221 0 0
220 0 0
222 0 0
226 0 0
223 0 0
226 0 0
226 0 0
219 0 0
223 0 0
224 0 0
223 0 0
229 0 0
228 0 0
228 0 0
224 0 0
225 0 0
226 0 0
224 0 0
224 0 0
222 0 0
224 0 0
223 0 0
223 0 0
222 0 0
227 0 0
222 0 0
215 0 0
225 0 0
226 0 0
226 0 0
223 0 0
228 0 0
220 0 0
226 0 0
228 0 0
222 0 0
226 0 0
223 0 0
224 0 0
225 0 0
226 0 0
227 0 0
222 0 0
225 0 0
224 0 0
224 0 0
227 0 0
227 0 0
227 0 0
223 0 0
223 0 0
228 0 0
222 0 0
229 0 0
225 0 0
227 0 0
224 0 0
226 0 0
228 0 0
225 0 0
226 0 0
226 0 0
226 0 0
224 0 0
225 0 0
224 0 0
225 0 0
223 0 0
224 0 0
227 0 0
226 0 0
223 0 0
224 0 0
229 0 0
227 0 0
226 0 0
226 0 0
224 0 0
226 0 0
226 0 0
221 0 0
226 0 0
226 0 0
226 0 0
227 0 0
226 0 0
227 0 0
224 0 0
222 0 0
225 0 0
224 0 0
227 0 0
223 0 0
224 0 0
225 0 0
225 0 0
226 0 0
224 0 0
225 0 0
224 0 0
226 0 0
224 0 0
225 0 0
221 0 0
230 0 0
224 0 0
227 0 0
226 0 0
227 0 0
225 0 0
0 0 255
0 0 255
0 0 255
0 0 255
0 0 255
0 0 255
0 0 254
0 0 255
0 0 255
0 0 255
0 0 255
0 0 255
0 0 255
0 0 255
0 0 255
0 0 255
0 0 255
0 0 255
0 0 255
0 0 255
0 0 255
0 0 255
0 0 255
0 0 255
0 0 255
0 0 255
0 0 255
0 0 255
0 0 255
0 0 255
0 0 255
0 0 254
0 0 255
0 0 255
0 0 255
0 0 254
0 0 255
0 0 255
0 0 254
0 0 255
0 0 255
0 0 255
0 0 255
0 0 255
0 0 254
0 0 254
0 0 253
0 0 255
0 0 255
0 0 255
0 0 255
0 0 253
0 0 253
0 0 255
0 0 254
0 0 255
0 0 255
0 0 253
0 0 253
0 0 255
0 0 255
0 0 255
0 0 252
0 0 255
0 0 255
0 0 254
0 0 254
0 0 254
0 0 252
0 0 253
0 0 254
0 0 253
0 0 255
0 0 254
0 0 253
0 0 254
0 0 255
0 0 253
0 0 254
0 0 253
0 0 253
0 0 252
0 0 253
0 0 249
0 0 250
0 0 253
0 0 252
0 0 252
0 0 250
0 0 254
0 0 252
0 0 249
0 0 252
0 0 248
0 0 252
0 0 255
0 0 249
0 0 253
0 0 255
0 0 254
0 0 253
0 0 252
0 0 252
0 0 254
0 0 249
0 0 253
0 0 252
0 0 252
0 0 250
0 0 249
0 0 246
0 0 250
0 0 252
0 0 253
0 0 245
0 0 248
0 0 249
0 0 250
0 0 246
0 0 249
0 0 246
0 0 246
0 0 250
0 0 250
0 0 250
0 0 245
0 0 246
0 0 252
0 0 242
0 0 248
0 0 249
0 0 246
0 0 244
0 0 250
0 0 249
0 0 246
0 0 244
0 0 249
0 0 246
0 0 246
0 0 244
0 0 248
0 0 245
0 0 248
0 0 245
0 0 237
0 0 241
0 0 244
0 0 246
0 0 241
0 0 241
0 0 245
0 0 248
0 0 236
0 0 240
0 0 242
0 0 237
0 0 237
0 0 246
0 0 244
0 0 233
0 0 244
0 0 241
0 0 233
0 0 237
0 0 233
0 0 237
0 0 236
0 0 224
0 0 228
0 0 217
0 0 223
0 0 227
0 0 234
0 0 218
0 0 214
0 0 223
0 0 220
0 0 223
0 0 218
0 0 199
0 0 220
0 0 214
0 0 221
0 0 220
0 0 198
0 0 211
187 193 242
235 243 255
235 243 255
235 243 255
235 243 255
235 243 255
235 243 255
235 244 255
235 243 255
235 244 255
235 244 255
235 244 255
235 244 255
235 244 255
235 244 255
235 244 255
235 244 255
235 244 255
235 244 255
235 243 255
235 243 255
235 243 255
235 243 255
235 243 255
235 243 255
218 175 184
196 0 0
198 0 0
197 0 0
198 0 0
204 0 0
209 0 0
202 0 0
204 0 0
212 0 0
210 0 0
203 0 0
211 0 0
192 0 0
210 0 0
211 0 0
210 0 0
207 0 0
210 0 0
202 0 0
205 0 0
214 0 0
210 0 0
204 0 0
223 0 0
213 0 0
212 0 0
222 0 0
220 0 0
216 0 0
216 0 0
220 0 0
211 0 0
216 0 0
217 0 0
210 0 0
216 0 0
211 0 0
217 0 0
217 0 0
218 0 0
216 0 0
221 0 0
220 0 0
221 0 0
223 0 0
216 0 0
217 0 0
221 0 0
222 0 0
217 0 0
216 0 0
226 0 0
222 0 0
222 0 0
218 0 0
227 0 0
226 0 0
224 0 0
218 0 0
222 0 0
216 0 0
222 0 0
222 0 0
226 0 0
222 0 0
223 0 0
227 0 0
222 0 0
218 0 0
217 0 0
222 0 0
218 0 0
219 0 0
224 0 0
220 0 0
224 0 0
223 0 0
226 0 0
223 0 0
223 0 0
223 0 0
224 0 0
224 0 0
223 0 0
224 0 0
224 0 0
222 0 0
225 0 0
227 0 0
227 0 0
223 0 0
224 0 0
223 0 0
229 0 0
225 0 0
226 0 0
225 0 0
222 0 0
223 0 0
225 0 0
228 0 0
224 0 0
226 0 0
224 0 0
227 0 0
225 0 0
225 0 0
225 0 0
225 0 0
227 0 0
228 0 0
226 0 0
227 0 0
226 0 0
224 0 0
225 0 0
222 0 0
225 0 0
228 0 0
224 0 0
225 0 0
225 0 0
227 0 0
227 0 0
227 0 0
226 0 0
225 0 0
226 0 0
225 0 0
225 0 0
225 0 0
225 0 0
225 0 0
227 0 0
221 0 0
224 0 0
224 0 0
227 0 0
225 0 0
223 0 0
224 0 0
223 0 0
227 0 0
226 0 0
229 0 0
224 0 0
226 0 0
228 0 0
228 0 0
225 0 0
230 0 0
225 0 0
224 0 0
227 0 0
225 0 0
224 0 0
228 0 0
226 0 0
225 0 0
225 0 0
226 0 0
227 0 0
225 0 0
224 0 0
224 0 0
227 0 0
225 0 0
223 0 0
226 0 0
225 0 0
225 0 0
225 0 0
226 0 0
227 0 0
225 0 0
226 0 0
226 0 0
225 0 0
226 0 0
226 0 0
224 0 0
228 0 0
225 0 0
227 0 0
229 0 0
225 0 0
229 0 0
0 0 254
0 0 255
0 0 255
0 0 255
0 0 255
0 0 255
0 0 255
0 0 255
0 0 255
0 0 255
0 0 255
0 0 255
0 0 254
0 0 255
0 0 255
0 0 255
0 0 255
0 0 254
0 0 255
0 0 255
0 0 255
0 0 254
0 0 255
0 0 255
0 0 255
0 0 255
0 0 254
0 0 255
0 0 254
0 0 255
0 0 255
0 0 255
0 0 255
0 0 255
0 0 250
0 0 255
0 0 255
0 0 255
0 0 255
0 0 254
0 0 255
0 0 254
0 0 255
0 0 255
0 0 255
0 0 255
0 0 253
0 0 255
0 0 255
0 0 255
0 0 253
0 0 254
0 0 254
0 0 255
0 0 255
0 0 254
0 0 254
0 0 255
0 0 254
0 0 255
0 0 253
0 0 255
0 0 253
0 0 255
0 0 253
0 0 255
0 0 254
0 0 255
0 0 254
0 0 254
0 0 254
0 0 254
0 0 253
0 0 254
0 0 252
0 0 252
0 0 254
0 0 253
0 0 254
0 0 254
0 0 255
0 0 252
0 0 253
0 0 253
0 0 252
0 0 252
0 0 253
0 0 255
0 0 255
0 0 254
0 0 255
0 0 253
0 0 250
0 0 253
0 0 253
0 0 255
0 0 250
0 0 254
0 0 254
0 0 250
0 0 253
0 0 250
0 0 249
0 0 254
0 0 250
0 0 249
0 0 253
0 0 252
0 0 253
0 0 254
0 0 253
0 0 249
0 0 252
0 0 249
0 0 245
0 0 248
0 0 249
0 0 249
0 0 253
0 0 246
0 0 249
0 0 254
0 0 250
0 0 246
0 0 250
0 0 249
0 0 252
0 0 246
0 0 245
0 0 252
0 0 246
0 0 249
0 0 248
0 0 246
0 0 245
0 0 244
0 0 250
0 0 238
0 0 246
0 0 244
0 0 242
0 0 242
0 0 245
0 0 245
0 0 242
0 0 250
0 0 244
0 0 244
0 0 244
0 0 246
0 0 248
0 0 242
0 0 245
0 0 240
0 0 245
0 0 241
0 0 249
0 0 237
0 0 238
0 0 245
0 0 238
0 0 240
0 0 240
0 0 227
0 0 240
0 0 237
0 0 233
0 0 242
0 0 234
0 0 236
0 0 228
0 0 233
0 0 228
0 0 223
0 0 230
0 0 237
0 0 228
0 0 223
0 0 226
0 0 218
0 0 218
0 0 226
0 0 209
0 0 218
0 0 223
0 0 215
105 109 221
234 242 255
235 244 255
235 244 255
235 244 255
235 244 255
235 244 255
235 244 255
235 244 255
235 244 255
235 244 255
235 244 255
235 244 255
235 244 255
235 244 255
235 244 255
235 244 255
235 244 255
235 244 255
235 244 255
235 244 255
235 244 255
235 244 255
235 244 255
235 244 255
235 244 255
235 244 255
214 133 140
203 0 0
192 0 0
209 0 0
198 0 0
197 0 0
204 0 0
197 0 0
200 0 0
215 0 0
216 0 0
211 0 0
207 0 0
205 0 0
203 0 0
212 0 0
208 0 0
215 0 0
209 0 0
211 0 0
219 0 0
217 0 0
217 0 0
217 0 0
208 0 0
211 0 0
219 0 0
214 0 0
212 0 0
215 0 0
222 0 0
217 0 0
213 0 0
213 0 0
219 0 0
218 0 0
224 0 0
213 0 0
220 0 0
222 0 0
219 0 0
219 0 0
221 0 0
219 0 0
215 0 0
219 0 0
220 0 0
219 0 0
214 0 0
218 0 0
221 0 0
223 0 0
221 0 0
222 0 0
227 0 0
212 0 0
227 0 0
220 0 0
221 0 0
223 0 0
217 0 0
218 0 0
218 0 0
227 0 0
221 0 0
223 0 0
221 0 0
223 0 0
221 0 0
220 0 0
219 0 0
220 0 0
226 0 0
222 0 0
224 0 0
218 0 0
227 0 0
223 0 0
221 0 0
222 0 0
225 0 0
218 0 0
221 0 0
224 0 0
223 0 0
226 0 0
221 0 0
223 0 0
227 0 0
220 0 0
221 0 0
223 0 0
226 0 0
222 0 0
215 0 0
224 0 0
224 0 0
221 0 0
227 0 0
225 0 0
225 0 0
224 0 0
224 0 0
228 0 0
225 0 0
225 0 0
224 0 0
225 0 0
228 0 0
225 0 0
225 0 0
223 0 0
226 0 0
227 0 0
227 0 0
221 0 0
222 0 0
225 0 0
224 0 0
227 0 0
227 0 0
226 0 0
229 0 0
228 0 0
224 0 0
225 0 0
230 0 0
224 0 0
225 0 0
224 0 0
226 0 0
225 0 0
229 0 0
228 0 0
226 0 0
219 0 0
227 0 0
221 0 0
225 0 0
227 0 0
225 0 0
227 0 0
227 0 0
224 0 0
226 0 0
228 0 0
222 0 0
227 0 0
226 0 0
225 0 0
226 0 0
230 0 0
228 0 0
226 0 0
224 0 0
227 0 0
225 0 0
226 0 0
223 0 0
227 0 0
226 0 0
225 0 0
224 0 0
227 0 0
224 0 0
226 0 0
224 0 0
225 0 0
226 0 0
227 0 0
226 0 0
227 0 0
224 0 0
225 0 0
225 0 0
228 0 0
227 0 0
227 0 0
226 0 0
225 0 0
226 0 0
225 0 0
225 0 0
226 0 0
223 0 0
227 0 0
228 0 0
0 0 255
0 0 255
0 0 255
0 0 255
0 0 255
0 0 255
0 0 255
0 0 255
0 0 255
0 0 255
0 0 255
0 0 255
0 0 255
0 0 255
0 0 255
0 0 255
0 0 255
0 0 255
0 0 255
0 0 255
0 0 255
0 0 255
0 0 255
0 0 255
0 0 254
0 0 255
0 0 255
0 0 254
0 0 255
0 0 255
0 0 255
0 0 254
0 0 255
0 0 254
0 0 254
0 0 255
0 0 255
0 0 255
0 0 255
0 0 255
0 0 254
0 0 255
0 0 254
0 0 254
0 0 254
0 0 255
0 0 254
0 0 253
0 0 253
0 0 255
0 0 255
0 0 254
0 0 255
0 0 254
0 0 255
0 0 255
0 0 255
0 0 254
0 0 250
0 0 254
0 0 255
0 0 253
0 0 255
0 0 255
0 0 253
0 0 254
0 0 255
0 0 254
0 0 253
0 0 254
0 0 253
0 0 253
0 0 254
0 0 254
0 0 253
0 0 255
0 0 253
0 0 253
0 0 254
0 0 255
0 0 253
0 0 253
0 0 252
0 0 254
0 0 253
0 0 254
0 0 253
0 0 254
0 0 253
0 0 254
0 0 252
0 0 252
0 0 254
0 0 249
0 0 253
0 0 254
0 0 253
0 0 250
0 0 252
0 0 255
0 0 249
0 0 249
0 0 249
0 0 254
0 0 246
0 0 255
0 0 253
0 0 252
0 0 252
0 0 248
0 0 250
0 0 252
0 0 248
0 0 248
0 0 253
0 0 249
0 0 255
0 0 250
0 0 253
0 0 252
0 0 254
0 0 245
0 0 250
0 0 252
0 0 246
0 0 249
0 0 250
0 0 248
0 0 248
0 0 246
0 0 250
0 0 246
0 0 242
0 0 244
0 0 248
0 0 244
0 0 250
0 0 242
0 0 244
0 0 246
0 0 245
0 0 241
0 0 242
0 0 237
0 0 238
0 0 234
0 0 244
0 0 242
0 0 244
0 0 244
0 0 223
0 0 242
0 0 237
0 0 248
0 0 237
0 0 241
0 0 240
0 0 227
0 0 227
0 0 236
0 0 238
0 0 234
0 0 242
0 0 236
0 0 228
0 0 238
0 0 242
0 0 233
0 0 228
0 0 236
0 0 233
0 0 236
0 0 236
0 0 221
0 0 233
0 0 228
0 0 224
0 0 228
0 0 217
0 0 221
0 0 204
0 0 233
0 0 224
0 0 215
0 0 215
70 73 223
225 233 254
236 244 255
236 244 255
236 244 255
236 244 255
236 244 255
236 244 255
236 244 255
236 244 255
236 244 255
236 244 255
236 244 255
236 244 255
236 244 255
236 244 255
236 244 255
236 244 255
236 244 255
236 244 255
236 244 255
236 244 255
236 244 255
236 244 255
236 244 255
236 244 255
236 244 255
236 244 255
233 230 241
192 42 44
208 0 0
196 0 0
204 0 0
205 0 0
194 0 0
209 0 0
209 0 0
209 0 0
204 0 0
213 0 0
206 0 0
212 0 0
200 0 0
218 0 0
218 0 0
211 0 0
218 0 0
202 0 0
217 0 0
212 0 0
215 0 0
210 0 0
219 0 0
213 0 0
216 0 0
224 0 0
218 0 0
209 0 0
220 0 0
212 0 0
214 0 0
220 0 0
215 0 0
217 0 0
214 0 0
220 0 0
214 0 0
220 0 0
218 0 0
220 0 0
215 0 0
216 0 0
219 0 0
222 0 0
212 0 0
219 0 0
220 0 0
220 0 0
217 0 0
220 0 0
223 0 0
222 0 0
220 0 0
220 0 0
222 0 0
220 0 0
223 0 0
222 0 0
226 0 0
220 0 0
223 0 0
226 0 0
219 0 0
222 0 0
225 0 0
220 0 0
225 0 0
223 0 0
224 0 0
227 0 0
226 0 0
226 0 0
223 0 0
222 0 0
224 0 0
228 0 0
228 0 0
227 0 0
224 0 0
224 0 0
224 0 0
223 0 0
227 0 0
221 0 0
229 0 0
228 0 0
221 0 0
229 0 0
225 0 0
228 0 0
227 0 0
224 0 0
228 0 0
227 0 0
225 0 0
226 0 0
228 0 0
225 0 0
224 0 0
223 0 0
223 0 0
223 0 0
223 0 0
224 0 0
221 0 0
226 0 0
226 0 0
224 0 0
223 0 0
224 0 0
225 0 0
222 0 0
229 0 0
224 0 0
223 0 0
225 0 0
226 0 0
226 0 0
226 0 0
225 0 0
227 0 0
223 0 0
225 0 0
223 0 0
225 0 0
222 0 0
224 0 0
231 0 0
228 0 0
227 0 0
225 0 0
229 0 0
228 0 0
230 0 0
225 0 0
224 0 0
225 0 0
224 0 0
228 0 0
227 0 0
228 0 0
227 0 0
227 0 0
223 0 0
227 0 0
225 0 0
226 0 0
225 0 0
226 0 0
226 0 0
224 0 0
227 0 0
229 0 0
225 0 0
226 0 0
226 0 0
221 0 0
225 0 0
223 0 0
223 0 0
227 0 0
229 0 0
227 0 0
227 0 0
227 0 0
228 0 0
225 0 0
226 0 0
226 0 0
226 0 0
227 0 0
225 0 0
223 0 0
227 0 0
222 0 0
225 0 0
228 0 0
225 0 0
229 0 0
224 0 0
229 0 0
227 0 0
227 0 0
227 0 0
230 0 0
0 0 255
0 0 255
0 0 255
0 0 255
0 0 255
0 0 254
0 0 255
0 0 255
0 0 255
0 0 255
0 0 255
0 0 255
0 0 255
0 0 254
0 0 255
0 0 255
0 0 254
0 0 255
0 0 255
0 0 255
0 0 254
0 0 255
0 0 254
0 0 255
0 0 255
0 0 255
0 0 253
0 0 255
0 0 255
0 0 255
0 0 254
0 0 255
0 0 254
0 0 255
0 0 255
0 0 255
0 0 254
0 0 255
0 0 255
0 0 255
0 0 253
0 0 254
0 0 255
0 0 254
0 0 254
0 0 254
0 0 255
0 0 254
0 0 255
0 0 255
0 0 253
0 0 255
0 0 255
0 0 253
0 0 254
0 0 254
0 0 254
0 0 255
0 0 255
0 0 255
0 0 255
0 0 253
0 0 255
0 0 255
0 0 252
0 0 254
0 0 254
0 0 253
0 0 253
0 0 255
0 0 253
0 0 255
0 0 255
0 0 254
0 0 253
0 0 255
0 0 253
0 0 255
0 0 255
0 0 253
0 0 253
0 0 254
0 0 252
0 0 254
0 0 254
0 0 254
0 0 253
0 0 254
0 0 250
0 0 252
0 0 254
0 0 253
0 0 254
0 0 254
0 0 254
0 0 254
0 0 253
0 0 253
0 0 248
0 0 252
0 0 250
0 0 254
0 0 250
0 0 252
0 0 249
0 0 252
0 0 250
0 0 252
0 0 252
0 0 246
0 0 254
0 0 253
0 0 246
0 0 248
0 0 253
0 0 253
0 0 250
0 0 246
0 0 249
0 0 250
0 0 250
0 0 244
0 0 253
0 0 246
0 0 248
0 0 250
0 0 244
0 0 253
0 0 252
0 0 244
0 0 245
0 0 249
0 0 249
0 0 248
0 0 245
0 0 248
0 0 244
0 0 241
0 0 248
0 0 237
0 0 240
0 0 241
0 0 241
0 0 241
0 0 249
0 0 244
0 0 242
0 0 248
0 0 245
0 0 241
0 0 250
0 0 245
0 0 241
0 0 245
0 0 230
0 0 238
0 0 245
0 0 244
0 0 240
0 0 242
0 0 244
0 0 241
0 0 237
0 0 234
0 0 245
0 0 234
0 0 233
0 0 234
0 0 236
0 0 230
0 0 230
0 0 230
0 0 220
0 0 227
0 0 234
0 0 218
0 0 209
0 0 230
0 0 217
0 0 223
0 0 223
0 0 215
0 0 218
0 0 218
0 0 209
203 210 245
236 244 255
236 244 255
236 244 255
236 244 255
236 244 255
236 244 255
236 244 255
236 244 255
236 244 255
236 244 255
236 244 255
236 244 255
236 244 255
236 244 255
236 244 255
236 244 255
236 244 255
236 244 255
236 244 255
236 244 255
236 244 255
236 244 255
236 244 255
236 244 255
236 244 255
236 244 255
236 244 255
236 244 255
219 197 206
202 0 0
193 0 0
201 0 0
205 0 0
201 0 0
207 0 0
195 0 0
205 0 0
209 0 0
213 0 0
202 0 0
212 0 0
215 0 0
215 0 0
209 0 0
215 0 0
219 0 0
210 0 0
212 0 0
215 0 0
209 0 0
209 0 0
208 0 0
219 0 0
215 0 0
210 0 0
220 0 0
219 0 0
224 0 0
216 0 0
223 0 0
215 0 0
216 0 0
218 0 0
219 0 0
212 0 0
229 0 0
222 0 0
224 0 0
217 0 0
223 0 0
221 0 0
217 0 0
222 0 0
221 0 0
220 0 0
217 0 0
222 0 0
220 0 0
223 0 0
227 0 0
214 0 0
220 0 0
213 0 0
214 0 0
220 0 0
222 0 0
222 0 0
226 0 0
218 0 0
224 0 0
222 0 0
225 0 0
222 0 0
225 0 0
223 0 0
227 0 0
222 0 0
230 0 0
224 0 0
224 0 0
222 0 0
225 0 0
223 0 0
226 0 0
225 0 0
222 0 0
230 0 0
226 0 0
222 0 0
228 0 0
226 0 0
224 0 0
222 0 0
228 0 0
224 0 0
225 0 0
223 0 0
225 0 0
226 0 0
228 0 0
220 0 0
228 0 0
222 0 0
224 0 0
223 0 0
227 0 0
227 0 0
225 0 0
225 0 0
223 0 0
224 0 0
223 0 0
225 0 0
219 0 0
224 0 0
228 0 0
226 0 0
226 0 0
223 0 0
222 0 0
225 0 0
228 0 0
228 0 0
223 0 0
225 0 0
230 0 0
226 0 0
225 0 0
226 0 0
227 0 0
230 0 0
225 0 0
224 0 0
228 0 0
224 0 0
227 0 0
226 0 0
225 0 0
226 0 0
224 0 0
224 0 0
224 0 0
225 0 0
223 0 0
227 0 0
225 0 0
229 0 0
226 0 0
222 0 0
226 0 0
227 0 0
221 0 0
225 0 0
230 0 0
228 0 0
226 0 0
223 0 0
226 0 0
227 0 0
224 0 0
227 0 0
227 0 0
225 0 0
225 0 0
223 0 0
226 0 0
226 0 0
222 0 0
228 0 0
224 0 0
226 0 0
225 0 0
224 0 0
227 0 0
227 0 0
228 0 0
227 0 0
227 0 0
227 0 0
229 0 0
227 0 0
227 0 0
227 0 0
229 0 0
228 0 0
227 0 0
225 0 0
226 0 0
229 0 0
224 0 0
228 0 0
226 0 0
227 0 0
227 0 0
0 0 255
0 0 255
0 0 255
0 0 255
0 0 255
0 0 255
0 0 255
0 0 255
0 0 255
0 0 255
0 0 255
0 0 254
0 0 255
0 0 255
0 0 255
0 0 255
0 0 255
0 0 255
0 0 255
0 0 255
0 0 255
0 0 255
0 0 255
0 0 255
0 0 255
0 0 255
0 0 255
0 0 255
0 0 255
0 0 255
0 0 255
0 0 254
0 0 255
0 0 254
0 0 254
0 0 255
0 0 255
0 0 254
0 0 255
0 0 254
0 0 255
0 0 253
0 0 255
0 0 255
0 0 255
0 0 255
0 0 255
0 0 254
0 0 255
0 0 255
0 0 255
0 0 255
0 0 255
0 0 255
0 0 254
0 0 254
0 0 255
0 0 254
0 0 253
0 0 252
0 0 254
0 0 255
0 0 254
0 0 255
0 0 254
0 0 253
0 0 253
0 0 255
0 0 255
0 0 250
0 0 255
0 0 252
0 0 254
0 0 252
0 0 252
0 0 254
0 0 253
0 0 255
0 0 255
0 0 254
0 0 254
0 0 255
0 0 255
0 0 254
0 0 249
0 0 255
0 0 254
0 0 253
0 0 254
0 0 254
0 0 253
0 0 253
0 0 254
0 0 252
0 0 252
0 0 248
0 0 252
0 0 252
0 0 254
0 0 252
0 0 253
0 0 250
0 0 252
0 0 254
0 0 249
0 0 250
0 0 255
0 0 250
0 0 248
0 0 252
0 0 250
0 0 253
0 0 248
0 0 254
0 0 253
0 0 245
0 0 253
0 0 248
0 0 249
0 0 253
0 0 245
0 0 249
0 0 248
0 0 245
0 0 249
0 0 249
0 0 245
0 0 250
0 0 248
0 0 246
0 0 255
0 0 250
0 0 253
0 0 242
0 0 240
0 0 241
0 0 245
0 0 249
0 0 249
0 0 244
0 0 238
0 0 242
0 0 241
0 0 248
0 0 248
0 0 252
0 0 249
0 0 240
0 0 242
0 0 237
0 0 244
0 0 242
0 0 244
0 0 245
0 0 236
0 0 240
0 0 237
0 0 244
0 0 238
0 0 237
0 0 234
0 0 238
0 0 242
0 0 231
0 0 231
0 0 234
0 0 231
0 0 233
0 0 240
0 0 234
0 0 224
0 0 231
0 0 236
0 0 230
0 0 224
0 0 230
0 0 231
0 0 224
0 0 226
0 0 233
0 0 226
0 0 221
0 0 226
0 0 220
142 146 233
236 244 255
236 244 255
236 244 255
236 244 255
236 244 255
236 244 255
236 244 255
236 244 255
236 244 255
236 244 255
236 244 255
236 244 255
236 244 255
236 244 255
236 244 255
236 244 255
236 244 255
236 244 255
236 244 255
236 244 255
236 244 255
236 244 255
236 244 255
236 244 255
236 244 255
236 244 255
236 244 255
236 244 255
236 244 255
236 244 255
221 152 159
210 0 0
199 0 0
205 0 0
211 0 0
209 0 0
214 0 0
210 0 0
206 0 0
204 0 0
211 0 0
205 0 0
202 0 0
211 0 0
214 0 0
214 0 0
206 0 0
211 0 0
217 0 0
210 0 0
223 0 0
203 0 0
209 0 0
219 0 0
214 0 0
211 0 0
212 0 0
210 0 0
223 0 0
217 0 0
223 0 0
212 0 0
213 0 0
222 0 0
216 0 0
224 0 0
223 0 0
219 0 0
221 0 0
219 0 0
221 0 0
225 0 0
222 0 0
217 0 0
223 0 0
216 0 0
219 0 0
223 0 0
223 0 0
224 0 0
220 0 0
223 0 0
218 0 0
224 0 0
228 0 0
224 0 0
225 0 0
221 0 0
226 0 0
225 0 0
226 0 0
222 0 0
217 0 0
220 0 0
222 0 0
223 0 0
222 0 0
219 0 0
225 0 0
224 0 0
225 0 0
228 0 0
225 0 0
229 0 0
223 0 0
221 0 0
220 0 0
227 0 0
224 0 0
222 0 0
224 0 0
226 0 0
223 0 0
223 0 0
223 0 0
227 0 0
225 0 0
226 0 0
229 0 0
222 0 0
227 0 0
225 0 0
221 0 0
224 0 0
221 0 0
226 0 0
223 0 0
224 0 0
226 0 0
225 0 0
221 0 0
223 0 0
223 0 0
223 0 0
222 0 0
230 0 0
227 0 0
225 0 0
231 0 0
226 0 0
228 0 0
225 0 0
224 0 0
228 0 0
224 0 0
229 0 0
222 0 0
223 0 0
225 0 0
226 0 0
229 0 0
225 0 0
224 0 0
230 0 0
222 0 0
225 0 0
229 0 0
226 0 0
225 0 0
227 0 0
226 0 0
223 0 0
228 0 0
223 0 0
227 0 0
225 0 0
225 0 0
226 0 0
225 0 0
227 0 0
226 0 0
226 0 0
227 0 0
227 0 0
230 0 0
228 0 0
225 0 0
226 0 0
226 0 0
223 0 0
222 0 0
224 0 0
225 0 0
227 0 0
226 0 0
225 0 0
227 0 0
226 0 0
225 0 0
226 0 0
226 0 0
224 0 0
227 0 0
228 0 0
226 0 0
227 0 0
223 0 0
229 0 0
227 0 0
226 0 0
224 0 0
227 0 0
226 0 0
224 0 0
224 0 0
228 0 0
225 0 0
223 0 0
224 0 0
228 0 0
227 0 0
225 0 0
227 0 0
226 0 0
227 0 0
0 0 255
0 0 255
0 0 255
0 0 255
0 0 254
0 0 255
0 0 255
0 0 255
0 0 255
0 0 255
0 0 255
0 0 255
0 0 255
0 0 255
0 0 255
0 0 255
0 0 255
0 0 255
0 0 255
0 0 255
0 0 255
0 0 255
0 0 254
0 0 254
0 0 255
0 0 255
0 0 255
0 0 255
0 0 255
0 0 255
0 0 255
0 0 254
0 0 255
0 0 255
0 0 253
0 0 255
0 0 255
0 0 255
0 0 255
0 0 255
0 0 253
0 0 255
0 0 254
0 0 255
0 0 255
0 0 254
0 0 255
0 0 255
0 0 255
0 0 254
0 0 254
0 0 254
0 0 254
0 0 254
0 0 253
0 0 254
0 0 255
0 0 253
0 0 255
0 0 254
0 0 254
0 0 255
0 0 254
0 0 254
0 0 254
0 0 254
0 0 254
0 0 254
0 0 254
0 0 255
0 0 255
0 0 254
0 0 255
0 0 254
0 0 254
0 0 253
0 0 250
0 0 254
0 0 254
0 0 253
0 0 255
0 0 255
0 0 252
0 0 253
0 0 255
0 0 253
0 0 252
0 0 249
0 0 255
0 0 250
0 0 253
0 0 252
0 0 249
0 0 255
0 0 249
0 0 254
0 0 250
0 0 254
0 0 250
0 0 255
0 0 250
0 0 253
0 0 253
0 0 250
0 0 255
0 0 252
0 0 252
0 0 249
0 0 250
0 0 253
0 0 254
0 0 249
0 0 254
0 0 250
0 0 246
0 0 246
0 0 250
0 0 249
0 0 255
0 0 248
0 0 245
0 0 253
0 0 250
0 0 253
0 0 249
0 0 254
0 0 244
0 0 250
0 0 248
0 0 250
0 0 253
0 0 248
0 0 253
0 0 246
0 0 248
0 0 252
0 0 238
0 0 244
0 0 252
0 0 248
0 0 244
0 0 249
0 0 244
0 0 250
0 0 241
0 0 240
0 0 248
0 0 246
0 0 238
0 0 241
0 0 245
0 0 249
0 0 238
0 0 244
0 0 241
0 0 241
0 0 244
0 0 238
0 0 237
0 0 234
0 0 240
0 0 237
0 0 242
0 0 244
0 0 241
0 0 224
0 0 228
0 0 233
0 0 233
0 0 226
0 0 237
0 0 234
0 0 221
0 0 217
0 0 226
0 0 224
0 0 231
0 0 226
0 0 221
0 0 211
0 0 218
0 0 218
0 0 227
94 97 233
234 242 253
236 244 255
236 244 255
236 244 255
236 244 255
236 244 255
237 244 255
237 244 255
237 244 255
237 244 255
237 244 255
237 244 255
237 244 255
237 244 255
237 244 255
237 244 255
237 244 255
237 244 255
237 244 255
237 244 255
237 244 255
237 244 255
237 244 255
237 244 255
237 244 255
236 244 255
237 244 255
236 244 255
236 244 255
236 244 255
236 244 255
235 232 242
221 100 105
201 0 0
213 0 0
205 0 0
209 0 0
214 0 0
207 0 0
209 0 0
213 0 0
209 0 0
209 0 0
212 0 0
217 0 0
211 0 0
213 0 0
203 0 0
215 0 0
216 0 0
217 0 0
225 0 0
211 0 0
216 0 0
211 0 0
213 0 0
217 0 0
220 0 0
219 0 0
221 0 0
211 0 0
212 0 0
218 0 0
217 0 0
216 0 0
218 0 0
216 0 0
221 0 0
217 0 0
222 0 0
218 0 0
224 0 0
214 0 0
221 0 0
223 0 0
219 0 0
217 0 0
219 0 0
218 0 0
221 0 0
223 0 0
228 0 0
226 0 0
220 0 0
219 0 0
220 0 0
223 0 0
225 0 0
217 0 0
221 0 0
224 0 0
220 0 0
221 0 0
220 0 0
227 0 0
224 0 0
218 0 0
222 0 0
223 0 0
219 0 0
225 0 0
221 0 0
225 0 0
223 0 0
224 0 0
224 0 0
225 0 0
227 0 0
224 0 0
219 0 0
224 0 0
224 0 0
227 0 0
225 0 0
225 0 0
221 0 0
227 0 0
224 0 0
221 0 0
225 0 0
225 0 0
224 0 0
225 0 0
226 0 0
224 0 0
225 0 0
227 0 0
225 0 0
228 0 0
226 0 0
221 0 0
226 0 0
225 0 0
225 0 0
224 0 0
226 0 0
228 0 0
225 0 0
230 0 0
229 0 0
226 0 0
228 0 0
227 0 0
227 0 0
227 0 0
221 0 0
222 0 0
229 0 0
228 0 0
225 0 0
227 0 0
229 0 0
225 0 0
225 0 0
227 0 0
228 0 0
224 0 0
225 0 0
229 0 0
226 0 0
225 0 0
230 0 0
225 0 0
226 0 0
226 0 0
230 0 0
229 0 0
225 0 0
227 0 0
228 0 0
224 0 0
228 0 0
228 0 0
225 0 0
225 0 0
227 0 0
228 0 0
228 0 0
227 0 0
222 0 0
227 0 0
226 0 0
225 0 0
228 0 0
225 0 0
228 0 0
223 0 0
226 0 0
227 0 0
224 0 0
227 0 0
227 0 0
228 0 0
224 0 0
229 0 0
227 0 0
229 0 0
226 0 0
228 0 0
227 0 0
227 0 0
224 0 0
227 0 0
224 0 0
226 0 0
226 0 0
228 0 0
224 0 0
226 0 0
224 0 0
225 0 0
228 0 0
226 0 0
225 0 0
227 0 0
224 0 0
0 0 255
0 0 255
0 0 255
0 0 255
0 0 255
0 0 255
0 0 255
0 0 254
0 0 255
0 0 255
0 0 255
0 0 255
0 0 255
0 0 255
0 0 255
0 0 255
0 0 255
0 0 255
0 0 255
0 0 255
0 0 255
0 0 255
0 0 255
0 0 255
0 0 255
0 0 255
0 0 254
0 0 255
0 0 255
0 0 255
0 0 255
0 0 253
0 0 255
0 0 255
0 0 255
0 0 255
0 0 253
0 0 254
0 0 255
0 0 255
0 0 254
0 0 255
0 0 255
0 0 254
0 0 254
0 0 253
0 0 255
0 0 253
0 0 255
0 0 254
0 0 255
0 0 254
0 0 253
0 0 255
0 0 254
0 0 254
0 0 253
0 0 255
0 0 255
0 0 255
0 0 253
0 0 254
0 0 255
0 0 255
0 0 255
0 0 254
0 0 254
0 0 250
0 0 254
0 0 254
0 0 255
0 0 255
0 0 254
0 0 255
0 0 255
0 0 253
0 0 254
0 0 255
0 0 254
0 0 254
0 0 254
0 0 253
0 0 254
0 0 255
0 0 253
0 0 255
0 0 255
0 0 254
0 0 249
0 0 254
0 0 254
0 0 253
0 0 254
0 0 255
0 0 254
0 0 252
0 0 252
0 0 253
0 0 253
0 0 249
0 0 252
0 0 248
0 0 254
0 0 250
0 0 248
0 0 252
0 0 249
0 0 255
0 0 249
0 0 254
0 0 252
0 0 244
0 0 253
0 0 254
0 0 253
0 0 252
0 0 249
0 0 252
0 0 249
0 0 252
0 0 252
0 0 244
0 0 244
0 0 246
0 0 249
0 0 250
0 0 252
0 0 253
0 0 245
0 0 253
0 0 248
0 0 245
0 0 246
0 0 246
0 0 245
0 0 249
0 0 246
0 0 246
0 0 245
0 0 238
0 0 248
0 0 241
0 0 244
0 0 245
0 0 241
0 0 238
0 0 245
0 0 240
0 0 250
0 0 241
0 0 240
0 0 246
0 0 248
0 0 238
0 0 244
0 0 241
0 0 246
0 0 237
0 0 240
0 0 246
0 0 244
0 0 236
0 0 238
0 0 240
0 0 236
0 0 236
0 0 237
0 0 227
0 0 234
0 0 226
0 0 230
0 0 237
0 0 231
0 0 233
0 0 224
0 0 217
0 0 233
0 0 226
0 0 226
0 0 221
0 0 212
0 0 230
62 64 234
222 229 250
237 244 255
237 244 255
237 244 255
237 244 255
237 244 255
237 244 255
237 244 255
237 244 255
237 244 255
237 244 255
237 244 255
237 244 255
237 244 255
237 244 255
237 244 255
237 244 255
237 244 255
237 244 255
237 244 255
237 244 255
237 244 255
237 244 255
237 244 255
237 244 255
237 244 255
237 244 255
237 244 255
237 244 255
237 244 255
237 244 255
237 244 255
237 244 255
232 224 234
222 69 72
213 0 0
197 0 0
202 0 0
207 0 0
208 0 0
215 0 0
201 0 0
210 0 0
204 0 0
213 0 0
202 0 0
212 0 0
207 0 0
222 0 0
218 0 0
212 0 0
216 0 0
221 0 0
212 0 0
219 0 0
211 0 0
217 0 0
213 0 0
224 0 0
215 0 0
216 0 0
224 0 0
213 0 0
220 0 0
216 0 0
223 0 0
218 0 0
226 0 0
224 0 0
223 0 0
214 0 0
217 0 0
226 0 0
217 0 0
219 0 0
227 0 0
224 0 0
214 0 0
220 0 0
218 0 0
224 0 0
222 0 0
222 0 0
225 0 0
215 0 0
224 0 0
222 0 0
221 0 0
222 0 0
223 0 0
221 0 0
214 0 0
218 0 0
224 0 0
225 0 0
223 0 0
220 0 0
224 0 0
218 0 0
221 0 0
230 0 0
224 0 0
226 0 0
223 0 0
223 0 0
225 0 0
222 0 0
224 0 0
224 0 0
218 0 0
224 0 0
221 0 0
225 0 0
228 0 0
228 0 0
224 0 0
222 0 0
228 0 0
228 0 0
224 0 0
226 0 0
223 0 0
225 0 0
227 0 0
225 0 0
225 0 0
228 0 0
226 0 0
222 0 0
225 0 0
226 0 0
224 0 0
225 0 0
227 0 0
230 0 0
225 0 0
224 0 0
224 0 0
225 0 0
225 0 0
221 0 0
226 0 0
229 0 0
225 0 0
227 0 0
224 0 0
223 0 0
226 0 0
226 0 0
228 0 0
227 0 0
225 0 0
226 0 0
229 0 0
230 0 0
227 0 0
226 0 0
226 0 0
224 0 0
229 0 0
229 0 0
223 0 0
226 0 0
225 0 0
225 0 0
229 0 0
228 0 0
226 0 0
226 0 0
231 0 0
223 0 0
224 0 0
225 0 0
225 0 0
230 0 0
222 0 0
226 0 0
226 0 0
225 0 0
225 0 0
228 0 0
226 0 0
230 0 0
226 0 0
229 0 0
226 0 0
227 0 0
224 0 0
222 0 0
225 0 0
228 0 0
223 0 0
225 0 0
227 0 0
226 0 0
225 0 0
225 0 0
224 0 0
225 0 0
227 0 0
226 0 0
225 0 0
226 0 0
230 0 0
227 0 0
223 0 0
225 0 0
225 0 0
227 0 0
226 0 0
226 0 0
225 0 0
227 0 0
228 0 0
229 0 0
224 0 0
230 0 0
0 0 255
0 0 255
0 0 255
0 0 255
0 0 255
0 0 255
0 0 255
0 0 255
0 0 254
0 0 254
0 0 255
0 0 255
0 0 255
0 0 255
0 0 255
0 0 255
0 0 255
0 0 255
0 0 255
0 0 255
0 0 255
0 0 255
0 0 255
0 0 255
0 0 255
0 0 255
0 0 255
0 0 255
0 0 255
0 0 255
0 0 255
0 0 255
0 0 255
0 0 255
0 0 253
0 0 255
0 0 254
0 0 255
0 0 255
0 0 255
0 0 255
0 0 254
0 0 255
0 0 255
0 0 254
0 0 255
0 0 255
0 0 255
0 0 254
0 0 253
0 0 255
0 0 254
0 0 255
0 0 253
0 0 254
0 0 254
0 0 250
0 0 255
0 0 254
0 0 255
0 0 254
0 0 254
0 0 253
0 0 253
0 0 254
0 0 252
0 0 254
0 0 255
0 0 252
0 0 255
0 0 255
0 0 250
0 0 254
0 0 252
0 0 255
0 0 253
0 0 253
0 0 250
0 0 254
0 0 253
0 0 254
0 0 254
0 0 255
0 0 255
0 0 253
0 0 253
0 0 253
0 0 253
0 0 252
0 0 250
0 0 252
0 0 253
0 0 250
0 0 254
0 0 250
0 0 253
0 0 254
0 0 253
0 0 249
0 0 254
0 0 253
0 0 252
0 0 254
0 0 253
0 0 253
0 0 249
0 0 253
0 0 253
0 0 254
0 0 252
0 0 249
0 0 253
0 0 252
0 0 245
0 0 250
0 0 253
0 0 253
0 0 249
0 0 249
0 0 248
0 0 249
0 0 248
0 0 252
0 0 250
0 0 246
0 0 249
0 0 249
0 0 246
0 0 248
0 0 250
0 0 246
0 0 246
0 0 250
0 0 246
0 0 249
0 0 248
0 0 248
0 0 245
0 0 242
0 0 245
0 0 244
0 0 244
0 0 245
0 0 244
0 0 248
0 0 245
0 0 249
0 0 246
0 0 245
0 0 241
0 0 241
0 0 246
0 0 238
0 0 241
0 0 242
0 0 244
0 0 236
0 0 246
0 0 236
0 0 240
0 0 248
0 0 236
0 0 234
0 0 223
0 0 238
0 0 231
0 0 237
0 0 233
0 0 244
0 0 226
0 0 227
0 0 241
0 0 234
0 0 224
0 0 226
0 0 228
0 0 230
0 0 240
0 0 228
0 0 217
0 0 223
0 0 221
186 192 241
237 245 255
237 245 255
237 245 255
237 245 255
237 245 255
237 245 255
237 245 255
237 245 255
237 245 255
237 245 255
237 245 255
237 245 255
237 245 255
237 245 255
237 245 255
237 245 255
237 245 255
237 245 255
237 245 255
237 245 255
237 245 255
237 245 255
237 245 255
237 245 255
237 245 255
237 245 255
237 245 255
237 245 255
237 245 255
237 245 255
237 245 255
237 245 255
237 245 255
237 245 255
226 194 203
216 34 36
196 0 0
220 0 0
214 0 0
204 0 0
222 0 0
208 0 0
213 0 0
219 0 0
209 0 0
216 0 0
213 0 0
210 0 0
204 0 0
216 0 0
224 0 0
211 0 0
212 0 0
223 0 0
215 0 0
217 0 0
219 0 0
216 0 0
213 0 0
217 0 0
220 0 0
220 0 0
222 0 0
221 0 0
223 0 0
218 0 0
220 0 0
219 0 0
226 0 0
220 0 0
218 0 0
216 0 0
223 0 0
214 0 0
220 0 0
222 0 0
224 0 0
223 0 0
226 0 0
220 0 0
225 0 0
220 0 0
223 0 0
229 0 0
224 0 0
223 0 0
225 0 0
218 0 0
225 0 0
219 0 0
220 0 0
222 0 0
220 0 0
221 0 0
228 0 0
221 0 0
223 0 0
224 0 0
218 0 0
227 0 0
224 0 0
226 0 0
221 0 0
223 0 0
225 0 0
224 0 0
221 0 0
229 0 0
225 0 0
224 0 0
218 0 0
226 0 0
228 0 0
227 0 0
228 0 0
226 0 0
227 0 0
229 0 0
226 0 0
228 0 0
225 0 0
226 0 0
224 0 0
228 0 0
228 0 0
228 0 0
221 0 0
224 0 0
223 0 0
224 0 0
229 0 0
225 0 0
224 0 0
225 0 0
228 0 0
224 0 0
227 0 0
224 0 0
227 0 0
228 0 0
227 0 0
224 0 0
225 0 0
225 0 0
226 0 0
222 0 0
225 0 0
227 0 0
226 0 0
225 0 0
225 0 0
225 0 0
227 0 0
226 0 0
223 0 0
225 0 0
228 0 0
227 0 0
226 0 0
229 0 0
222 0 0
227 0 0
227 0 0
228 0 0
224 0 0
224 0 0
223 0 0
226 0 0
224 0 0
225 0 0
228 0 0
228 0 0
229 0 0
228 0 0
225 0 0
228 0 0
228 0 0
226 0 0
224 0 0
227 0 0
222 0 0
224 0 0
227 0 0
227 0 0
226 0 0
227 0 0
230 0 0
225 0 0
227 0 0
226 0 0
225 0 0
226 0 0
226 0 0
228 0 0
227 0 0
226 0 0
227 0 0
225 0 0
226 0 0
222 0 0
227 0 0
225 0 0
227 0 0
224 0 0
227 0 0
228 0 0
227 0 0
227 0 0
226 0 0
227 0 0
228 0 0
228 0 0
225 0 0
228 0 0
223 0 0
227 0 0
224 0 0
0 0 255
0 0 255
0 0 255
0 0 255
0 0 255
0 0 255
0 0 255
0 0 254
0 0 255
0 0 255
0 0 255
0 0 255
0 0 255
0 0 255
0 0 255
0 0 254
0 0 255
0 0 255
0 0 255
0 0 255
0 0 255
0 0 255
0 0 255
0 0 255
0 0 254
0 0 255
0 0 255
0 0 255
0 0 255
0 0 255
0 0 255
0 0 255
0 0 255
0 0 255
0 0 253
0 0 255
0 0 255
0 0 255
0 0 255
0 0 255
0 0 254
0 0 255
0 0 254
0 0 254
0 0 255
0 0 255
0 0 254
0 0 255
0 0 253
0 0 253
0 0 255
0 0 255
0 0 255
0 0 254
0 0 252
0 0 255
0 0 255
0 0 255
0 0 255
0 0 254
0 0 254
0 0 253
0 0 255
0 0 249
0 0 255
0 0 252
0 0 252
0 0 255
0 0 253
0 0 254
0 0 254
0 0 255
0 0 255
0 0 254
0 0 250
0 0 254
0 0 253
0 0 254
0 0 253
0 0 254
0 0 255
0 0 252
0 0 254
0 0 253
0 0 255
0 0 254
0 0 253
0 0 255
0 0 250
0 0 253
0 0 254
0 0 255
0 0 253
0 0 252
0 0 254
0 0 253
0 0 254
0 0 253
0 0 252
0 0 253
0 0 255
0 0 255
0 0 250
0 0 252
0 0 248
0 0 252
0 0 254
0 0 255
0 0 253
0 0 254
0 0 253
0 0 250
0 0 253
0 0 252
0 0 248
0 0 253
0 0 248
0 0 250
0 0 249
0 0 245
0 0 249
0 0 252
0 0 250
0 0 248
0 0 249
0 0 248
0 0 249
0 0 252
0 0 245
0 0 250
0 0 245
0 0 249
0 0 248
0 0 248
0 0 250
0 0 248
0 0 249
0 0 242
0 0 248
0 0 244
0 0 249
0 0 244
0 0 245
0 0 246
0 0 244
0 0 242
0 0 246
0 0 249
0 0 238
0 0 245
0 0 245
0 0 245
0 0 240
0 0 246
0 0 241
0 0 241
0 0 241
0 0 245
0 0 236
0 0 241
0 0 237
0 0 242
0 0 236
0 0 245
0 0 234
0 0 234
0 0 238
0 0 230
0 0 237
0 0 237
0 0 234
0 0 240
0 0 241
0 0 240
0 0 221
0 0 227
0 0 226
0 0 226
0 0 230
0 0 221
0 0 227
182 188 246
237 245 255
237 245 255
237 245 255
237 245 255
237 245 255
237 245 255
237 245 255
237 245 255
237 245 255
237 245 255
237 245 255
237 245 255
237 245 255
237 245 255
237 245 255
237 245 255
237 245 255
237 245 255
237 245 255
237 245 255
237 245 255
237 245 255
237 245 255
237 245 255
237 245 255
237 245 255
237 245 255
237 245 255
237 245 255
237 245 255
237 245 255
237 245 255
237 245 255
237 245 255
237 245 255
237 245 255
228 173 181
224 0 0
221 0 0
208 0 0
217 0 0
206 0 0
216 0 0
213 0 0
216 0 0
207 0 0
215 0 0
211 0 0
216 0 0
216 0 0
214 0 0
208 0 0
221 0 0
211 0 0
213 0 0
222 0 0
213 0 0
221 0 0
219 0 0
223 0 0
217 0 0
214 0 0
217 0 0
208 0 0
224 0 0
217 0 0
215 0 0
213 0 0
225 0 0
219 0 0
215 0 0
224 0 0
221 0 0
227 0 0
224 0 0
220 0 0
218 0 0
215 0 0
223 0 0
222 0 0
225 0 0
222 0 0
223 0 0
224 0 0
225 0 0
225 0 0
225 0 0
227 0 0
218 0 0
223 0 0
220 0 0
228 0 0
223 0 0
219 0 0
224 0 0
227 0 0
223 0 0
225 0 0
221 0 0
226 0 0
223 0 0
221 0 0
218 0 0
228 0 0
225 0 0
222 0 0
220 0 0
226 0 0
226 0 0
226 0 0
226 0 0
227 0 0
222 0 0
224 0 0
221 0 0
227 0 0
225 0 0
223 0 0
221 0 0
227 0 0
222 0 0
221 0 0
225 0 0
221 0 0
228 0 0
225 0 0
228 0 0
222 0 0
224 0 0
226 0 0
222 0 0
228 0 0
228 0 0
226 0 0
222 0 0
227 0 0
227 0 0
223 0 0
227 0 0
225 0 0
229 0 0
227 0 0
226 0 0
225 0 0
227 0 0
227 0 0
226 0 0
227 0 0
226 0 0
224 0 0
224 0 0
229 0 0
227 0 0
230 0 0
227 0 0
225 0 0
226 0 0
225 0 0
224 0 0
225 0 0
226 0 0
229 0 0
231 0 0
223 0 0
226 0 0
230 0 0
226 0 0
225 0 0
228 0 0
226 0 0
230 0 0
223 0 0
225 0 0
226 0 0
226 0 0
227 0 0
227 0 0
225 0 0
228 0 0
228 0 0
227 0 0
226 0 0
226 0 0
225 0 0
227 0 0
224 0 0
228 0 0
227 0 0
226 0 0
228 0 0
227 0 0
224 0 0
228 0 0
229 0 0
224 0 0
227 0 0
226 0 0
226 0 0
227 0 0
226 0 0
228 0 0
225 0 0
230 0 0
226 0 0
229 0 0
228 0 0
225 0 0
227 0 0
228 0 0
224 0 0
226 0 0
227 0 0
227 0 0
227 0 0
227 0 0
228 0 0
229 0 0
226 0 0
0 0 255
0 0 255
0 0 255
0 0 254
0 0 255
0 0 255
0 0 255
0 0 255
0 0 255
0 0 255
0 0 255
0 0 255
0 0 255
0 0 255
0 0 255
0 0 255
0 0 255
0 0 255
0 0 255
0 0 255
0 0 255
0 0 254
0 0 255
0 0 255
0 0 255
0 0 255
0 0 255
0 0 255
0 0 255
0 0 255
0 0 254
0 0 255
0 0 252
0 0 253
0 0 255
0 0 254
0 0 253
0 0 254
0 0 255
0 0 255
0 0 254
0 0 254
0 0 255
0 0 254
0 0 255
0 0 255
0 0 254
0 0 255
0 0 255
0 0 255
0 0 253
0 0 253
0 0 254
0 0 254
0 0 255
0 0 255
0 0 253
0 0 253
0 0 255
0 0 254
0 0 255
0 0 254
0 0 254
0 0 253
0 0 252
0 0 255
0 0 254
0 0 255
0 0 252
0 0 254
0 0 254
0 0 252
0 0 253
0 0 253
0 0 254
0 0 254
0 0 253
0 0 254
0 0 253
0 0 253
0 0 253
0 0 254
0 0 255
0 0 255
0 0 253
0 0 254
0 0 253
0 0 252
0 0 253
0 0 254
0 0 253
0 0 254
0 0 253
0 0 253
0 0 249
0 0 250
0 0 255
0 0 253
0 0 255
0 0 253
0 0 253
0 0 249
0 0 255
0 0 250
0 0 254
0 0 250
0 0 253
0 0 252
0 0 249
0 0 252
0 0 250
0 0 250
0 0 253
0 0 249
0 0 253
0 0 245
0 0 253
0 0 252
0 0 250
0 0 245
0 0 249
0 0 245
0 0 248
0 0 249
0 0 250
0 0 248
0 0 249
0 0 252
0 0 250
0 0 248
0 0 248
0 0 244
0 0 246
0 0 248
0 0 246
0 0 248
0 0 246
0 0 246
0 0 245
0 0 238
0 0 244
0 0 244
0 0 238
0 0 248
0 0 248
0 0 252
0 0 238
0 0 241
0 0 240
0 0 248
0 0 244
0 0 246
0 0 245
0 0 238
0 0 233
0 0 245
0 0 242
0 0 231
0 0 234
0 0 236
0 0 238
0 0 242
0 0 237
0 0 238
0 0 241
0 0 230
0 0 237
0 0 233
0 0 238
0 0 228
0 0 234
0 0 228
0 0 234
0 0 236
0 0 231
0 0 227
0 0 228
0 0 224
0 0 228
0 0 226
144 149 237
237 245 255
237 245 255
237 245 255
237 245 255
237 245 255
237 245 255
238 245 255
238 245 255
238 245 255
238 245 255
238 245 255
238 245 255
238 245 255
238 245 255
238 245 255
238 245 255
238 245 255
238 245 255
238 245 255
238 245 255
238 245 255
238 245 255
238 245 255
238 245 255
238 245 255
238 245 255
238 245 255
238 245 255
238 245 255
238 245 255
238 245 255
238 245 255
237 245 255
237 245 255
237 245 255
237 245 255
237 245 255
237 245 255
227 158 165
220 0 0
206 0 0
222 0 0
199 0 0
212 0 0
206 0 0
217 0 0
214 0 0
203 0 0
217 0 0
218 0 0
214 0 0
218 0 0
210 0 0
216 0 0
212 0 0
223 0 0
209 0 0
216 0 0
220 0 0
227 0 0
219 0 0
216 0 0
216 0 0
220 0 0
221 0 0
212 0 0
212 0 0
216 0 0
220 0 0
221 0 0
223 0 0
221 0 0
221 0 0
220 0 0
221 0 0
219 0 0
228 0 0
214 0 0
221 0 0
216 0 0
221 0 0
222 0 0
226 0 0
226 0 0
220 0 0
224 0 0
226 0 0
226 0 0
224 0 0
222 0 0
225 0 0
229 0 0
225 0 0
221 0 0
228 0 0
223 0 0
225 0 0
225 0 0
221 0 0
227 0 0
217 0 0
226 0 0
226 0 0
224 0 0
224 0 0
223 0 0
223 0 0
224 0 0
223 0 0
226 0 0
224 0 0
225 0 0
223 0 0
230 0 0
222 0 0
224 0 0
224 0 0
226 0 0
227 0 0
226 0 0
226 0 0
226 0 0
227 0 0
223 0 0
219 0 0
228 0 0
226 0 0
224 0 0
226 0 0
223 0 0
229 0 0
229 0 0
220 0 0
226 0 0
225 0 0
227 0 0
226 0 0
227 0 0
226 0 0
225 0 0
227 0 0
228 0 0
222 0 0
226 0 0
230 0 0
228 0 0
222 0 0
227 0 0
228 0 0
223 0 0
222 0 0
226 0 0
226 0 0
230 0 0
223 0 0
228 0 0
223 0 0
228 0 0
223 0 0
227 0 0
228 0 0
224 0 0
227 0 0
226 0 0
228 0 0
227 0 0
231 0 0
228 0 0
226 0 0
224 0 0
226 0 0
222 0 0
226 0 0
228 0 0
225 0 0
227 0 0
227 0 0
227 0 0
227 0 0
230 0 0
228 0 0
224 0 0
231 0 0
227 0 0
229 0 0
225 0 0
225 0 0
228 0 0
225 0 0
227 0 0
226 0 0
225 0 0
225 0 0
229 0 0
230 0 0
226 0 0
225 0 0
227 0 0
230 0 0
227 0 0
230 0 0
225 0 0
230 0 0
229 0 0
227 0 0
226 0 0
228 0 0
230 0 0
225 0 0
228 0 0
225 0 0
225 0 0
223 0 0
228 0 0
225 0 0
225 0 0
226 0 0
228 0 0
228 0 0
0 0 255
0 0 255
0 0 255
0 0 255
0 0 255
0 0 255
0 0 255
0 0 255
0 0 255
0 0 255
0 0 255
0 0 255
0 0 255
0 0 255
0 0 255
0 0 255
0 0 255
0 0 255
0 0 255
0 0 255
0 0 255
0 0 255
0 0 255
0 0 255
0 0 255
0 0 255
0 0 255
0 0 255
0 0 255
0 0 255
0 0 255
0 0 255
0 0 254
0 0 254
0 0 255
0 0 255
0 0 255
0 0 255
0 0 255
0 0 255
0 0 254
0 0 254
0 0 255
0 0 254
0 0 255
0 0 255
0 0 254
0 0 255
0 0 255
0 0 254
0 0 255
0 0 253
0 0 254
0 0 252
0 0 255
0 0 255
0 0 254
0 0 255
0 0 255
0 0 254
0 0 254
0 0 254
0 0 254
0 0 255
0 0 255
0 0 252
0 0 255
0 0 252
0 0 254
0 0 253
0 0 252
0 0 254
0 0 254
0 0 252
0 0 255
0 0 254
0 0 253
0 0 255
0 0 253
0 0 253
0 0 254
0 0 253
0 0 255
0 0 254
0 0 253
0 0 255
0 0 252
0 0 254
0 0 253
0 0 255
0 0 255
0 0 254
0 0 252
0 0 253
0 0 248
0 0 253
0 0 252
0 0 253
0 0 249
0 0 249
0 0 250
0 0 250
0 0 254
0 0 245
0 0 250
0 0 254
0 0 252
0 0 250
0 0 253
0 0 253
0 0 252
0 0 250
0 0 252
0 0 255
0 0 253
0 0 248
0 0 246
0 0 250
0 0 245
0 0 249
0 0 255
0 0 249
0 0 252
0 0 246
0 0 249
0 0 250
0 0 248
0 0 246
0 0 250
0 0 246
0 0 253
0 0 244
0 0 248
0 0 249
0 0 244
0 0 246
0 0 245
0 0 252
0 0 248
0 0 245
0 0 249
0 0 240
0 0 248
0 0 245
0 0 252
0 0 253
0 0 241
0 0 241
0 0 240
0 0 238
0 0 245
0 0 237
0 0 240
0 0 242
0 0 244
0 0 241
0 0 249
0 0 242
0 0 238
0 0 236
0 0 245
0 0 238
0 0 238
0 0 234
0 0 244
0 0 240
0 0 240
0 0 234
0 0 242
0 0 248
0 0 230
0 0 238
0 0 227
0 0 230
0 0 234
0 0 233
0 0 230
0 0 227
0 0 238
134 138 242
236 244 255
238 245 255
238 245 255
238 245 255
238 245 255
238 245 255
238 245 255
238 245 255
238 245 255
238 245 255
238 245 255
238 245 255
238 245 255
238 245 255
238 245 255
238 245 255
238 245 255
238 245 255
238 245 255
238 245 255
238 245 255
238 245 255
238 245 255
238 245 255
238 245 255
238 245 255
238 245 255
238 245 255
238 245 255
238 245 255
238 245 255
238 245 255
238 245 255
238 245 255
238 245 255
238 245 255
238 245 255
238 245 255
238 245 255
238 242 253
224 125 130
198 0 0
211 0 0
207 0 0
213 0 0
214 0 0
209 0 0
217 0 0
219 0 0
208 0 0
220 0 0
211 0 0
221 0 0
221 0 0
216 0 0
222 0 0
222 0 0
216 0 0
223 0 0
214 0 0
222 0 0
214 0 0
224 0 0
220 0 0
227 0 0
222 0 0
219 0 0
218 0 0
211 0 0
227 0 0
224 0 0
217 0 0
216 0 0
220 0 0
218 0 0
221 0 0
222 0 0
221 0 0
227 0 0
224 0 0
220 0 0
219 0 0
215 0 0
225 0 0
220 0 0
221 0 0
221 0 0
221 0 0
223 0 0
223 0 0
225 0 0
222 0 0
224 0 0
225 0 0
220 0 0
228 0 0
221 0 0
221 0 0
224 0 0
222 0 0
221 0 0
227 0 0
224 0 0
225 0 0
229 0 0
222 0 0
227 0 0
231 0 0
228 0 0
226 0 0
230 0 0
228 0 0
227 0 0
229 0 0
221 0 0
224 0 0
225 0 0
226 0 0
224 0 0
225 0 0
227 0 0
226 0 0
227 0 0
223 0 0
226 0 0
219 0 0
225 0 0
223 0 0
227 0 0
228 0 0
226 0 0
226 0 0
226 0 0
225 0 0
226 0 0
227 0 0
226 0 0
225 0 0
224 0 0
225 0 0
227 0 0
225 0 0
226 0 0
224 0 0
228 0 0
226 0 0
224 0 0
227 0 0
225 0 0
226 0 0
227 0 0
230 0 0
228 0 0
224 0 0
225 0 0
230 0 0
224 0 0
230 0 0
229 0 0
229 0 0
229 0 0
228 0 0
229 0 0
229 0 0
227 0 0
220 0 0
226 0 0
230 0 0
228 0 0
227 0 0
225 0 0
228 0 0
226 0 0
233 0 0
228 0 0
226 0 0
229 0 0
228 0 0
228 0 0
229 0 0
229 0 0
230 0 0
225 0 0
227 0 0
229 0 0
230 0 0
225 0 0
225 0 0
230 0 0
228 0 0
228 0 0
230 0 0
228 0 0
228 0 0
225 0 0
225 0 0
229 0 0
229 0 0
228 0 0
227 0 0
225 0 0
227 0 0
224 0 0
229 0 0
227 0 0
226 0 0
228 0 0
227 0 0
228 0 0
227 0 0
229 0 0
228 0 0
225 0 0
228 0 0
227 0 0
227 0 0
228 0 0
226 0 0
226 0 0
227 0 0
0 0 255
0 0 255
0 0 255
0 0 255
0 0 255
0 0 255
0 0 254
0 0 255
0 0 255
0 0 255
0 0 255
0 0 255
0 0 255
0 0 255
0 0 255
0 0 255
0 0 255
0 0 255
0 0 255
0 0 255
0 0 255
0 0 255
0 0 255
0 0 255
0 0 255
0 0 255
0 0 255
0 0 255
0 0 255
0 0 255
0 0 255
0 0 255
0 0 255
0 0 255
0 0 255
0 0 254
0 0 254
0 0 254
0 0 255
0 0 255
0 0 255
0 0 255
0 0 254
0 0 255
0 0 255
0 0 254
0 0 255
0 0 253
0 0 255
0 0 255
0 0 255
0 0 253
0 0 253
0 0 254
0 0 254
0 0 255
0 0 254
0 0 253
0 0 255
0 0 250
0 0 253
0 0 254
0 0 253
0 0 255
0 0 255
0 0 254
0 0 252
0 0 254
0 0 254
0 0 254
0 0 255
0 0 255
0 0 255
0 0 253
0 0 253
0 0 252
0 0 254
0 0 252
0 0 254
0 0 252
0 0 254
0 0 255
0 0 253
0 0 250
0 0 253
0 0 252
0 0 255
0 0 252
0 0 250
0 0 255
0 0 253
0 0 254
0 0 253
0 0 255
0 0 253
0 0 253
0 0 253
0 0 253
0 0 252
0 0 252
0 0 255
0 0 252
0 0 254
0 0 252
0 0 252
0 0 253
0 0 249
0 0 254
0 0 250
0 0 250
0 0 253
0 0 254
0 0 249
0 0 253
0 0 250
0 0 252
0 0 248
0 0 245
0 0 253
0 0 255
0 0 248
0 0 246
0 0 249
0 0 252
0 0 250
0 0 250
0 0 249
0 0 246
0 0 246
0 0 248
0 0 246
0 0 233
0 0 254
0 0 248
0 0 250
0 0 244
0 0 250
0 0 245
0 0 244
0 0 249
0 0 246
0 0 248
0 0 244
0 0 250
0 0 244
0 0 244
0 0 241
0 0 240
0 0 244
0 0 246
0 0 240
0 0 241
0 0 250
0 0 238
0 0 242
0 0 244
0 0 237
0 0 240
0 0 241
0 0 245
0 0 242
0 0 234
0 0 238
0 0 246
0 0 245
0 0 234
0 0 238
0 0 244
0 0 237
0 0 238
0 0 236
0 0 238
0 0 237
0 0 224
0 0 236
0 0 244
0 0 230
0 0 234
82 85 231
232 239 253
238 245 255
238 245 255
238 245 255
238 245 255
238 245 255
238 245 255
238 245 255
238 245 255
238 245 255
238 245 255
238 245 255
238 245 255
238 245 255
238 245 255
238 245 255
238 245 255
238 245 255
238 245 255
238 245 255
238 245 255
238 245 255
238 245 255
238 245 255
238 245 255
238 245 255
238 245 255
238 245 255
238 245 255
238 245 255
238 245 255
238 245 255
238 245 255
238 245 255
238 245 255
238 245 255
238 245 255
238 245 255
238 245 255
238 245 255
238 245 255
237 235 245
221 109 114
209 0 0
220 0 0
216 0 0
216 0 0
206 0 0
212 0 0
211 0 0
199 0 0
219 0 0
223 0 0
213 0 0
226 0 0
225 0 0
216 0 0
215 0 0
221 0 0
223 0 0
215 0 0
210 0 0
217 0 0
223 0 0
226 0 0
226 0 0
222 0 0
228 0 0
225 0 0
219 0 0
222 0 0
222 0 0
215 0 0
221 0 0
228 0 0
223 0 0
223 0 0
225 0 0
218 0 0
222 0 0
226 0 0
222 0 0
221 0 0
220 0 0
223 0 0
229 0 0
222 0 0
222 0 0
221 0 0
224 0 0
226 0 0
223 0 0
228 0 0
222 0 0
227 0 0
221 0 0
224 0 0
216 0 0
222 0 0
224 0 0
220 0 0
228 0 0
219 0 0
228 0 0
221 0 0
230 0 0
227 0 0
224 0 0
222 0 0
226 0 0
227 0 0
226 0 0
225 0 0
227 0 0
224 0 0
229 0 0
223 0 0
226 0 0
225 0 0
225 0 0
228 0 0
224 0 0
219 0 0
227 0 0
224 0 0
223 0 0
228 0 0
224 0 0
226 0 0
225 0 0
225 0 0
226 0 0
224 0 0
228 0 0
226 0 0
225 0 0
228 0 0
227 0 0
228 0 0
229 0 0
225 0 0
225 0 0
226 0 0
226 0 0
225 0 0
229 0 0
227 0 0
225 0 0
229 0 0
224 0 0
225 0 0
229 0 0
227 0 0
228 0 0
226 0 0
230 0 0
226 0 0
222 0 0
225 0 0
229 0 0
229 0 0
227 0 0
225 0 0
227 0 0
229 0 0
225 0 0
230 0 0
228 0 0
226 0 0
228 0 0
225 0 0
227 0 0
227 0 0
227 0 0
229 0 0
230 0 0
225 0 0
226 0 0
225 0 0
224 0 0
223 0 0
226 0 0
228 0 0
231 0 0
225 0 0
228 0 0
229 0 0
230 0 0
227 0 0
226 0 0
230 0 0
230 0 0
226 0 0
230 0 0
225 0 0
230 0 0
228 0 0
225 0 0
227 0 0
229 0 0
229 0 0
227 0 0
225 0 0
227 0 0
231 0 0
228 0 0
228 0 0
227 0 0
227 0 0
228 0 0
225 0 0
228 0 0
227 0 0
232 0 0
226 0 0
229 0 0
226 0 0
225 0 0
227 0 0
228 0 0
226 0 0
0 0 255
0 0 255
0 0 255
0 0 255
0 0 255
0 0 255
0 0 255
0 0 255
0 0 255
0 0 255
0 0 255
0 0 255
0 0 255
0 0 255
0 0 255
0 0 255
0 0 255
0 0 255
0 0 255
0 0 255
0 0 255
0 0 255
0 0 255
0 0 255
0 0 255
0 0 255
0 0 255
0 0 254
0 0 255
0 0 255
0 0 255
0 0 254
0 0 254
0 0 255
0 0 255
0 0 255
0 0 255
0 0 255
0 0 255
0 0 254
0 0 255
0 0 255
0 0 255
0 0 255
0 0 254
0 0 254
0 0 255
0 0 255
0 0 255
0 0 254
0 0 255
0 0 255
0 0 254
0 0 255
0 0 254
0 0 255
0 0 253
0 0 255
0 0 254
0 0 253
0 0 255
0 0 255
0 0 254
0 0 254
0 0 253
0 0 252
0 0 249
0 0 255
0 0 254
0 0 255
0 0 253
0 0 253
0 0 254
0 0 254
0 0 255
0 0 254
0 0 254
0 0 253
0 0 253
0 0 254
0 0 253
0 0 253
0 0 252
0 0 252
0 0 252
0 0 252
0 0 253
0 0 255
0 0 254
0 0 253
0 0 255
0 0 252
0 0 253
0 0 252
0 0 252
0 0 253
0 0 252
0 0 252
0 0 253
0 0 252
0 0 253
0 0 254
0 0 254
0 0 248
0 0 250
0 0 250
0 0 252
0 0 253
0 0 249
0 0 252
0 0 250
0 0 253
0 0 253
0 0 252
0 0 253
0 0 250
0 0 252
0 0 248
0 0 248
0 0 245
0 0 249
0 0 246
0 0 248
0 0 249
0 0 248
0 0 250
0 0 249
0 0 246
0 0 246
0 0 250
0 0 246
0 0 248
0 0 248
0 0 253
0 0 252
0 0 244
0 0 249
0 0 245
0 0 248
0 0 248
0 0 249
0 0 245
0 0 252
0 0 244
0 0 245
0 0 245
0 0 242
0 0 242
0 0 246
0 0 249
0 0 242
0 0 236
0 0 244
0 0 240
0 0 241
0 0 234
0 0 242
0 0 241
0 0 244
0 0 245
0 0 242
0 0 238
0 0 242
0 0 238
0 0 238
0 0 236
0 0 233
0 0 240
0 0 238
0 0 238
0 0 238
0 0 233
0 0 226
0 0 233
0 0 230
0 0 238
0 0 231
101 104 241
231 238 254
238 245 255
238 245 255
238 245 255
238 245 255
238 245 255
238 245 255
238 245 255
238 245 255
238 245 255
238 245 255
238 245 255
238 245 255
238 245 255
238 245 255
238 245 255
238 245 255
238 245 255
238 245 255
238 245 255
238 245 255
238 245 255
238 245 255
238 245 255
238 245 255
238 245 255
238 245 255
238 245 255
238 245 255
238 245 255
238 245 255
238 245 255
238 245 255
238 245 255
238 245 255
238 245 255
238 245 255
238 245 255
238 245 255
238 245 255
238 245 255
238 245 255
238 245 255
238 234 244
229 95 99
205 0 0
219 0 0
208 0 0
221 0 0
217 0 0
203 0 0
221 0 0
224 0 0
222 0 0
216 0 0
222 0 0
209 0 0
224 0 0
219 0 0
211 0 0
215 0 0
223 0 0
211 0 0
220 0 0
223 0 0
227 0 0
223 0 0
222 0 0
227 0 0
228 0 0
223 0 0
218 0 0
216 0 0
225 0 0
219 0 0
224 0 0
218 0 0
225 0 0
227 0 0
227 0 0
226 0 0
221 0 0
219 0 0
219 0 0
227 0 0
223 0 0
225 0 0
225 0 0
223 0 0
223 0 0
222 0 0
219 0 0
220 0 0
227 0 0
223 0 0
225 0 0
221 0 0
223 0 0
225 0 0
230 0 0
226 0 0
226 0 0
221 0 0
227 0 0
225 0 0
226 0 0
225 0 0
220 0 0
228 0 0
226 0 0
227 0 0
230 0 0
226 0 0
227 0 0
224 0 0
221 0 0
224 0 0
223 0 0
224 0 0
227 0 0
222 0 0
228 0 0
225 0 0
232 0 0
229 0 0
226 0 0
226 0 0
227 0 0
224 0 0
226 0 0
226 0 0
225 0 0
229 0 0
230 0 0
225 0 0
223 0 0
229 0 0
227 0 0
231 0 0
230 0 0
226 0 0
222 0 0
229 0 0
228 0 0
228 0 0
228 0 0
229 0 0
225 0 0
230 0 0
225 0 0
226 0 0
226 0 0
229 0 0
226 0 0
227 0 0
230 0 0
231 0 0
227 0 0
226 0 0
227 0 0
223 0 0
228 0 0
231 0 0
231 0 0
224 0 0
226 0 0
228 0 0
227 0 0
227 0 0
230 0 0
228 0 0
227 0 0
231 0 0
226 0 0
230 0 0
229 0 0
224 0 0
225 0 0
226 0 0
227 0 0
229 0 0
226 0 0
227 0 0
228 0 0
227 0 0
226 0 0
229 0 0
228 0 0
230 0 0
230 0 0
230 0 0
226 0 0
226 0 0
226 0 0
226 0 0
226 0 0
228 0 0
226 0 0
228 0 0
228 0 0
224 0 0
230 0 0
228 0 0
229 0 0
228 0 0
228 0 0
226 0 0
227 0 0
226 0 0
225 0 0
228 0 0
228 0 0
227 0 0
229 0 0
226 0 0
229 0 0
227 0 0
225 0 0
233 0 0
225 0 0
227 0 0
226 0 0
0 0 255
0 0 255
0 0 255
0 0 255
0 0 255
0 0 255
0 0 255
0 0 255
0 0 255
0 0 255
0 0 255
0 0 255
0 0 255
0 0 255
0 0 255
0 0 255
0 0 255
0 0 255
0 0 255
0 0 255
0 0 255
0 0 255
0 0 255
0 0 255
0 0 254
0 0 255
0 0 255
0 0 255
0 0 255
0 0 255
0 0 255
0 0 255
0 0 254
0 0 254
0 0 255
0 0 255
0 0 253
0 0 255
0 0 254
0 0 255
0 0 254
0 0 255
0 0 252
0 0 254
0 0 254
0 0 254
0 0 254
0 0 253
0 0 255
0 0 254
0 0 254
0 0 254
0 0 255
0 0 254
0 0 255
0 0 255
0 0 255
0 0 255
0 0 254
0 0 255
0 0 255
0 0 254
0 0 255
0 0 254
0 0 254
0 0 255
0 0 254
0 0 255
0 0 255
0 0 255
0 0 255
0 0 255
0 0 254
0 0 255
0 0 255
0 0 253
0 0 249
0 0 254
0 0 255
0 0 254
0 0 253
0 0 252
0 0 255
0 0 252
0 0 253
0 0 252
0 0 254
0 0 248
0 0 254
0 0 255
0 0 254
0 0 253
0 0 252
0 0 254
0 0 254
0 0 246
0 0 255
0 0 253
0 0 250
0 0 252
0 0 252
0 0 254
0 0 250
0 0 253
0 0 249
0 0 253
0 0 249
0 0 254
0 0 253
0 0 250
0 0 253
0 0 254
0 0 250
0 0 254
0 0 250
0 0 249
0 0 250
0 0 250
0 0 246
0 0 252
0 0 253
0 0 250
0 0 250
0 0 252
0 0 250
0 0 249
0 0 252
0 0 253
0 0 252
0 0 246
0 0 250
0 0 248
0 0 241
0 0 252
0 0 244
0 0 242
0 0 241
0 0 242
0 0 250
0 0 241
0 0 244
0 0 248
0 0 245
0 0 242
0 0 244
0 0 242
0 0 249
0 0 245
0 0 246
0 0 249
0 0 245
0 0 244
0 0 244
0 0 242
0 0 245
0 0 242
0 0 238
0 0 240
0 0 242
0 0 240
0 0 234
0 0 242
0 0 240
0 0 242
0 0 238
0 0 236
0 0 240
0 0 226
0 0 230
0 0 238
0 0 237
0 0 231
0 0 240
0 0 240
0 0 238
0 0 231
82 85 231
230 237 255
238 245 255
238 245 255
238 245 255
238 245 255
238 245 255
238 245 255
238 245 255
238 245 255
238 245 255
238 245 255
239 245 255
239 245 255
239 245 255
239 245 255
239 245 255
239 245 255
239 245 255
239 245 255
239 245 255
239 246 255
239 246 255
239 246 255
239 246 255
239 246 255
239 245 255
239 246 255
239 245 255
239 245 255
239 245 255
239 245 255
239 245 255
239 245 255
239 245 255
239 245 255
239 245 255
238 245 255
238 245 255
238 245 255
238 245 255
238 245 255
238 245 255
238 245 255
238 245 255
238 245 255
238 225 234
228 88 92
220 0 0
216 0 0
217 0 0
224 0 0
223 0 0
228 0 0
226 0 0
229 0 0
220 0 0
212 0 0
218 0 0
217 0 0
207 0 0
218 0 0
222 0 0
215 0 0
228 0 0
214 0 0
216 0 0
224 0 0
223 0 0
224 0 0
223 0 0
215 0 0
221 0 0
226 0 0
220 0 0
222 0 0
217 0 0
219 0 0
225 0 0
227 0 0
229 0 0
227 0 0
225 0 0
224 0 0
224 0 0
225 0 0
225 0 0
227 0 0
227 0 0
220 0 0
225 0 0
223 0 0
224 0 0
227 0 0
226 0 0
225 0 0
227 0 0
224 0 0
229 0 0
220 0 0
224 0 0
225 0 0
222 0 0
222 0 0
227 0 0
231 0 0
224 0 0
223 0 0
221 0 0
224 0 0
230 0 0
217 0 0
225 0 0
223 0 0
231 0 0
227 0 0
226 0 0
228 0 0
229 0 0
223 0 0
224 0 0
231 0 0
227 0 0
227 0 0
226 0 0
227 0 0
225 0 0
223 0 0
223 0 0
228 0 0
229 0 0
228 0 0
227 0 0
230 0 0
225 0 0
226 0 0
229 0 0
227 0 0
228 0 0
227 0 0
225 0 0
228 0 0
228 0 0
226 0 0
224 0 0
226 0 0
225 0 0
226 0 0
226 0 0
226 0 0
230 0 0
225 0 0
229 0 0
226 0 0
231 0 0
229 0 0
228 0 0
230 0 0
231 0 0
229 0 0
230 0 0
227 0 0
227 0 0
226 0 0
232 0 0
229 0 0
224 0 0
227 0 0
228 0 0
230 0 0
229 0 0
226 0 0
227 0 0
228 0 0
228 0 0
224 0 0
223 0 0
226 0 0
228 0 0
227 0 0
227 0 0
226 0 0
227 0 0
230 0 0
228 0 0
227 0 0
227 0 0
230 0 0
225 0 0
225 0 0
227 0 0
226 0 0
228 0 0
227 0 0
228 0 0
228 0 0
226 0 0
227 0 0
225 0 0
230 0 0
227 0 0
227 0 0
223 0 0
228 0 0
228 0 0
227 0 0
227 0 0
230 0 0
224 0 0
226 0 0
226 0 0
226 0 0
229 0 0
227 0 0
230 0 0
231 0 0
225 0 0
225 0 0
230 0 0
228 0 0
225 0 0
227 0 0
228 0 0
228 0 0
0 0 255
0 0 255
0 0 255
0 0 255
0 0 255
0 0 255
0 0 255
0 0 255
0 0 255
0 0 255
0 0 255
0 0 255
0 0 254
0 0 255
0 0 255
0 0 255
0 0 255
0 0 255
0 0 255
0 0 255
0 0 254
0 0 255
0 0 255
0 0 255
0 0 254
0 0 255
0 0 255
0 0 255
0 0 255
0 0 255
0 0 254
0 0 255
0 0 254
0 0 255
0 0 254
0 0 255
0 0 255
0 0 255
0 0 253
0 0 253
0 0 254
0 0 253
0 0 255
0 0 254
0 0 255
0 0 254
0 0 254
0 0 255
0 0 254
0 0 255
0 0 254
0 0 255
0 0 254
0 0 255
0 0 255
0 0 253
0 0 253
0 0 254
0 0 255
0 0 255
0 0 255
0 0 254
0 0 254
0 0 252
0 0 255
0 0 255
0 0 254
0 0 254
0 0 254
0 0 252
0 0 255
0 0 252
0 0 255
0 0 253
0 0 254
0 0 254
0 0 253
0 0 253
0 0 254
0 0 253
0 0 253
0 0 253
0 0 254
0 0 255
0 0 253
0 0 254
0 0 252
0 0 255
0 0 255
0 0 254
0 0 250
0 0 252
0 0 254
0 0 253
0 0 254
0 0 254
0 0 254
0 0 255
0 0 250
0 0 254
0 0 252
0 0 253
0 0 253
0 0 250
0 0 249
0 0 249
0 0 250
0 0 250
0 0 250
0 0 249
0 0 248
0 0 248
0 0 253
0 0 253
0 0 254
0 0 250
0 0 249
0 0 249
0 0 246
0 0 253
0 0 253
0 0 250
0 0 249
0 0 254
0 0 252
0 0 248
0 0 253
0 0 245
0 0 250
0 0 248
0 0 249
0 0 248
0 0 254
0 0 246
0 0 248
0 0 246
0 0 252
0 0 246
0 0 248
0 0 238
0 0 248
0 0 253
0 0 245
0 0 240
0 0 248
0 0 242
0 0 246
0 0 246
0 0 245
0 0 242
0 0 240
0 0 244
0 0 240
0 0 249
0 0 237
0 0 240
0 0 241
0 0 241
0 0 238
0 0 241
0 0 244
0 0 238
0 0 233
0 0 241
0 0 244
0 0 248
0 0 234
0 0 237
0 0 236
0 0 245
0 0 240
0 0 237
0 0 242
0 0 231
0 0 238
92 95 228
231 238 254
238 245 255
239 245 255
239 245 255
239 245 255
239 246 255
239 246 255
239 246 255
239 246 255
239 246 255
239 246 255
239 246 255
239 246 255
239 246 255
239 246 255
239 246 255
239 246 255
239 246 255
239 246 255
239 246 255
239 246 255
239 246 255
239 246 255
239 246 255
239 246 255
239 246 255
239 246 255
239 246 255
239 246 255
239 246 255
239 246 255
239 246 255
239 246 255
239 246 255
239 246 255
239 246 255
239 246 255
239 246 255
239 246 255
239 246 255
239 246 255
239 246 255
239 246 255
239 245 255
239 245 255
239 245 255
238 245 255
235 222 231
228 81 84
221 0 0
216 0 0
224 0 0
223 0 0
213 0 0
220 0 0
225 0 0
217 0 0
216 0 0
221 0 0
217 0 0
216 0 0
215 0 0
215 0 0
215 0 0
217 0 0
218 0 0
215 0 0
221 0 0
224 0 0
220 0 0
218 0 0
226 0 0
226 0 0
229 0 0
222 0 0
222 0 0
219 0 0
221 0 0
220 0 0
226 0 0
225 0 0
226 0 0
226 0 0
222 0 0
226 0 0
219 0 0
225 0 0
228 0 0
225 0 0
222 0 0
222 0 0
226 0 0
219 0 0
225 0 0
231 0 0
225 0 0
225 0 0
223 0 0
223 0 0
222 0 0
222 0 0
224 0 0
225 0 0
228 0 0
221 0 0
230 0 0
226 0 0
230 0 0
222 0 0
225 0 0
228 0 0
229 0 0
231 0 0
227 0 0
224 0 0
223 0 0
231 0 0
228 0 0
225 0 0
225 0 0
224 0 0
226 0 0
229 0 0
226 0 0
227 0 0
228 0 0
228 0 0
230 0 0
225 0 0
228 0 0
230 0 0
222 0 0
227 0 0
227 0 0
230 0 0
226 0 0
227 0 0
224 0 0
230 0 0
228 0 0
230 0 0
225 0 0
229 0 0
227 0 0
227 0 0
228 0 0
223 0 0
225 0 0
227 0 0
224 0 0
225 0 0
227 0 0
222 0 0
224 0 0
227 0 0
228 0 0
226 0 0
229 0 0
223 0 0
228 0 0
225 0 0
222 0 0
227 0 0
231 0 0
228 0 0
227 0 0
229 0 0
229 0 0
223 0 0
227 0 0
228 0 0
226 0 0
225 0 0
228 0 0
230 0 0
228 0 0
227 0 0
231 0 0
226 0 0
228 0 0
223 0 0
228 0 0
227 0 0
228 0 0
228 0 0
228 0 0
229 0 0
226 0 0
227 0 0
226 0 0
228 0 0
228 0 0
226 0 0
229 0 0
230 0 0
228 0 0
228 0 0
228 0 0
228 0 0
228 0 0
227 0 0
226 0 0
228 0 0
228 0 0
227 0 0
228 0 0
227 0 0
227 0 0
229 0 0
229 0 0
227 0 0
226 0 0
232 0 0
228 0 0
227 0 0
229 0 0
227 0 0
226 0 0
230 0 0
228 0 0
226 0 0
229 0 0
229 0 0
230 0 0
0 0 255
0 0 255
0 0 255
0 0 255
0 0 255
0 0 255
0 0 255
0 0 255
0 0 255
0 0 255
0 0 255
0 0 255
0 0 255
0 0 255
0 0 255
0 0 255
0 0 255
0 0 255
0 0 254
0 0 255
0 0 255
0 0 255
0 0 255
0 0 255
0 0 255
0 0 255
0 0 255
0 0 254
0 0 255
0 0 255
0 0 255
0 0 255
0 0 254
0 0 255
0 0 254
0 0 255
0 0 255
0 0 255
0 0 255
0 0 254
0 0 255
0 0 255
0 0 255
0 0 255
0 0 254
0 0 254
0 0 255
0 0 255
0 0 254
0 0 255
0 0 254
0 0 254
0 0 254
0 0 254
0 0 255
0 0 255
0 0 254
0 0 254
0 0 254
0 0 253
0 0 253
0 0 255
0 0 254
0 0 254
0 0 254
0 0 254
0 0 252
0 0 253
0 0 254
0 0 255
0 0 255
0 0 254
0 0 254
0 0 253
0 0 254
0 0 253
0 0 255
0 0 252
0 0 255
0 0 253
0 0 253
0 0 254
0 0 254
0 0 254
0 0 253
0 0 252
0 0 255
0 0 254
0 0 253
0 0 253
0 0 254
0 0 254
0 0 253
0 0 250
0 0 252
0 0 250
0 0 253
0 0 254
0 0 254
0 0 254
0 0 250
0 0 255
0 0 252
0 0 252
0 0 246
0 0 253
0 0 254
0 0 254
0 0 253
0 0 252
0 0 255
0 0 255
0 0 252
0 0 249
0 0 253
0 0 254
0 0 245
0 0 254
0 0 244
0 0 253
0 0 254
0 0 253
0 0 252
0 0 250
0 0 253
0 0 254
0 0 250
0 0 250
0 0 248
0 0 252
0 0 248
0 0 249
0 0 246
0 0 252
0 0 249
0 0 242
0 0 245
0 0 254
0 0 246
0 0 245
0 0 240
0 0 246
0 0 249
0 0 248
0 0 241
0 0 246
0 0 245
0 0 248
0 0 241
0 0 246
0 0 244
0 0 238
0 0 241
0 0 241
0 0 249
0 0 242
0 0 240
0 0 241
0 0 241
0 0 238
0 0 244
0 0 238
0 0 244
0 0 238
0 0 230
0 0 238
0 0 234
0 0 248
0 0 237
0 0 238
0 0 231
0 0 234
0 0 238
0 0 241
67 69 234
231 238 252
239 246 255
239 246 255
239 246 255
239 246 255
239 246 255
239 246 255
239 246 255
239 246 255
239 246 255
239 246 255
239 246 255
239 246 255
239 246 255
239 246 255
239 246 255
239 246 255
239 246 255
239 246 255
239 246 255
239 246 255
239 246 255
239 246 255
239 246 255
239 246 255
239 246 255
239 246 255
239 246 255
239 246 255
239 246 255
239 246 255
239 246 255
239 246 255
239 246 255
239 246 255
239 246 255
239 246 255
239 246 255
239 246 255
239 246 255
239 246 255
239 246 255
239 246 255
239 246 255
239 246 255
239 246 255
239 246 255
239 246 255
239 246 255
237 234 244
219 104 108
217 0 0
222 0 0
222 0 0
226 0 0
223 0 0
234 0 0
216 0 0
221 0 0
219 0 0
220 0 0
214 0 0
221 0 0
220 0 0
221 0 0
228 0 0
225 0 0
217 0 0
219 0 0
213 0 0
225 0 0
219 0 0
223 0 0
221 0 0
224 0 0
220 0 0
227 0 0
224 0 0
224 0 0
215 0 0
226 0 0
224 0 0
227 0 0
230 0 0
220 0 0
226 0 0
230 0 0
223 0 0
224 0 0
232 0 0
223 0 0
226 0 0
224 0 0
224 0 0
225 0 0
225 0 0
226 0 0
222 0 0
222 0 0
223 0 0
228 0 0
223 0 0
230 0 0
226 0 0
227 0 0
228 0 0
226 0 0
226 0 0
222 0 0
226 0 0
221 0 0
227 0 0
226 0 0
224 0 0
228 0 0
223 0 0
231 0 0
226 0 0
227 0 0
226 0 0
225 0 0
227 0 0
225 0 0
231 0 0
228 0 0
227 0 0
228 0 0
229 0 0
228 0 0
227 0 0
225 0 0
225 0 0
225 0 0
221 0 0
222 0 0
228 0 0
230 0 0
229 0 0
227 0 0
228 0 0
226 0 0
227 0 0
226 0 0
227 0 0
228 0 0
228 0 0
226 0 0
228 0 0
226 0 0
228 0 0
222 0 0
225 0 0
229 0 0
228 0 0
226 0 0
229 0 0
226 0 0
227 0 0
230 0 0
229 0 0
231 0 0
228 0 0
229 0 0
226 0 0
226 0 0
228 0 0
225 0 0
227 0 0
226 0 0
229 0 0
226 0 0
225 0 0
228 0 0
226 0 0
228 0 0
226 0 0
226 0 0
227 0 0
226 0 0
225 0 0
229 0 0
231 0 0
227 0 0
228 0 0
228 0 0
226 0 0
229 0 0
226 0 0
228 0 0
232 0 0
227 0 0
227 0 0
228 0 0
226 0 0
224 0 0
226 0 0
229 0 0
227 0 0
228 0 0
226 0 0
230 0 0
226 0 0
228 0 0
228 0 0
225 0 0
229 0 0
228 0 0
227 0 0
228 0 0
226 0 0
229 0 0
230 0 0
228 0 0
229 0 0
226 0 0
227 0 0
227 0 0
228 0 0
228 0 0
229 0 0
224 0 0
229 0 0
230 0 0
228 0 0
227 0 0
0 0 255
0 0 255
0 0 255
0 0 255
0 0 255
0 0 255
0 0 255
0 0 255
0 0 255
0 0 255
0 0 255
0 0 255
0 0 254
0 0 255
0 0 255
0 0 255
0 0 255
0 0 255
0 0 255
0 0 255
0 0 255
0 0 255
0 0 254
0 0 255
0 0 255
0 0 255
0 0 255
0 0 255
0 0 255
0 0 255
0 0 255
0 0 254
0 0 254
0 0 254
0 0 253
0 0 255
0 0 255
0 0 255
0 0 255
0 0 255
0 0 254
0 0 255
0 0 253
0 0 254
0 0 255
0 0 255
0 0 254
0 0 255
0 0 255
0 0 255
0 0 255
0 0 255
0 0 255
0 0 253
0 0 255
0 0 255
0 0 252
0 0 255
0 0 255
0 0 253
0 0 254
0 0 255
0 0 253
0 0 255
0 0 254
0 0 254
0 0 254
0 0 253
0 0 254
0 0 253
0 0 255
0 0 255
0 0 255
0 0 253
0 0 254
0 0 254
0 0 254
0 0 253
0 0 253
0 0 255
0 0 253
0 0 255
0 0 252
0 0 253
0 0 252
0 0 250
0 0 249
0 0 253
0 0 250
0 0 254
0 0 254
0 0 252
0 0 255
0 0 252
0 0 254
0 0 253
0 0 249
0 0 254
0 0 255
0 0 250
0 0 254
0 0 253
0 0 253
0 0 253
0 0 253
0 0 252
0 0 254
0 0 250
0 0 250
0 0 252
0 0 253
0 0 250
0 0 248
0 0 253
0 0 252
0 0 245
0 0 250
0 0 248
0 0 250
0 0 252
0 0 250
0 0 250
0 0 245
0 0 249
0 0 249
0 0 246
0 0 249
0 0 248
0 0 249
0 0 248
0 0 250
0 0 252
0 0 246
0 0 253
0 0 244
0 0 248
0 0 250
0 0 249
0 0 246
0 0 253
0 0 250
0 0 245
0 0 245
0 0 250
0 0 246
0 0 245
0 0 245
0 0 250
0 0 240
0 0 244
0 0 246
0 0 248
0 0 242
0 0 245
0 0 241
0 0 246
0 0 245
0 0 241
0 0 246
0 0 241
0 0 244
0 0 234
0 0 245
0 0 240
0 0 241
0 0 236
0 0 240
0 0 228
0 0 234
0 0 228
0 0 227
0 0 236
0 0 238
75 77 233
216 222 253
239 246 255
239 246 255
239 246 255
239 246 255
239 246 255
239 246 255
239 246 255
239 246 255
239 246 255
239 246 255
239 246 255
239 246 255
239 246 255
239 246 255
239 246 255
239 246 255
239 246 255
239 246 255
239 246 255
239 246 255
239 246 255
239 246 255
239 246 255
239 246 255
239 246 255
239 246 255
239 246 255
239 246 255
239 246 255
239 246 255
239 246 255
239 246 255
239 246 255
239 246 255
239 246 255
239 246 255
239 246 255
239 246 255
239 246 255
239 246 255
239 246 255
239 246 255
239 246 255
239 246 255
239 246 255
239 246 255
239 246 255
239 246 255
239 246 255
239 246 255
238 233 242
219 88 92
220 0 0
223 0 0
218 0 0
226 0 0
213 0 0
218 0 0
223 0 0
220 0 0
221 0 0
218 0 0
222 0 0
220 0 0
225 0 0
226 0 0
224 0 0
215 0 0
220 0 0
226 0 0
224 0 0
228 0 0
223 0 0
227 0 0
229 0 0
218 0 0
225 0 0
215 0 0
222 0 0
220 0 0
226 0 0
222 0 0
225 0 0
223 0 0
224 0 0
227 0 0
221 0 0
225 0 0
224 0 0
225 0 0
220 0 0
223 0 0
228 0 0
227 0 0
225 0 0
225 0 0
226 0 0
226 0 0
226 0 0
226 0 0
227 0 0
223 0 0
227 0 0
226 0 0
228 0 0
220 0 0
223 0 0
229 0 0
225 0 0
227 0 0
228 0 0
230 0 0
227 0 0
226 0 0
225 0 0
224 0 0
225 0 0
229 0 0
225 0 0
222 0 0
228 0 0
226 0 0
228 0 0
228 0 0
225 0 0
227 0 0
222 0 0
227 0 0
228 0 0
229 0 0
226 0 0
229 0 0
222 0 0
227 0 0
227 0 0
230 0 0
228 0 0
228 0 0
234 0 0
230 0 0
231 0 0
225 0 0
228 0 0
226 0 0
225 0 0
226 0 0
226 0 0
225 0 0
227 0 0
227 0 0
226 0 0
228 0 0
229 0 0
229 0 0
226 0 0
226 0 0
231 0 0
230 0 0
229 0 0
226 0 0
229 0 0
232 0 0
227 0 0
229 0 0
229 0 0
227 0 0
228 0 0
230 0 0
225 0 0
228 0 0
227 0 0
228 0 0
231 0 0
228 0 0
227 0 0
231 0 0
230 0 0
226 0 0
230 0 0
227 0 0
225 0 0
225 0 0
227 0 0
227 0 0
227 0 0
227 0 0
226 0 0
229 0 0
230 0 0
226 0 0
226 0 0
224 0 0
226 0 0
230 0 0
228 0 0
231 0 0
229 0 0
230 0 0
232 0 0
229 0 0
228 0 0
228 0 0
228 0 0
226 0 0
228 0 0
229 0 0
225 0 0
229 0 0
226 0 0
226 0 0
226 0 0
228 0 0
228 0 0
231 0 0
229 0 0
229 0 0
229 0 0
232 0 0
226 0 0
227 0 0
225 0 0
231 0 0
226 0 0
228 0 0
229 0 0
0 0 255
0 0 255
0 0 255
0 0 255
0 0 255
0 0 255
0 0 255
0 0 255
0 0 255
0 0 255
0 0 255
0 0 255
0 0 254
0 0 255
0 0 255
0 0 254
0 0 255
0 0 255
0 0 255
0 0 255
0 0 255
0 0 255
0 0 255
0 0 254
0 0 254
0 0 255
0 0 255
0 0 255
0 0 255
0 0 255
0 0 255
0 0 255
0 0 255
0 0 255
0 0 254
0 0 255
0 0 255
0 0 255
0 0 255
0 0 254
0 0 255
0 0 255
0 0 254
0 0 255
0 0 252
0 0 255
0 0 255
0 0 254
0 0 254
0 0 254
0 0 254
0 0 254
0 0 254
0 0 253
0 0 255
0 0 255
0 0 255
0 0 254
0 0 255
0 0 253
0 0 255
0 0 255
0 0 255
0 0 254
0 0 255
0 0 252
0 0 254
0 0 255
0 0 253
0 0 254
0 0 255
0 0 255
0 0 253
0 0 253
0 0 255
0 0 255
0 0 254
0 0 254
0 0 255
0 0 255
0 0 255
0 0 254
0 0 254
0 0 255
0 0 254
0 0 253
0 0 255
0 0 255
0 0 255
0 0 250
0 0 253
0 0 253
0 0 252
0 0 254
0 0 252
0 0 250
0 0 254
0 0 246
0 0 254
0 0 254
0 0 252
0 0 253
0 0 254
0 0 254
0 0 250
0 0 250
0 0 250
0 0 253
0 0 252
0 0 253
0 0 253
0 0 250
0 0 248
0 0 252
0 0 253
0 0 249
0 0 245
0 0 249
0 0 250
0 0 252
0 0 250
0 0 249
0 0 253
0 0 253
0 0 252
0 0 246
0 0 252
0 0 250
0 0 252
0 0 252
0 0 252
0 0 248
0 0 250
0 0 244
0 0 252
0 0 245
0 0 248
0 0 250
0 0 249
0 0 253
0 0 248
0 0 249
0 0 245
0 0 245
0 0 249
0 0 246
0 0 249
0 0 249
0 0 242
0 0 248
0 0 248
0 0 245
0 0 240
0 0 245
0 0 250
0 0 244
0 0 241
0 0 240
0 0 248
0 0 242
0 0 245
0 0 244
0 0 241
0 0 234
0 0 237
0 0 241
0 0 238
0 0 237
0 0 236
0 0 237
0 0 244
0 0 237
109 112 236
226 232 254
239 246 255
239 246 255
239 246 255
239 246 255
239 246 255
239 246 255
239 246 255
239 246 255
239 246 255
239 246 255
239 246 255
239 246 255
239 246 255
239 246 255
239 246 255
239 246 255
239 246 255
239 246 255
239 246 255
240 246 255
240 246 255
240 246 255
240 246 255
240 246 255
240 246 255
240 246 255
240 246 255
240 246 255
240 246 255
240 246 255
240 246 255
240 246 255
240 246 255
239 246 255
239 246 255
239 246 255
239 246 255
239 246 255
239 246 255
239 246 255
239 246 255
239 246 255
239 246 255
239 246 255
239 246 255
239 246 255
239 246 255
239 246 255
239 246 255
239 246 255
239 246 255
239 246 255
237 237 246
225 127 133
227 0 0
224 0 0
217 0 0
214 0 0
228 0 0
226 0 0
214 0 0
219 0 0
223 0 0
222 0 0
216 0 0
225 0 0
224 0 0
215 0 0
224 0 0
224 0 0
220 0 0
220 0 0
222 0 0
224 0 0
215 0 0
222 0 0
219 0 0
225 0 0
226 0 0
223 0 0
223 0 0
222 0 0
222 0 0
224 0 0
224 0 0
225 0 0
230 0 0
230 0 0
222 0 0
220 0 0
227 0 0
231 0 0
223 0 0
228 0 0
228 0 0
224 0 0
219 0 0
231 0 0
225 0 0
222 0 0
227 0 0
224 0 0
227 0 0
228 0 0
224 0 0
224 0 0
227 0 0
228 0 0
225 0 0
227 0 0
230 0 0
230 0 0
225 0 0
223 0 0
230 0 0
229 0 0
229 0 0
227 0 0
227 0 0
226 0 0
233 0 0
226 0 0
230 0 0
230 0 0
230 0 0
230 0 0
229 0 0
226 0 0
229 0 0
227 0 0
226 0 0
228 0 0
228 0 0
225 0 0
232 0 0
231 0 0
225 0 0
227 0 0
227 0 0
230 0 0
230 0 0
226 0 0
229 0 0
229 0 0
223 0 0
226 0 0
230 0 0
229 0 0
230 0 0
229 0 0
227 0 0
226 0 0
231 0 0
228 0 0
228 0 0
228 0 0
227 0 0
228 0 0
228 0 0
229 0 0
228 0 0
228 0 0
228 0 0
227 0 0
227 0 0
226 0 0
231 0 0
227 0 0
229 0 0
226 0 0
228 0 0
227 0 0
223 0 0
227 0 0
229 0 0
227 0 0
229 0 0
231 0 0
229 0 0
230 0 0
232 0 0
231 0 0
227 0 0
224 0 0
229 0 0
229 0 0
226 0 0
229 0 0
226 0 0
226 0 0
226 0 0
227 0 0
229 0 0
228 0 0
225 0 0
230 0 0
228 0 0
227 0 0
230 0 0
229 0 0
229 0 0
227 0 0
227 0 0
232 0 0
228 0 0
230 0 0
226 0 0
232 0 0
227 0 0
231 0 0
228 0 0
228 0 0
229 0 0
227 0 0
228 0 0
228 0 0
227 0 0
228 0 0
227 0 0
228 0 0
228 0 0
229 0 0
229 0 0
223 0 0
230 0 0
229 0 0
0 0 255
0 0 255
0 0 255
0 0 255
0 0 255
0 0 255
0 0 255
0 0 255
0 0 255
0 0 255
0 0 255
0 0 254
0 0 255
0 0 255
0 0 255
0 0 255
0 0 255
0 0 255
0 0 255
0 0 255
0 0 253
0 0 255
0 0 255
0 0 255
0 0 255
0 0 255
0 0 255
0 0 255
0 0 255
0 0 255
0 0 255
0 0 254
0 0 255
0 0 255
0 0 255
0 0 254
0 0 255
0 0 255
0 0 255
0 0 253
0 0 255
0 0 255
0 0 255
0 0 254
0 0 255
0 0 255
0 0 253
0 0 255
0 0 255
0 0 254
0 0 254
0 0 254
0 0 255
0 0 255
0 0 255
0 0 253
0 0 254
0 0 254
0 0 253
0 0 255
0 0 254
0 0 255
0 0 253
0 0 255
0 0 255
0 0 255
0 0 254
0 0 253
0 0 253
0 0 255
0 0 255
0 0 254
0 0 254
0 0 255
0 0 255
0 0 254
0 0 253
0 0 255
0 0 255
0 0 253
0 0 253
0 0 253
0 0 255
0 0 253
0 0 255
0 0 254
0 0 252
0 0 253
0 0 255
0 0 252
0 0 254
0 0 254
0 0 253
0 0 252
0 0 254
0 0 254
0 0 252
0 0 250
0 0 252
0 0 255
0 0 255
0 0 252
0 0 254
0 0 253
0 0 254
0 0 250
0 0 249
0 0 252
0 0 250
0 0 255
0 0 252
0 0 254
0 0 248
0 0 249
0 0 253
0 0 249
0 0 253
0 0 254
0 0 253
0 0 252
0 0 248
0 0 253
0 0 252
0 0 249
0 0 253
0 0 250
0 0 249
0 0 248
0 0 246
0 0 250
0 0 250
0 0 249
0 0 252
0 0 248
0 0 250
0 0 249
0 0 241
0 0 249
0 0 240
0 0 249
0 0 250
0 0 246
0 0 244
0 0 246
0 0 253
0 0 249
0 0 249
0 0 245
0 0 250
0 0 241
0 0 249
0 0 246
0 0 246
0 0 246
0 0 236
0 0 246
0 0 246
0 0 242
0 0 244
0 0 244
0 0 241
0 0 241
0 0 241
0 0 240
0 0 240
0 0 241
0 0 238
0 0 242
0 0 234
0 0 230
0 0 234
117 120 245
231 237 254
239 246 255
239 246 255
239 246 255
239 246 255
239 246 255
239 246 255
239 246 255
239 246 255
240 246 255
240 246 255
240 246 255
240 246 255
240 246 255
240 246 255
240 246 255
240 246 255
240 246 255
240 246 255
240 246 255
240 246 255
240 246 255
240 246 255
240 246 255
240 246 255
240 246 255
240 246 255
240 246 255
240 246 255
240 246 255
240 246 255
240 246 255
240 246 255
240 246 255
240 246 255
240 246 255
240 246 255
240 246 255
240 246 255
240 246 255
240 246 255
240 246 255
240 246 255
240 246 255
240 246 255
240 246 255
240 246 255
239 246 255
239 246 255
239 246 255
239 246 255
239 246 255
239 246 255
239 246 255
239 246 255
239 240 249
226 130 135
220 0 0
218 0 0
225 0 0
219 0 0
230 0 0
226 0 0
223 0 0
220 0 0
223 0 0
221 0 0
225 0 0
231 0 0
224 0 0
225 0 0
217 0 0
224 0 0
227 0 0
219 0 0
227 0 0
227 0 0
227 0 0
221 0 0
220 0 0
225 0 0
229 0 0
223 0 0
230 0 0
221 0 0
213 0 0
225 0 0
225 0 0
217 0 0
224 0 0
226 0 0
227 0 0
223 0 0
226 0 0
223 0 0
227 0 0
221 0 0
225 0 0
218 0 0
220 0 0
225 0 0
219 0 0
227 0 0
224 0 0
222 0 0
219 0 0
226 0 0
226 0 0
233 0 0
222 0 0
223 0 0
227 0 0
224 0 0
229 0 0
228 0 0
226 0 0
230 0 0
226 0 0
223 0 0
229 0 0
228 0 0
226 0 0
222 0 0
225 0 0
227 0 0
224 0 0
227 0 0
222 0 0
225 0 0
228 0 0
229 0 0
225 0 0
225 0 0
229 0 0
231 0 0
228 0 0
226 0 0
230 0 0
230 0 0
228 0 0
228 0 0
229 0 0
228 0 0
227 0 0
224 0 0
228 0 0
228 0 0
228 0 0
227 0 0
228 0 0
225 0 0
227 0 0
225 0 0
226 0 0
228 0 0
225 0 0
230 0 0
227 0 0
228 0 0
229 0 0
227 0 0
226 0 0
228 0 0
223 0 0
226 0 0
230 0 0
226 0 0
225 0 0
230 0 0
229 0 0
231 0 0
226 0 0
227 0 0
228 0 0
228 0 0
231 0 0
230 0 0
228 0 0
230 0 0
227 0 0
229 0 0
229 0 0
227 0 0
225 0 0
230 0 0
230 0 0
230 0 0
229 0 0
227 0 0
228 0 0
227 0 0
227 0 0
228 0 0
229 0 0
228 0 0
228 0 0
227 0 0
228 0 0
231 0 0
228 0 0
231 0 0
229 0 0
227 0 0
229 0 0
228 0 0
228 0 0
228 0 0
228 0 0
228 0 0
225 0 0
228 0 0
225 0 0
230 0 0
227 0 0
228 0 0
225 0 0
228 0 0
229 0 0
229 0 0
231 0 0
229 0 0
229 0 0
229 0 0
227 0 0
228 0 0
228 0 0
231 0 0
226 0 0
0 0 255
0 0 255
0 0 255
0 0 255
0 0 255
0 0 255
0 0 255
0 0 255
0 0 255
0 0 255
0 0 255
0 0 255
0 0 255
0 0 254
0 0 255
0 0 255
0 0 255
0 0 255
0 0 255
0 0 254
0 0 255
0 0 254
0 0 255
0 0 255
0 0 255
0 0 254
0 0 255
0 0 254
0 0 255
0 0 255
0 0 255
0 0 255
0 0 255
0 0 255
0 0 255
0 0 255
0 0 254
0 0 254
0 0 255
0 0 254
0 0 255
0 0 255
0 0 254
0 0 254
0 0 254
0 0 254
0 0 255
0 0 255
0 0 255
0 0 255
0 0 255
0 0 254
0 0 254
0 0 253
0 0 254
0 0 254
0 0 255
0 0 255
0 0 254
0 0 254
0 0 254
0 0 255
0 0 255
0 0 255
0 0 254
0 0 254
0 0 255
0 0 253
0 0 254
0 0 255
0 0 255
0 0 254
0 0 255
0 0 255
0 0 253
0 0 255
0 0 254
0 0 255
0 0 254
0 0 254
0 0 254
0 0 255
0 0 253
0 0 254
0 0 253
0 0 255
0 0 254
0 0 254
0 0 252
0 0 254
0 0 252
0 0 250
0 0 252
0 0 255
0 0 252
0 0 253
0 0 254
0 0 254
0 0 250
0 0 254
0 0 253
0 0 254
0 0 252
0 0 255
0 0 253
0 0 253
0 0 253
0 0 252
0 0 252
0 0 253
0 0 249
0 0 252
0 0 253
0 0 250
0 0 248
0 0 253
0 0 250
0 0 246
0 0 250
0 0 253
0 0 253
0 0 253
0 0 253
0 0 253
0 0 248
0 0 244
0 0 250
0 0 249
0 0 250
0 0 248
0 0 248
0 0 245
0 0 246
0 0 250
0 0 249
0 0 249
0 0 250
0 0 240
0 0 246
0 0 244
0 0 255
0 0 246
0 0 248
0 0 248
0 0 241
0 0 246
0 0 241
0 0 245
0 0 250
0 0 249
0 0 246
0 0 246
0 0 241
0 0 245
0 0 246
0 0 246
0 0 245
0 0 244
0 0 240
0 0 244
0 0 245
0 0 231
0 0 234
0 0 245
0 0 248
0 0 245
0 0 234
0 0 240
0 0 240
0 0 236
133 137 246
235 241 255
239 246 255
240 246 255
240 246 255
240 246 255
240 246 255
240 246 255
240 246 255
240 246 255
240 246 255
240 246 255
240 246 255
240 246 255
240 246 255
240 246 255
240 246 255
240 246 255
240 246 255
240 246 255
240 246 255
240 246 255
240 246 255
240 246 255
240 246 255
240 246 255
240 246 255
240 246 255
240 246 255
240 246 255
240 246 255
240 246 255
240 246 255
240 246 255
240 246 255
240 246 255
240 246 255
240 246 255
240 246 255
240 246 255
240 246 255
240 246 255
240 246 255
240 246 255
240 246 255
240 246 255
240 246 255
240 246 255
240 246 255
240 246 255
240 246 255
240 246 255
240 246 255
240 246 255
240 246 255
240 246 255
239 246 255
239 246 255
238 242 252
225 149 155
221 0 0
223 0 0
224 0 0
224 0 0
220 0 0
224 0 0
218 0 0
221 0 0
226 0 0
220 0 0
219 0 0
227 0 0
220 0 0
223 0 0
221 0 0
228 0 0
227 0 0
225 0 0
223 0 0
223 0 0
228 0 0
223 0 0
225 0 0
226 0 0
227 0 0
231 0 0
228 0 0
224 0 0
230 0 0
226 0 0
228 0 0
229 0 0
225 0 0
226 0 0
222 0 0
221 0 0
231 0 0
223 0 0
226 0 0
229 0 0
222 0 0
224 0 0
232 0 0
231 0 0
227 0 0
220 0 0
225 0 0
229 0 0
226 0 0
228 0 0
222 0 0
228 0 0
231 0 0
229 0 0
227 0 0
227 0 0
227 0 0
228 0 0
230 0 0
226 0 0
230 0 0
223 0 0
230 0 0
232 0 0
228 0 0
228 0 0
229 0 0
226 0 0
227 0 0
226 0 0
230 0 0
225 0 0
231 0 0
226 0 0
228 0 0
226 0 0
226 0 0
227 0 0
229 0 0
229 0 0
228 0 0
230 0 0
228 0 0
226 0 0
227 0 0
229 0 0
228 0 0
228 0 0
225 0 0
228 0 0
225 0 0
226 0 0
231 0 0
231 0 0
225 0 0
228 0 0
230 0 0
229 0 0
230 0 0
223 0 0
226 0 0
228 0 0
227 0 0
229 0 0
229 0 0
227 0 0
226 0 0
231 0 0
227 0 0
230 0 0
228 0 0
226 0 0
227 0 0
227 0 0
226 0 0
228 0 0
227 0 0
231 0 0
232 0 0
229 0 0
231 0 0
230 0 0
227 0 0
227 0 0
226 0 0
230 0 0
228 0 0
227 0 0
229 0 0
230 0 0
226 0 0
229 0 0
228 0 0
229 0 0
227 0 0
227 0 0
228 0 0
229 0 0
228 0 0
228 0 0
229 0 0
229 0 0
229 0 0
227 0 0
229 0 0
230 0 0
228 0 0
230 0 0
228 0 0
226 0 0
227 0 0
228 0 0
225 0 0
228 0 0
232 0 0
228 0 0
230 0 0
230 0 0
228 0 0
228 0 0
227 0 0
231 0 0
226 0 0
226 0 0
233 0 0
229 0 0
230 0 0
228 0 0
225 0 0
224 0 0
0 0 255
0 0 255
0 0 255
0 0 255
0 0 255
0 0 255
0 0 255
0 0 255
0 0 255
0 0 255
0 0 255
0 0 255
0 0 255
0 0 255
0 0 255
0 0 255
0 0 255
0 0 255
0 0 255
0 0 255
0 0 255
0 0 255
0 0 255
0 0 254
0 0 255
0 0 254
0 0 255
0 0 254
0 0 255
0 0 255
0 0 255
0 0 255
0 0 255
0 0 255
0 0 255
0 0 255
0 0 255
0 0 254
0 0 255
0 0 255
0 0 254
0 0 255
0 0 255
0 0 255
0 0 254
0 0 253
0 0 254
0 0 255
0 0 255
0 0 255
0 0 255
0 0 255
0 0 255
0 0 254
0 0 254
0 0 255
0 0 255
0 0 255
0 0 254
0 0 255
0 0 255
0 0 254
0 0 255
0 0 255
0 0 255
0 0 255
0 0 255
0 0 252
0 0 254
0 0 255
0 0 255
0 0 250
0 0 255
0 0 255
0 0 255
0 0 253
0 0 254
0 0 255
0 0 255
0 0 254
0 0 254
0 0 252
0 0 254
0 0 253
0 0 252
0 0 254
0 0 253
0 0 254
0 0 253
0 0 252
0 0 254
0 0 253
0 0 250
0 0 255
0 0 254
0 0 255
0 0 254
0 0 254
0 0 250
0 0 253
0 0 253
0 0 254
0 0 254
0 0 254
0 0 248
0 0 254
0 0 254
0 0 249
0 0 250
0 0 248
0 0 250
0 0 254
0 0 250
0 0 253
0 0 253
0 0 249
0 0 248
0 0 252
0 0 254
0 0 249
0 0 248
0 0 253
0 0 250
0 0 250
0 0 249
0 0 252
0 0 253
0 0 249
0 0 250
0 0 250
0 0 252
0 0 250
0 0 246
0 0 250
0 0 246
0 0 248
0 0 250
0 0 252
0 0 250
0 0 246
0 0 245
0 0 252
0 0 249
0 0 250
0 0 244
0 0 246
0 0 249
0 0 241
0 0 246
0 0 244
0 0 245
0 0 252
0 0 241
0 0 245
0 0 240
0 0 231
0 0 249
0 0 244
0 0 238
0 0 244
0 0 248
0 0 242
0 0 238
0 0 242
0 0 240
0 0 240
0 0 246
0 0 234
0 0 242
166 170 245
237 244 255
240 246 255
240 246 255
240 246 255
240 246 255
240 246 255
240 246 255
240 246 255
240 246 255
240 246 255
240 246 255
240 246 255
240 246 255
240 246 255
240 246 255
240 246 255
240 246 255
240 246 255
240 246 255
240 246 255
240 246 255
240 246 255
240 246 255
240 246 255
240 246 255
240 246 255
240 246 255
240 246 255
240 246 255
240 246 255
240 246 255
240 246 255
240 246 255
240 246 255
240 246 255
240 246 255
240 246 255
240 246 255
240 246 255
240 246 255
240 246 255
240 246 255
240 246 255
240 246 255
240 246 255
240 246 255
240 246 255
240 246 255
240 246 255
240 246 255
240 246 255
240 246 255
240 246 255
240 246 255
240 246 255
240 246 255
240 246 255
240 246 255
240 246 255
240 242 252
231 152 157
228 0 0
221 0 0
231 0 0
223 0 0
229 0 0
231 0 0
227 0 0
228 0 0
226 0 0
227 0 0
219 0 0
223 0 0
229 0 0
228 0 0
233 0 0
224 0 0
225 0 0
226 0 0
225 0 0
219 0 0
232 0 0
231 0 0
223 0 0
221 0 0
228 0 0
224 0 0
226 0 0
225 0 0
219 0 0
226 0 0
228 0 0
230 0 0
223 0 0
226 0 0
228 0 0
225 0 0
227 0 0
227 0 0
225 0 0
228 0 0
227 0 0
233 0 0
219 0 0
230 0 0
226 0 0
230 0 0
224 0 0
225 0 0
221 0 0
226 0 0
227 0 0
230 0 0
234 0 0
226 0 0
229 0 0
226 0 0
228 0 0
230 0 0
219 0 0
228 0 0
230 0 0
228 0 0
228 0 0
227 0 0
228 0 0
224 0 0
225 0 0
226 0 0
231 0 0
229 0 0
228 0 0
228 0 0
230 0 0
227 0 0
228 0 0
226 0 0
228 0 0
227 0 0
228 0 0
229 0 0
230 0 0
229 0 0
228 0 0
228 0 0
231 0 0
226 0 0
229 0 0
228 0 0
232 0 0
231 0 0
226 0 0
227 0 0
230 0 0
227 0 0
229 0 0
228 0 0
229 0 0
225 0 0
227 0 0
230 0 0
227 0 0
224 0 0
228 0 0
225 0 0
227 0 0
226 0 0
227 0 0
227 0 0
226 0 0
228 0 0
229 0 0
228 0 0
226 0 0
231 0 0
230 0 0
227 0 0
225 0 0
228 0 0
230 0 0
228 0 0
227 0 0
227 0 0
231 0 0
232 0 0
230 0 0
229 0 0
229 0 0
228 0 0
230 0 0
224 0 0
230 0 0
226 0 0
228 0 0
229 0 0
226 0 0
229 0 0
228 0 0
229 0 0
228 0 0
228 0 0
230 0 0
228 0 0
227 0 0
230 0 0
227 0 0
227 0 0
229 0 0
228 0 0
230 0 0
228 0 0
228 0 0
230 0 0
226 0 0
227 0 0
226 0 0
228 0 0
228 0 0
229 0 0
231 0 0
226 0 0
231 0 0
228 0 0
226 0 0
230 0 0
231 0 0
228 0 0
228 0 0
229 0 0
224 0 0
0 0 255
0 0 255
0 0 255
0 0 255
0 0 255
0 0 255
0 0 255
0 0 255
0 0 255
0 0 255
0 0 255
0 0 255
0 0 255
0 0 255
0 0 255
0 0 254
0 0 255
0 0 255
0 0 255
0 0 255
0 0 255
0 0 255
0 0 255
0 0 255
0 0 254
0 0 255
0 0 255
0 0 255
0 0 255
0 0 255
0 0 255
0 0 255
0 0 254
0 0 255
0 0 254
0 0 255
0 0 255
0 0 255
0 0 255
0 0 255
0 0 255
0 0 254
0 0 254
0 0 255
0 0 254
0 0 255
0 0 255
0 0 254
0 0 255
0 0 255
0 0 255
0 0 255
0 0 254
0 0 255
0 0 255
0 0 255
0 0 253
0 0 254
0 0 254
0 0 254
0 0 254
0 0 253
0 0 254
0 0 255
0 0 255
0 0 255
0 0 253
0 0 255
0 0 253
0 0 255
0 0 255
0 0 254
0 0 255
0 0 255
0 0 254
0 0 253
0 0 254
0 0 255
0 0 254
0 0 252
0 0 252
0 0 254
0 0 255
0 0 254
0 0 253
0 0 254
0 0 252
0 0 252
0 0 254
0 0 252
0 0 254
0 0 254
0 0 255
0 0 252
0 0 250
0 0 253
0 0 250
0 0 254
0 0 248
0 0 254
0 0 254
0 0 252
0 0 252
0 0 253
0 0 250
0 0 254
0 0 252
0 0 253
0 0 253
0 0 254
0 0 254
0 0 253
0 0 252
0 0 249
0 0 252
0 0 252
0 0 254
0 0 248
0 0 249
0 0 252
0 0 252
0 0 250
0 0 249
0 0 248
0 0 250
0 0 252
0 0 253
0 0 253
0 0 254
0 0 245
0 0 250
0 0 252
0 0 250
0 0 250
0 0 246
0 0 253
0 0 252
0 0 246
0 0 248
0 0 240
0 0 249
0 0 248
0 0 252
0 0 244
0 0 246
0 0 249
0 0 246
0 0 241
0 0 246
0 0 244
0 0 250
0 0 242
0 0 250
0 0 250
0 0 249
0 0 246
0 0 246
0 0 244
0 0 244
0 0 237
0 0 245
0 0 238
0 0 241
0 0 245
0 0 250
0 0 246
0 0 246
41 42 242
186 191 250
240 246 255
240 246 255
240 246 255
240 246 255
240 246 255
240 246 255
240 246 255
240 246 255
240 246 255
240 246 255
240 246 255
240 246 255
240 246 255
240 246 255
240 246 255
240 246 255
240 246 255
240 246 255
240 247 255
240 247 255
240 247 255
240 247 255
240 247 255
240 247 255
240 247 255
240 247 255
240 247 255
240 247 255
240 247 255
240 247 255
240 247 255
240 247 255
240 247 255
240 247 255
240 247 255
240 247 255
240 247 255
240 247 255
240 247 255
240 247 255
240 247 255
240 247 255
240 247 255
240 246 255
240 246 255
240 246 255
240 246 255
240 246 255
240 246 255
240 246 255
240 246 255
240 246 255
240 246 255
240 246 255
240 246 255
240 246 255
240 246 255
240 246 255
240 246 255
240 246 255
240 246 255
240 246 255
237 192 199
230 42 44
228 0 0
221 0 0
226 0 0
234 0 0
220 0 0
231 0 0
230 0 0
225 0 0
227 0 0
229 0 0
224 0 0
227 0 0
221 0 0
225 0 0
225 0 0
223 0 0
227 0 0
225 0 0
221 0 0
226 0 0
223 0 0
228 0 0
223 0 0
225 0 0
224 0 0
229 0 0
227 0 0
228 0 0
231 0 0
228 0 0
228 0 0
228 0 0
233 0 0
228 0 0
226 0 0
226 0 0
224 0 0
223 0 0
231 0 0
226 0 0
230 0 0
225 0 0
228 0 0
223 0 0
231 0 0
227 0 0
225 0 0
227 0 0
224 0 0
224 0 0
227 0 0
234 0 0
227 0 0
225 0 0
225 0 0
227 0 0
229 0 0
225 0 0
225 0 0
228 0 0
226 0 0
228 0 0
231 0 0
226 0 0
226 0 0
224 0 0
229 0 0
227 0 0
227 0 0
224 0 0
227 0 0
229 0 0
227 0 0
228 0 0
233 0 0
227 0 0
231 0 0
228 0 0
228 0 0
225 0 0
227 0 0
230 0 0
228 0 0
229 0 0
228 0 0
222 0 0
231 0 0
226 0 0
230 0 0
227 0 0
224 0 0
230 0 0
232 0 0
224 0 0
232 0 0
228 0 0
228 0 0
230 0 0
226 0 0
231 0 0
233 0 0
229 0 0
228 0 0
228 0 0
229 0 0
228 0 0
227 0 0
228 0 0
230 0 0
229 0 0
227 0 0
231 0 0
229 0 0
233 0 0
229 0 0
231 0 0
229 0 0
227 0 0
231 0 0
227 0 0
229 0 0
230 0 0
225 0 0
227 0 0
231 0 0
229 0 0
231 0 0
227 0 0
227 0 0
228 0 0
234 0 0
230 0 0
228 0 0
230 0 0
229 0 0
230 0 0
229 0 0
228 0 0
229 0 0
226 0 0
228 0 0
229 0 0
230 0 0
230 0 0
228 0 0
230 0 0
230 0 0
229 0 0
229 0 0
225 0 0
227 0 0
228 0 0
226 0 0
230 0 0
231 0 0
227 0 0
226 0 0
230 0 0
226 0 0
229 0 0
228 0 0
228 0 0
227 0 0
230 0 0
228 0 0
226 0 0
231 0 0
0 0 255
0 0 255
0 0 255
0 0 255
0 0 255
0 0 255
0 0 255
0 0 255
0 0 255
0 0 255
0 0 255
0 0 255
0 0 255
0 0 255
0 0 255
0 0 255
0 0 255
0 0 255
0 0 255
0 0 255
0 0 255
0 0 254
0 0 255
0 0 255
0 0 255
0 0 255
0 0 255
0 0 255
0 0 255
0 0 255
0 0 255
0 0 255
0 0 253
0 0 255
0 0 255
0 0 255
0 0 255
0 0 255
0 0 255
0 0 255
0 0 255
0 0 255
0 0 255
0 0 254
0 0 255
0 0 252
0 0 255
0 0 255
0 0 255
0 0 255
0 0 255
0 0 255
0 0 254
0 0 255
0 0 254
0 0 253
0 0 254
0 0 253
0 0 254
0 0 253
0 0 253
0 0 255
0 0 253
0 0 255
0 0 255
0 0 255
0 0 254
0 0 255
0 0 255
0 0 253
0 0 253
0 0 254
0 0 255
0 0 255
0 0 253
0 0 254
0 0 255
0 0 253
0 0 255
0 0 255
0 0 250
0 0 253
0 0 252
0 0 253
0 0 255
0 0 252
0 0 255
0 0 252
0 0 253
0 0 254
0 0 255
0 0 254
0 0 254
0 0 255
0 0 254
0 0 254
0 0 254
0 0 253
0 0 250
0 0 252
0 0 254
0 0 252
0 0 253
0 0 252
0 0 254
0 0 252
0 0 253
0 0 254
0 0 249
0 0 252
0 0 252
0 0 253
0 0 252
0 0 250
0 0 254
0 0 252
0 0 252
0 0 252
0 0 254
0 0 249
0 0 250
0 0 248
0 0 253
0 0 252
0 0 253
0 0 253
0 0 254
0 0 248
0 0 250
0 0 250
0 0 253
0 0 252
0 0 242
0 0 249
0 0 250
0 0 253
0 0 244
0 0 248
0 0 252
0 0 250
0 0 248
0 0 252
0 0 250
0 0 248
0 0 245
0 0 248
0 0 246
0 0 240
0 0 245
0 0 245
0 0 245
0 0 244
0 0 245
0 0 242
0 0 242
0 0 246
0 0 253
0 0 244
0 0 242
0 0 246
0 0 245
0 0 240
0 0 240
0 0 246
0 0 245
0 0 241
53 55 240
217 223 253
240 246 255
240 246 255
240 246 255
240 246 255
240 246 255
240 246 255
240 246 255
240 246 255
240 246 255
240 246 255
240 246 255
240 247 255
240 247 255
240 247 255
240 247 255
240 247 255
240 247 255
240 247 255
240 247 255
241 247 255
241 247 255
241 247 255
241 247 255
241 247 255
241 247 255
241 247 255
241 247 255
241 247 255
241 247 255
241 247 255
241 247 255
241 247 255
241 247 255
241 247 255
241 247 255
241 247 255
241 247 255
241 247 255
241 247 255
241 247 255
241 247 255
241 247 255
241 247 255
241 247 255
241 247 255
241 247 255
240 247 255
240 247 255
240 247 255
240 247 255
240 247 255
240 247 255
240 247 255
240 246 255
240 246 255
240 246 255
240 246 255
240 246 255
240 246 255
240 246 255
240 246 255
240 246 255
240 246 255
240 246 255
237 212 220
226 69 72
227 0 0
225 0 0
220 0 0
224 0 0
231 0 0
227 0 0
230 0 0
224 0 0
224 0 0
225 0 0
229 0 0
225 0 0
224 0 0
231 0 0
222 0 0
228 0 0
227 0 0
224 0 0
218 0 0
224 0 0
225 0 0
228 0 0
225 0 0
226 0 0
226 0 0
221 0 0
226 0 0
226 0 0
228 0 0
226 0 0
227 0 0
225 0 0
230 0 0
231 0 0
231 0 0
223 0 0
231 0 0
230 0 0
228 0 0
226 0 0
228 0 0
227 0 0
227 0 0
226 0 0
225 0 0
223 0 0
229 0 0
225 0 0
227 0 0
229 0 0
228 0 0
230 0 0
224 0 0
232 0 0
227 0 0
224 0 0
225 0 0
226 0 0
229 0 0
228 0 0
230 0 0
229 0 0
229 0 0
225 0 0
225 0 0
223 0 0
224 0 0
223 0 0
226 0 0
223 0 0
227 0 0
229 0 0
227 0 0
227 0 0
226 0 0
229 0 0
220 0 0
227 0 0
233 0 0
232 0 0
228 0 0
229 0 0
228 0 0
225 0 0
224 0 0
227 0 0
227 0 0
228 0 0
232 0 0
231 0 0
230 0 0
224 0 0
226 0 0
226 0 0
229 0 0
227 0 0
228 0 0
229 0 0
231 0 0
230 0 0
228 0 0
224 0 0
228 0 0
230 0 0
229 0 0
225 0 0
229 0 0
232 0 0
227 0 0
227 0 0
231 0 0
232 0 0
226 0 0
228 0 0
229 0 0
228 0 0
227 0 0
229 0 0
232 0 0
230 0 0
225 0 0
224 0 0
231 0 0
230 0 0
228 0 0
230 0 0
230 0 0
227 0 0
227 0 0
225 0 0
227 0 0
225 0 0
228 0 0
230 0 0
229 0 0
227 0 0
229 0 0
229 0 0
227 0 0
231 0 0
230 0 0
229 0 0
227 0 0
228 0 0
228 0 0
229 0 0
226 0 0
228 0 0
228 0 0
229 0 0
229 0 0
226 0 0
227 0 0
228 0 0
225 0 0
228 0 0
227 0 0
227 0 0
232 0 0
227 0 0
231 0 0
226 0 0
228 0 0
231 0 0
225 0 0
230 0 0
0 0 255
0 0 255
0 0 255
0 0 255
0 0 255
0 0 255
0 0 255
0 0 255
0 0 255
0 0 255
0 0 255
0 0 255
0 0 255
0 0 255
0 0 255
0 0 255
0 0 255
0 0 255
0 0 255
0 0 255
0 0 255
0 0 255
0 0 254
0 0 255
0 0 255
0 0 255
0 0 255
0 0 255
0 0 255
0 0 255
0 0 255
0 0 255
0 0 255
0 0 254
0 0 255
0 0 255
0 0 253
0 0 254
0 0 254
0 0 255
0 0 255
0 0 255
0 0 255
0 0 255
0 0 255
0 0 255
0 0 255
0 0 255
0 0 255
0 0 255
0 0 255
0 0 255
0 0 254
0 0 252
0 0 255
0 0 254
0 0 255
0 0 255
0 0 255
0 0 255
0 0 255
0 0 255
0 0 254
0 0 254
0 0 254
0 0 254
0 0 253
0 0 254
0 0 255
0 0 254
0 0 253
0 0 253
0 0 255
0 0 255
0 0 255
0 0 254
0 0 254
0 0 254
0 0 253
0 0 255
0 0 254
0 0 255
0 0 254
0 0 254
0 0 255
0 0 253
0 0 252
0 0 253
0 0 253
0 0 250
0 0 253
0 0 254
0 0 252
0 0 250
0 0 253
0 0 255
0 0 254
0 0 255
0 0 252
0 0 252
0 0 254
0 0 255
0 0 249
0 0 252
0 0 253
0 0 254
0 0 253
0 0 254
0 0 253
0 0 253
0 0 252
0 0 252
0 0 246
0 0 248
0 0 246
0 0 249
0 0 250
0 0 250
0 0 254
0 0 254
0 0 245
0 0 248
0 0 252
0 0 249
0 0 250
0 0 252
0 0 250
0 0 253
0 0 249
0 0 249
0 0 248
0 0 253
0 0 252
0 0 253
0 0 253
0 0 246
0 0 244
0 0 249
0 0 248
0 0 241
0 0 248
0 0 249
0 0 249
0 0 250
0 0 249
0 0 252
0 0 242
0 0 246
0 0 248
0 0 249
0 0 248
0 0 249
0 0 242
0 0 246
0 0 250
0 0 249
0 0 241
0 0 246
0 0 246
0 0 240
0 0 252
0 0 240
0 0 241
0 0 237
0 0 241
83 85 240
225 231 253
240 246 255
240 246 255
240 246 255
240 246 255
240 246 255
240 247 255
240 247 255
240 247 255
240 247 255
240 247 255
240 247 255
241 247 255
241 247 255
241 247 255
241 247 255
241 247 255
241 247 255
241 247 255
241 247 255
241 247 255
241 247 255
241 247 255
241 247 255
241 247 255
241 247 255
241 247 255
241 247 255
241 247 255
241 247 255
241 247 255
241 247 255
241 247 255
241 247 255
241 247 255
241 247 255
241 247 255
241 247 255
241 247 255
241 247 255
241 247 255
241 247 255
241 247 255
241 247 255
241 247 255
241 247 255
241 247 255
241 247 255
241 247 255
241 247 255
241 247 255
241 247 255
241 247 255
241 247 255
241 247 255
241 247 255
240 247 255
240 247 255
240 247 255
240 247 255
240 247 255
240 246 255
240 246 255
240 246 255
240 246 255
240 246 255
240 246 255
239 236 245
223 98 102
229 0 0
230 0 0
223 0 0
228 0 0
233 0 0
224 0 0
224 0 0
215 0 0
226 0 0
223 0 0
230 0 0
229 0 0
222 0 0
228 0 0
229 0 0
223 0 0
228 0 0
230 0 0
221 0 0
224 0 0
224 0 0
225 0 0
229 0 0
226 0 0
230 0 0
233 0 0
230 0 0
227 0 0
228 0 0
230 0 0
225 0 0
225 0 0
221 0 0
231 0 0
221 0 0
226 0 0
229 0 0
225 0 0
225 0 0
226 0 0
232 0 0
230 0 0
228 0 0
229 0 0
224 0 0
223 0 0
228 0 0
228 0 0
225 0 0
229 0 0
230 0 0
224 0 0
230 0 0
230 0 0
225 0 0
228 0 0
227 0 0
231 0 0
228 0 0
228 0 0
230 0 0
228 0 0
225 0 0
229 0 0
232 0 0
225 0 0
232 0 0
229 0 0
227 0 0
229 0 0
229 0 0
229 0 0
229 0 0
230 0 0
228 0 0
229 0 0
232 0 0
231 0 0
226 0 0
229 0 0
227 0 0
229 0 0
225 0 0
228 0 0
231 0 0
231 0 0
227 0 0
231 0 0
229 0 0
231 0 0
226 0 0
228 0 0
230 0 0
230 0 0
231 0 0
230 0 0
225 0 0
231 0 0
229 0 0
226 0 0
230 0 0
230 0 0
232 0 0
232 0 0
232 0 0
228 0 0
225 0 0
233 0 0
228 0 0
227 0 0
228 0 0
232 0 0
232 0 0
228 0 0
227 0 0
228 0 0
227 0 0
228 0 0
229 0 0
229 0 0
229 0 0
229 0 0
229 0 0
230 0 0
232 0 0
231 0 0
226 0 0
228 0 0
229 0 0
230 0 0
230 0 0
230 0 0
228 0 0
232 0 0
232 0 0
229 0 0
228 0 0
230 0 0
227 0 0
229 0 0
230 0 0
230 0 0
230 0 0
231 0 0
229 0 0
228 0 0
229 0 0
227 0 0
228 0 0
228 0 0
231 0 0
227 0 0
231 0 0
227 0 0
226 0 0
228 0 0
228 0 0
228 0 0
232 0 0
230 0 0
226 0 0
228 0 0
229 0 0
231 0 0
228 0 0
0 0 255
0 0 255
0 0 255
0 0 255
0 0 255
0 0 255
0 0 255
0 0 255
0 0 255
0 0 255
0 0 255
0 0 255
0 0 255
0 0 255
0 0 255
0 0 255
0 0 255
0 0 255
0 0 255
0 0 255
0 0 255
0 0 255
0 0 255
0 0 255
0 0 255
0 0 255
0 0 255
0 0 255
0 0 255
0 0 255
0 0 255
0 0 255
0 0 255
0 0 255
0 0 255
0 0 254
0 0 255
0 0 255
0 0 255
0 0 255
0 0 255
0 0 253
0 0 254
0 0 255
0 0 255
0 0 255
0 0 255
0 0 255
0 0 254
0 0 255
0 0 255
0 0 255
0 0 255
0 0 254
0 0 255
0 0 255
0 0 254
0 0 254
0 0 253
0 0 255
0 0 255
0 0 254
0 0 255
0 0 253
0 0 255
0 0 253
0 0 254
0 0 254
0 0 255
0 0 254
0 0 253
0 0 254
0 0 254
0 0 254
0 0 255
0 0 253
0 0 253
0 0 253
0 0 255
0 0 252
0 0 255
0 0 253
0 0 254
0 0 253
0 0 254
0 0 255
0 0 254
0 0 254
0 0 253
0 0 254
0 0 255
0 0 253
0 0 253
0 0 248
0 0 252
0 0 254
0 0 253
0 0 254
0 0 253
0 0 253
0 0 255
0 0 253
0 0 254
0 0 250
0 0 253
0 0 249
0 0 252
0 0 254
0 0 255
0 0 252
0 0 250
0 0 252
0 0 249
0 0 253
0 0 252
0 0 248
0 0 254
0 0 253
0 0 249
0 0 250
0 0 253
0 0 249
0 0 253
0 0 249
0 0 252
0 0 250
0 0 254
0 0 250
0 0 252
0 0 248
0 0 249
0 0 252
0 0 253
0 0 245
0 0 249
0 0 246
0 0 252
0 0 249
0 0 246
0 0 253
0 0 246
0 0 244
0 0 250
0 0 245
0 0 250
0 0 253
0 0 250
0 0 246
0 0 245
0 0 242
0 0 249
0 0 246
0 0 248
0 0 240
0 0 246
0 0 245
0 0 250
0 0 242
0 0 252
0 0 245
0 0 241
0 0 249
0 0 246
0 0 241
152 156 244
237 243 254
240 246 255
240 247 255
240 247 255
240 247 255
240 247 255
240 247 255
241 247 255
241 247 255
241 247 255
241 247 255
241 247 255
241 247 255
241 247 255
241 247 255
241 247 255
241 247 255
241 247 255
241 247 255
241 247 255
241 247 255
241 247 255
241 247 255
241 247 255
241 247 255
241 247 255
241 247 255
241 247 255
241 247 255
241 247 255
241 247 255
241 247 255
241 247 255
241 247 255
241 247 255
241 247 255
241 247 255
241 247 255
241 247 255
241 247 255
241 247 255
241 247 255
241 247 255
241 247 255
241 247 255
241 247 255
241 247 255
241 247 255
241 247 255
241 247 255
241 247 255
241 247 255
241 247 255
241 247 255
241 247 255
241 247 255
241 247 255
241 247 255
241 247 255
241 247 255
241 247 255
241 247 255
241 247 255
240 247 255
240 247 255
240 247 255
240 247 255
240 247 255
240 246 255
240 245 254
235 148 153
234 0 0
225 0 0
228 0 0
228 0 0
224 0 0
224 0 0
231 0 0
229 0 0
222 0 0
231 0 0
223 0 0
232 0 0
225 0 0
222 0 0
224 0 0
222 0 0
228 0 0
229 0 0
233 0 0
227 0 0
227 0 0
231 0 0
223 0 0
232 0 0
227 0 0
227 0 0
219 0 0
230 0 0
231 0 0
224 0 0
229 0 0
222 0 0
228 0 0
227 0 0
228 0 0
226 0 0
224 0 0
230 0 0
227 0 0
226 0 0
229 0 0
229 0 0
227 0 0
232 0 0
228 0 0
224 0 0
230 0 0
227 0 0
225 0 0
229 0 0
228 0 0
228 0 0
228 0 0
230 0 0
227 0 0
228 0 0
231 0 0
229 0 0
225 0 0
227 0 0
228 0 0
232 0 0
229 0 0
231 0 0
229 0 0
227 0 0
228 0 0
231 0 0
230 0 0
226 0 0
229 0 0
231 0 0
225 0 0
227 0 0
228 0 0
229 0 0
233 0 0
231 0 0
232 0 0
231 0 0
232 0 0
229 0 0
230 0 0
229 0 0
229 0 0
225 0 0
223 0 0
226 0 0
224 0 0
231 0 0
231 0 0
226 0 0
225 0 0
227 0 0
228 0 0
230 0 0
229 0 0
229 0 0
228 0 0
230 0 0
227 0 0
228 0 0
231 0 0
232 0 0
231 0 0
230 0 0
231 0 0
229 0 0
227 0 0
229 0 0
227 0 0
227 0 0
230 0 0
228 0 0
227 0 0
227 0 0
232 0 0
230 0 0
231 0 0
228 0 0
228 0 0
234 0 0
229 0 0
227 0 0
228 0 0
229 0 0
229 0 0
229 0 0
226 0 0
230 0 0
229 0 0
228 0 0
230 0 0
231 0 0
229 0 0
228 0 0
229 0 0
230 0 0
229 0 0
227 0 0
231 0 0
228 0 0
226 0 0
231 0 0
228 0 0
226 0 0
226 0 0
229 0 0
228 0 0
228 0 0
229 0 0
229 0 0
229 0 0
227 0 0
229 0 0
229 0 0
230 0 0
231 0 0
232 0 0
228 0 0
230 0 0
228 0 0
229 0 0
227 0 0
0 0 255
0 0 255
0 0 255
0 0 255
0 0 255
0 0 255
0 0 255
0 0 255
0 0 255
0 0 255
0 0 255
0 0 255
0 0 255
0 0 255
0 0 255
0 0 255
0 0 255
0 0 255
0 0 255
0 0 255
0 0 255
0 0 255
0 0 255
0 0 255
0 0 255
0 0 254
0 0 255
0 0 255
0 0 255
0 0 255
0 0 255
0 0 255
0 0 255
0 0 255
0 0 254
0 0 255
0 0 255
0 0 255
0 0 255
0 0 255
0 0 254
0 0 255
0 0 255
0 0 255
0 0 255
0 0 255
0 0 254
0 0 254
0 0 255
0 0 255
0 0 255
0 0 255
0 0 255
0 0 254
0 0 255
0 0 253
0 0 255
0 0 254
0 0 254
0 0 255
0 0 255
0 0 255
0 0 254
0 0 250
0 0 255
0 0 255
0 0 255
0 0 255
0 0 254
0 0 255
0 0 254
0 0 255
0 0 255
0 0 254
0 0 254
0 0 255
0 0 255
0 0 253
0 0 254
0 0 249
0 0 253
0 0 252
0 0 253
0 0 252
0 0 253
0 0 254
0 0 255
0 0 255
0 0 254
0 0 253
0 0 253
0 0 255
0 0 254
0 0 254
0 0 254
0 0 253
0 0 253
0 0 252
0 0 253
0 0 254
0 0 249
0 0 253
0 0 254
0 0 253
0 0 253
0 0 252
0 0 253
0 0 252
0 0 253
0 0 254
0 0 255
0 0 253
0 0 248
0 0 249
0 0 250
0 0 253
0 0 249
0 0 249
0 0 252
0 0 252
0 0 249
0 0 254
0 0 246
0 0 252
0 0 252
0 0 255
0 0 250
0 0 249
0 0 252
0 0 249
0 0 250
0 0 252
0 0 252
0 0 244
0 0 248
0 0 249
0 0 248
0 0 253
0 0 250
0 0 248
0 0 249
0 0 245
0 0 242
0 0 245
0 0 250
0 0 245
0 0 244
0 0 246
0 0 248
0 0 248
0 0 249
0 0 252
0 0 248
0 0 248
0 0 250
0 0 249
0 0 246
0 0 240
0 0 241
0 0 245
0 0 244
0 0 245
63 65 244
195 200 255
240 247 255
240 247 255
240 247 255
241 247 255
241 247 255
241 247 255
241 247 255
241 247 255
241 247 255
241 247 255
241 247 255
241 247 255
241 247 255
241 247 255
241 247 255
241 247 255
241 247 255
241 247 255
241 247 255
241 247 255
241 247 255
241 247 255
241 247 255
241 247 255
241 247 255
241 247 255
241 247 255
241 247 255
241 247 255
241 247 255
241 247 255
241 247 255
241 247 255
241 247 255
241 247 255
241 247 255
241 247 255
241 247 255
241 247 255
241 247 255
241 247 255
241 247 255
241 247 255
241 247 255
241 247 255
241 247 255
241 247 255
241 247 255
241 247 255
241 247 255
241 247 255
241 247 255
241 247 255
241 247 255
241 247 255
241 247 255
241 247 255
241 247 255
241 247 255
241 247 255
241 247 255
241 247 255
241 247 255
241 247 255
241 247 255
241 247 255
241 247 255
241 247 255
241 247 255
240 247 255
240 247 255
240 247 255
240 196 203
233 34 36
227 0 0
232 0 0
225 0 0
231 0 0
229 0 0
232 0 0
233 0 0
228 0 0
232 0 0
228 0 0
221 0 0
222 0 0
224 0 0
228 0 0
229 0 0
230 0 0
230 0 0
221 0 0
230 0 0
230 0 0
227 0 0
229 0 0
230 0 0
227 0 0
231 0 0
222 0 0
223 0 0
231 0 0
229 0 0
229 0 0
230 0 0
228 0 0
227 0 0
229 0 0
229 0 0
229 0 0
227 0 0
225 0 0
228 0 0
234 0 0
228 0 0
230 0 0
230 0 0
231 0 0
232 0 0
231 0 0
225 0 0
225 0 0
229 0 0
225 0 0
230 0 0
225 0 0
223 0 0
230 0 0
231 0 0
229 0 0
228 0 0
229 0 0
228 0 0
227 0 0
230 0 0
227 0 0
230 0 0
229 0 0
227 0 0
230 0 0
228 0 0
230 0 0
229 0 0
230 0 0
226 0 0
227 0 0
227 0 0
233 0 0
222 0 0
230 0 0
227 0 0
232 0 0
228 0 0
230 0 0
230 0 0
230 0 0
231 0 0
231 0 0
227 0 0
229 0 0
230 0 0
229 0 0
229 0 0
230 0 0
227 0 0
230 0 0
230 0 0
231 0 0
233 0 0
232 0 0
231 0 0
230 0 0
231 0 0
230 0 0
230 0 0
227 0 0
232 0 0
228 0 0
229 0 0
232 0 0
224 0 0
229 0 0
230 0 0
228 0 0
233 0 0
228 0 0
228 0 0
231 0 0
228 0 0
229 0 0
229 0 0
227 0 0
227 0 0
232 0 0
228 0 0
228 0 0
228 0 0
225 0 0
227 0 0
231 0 0
229 0 0
233 0 0
227 0 0
230 0 0
230 0 0
231 0 0
227 0 0
230 0 0
231 0 0
232 0 0
234 0 0
228 0 0
228 0 0
229 0 0
228 0 0
229 0 0
228 0 0
231 0 0
229 0 0
230 0 0
227 0 0
231 0 0
227 0 0
229 0 0
228 0 0
227 0 0
231 0 0
228 0 0
228 0 0
227 0 0
225 0 0
226 0 0
230 0 0
227 0 0
232 0 0
226 0 0
0 0 255
0 0 255
0 0 255
0 0 255
0 0 255
0 0 255
0 0 255
0 0 255
0 0 255
0 0 255
0 0 255
0 0 255
0 0 255
0 0 255
0 0 255
0 0 255
0 0 255
0 0 255
0 0 255
0 0 254
0 0 255
0 0 255
0 0 255
0 0 255
0 0 255
0 0 255
0 0 255
0 0 255
0 0 255
0 0 255
0 0 255
0 0 254
0 0 255
0 0 255
0 0 254
0 0 255
0 0 255
0 0 255
0 0 255
0 0 255
0 0 255
0 0 255
0 0 255
0 0 255
0 0 254
0 0 255
0 0 255
0 0 254
0 0 255
0 0 255
0 0 255
0 0 254
0 0 255
0 0 255
0 0 255
0 0 255
0 0 255
0 0 255
0 0 255
0 0 255
0 0 255
0 0 255
0 0 254
0 0 254
0 0 255
0 0 253
0 0 254
0 0 253
0 0 255
0 0 255
0 0 255
0 0 255
0 0 255
0 0 255
0 0 254
0 0 253
0 0 254
0 0 255
0 0 255
0 0 254
0 0 252
0 0 252
0 0 255
0 0 254
0 0 254
0 0 254
0 0 255
0 0 254
0 0 253
0 0 254
0 0 254
0 0 252
0 0 254
0 0 255
0 0 255
0 0 253
0 0 255
0 0 255
0 0 254
0 0 253
0 0 250
0 0 255
0 0 252
0 0 254
0 0 252
0 0 254
0 0 249
0 0 250
0 0 250
0 0 253
0 0 254
0 0 246
0 0 250
0 0 254
0 0 248
0 0 249
0 0 254
0 0 252
0 0 252
0 0 246
0 0 254
0 0 244
0 0 253
0 0 253
0 0 248
0 0 253
0 0 244
0 0 250
0 0 249
0 0 253
0 0 253
0 0 252
0 0 250
0 0 252
0 0 246
0 0 248
0 0 249
0 0 246
0 0 249
0 0 248
0 0 252
0 0 248
0 0 248
0 0 236
0 0 255
0 0 248
0 0 249
0 0 248
0 0 245
0 0 246
0 0 246
0 0 242
0 0 249
0 0 250
0 0 246
0 0 245
0 0 245
0 0 246
0 0 244
0 0 248
0 0 242
118 121 252
223 229 254
241 247 255
241 247 255
241 247 255
241 247 255
241 247 255
241 247 255
241 247 255
241 247 255
241 247 255
241 247 255
241 247 255
241 247 255
241 247 255
241 247 255
241 247 255
241 247 255
241 247 255
241 247 255
241 247 255
241 247 255
241 247 255
241 247 255
241 247 255
241 247 255
241 247 255
241 247 255
241 247 255
241 247 255
241 247 255
241 247 255
241 247 255
241 247 255
241 247 255
241 247 255
241 247 255
241 247 255
241 247 255
241 247 255
241 247 255
241 247 255
241 247 255
241 247 255
241 247 255
241 247 255
241 247 255
241 247 255
241 247 255
241 247 255
241 247 255
241 247 255
241 247 255
241 247 255
241 247 255
241 247 255
241 247 255
241 247 255
241 247 255
241 247 255
241 247 255
241 247 255
241 247 255
241 247 255
241 247 255
241 247 255
241 247 255
241 247 255
241 247 255
241 247 255
241 247 255
241 247 255
241 247 255
241 247 255
241 247 255
241 247 255
238 225 233
229 85 88
227 0 0
229 0 0
235 0 0
228 0 0
229 0 0
229 0 0
231 0 0
229 0 0
228 0 0
228 0 0
223 0 0
222 0 0
223 0 0
231 0 0
226 0 0
225 0 0
227 0 0
234 0 0
229 0 0
231 0 0
232 0 0
224 0 0
227 0 0
226 0 0
231 0 0
234 0 0
222 0 0
228 0 0
230 0 0
230 0 0
231 0 0
228 0 0
229 0 0
232 0 0
225 0 0
230 0 0
224 0 0
228 0 0
227 0 0
231 0 0
224 0 0
230 0 0
226 0 0
227 0 0
228 0 0
222 0 0
230 0 0
232 0 0
230 0 0
230 0 0
225 0 0
231 0 0
229 0 0
231 0 0
231 0 0
222 0 0
229 0 0
229 0 0
229 0 0
227 0 0
230 0 0
231 0 0
232 0 0
228 0 0
228 0 0
226 0 0
221 0 0
229 0 0
224 0 0
230 0 0
230 0 0
230 0 0
230 0 0
230 0 0
230 0 0
228 0 0
230 0 0
231 0 0
231 0 0
227 0 0
227 0 0
229 0 0
232 0 0
227 0 0
227 0 0
227 0 0
232 0 0
230 0 0
230 0 0
230 0 0
229 0 0
230 0 0
228 0 0
233 0 0
227 0 0
229 0 0
228 0 0
229 0 0
230 0 0
233 0 0
231 0 0
229 0 0
226 0 0
229 0 0
227 0 0
228 0 0
229 0 0
232 0 0
226 0 0
232 0 0
231 0 0
229 0 0
225 0 0
229 0 0
229 0 0
228 0 0
231 0 0
229 0 0
226 0 0
230 0 0
231 0 0
228 0 0
233 0 0
229 0 0
231 0 0
227 0 0
229 0 0
233 0 0
228 0 0
231 0 0
229 0 0
229 0 0
228 0 0
232 0 0
228 0 0
231 0 0
229 0 0
230 0 0
228 0 0
224 0 0
229 0 0
229 0 0
232 0 0
231 0 0
230 0 0
230 0 0
229 0 0
228 0 0
230 0 0
229 0 0
229 0 0
232 0 0
228 0 0
226 0 0
232 0 0
230 0 0
230 0 0
235 0 0
229 0 0
231 0 0
228 0 0
0 0 255
0 0 255
0 0 255
0 0 255
0 0 255
0 0 255
0 0 255
0 0 255
0 0 255
0 0 255
0 0 255
0 0 255
0 0 255
0 0 255
0 0 255
0 0 255
0 0 255
0 0 255
0 0 255
0 0 255
0 0 255
0 0 255
0 0 255
0 0 255
0 0 255
0 0 255
0 0 255
0 0 255
0 0 255
0 0 255
0 0 255
0 0 255
0 0 255
0 0 255
0 0 255
0 0 255
0 0 255
0 0 254
0 0 255
0 0 255
0 0 254
0 0 255
0 0 255
0 0 254
0 0 255
0 0 255
0 0 254
0 0 255
0 0 255
0 0 255
0 0 255
0 0 255
0 0 255
0 0 255
0 0 255
0 0 255
0 0 255
0 0 255
0 0 253
0 0 255
0 0 255
0 0 255
0 0 254
0 0 255
0 0 254
0 0 255
0 0 254
0 0 253
0 0 252
0 0 254
0 0 252
0 0 254
0 0 255
0 0 254
0 0 254
0 0 255
0 0 254
0 0 255
0 0 255
0 0 254
0 0 253
0 0 255
0 0 255
0 0 253
0 0 254
0 0 255
0 0 254
0 0 254
0 0 254
0 0 253
0 0 254
0 0 253
0 0 252
0 0 254
0 0 253
0 0 255
0 0 253
0 0 253
0 0 254
0 0 250
0 0 255
0 0 253
0 0 253
0 0 252
0 0 253
0 0 255
0 0 254
0 0 253
0 0 253
0 0 250
0 0 253
0 0 254
0 0 255
0 0 253
0 0 250
0 0 253
0 0 248
0 0 250
0 0 250
0 0 253
0 0 250
0 0 255
0 0 248
0 0 250
0 0 253
0 0 252
0 0 249
0 0 248
0 0 253
0 0 250
0 0 250
0 0 253
0 0 250
0 0 250
0 0 248
0 0 253
0 0 248
0 0 253
0 0 248
0 0 253
0 0 249
0 0 249
0 0 245
0 0 253
0 0 252
0 0 248
0 0 245
0 0 249
0 0 242
0 0 246
0 0 244
0 0 246
0 0 242
0 0 246
0 0 241
0 0 244
0 0 252
0 0 244
0 0 246
24 24 242
167 171 249
238 244 255
241 247 255
241 247 255
241 247 255
241 247 255
241 247 255
241 247 255
241 247 255
241 247 255
241 247 255
241 247 255
241 247 255
241 247 255
241 247 255
241 247 255
241 247 255
241 247 255
241 247 255
241 247 255
241 247 255
241 247 255
241 247 255
241 247 255
241 247 255
241 247 255
242 247 255
242 247 255
242 247 255
242 247 255
242 247 255
242 247 255
242 247 255
242 247 255
242 247 255
242 247 255
242 247 255
242 247 255
242 247 255
242 247 255
242 247 255
242 247 255
242 247 255
242 247 255
242 247 255
242 247 255
242 247 255
242 247 255
242 247 255
242 247 255
242 247 255
242 247 255
242 247 255
242 247 255
241 247 255
241 247 255
241 247 255
241 247 255
241 247 255
241 247 255
241 247 255
241 247 255
241 247 255
241 247 255
241 247 255
241 247 255
241 247 255
241 247 255
241 247 255
241 247 255
241 247 255
241 247 255
241 247 255
241 247 255
241 247 255
241 247 255
241 247 255
241 247 255
241 245 254
235 167 173
229 24 25
232 0 0
230 0 0
226 0 0
227 0 0
228 0 0
226 0 0
233 0 0
230 0 0
235 0 0
234 0 0
233 0 0
224 0 0
224 0 0
224 0 0
226 0 0
225 0 0
226 0 0
228 0 0
228 0 0
233 0 0
229 0 0
232 0 0
230 0 0
231 0 0
233 0 0
228 0 0
232 0 0
226 0 0
226 0 0
223 0 0
232 0 0
230 0 0
229 0 0
225 0 0
227 0 0
231 0 0
229 0 0
229 0 0
232 0 0
229 0 0
228 0 0
223 0 0
228 0 0
225 0 0
226 0 0
230 0 0
227 0 0
231 0 0
227 0 0
226 0 0
226 0 0
230 0 0
232 0 0
229 0 0
229 0 0
229 0 0
232 0 0
230 0 0
229 0 0
229 0 0
223 0 0
227 0 0
229 0 0
230 0 0
231 0 0
232 0 0
230 0 0
233 0 0
229 0 0
226 0 0
230 0 0
233 0 0
230 0 0
229 0 0
233 0 0
231 0 0
230 0 0
229 0 0
229 0 0
228 0 0
225 0 0
230 0 0
230 0 0
232 0 0
229 0 0
229 0 0
229 0 0
229 0 0
227 0 0
230 0 0
228 0 0
228 0 0
229 0 0
231 0 0
229 0 0
228 0 0
228 0 0
228 0 0
227 0 0
232 0 0
232 0 0
227 0 0
231 0 0
228 0 0
230 0 0
230 0 0
232 0 0
229 0 0
230 0 0
230 0 0
231 0 0
230 0 0
229 0 0
233 0 0
232 0 0
235 0 0
229 0 0
229 0 0
228 0 0
231 0 0
228 0 0
231 0 0
228 0 0
230 0 0
227 0 0
233 0 0
231 0 0
230 0 0
235 0 0
231 0 0
230 0 0
229 0 0
229 0 0
229 0 0
227 0 0
228 0 0
230 0 0
231 0 0
230 0 0
229 0 0
228 0 0
227 0 0
228 0 0
229 0 0
230 0 0
229 0 0
230 0 0
231 0 0
228 0 0
228 0 0
233 0 0
228 0 0
232 0 0
230 0 0
227 0 0
229 0 0
232 0 0
230 0 0
230 0 0
0 0 255
0 0 255
0 0 255
0 0 255
0 0 255
0 0 255
0 0 255
0 0 255
0 0 255
0 0 255
0 0 255
0 0 255
0 0 255
0 0 255
0 0 255
0 0 255
0 0 254
0 0 255
0 0 255
0 0 255
0 0 255
0 0 255
0 0 255
0 0 255
0 0 255
0 0 254
0 0 254
0 0 255
0 0 255
0 0 255
0 0 255
0 0 255
0 0 255
0 0 255
0 0 255
0 0 255
0 0 255
0 0 255
0 0 255
0 0 255
0 0 255
0 0 254
0 0 255
0 0 255
0 0 255
0 0 255
0 0 255
0 0 255
0 0 255
0 0 255
0 0 255
0 0 253
0 0 254
0 0 255
0 0 255
0 0 255
0 0 255
0 0 255
0 0 254
0 0 254
0 0 254
0 0 255
0 0 255
0 0 255
0 0 254
0 0 254
0 0 254
0 0 254
0 0 253
0 0 254
0 0 254
0 0 254
0 0 254
0 0 254
0 0 255
0 0 254
0 0 254
0 0 255
0 0 254
0 0 255
0 0 255
0 0 255
0 0 254
0 0 254
0 0 255
0 0 255
0 0 255
0 0 253
0 0 252
0 0 254
0 0 255
0 0 253
0 0 255
0 0 254
0 0 254
0 0 249
0 0 252
0 0 254
0 0 254
0 0 249
0 0 253
0 0 254
0 0 255
0 0 253
0 0 250
0 0 253
0 0 253
0 0 254
0 0 252
0 0 253
0 0 249
0 0 254
0 0 252
0 0 253
0 0 254
0 0 248
0 0 253
0 0 248
0 0 254
0 0 254
0 0 254
0 0 250
0 0 248
0 0 254
0 0 254
0 0 253
0 0 252
0 0 249
0 0 254
0 0 255
0 0 250
0 0 253
0 0 249
0 0 249
0 0 250
0 0 249
0 0 250
0 0 248
0 0 250
0 0 244
0 0 248
0 0 249
0 0 252
0 0 248
0 0 250
0 0 252
0 0 248
0 0 242
0 0 248
0 0 245
0 0 249
0 0 246
0 0 246
0 0 244
0 0 244
0 0 249
0 0 242
0 0 240
76 78 242
207 212 253
241 247 255
241 247 255
241 247 255
241 247 255
241 247 255
241 247 255
241 247 255
241 247 255
241 247 255
241 247 255
241 247 255
241 247 255
241 247 255
241 247 255
241 247 255
241 247 255
241 247 255
241 247 255
242 247 255
242 247 255
242 247 255
242 247 255
242 247 255
242 247 255
242 247 255
242 247 255
242 247 255
242 247 255
242 247 255
242 247 255
242 247 255
242 247 255
242 247 255
242 247 255
242 247 255
242 247 255
242 247 255
242 247 255
242 247 255
242 247 255
242 247 255
242 247 255
242 247 255
242 247 255
242 247 255
242 247 255
242 247 255
242 247 255
242 247 255
242 247 255
242 247 255
242 247 255
242 247 255
242 247 255
242 247 255
242 247 255
242 247 255
242 247 255
242 247 255
242 247 255
242 247 255
242 247 255
241 247 255
241 247 255
241 247 255
241 247 255
241 247 255
241 247 255
241 247 255
241 247 255
241 247 255
241 247 255
241 247 255
241 247 255
241 247 255
241 247 255
241 247 255
241 247 255
241 247 255
241 247 255
237 215 223
234 92 95
231 0 0
230 0 0
231 0 0
229 0 0
232 0 0
223 0 0
233 0 0
230 0 0
226 0 0
232 0 0
229 0 0
234 0 0
232 0 0
230 0 0
235 0 0
228 0 0
228 0 0
232 0 0
229 0 0
226 0 0
232 0 0
226 0 0
227 0 0
227 0 0
230 0 0
231 0 0
232 0 0
229 0 0
227 0 0
226 0 0
228 0 0
231 0 0
227 0 0
231 0 0
233 0 0
224 0 0
228 0 0
232 0 0
228 0 0
229 0 0
233 0 0
230 0 0
232 0 0
230 0 0
229 0 0
231 0 0
231 0 0
231 0 0
231 0 0
230 0 0
231 0 0
229 0 0
228 0 0
226 0 0
232 0 0
234 0 0
230 0 0
227 0 0
230 0 0
232 0 0
231 0 0
229 0 0
230 0 0
228 0 0
225 0 0
233 0 0
228 0 0
233 0 0
227 0 0
229 0 0
228 0 0
232 0 0
229 0 0
230 0 0
232 0 0
232 0 0
232 0 0
228 0 0
233 0 0
229 0 0
232 0 0
234 0 0
230 0 0
230 0 0
231 0 0
232 0 0
226 0 0
229 0 0
232 0 0
229 0 0
227 0 0
230 0 0
226 0 0
228 0 0
231 0 0
227 0 0
230 0 0
232 0 0
228 0 0
232 0 0
229 0 0
228 0 0
227 0 0
229 0 0
230 0 0
229 0 0
231 0 0
229 0 0
229 0 0
230 0 0
229 0 0
232 0 0
229 0 0
230 0 0
232 0 0
227 0 0
231 0 0
229 0 0
225 0 0
231 0 0
231 0 0
233 0 0
228 0 0
231 0 0
227 0 0
233 0 0
230 0 0
229 0 0
228 0 0
229 0 0
231 0 0
232 0 0
229 0 0
227 0 0
227 0 0
231 0 0
226 0 0
229 0 0
231 0 0
230 0 0
226 0 0
228 0 0
229 0 0
229 0 0
232 0 0
228 0 0
229 0 0
228 0 0
232 0 0
232 0 0
228 0 0
227 0 0
231 0 0
230 0 0
230 0 0
229 0 0
230 0 0
232 0 0
0 0 255
0 0 255
0 0 255
0 0 255
0 0 255
0 0 255
0 0 255
0 0 255
0 0 255
0 0 255
0 0 255
0 0 255
0 0 255
0 0 255
0 0 255
0 0 255
0 0 255
0 0 255
0 0 255
0 0 255
0 0 255
0 0 255
0 0 255
0 0 255
0 0 255
0 0 255
0 0 255
0 0 255
0 0 255
0 0 255
0 0 255
0 0 255
0 0 255
0 0 255
0 0 255
0 0 255
0 0 255
0 0 255
0 0 255
0 0 255
0 0 255
0 0 254
0 0 255
0 0 255
0 0 255
0 0 255
0 0 254
0 0 254
0 0 255
0 0 254
0 0 255
0 0 255
0 0 253
0 0 254
0 0 255
0 0 255
0 0 255
0 0 255
0 0 255
0 0 255
0 0 255
0 0 254
0 0 255
0 0 255
0 0 254
0 0 255
0 0 253
0 0 255
0 0 255
0 0 255
0 0 253
0 0 255
0 0 255
0 0 255
0 0 253
0 0 255
0 0 253
0 0 254
0 0 255
0 0 255
0 0 254
0 0 255
0 0 253
0 0 253
0 0 255
0 0 255
0 0 255
0 0 254
0 0 254
0 0 253
0 0 255
0 0 254
0 0 254
0 0 253
0 0 253
0 0 253
0 0 252
0 0 254
0 0 250
0 0 253
0 0 253
0 0 253
0 0 255
0 0 253
0 0 253
0 0 255
0 0 252
0 0 253
0 0 250
0 0 250
0 0 252
0 0 255
0 0 249
0 0 253
0 0 252
0 0 252
0 0 250
0 0 253
0 0 249
0 0 252
0 0 250
0 0 252
0 0 255
0 0 250
0 0 249
0 0 248
0 0 254
0 0 249
0 0 253
0 0 245
0 0 254
0 0 253
0 0 254
0 0 249
0 0 250
0 0 250
0 0 248
0 0 250
0 0 250
0 0 249
0 0 249
0 0 245
0 0 249
0 0 250
0 0 253
0 0 248
0 0 249
0 0 245
0 0 245
0 0 248
0 0 252
0 0 248
0 0 241
0 0 252
0 0 246
0 0 250
34 34 246
160 164 255
232 238 255
241 247 255
241 247 255
241 247 255
241 247 255
241 247 255
241 247 255
241 247 255
241 247 255
241 247 255
241 247 255
241 247 255
241 247 255
241 247 255
242 247 255
242 247 255
242 247 255
242 247 255
242 247 255
242 247 255
242 247 255
242 247 255
242 247 255
242 247 255
242 247 255
242 247 255
242 247 255
242 247 255
242 247 255
242 247 255
242 247 255
242 247 255
242 247 255
242 247 255
242 247 255
242 247 255
242 247 255
242 247 255
242 248 255
242 248 255
242 248 255
242 248 255
242 248 255
242 248 255
242 248 255
242 247 255
242 247 255
242 247 255
242 247 255
242 247 255
242 247 255
242 247 255
242 247 255
242 247 255
242 247 255
242 247 255
242 247 255
242 247 255
242 247 255
242 247 255
242 247 255
242 247 255
242 247 255
242 247 255
242 247 255
242 247 255
242 247 255
242 247 255
242 247 255
242 247 255
241 247 255
241 247 255
241 247 255
241 247 255
241 247 255
241 247 255
241 247 255
241 247 255
241 247 255
241 247 255
241 247 255
241 247 255
241 247 255
239 241 249
235 164 169
231 0 0
229 0 0
232 0 0
227 0 0
229 0 0
233 0 0
227 0 0
229 0 0
235 0 0
228 0 0
226 0 0
230 0 0
233 0 0
233 0 0
231 0 0
221 0 0
227 0 0
230 0 0
227 0 0
232 0 0
231 0 0
231 0 0
232 0 0
230 0 0
230 0 0
231 0 0
230 0 0
233 0 0
232 0 0
229 0 0
228 0 0
228 0 0
226 0 0
238 0 0
231 0 0
232 0 0
225 0 0
227 0 0
233 0 0
227 0 0
226 0 0
229 0 0
229 0 0
229 0 0
233 0 0
233 0 0
229 0 0
229 0 0
229 0 0
235 0 0
230 0 0
231 0 0
229 0 0
228 0 0
234 0 0
230 0 0
233 0 0
229 0 0
225 0 0
231 0 0
232 0 0
228 0 0
229 0 0
231 0 0
229 0 0
230 0 0
229 0 0
227 0 0
223 0 0
229 0 0
232 0 0
223 0 0
229 0 0
228 0 0
228 0 0
232 0 0
229 0 0
230 0 0
228 0 0
234 0 0
233 0 0
229 0 0
233 0 0
225 0 0
232 0 0
224 0 0
227 0 0
234 0 0
232 0 0
231 0 0
232 0 0
229 0 0
231 0 0
229 0 0
226 0 0
229 0 0
229 0 0
232 0 0
229 0 0
230 0 0
229 0 0
231 0 0
230 0 0
233 0 0
227 0 0
229 0 0
227 0 0
232 0 0
227 0 0
229 0 0
230 0 0
230 0 0
230 0 0
229 0 0
228 0 0
229 0 0
233 0 0
224 0 0
232 0 0
228 0 0
228 0 0
230 0 0
230 0 0
231 0 0
229 0 0
231 0 0
228 0 0
232 0 0
231 0 0
233 0 0
230 0 0
231 0 0
229 0 0
227 0 0
228 0 0
230 0 0
226 0 0
228 0 0
228 0 0
229 0 0
230 0 0
230 0 0
230 0 0
232 0 0
227 0 0
231 0 0
229 0 0
232 0 0
228 0 0
231 0 0
233 0 0
230 0 0
227 0 0
231 0 0
228 0 0
232 0 0
231 0 0
0 0 255
0 0 255
0 0 255
0 0 255
0 0 255
0 0 255
0 0 255
0 0 255
0 0 255
0 0 255
0 0 255
0 0 255
0 0 255
0 0 255
0 0 255
0 0 255
0 0 255
0 0 254
0 0 255
0 0 255
0 0 255
0 0 255
0 0 255
0 0 255
0 0 255
0 0 255
0 0 254
0 0 255
0 0 254
0 0 255
0 0 255
0 0 255
0 0 255
0 0 254
0 0 255
0 0 254
0 0 255
0 0 255
0 0 255
0 0 255
0 0 255
0 0 255
0 0 255
0 0 255
0 0 255
0 0 254
0 0 255
0 0 255
0 0 255
0 0 253
0 0 255
0 0 255
0 0 253
0 0 255
0 0 255
0 0 255
0 0 255
0 0 255
0 0 255
0 0 255
0 0 254
0 0 255
0 0 255
0 0 255
0 0 255
0 0 254
0 0 254
0 0 255
0 0 254
0 0 254
0 0 255
0 0 255
0 0 255
0 0 254
0 0 255
0 0 255
0 0 254
0 0 255
0 0 254
0 0 255
0 0 254
0 0 254
0 0 255
0 0 254
0 0 254
0 0 252
0 0 253
0 0 254
0 0 255
0 0 252
0 0 254
0 0 253
0 0 252
0 0 253
0 0 253
0 0 254
0 0 250
0 0 255
0 0 252
0 0 250
0 0 252
0 0 253
0 0 254
0 0 250
0 0 250
0 0 252
0 0 249
0 0 255
0 0 252
0 0 250
0 0 248
0 0 249
0 0 250
0 0 254
0 0 255
0 0 250
0 0 252
0 0 252
0 0 244
0 0 254
0 0 249
0 0 252
0 0 250
0 0 249
0 0 250
0 0 253
0 0 252
0 0 254
0 0 249
0 0 253
0 0 250
0 0 249
0 0 250
0 0 250
0 0 246
0 0 249
0 0 248
0 0 250
0 0 249
0 0 246
0 0 252
0 0 245
0 0 244
0 0 250
0 0 250
0 0 249
0 0 246
0 0 245
0 0 245
0 0 240
0 0 245
0 0 253
0 0 244
0 0 245
0 0 252
93 95 245
209 214 253
241 247 255
241 247 255
241 247 255
241 247 255
241 247 255
241 247 255
241 247 255
241 247 255
241 247 255
241 247 255
241 247 255
242 247 255
242 247 255
242 247 255
242 247 255
242 247 255
242 247 255
242 247 255
242 247 255
242 247 255
242 247 255
242 247 255
242 247 255
242 247 255
242 247 255
242 247 255
242 247 255
242 248 255
242 248 255
242 248 255
242 248 255
242 248 255
242 248 255
242 248 255
242 248 255
242 248 255
242 248 255
242 248 255
242 248 255
242 248 255
242 248 255
242 248 255
242 248 255
242 248 255
242 248 255
242 248 255
242 248 255
242 248 255
242 248 255
242 248 255
242 248 255
242 248 255
242 248 255
242 248 255
242 248 255
242 248 255
242 248 255
242 248 255
242 248 255
242 248 255
242 247 255
242 247 255
242 247 255
242 247 255
242 247 255
242 247 255
242 247 255
242 247 255
242 247 255
242 247 255
242 247 255
242 247 255
242 247 255
242 247 255
242 247 255
241 247 255
241 247 255
241 247 255
241 247 255
241 247 255
241 247 255
241 247 255
241 247 255
241 247 255
241 247 255
241 247 255
239 211 218
235 102 105
231 0 0
228 0 0
234 0 0
229 0 0
234 0 0
228 0 0
231 0 0
230 0 0
232 0 0
232 0 0
230 0 0
231 0 0
229 0 0
232 0 0
233 0 0
229 0 0
231 0 0
228 0 0
229 0 0
234 0 0
232 0 0
223 0 0
230 0 0
233 0 0
226 0 0
226 0 0
231 0 0
230 0 0
227 0 0
225 0 0
231 0 0
226 0 0
227 0 0
229 0 0
233 0 0
225 0 0
230 0 0
226 0 0
231 0 0
231 0 0
233 0 0
229 0 0
230 0 0
229 0 0
231 0 0
227 0 0
227 0 0
228 0 0
229 0 0
229 0 0
228 0 0
229 0 0
227 0 0
227 0 0
226 0 0
233 0 0
226 0 0
227 0 0
229 0 0
234 0 0
232 0 0
232 0 0
232 0 0
231 0 0
228 0 0
228 0 0
228 0 0
230 0 0
232 0 0
230 0 0
231 0 0
230 0 0
233 0 0
232 0 0
231 0 0
230 0 0
232 0 0
230 0 0
233 0 0
223 0 0
227 0 0
232 0 0
232 0 0
228 0 0
228 0 0
230 0 0
228 0 0
230 0 0
231 0 0
231 0 0
231 0 0
231 0 0
230 0 0
230 0 0
232 0 0
228 0 0
228 0 0
229 0 0
231 0 0
227 0 0
230 0 0
231 0 0
232 0 0
230 0 0
230 0 0
233 0 0
229 0 0
230 0 0
233 0 0
229 0 0
229 0 0
232 0 0
232 0 0
231 0 0
230 0 0
229 0 0
229 0 0
226 0 0
230 0 0
231 0 0
230 0 0
230 0 0
230 0 0
229 0 0
231 0 0
228 0 0
230 0 0
230 0 0
231 0 0
229 0 0
228 0 0
227 0 0
229 0 0
228 0 0
234 0 0
228 0 0
228 0 0
228 0 0
229 0 0
228 0 0
232 0 0
229 0 0
228 0 0
229 0 0
231 0 0
228 0 0
230 0 0
229 0 0
228 0 0
229 0 0
231 0 0
227 0 0
231 0 0
230 0 0
227 0 0
0 0 255
0 0 255
0 0 255
0 0 255
0 0 255
0 0 255
0 0 255
0 0 255
0 0 255
0 0 255
0 0 255
0 0 255
0 0 255
0 0 255
0 0 255
0 0 255
0 0 255
0 0 255
0 0 255
0 0 255
0 0 255
0 0 255
0 0 255
0 0 255
0 0 255
0 0 255
0 0 255
0 0 255
0 0 255
0 0 255
0 0 255
0 0 254
0 0 255
0 0 255
0 0 254
0 0 255
0 0 255
0 0 255
0 0 255
0 0 254
0 0 254
0 0 255
0 0 254
0 0 255
0 0 255
0 0 255
0 0 255
0 0 253
0 0 255
0 0 254
0 0 255
0 0 254
0 0 255
0 0 254
0 0 254
0 0 255
0 0 255
0 0 255
0 0 254
0 0 255
0 0 255
0 0 254
0 0 255
0 0 254
0 0 254
0 0 255
0 0 254
0 0 255
0 0 255
0 0 254
0 0 254
0 0 255
0 0 255
0 0 255
0 0 252
0 0 254
0 0 254
0 0 255
0 0 255
0 0 254
0 0 254
0 0 252
0 0 253
0 0 254
0 0 255
0 0 255
0 0 254
0 0 253
0 0 253
0 0 254
0 0 254
0 0 252
0 0 253
0 0 253
0 0 255
0 0 255
0 0 253
0 0 254
0 0 252
0 0 253
0 0 252
0 0 252
0 0 252
0 0 254
0 0 255
0 0 254
0 0 254
0 0 254
0 0 255
0 0 254
0 0 254
0 0 253
0 0 253
0 0 249
0 0 255
0 0 252
0 0 252
0 0 253
0 0 248
0 0 248
0 0 253
0 0 254
0 0 253
0 0 254
0 0 252
0 0 252
0 0 249
0 0 254
0 0 252
0 0 250
0 0 254
0 0 254
0 0 252
0 0 250
0 0 253
0 0 250
0 0 253
0 0 248
0 0 248
0 0 250
0 0 254
0 0 252
0 0 250
0 0 249
0 0 253
0 0 250
0 0 246
0 0 252
0 0 248
0 0 248
0 0 246
0 0 250
0 0 250
48 49 248
162 165 254
231 237 254
241 247 255
241 247 255
241 247 255
241 247 255
241 247 255
241 247 255
241 247 255
241 247 255
242 247 255
242 247 255
242 247 255
242 247 255
242 247 255
242 247 255
242 247 255
242 247 255
242 247 255
242 247 255
242 247 255
242 247 255
242 247 255
242 248 255
242 248 255
242 248 255
242 248 255
242 248 255
242 248 255
242 248 255
242 248 255
242 248 255
242 248 255
242 248 255
242 248 255
242 248 255
242 248 255
242 248 255
242 248 255
242 248 255
242 248 255
242 248 255
242 248 255
242 248 255
242 248 255
242 248 255
242 248 255
242 248 255
242 248 255
242 248 255
242 248 255
242 248 255
242 248 255
242 248 255
242 248 255
242 248 255
242 248 255
242 248 255
242 248 255
242 248 255
242 248 255
242 248 255
242 248 255
242 248 255
242 248 255
242 248 255
242 248 255
242 248 255
242 248 255
242 247 255
242 247 255
242 247 255
242 247 255
242 247 255
242 247 255
242 247 255
242 247 255
242 247 255
242 247 255
242 247 255
242 247 255
242 247 255
241 247 255
241 247 255
241 247 255
241 247 255
241 247 255
241 247 255
241 247 255
241 247 255
241 246 254
238 181 188
229 49 51
228 0 0
232 0 0
233 0 0
232 0 0
229 0 0
235 0 0
232 0 0
230 0 0
226 0 0
232 0 0
225 0 0
231 0 0
233 0 0
233 0 0
229 0 0
234 0 0
231 0 0
232 0 0
232 0 0
231 0 0
234 0 0
229 0 0
228 0 0
232 0 0
231 0 0
232 0 0
232 0 0
229 0 0
228 0 0
229 0 0
230 0 0
229 0 0
227 0 0
228 0 0
231 0 0
228 0 0
231 0 0
229 0 0
229 0 0
225 0 0
230 0 0
233 0 0
231 0 0
229 0 0
234 0 0
225 0 0
228 0 0
233 0 0
228 0 0
231 0 0
229 0 0
232 0 0
233 0 0
227 0 0
231 0 0
232 0 0
228 0 0
232 0 0
231 0 0
227 0 0
229 0 0
229 0 0
230 0 0
230 0 0
229 0 0
234 0 0
230 0 0
231 0 0
234 0 0
233 0 0
233 0 0
232 0 0
230 0 0
230 0 0
229 0 0
230 0 0
232 0 0
229 0 0
228 0 0
231 0 0
226 0 0
229 0 0
233 0 0
235 0 0
230 0 0
231 0 0
229 0 0
234 0 0
230 0 0
228 0 0
229 0 0
228 0 0
228 0 0
230 0 0
230 0 0
229 0 0
233 0 0
233 0 0
232 0 0
232 0 0
232 0 0
231 0 0
231 0 0
230 0 0
228 0 0
231 0 0
230 0 0
231 0 0
229 0 0
229 0 0
233 0 0
234 0 0
233 0 0
230 0 0
231 0 0
227 0 0
231 0 0
229 0 0
230 0 0
231 0 0
228 0 0
230 0 0
231 0 0
232 0 0
227 0 0
229 0 0
230 0 0
229 0 0
229 0 0
230 0 0
228 0 0
230 0 0
231 0 0
228 0 0
231 0 0
231 0 0
228 0 0
230 0 0
231 0 0
229 0 0
232 0 0
232 0 0
231 0 0
230 0 0
230 0 0
228 0 0
232 0 0
228 0 0
229 0 0
230 0 0
228 0 0
230 0 0
233 0 0
0 0 255
0 0 255
0 0 255
0 0 255
0 0 255
0 0 255
0 0 255
0 0 255
0 0 255
0 0 255
0 0 255
0 0 255
0 0 255
0 0 255
0 0 255
0 0 255
0 0 255
0 0 255
0 0 255
0 0 255
0 0 255
0 0 255
0 0 255
0 0 255
0 0 255
0 0 255
0 0 255
0 0 254
0 0 255
0 0 255
0 0 255
0 0 254
0 0 255
0 0 255
0 0 254
0 0 255
0 0 255
0 0 255
0 0 255
0 0 255
0 0 255
0 0 254
0 0 254
0 0 255
0 0 255
0 0 255
0 0 255
0 0 255
0 0 253
0 0 255
0 0 255
0 0 254
0 0 255
0 0 255
0 0 254
0 0 252
0 0 254
0 0 254
0 0 255
0 0 255
0 0 254
0 0 254
0 0 255
0 0 255
0 0 254
0 0 255
0 0 255
0 0 255
0 0 253
0 0 255
0 0 255
0 0 253
0 0 255
0 0 255
0 0 254
0 0 255
0 0 254
0 0 255
0 0 253
0 0 254
0 0 254
0 0 253
0 0 254
0 0 249
0 0 254
0 0 255
0 0 255
0 0 254
0 0 254
0 0 255
0 0 252
0 0 254
0 0 254
0 0 253
0 0 254
0 0 252
0 0 252
0 0 255
0 0 255
0 0 253
0 0 254
0 0 253
0 0 255
0 0 254
0 0 252
0 0 250
0 0 250
0 0 253
0 0 252
0 0 252
0 0 252
0 0 252
0 0 254
0 0 254
0 0 249
0 0 254
0 0 253
0 0 249
0 0 254
0 0 250
0 0 250
0 0 255
0 0 253
0 0 252
0 0 248
0 0 249
0 0 253
0 0 246
0 0 253
0 0 250
0 0 248
0 0 252
0 0 248
0 0 250
0 0 248
0 0 249
0 0 250
0 0 254
0 0 248
0 0 249
0 0 252
0 0 252
0 0 254
0 0 245
0 0 252
0 0 248
0 0 246
0 0 244
0 0 248
0 0 252
0 0 246
0 0 249
118 121 252
218 224 254
241 247 255
241 247 255
241 247 255
241 247 255
241 247 255
241 247 255
242 247 255
242 247 255
242 247 255
242 247 255
242 247 255
242 247 255
242 247 255
242 247 255
242 247 255
242 247 255
242 247 255
242 247 255
242 248 255
242 248 255
242 248 255
242 248 255
242 248 255
242 248 255
242 248 255
242 248 255
242 248 255
242 248 255
242 248 255
242 248 255
242 248 255
242 248 255
242 248 255
242 248 255
242 248 255
242 248 255
243 248 255
243 248 255
243 248 255
243 248 255
243 248 255
243 248 255
243 248 255
243 248 255
243 248 255
243 248 255
243 248 255
243 248 255
243 248 255
243 248 255
243 248 255
243 248 255
243 248 255
243 248 255
243 248 255
243 248 255
243 248 255
242 248 255
242 248 255
242 248 255
242 248 255
242 248 255
242 248 255
242 248 255
242 248 255
242 248 255
242 248 255
242 248 255
242 248 255
242 248 255
242 248 255
242 248 255
242 248 255
242 248 255
242 247 255
242 247 255
242 247 255
242 247 255
242 247 255
242 247 255
242 247 255
242 247 255
242 247 255
242 247 255
242 247 255
242 247 255
241 247 255
241 247 255
241 247 255
241 247 255
241 247 255
241 247 255
241 230 238
237 130 135
235 0 0
233 0 0
234 0 0
235 0 0
232 0 0
230 0 0
234 0 0
235 0 0
230 0 0
230 0 0
231 0 0
233 0 0
233 0 0
227 0 0
232 0 0
224 0 0
228 0 0
227 0 0
225 0 0
228 0 0
234 0 0
230 0 0
231 0 0
231 0 0
230 0 0
235 0 0
229 0 0
229 0 0
232 0 0
235 0 0
229 0 0
230 0 0
225 0 0
233 0 0
231 0 0
233 0 0
230 0 0
230 0 0
229 0 0
231 0 0
232 0 0
227 0 0
232 0 0
231 0 0
226 0 0
231 0 0
231 0 0
231 0 0
226 0 0
230 0 0
236 0 0
233 0 0
231 0 0
223 0 0
228 0 0
225 0 0
233 0 0
231 0 0
228 0 0
231 0 0
230 0 0
230 0 0
227 0 0
230 0 0
231 0 0
233 0 0
231 0 0
232 0 0
229 0 0
232 0 0
230 0 0
232 0 0
233 0 0
228 0 0
232 0 0
231 0 0
227 0 0
229 0 0
230 0 0
231 0 0
232 0 0
231 0 0
230 0 0
230 0 0
232 0 0
231 0 0
232 0 0
230 0 0
229 0 0
233 0 0
230 0 0
232 0 0
229 0 0
234 0 0
230 0 0
230 0 0
232 0 0
231 0 0
232 0 0
232 0 0
229 0 0
230 0 0
233 0 0
228 0 0
231 0 0
230 0 0
229 0 0
229 0 0
230 0 0
231 0 0
232 0 0
229 0 0
232 0 0
231 0 0
231 0 0
231 0 0
231 0 0
231 0 0
228 0 0
231 0 0
229 0 0
233 0 0
231 0 0
228 0 0
229 0 0
230 0 0
229 0 0
229 0 0
229 0 0
230 0 0
229 0 0
229 0 0
230 0 0
230 0 0
227 0 0
230 0 0
232 0 0
229 0 0
233 0 0
228 0 0
234 0 0
231 0 0
229 0 0
230 0 0
232 0 0
229 0 0
231 0 0
229 0 0
232 0 0
231 0 0
232 0 0
230 0 0
0 0 255
0 0 255
0 0 255
0 0 255
0 0 255
0 0 255
0 0 255
0 0 255
0 0 255
0 0 255
0 0 255
0 0 255
0 0 255
0 0 255
0 0 255
0 0 255
0 0 255
0 0 255
0 0 255
0 0 255
0 0 255
0 0 255
0 0 255
0 0 255
0 0 255
0 0 255
0 0 255
0 0 255
0 0 255
0 0 255
0 0 255
0 0 255
0 0 255
0 0 255
0 0 255
0 0 255
0 0 255
0 0 255
0 0 255
0 0 255
0 0 254
0 0 255
0 0 255
0 0 255
0 0 255
0 0 255
0 0 255
0 0 254
0 0 254
0 0 255
0 0 255
0 0 255
0 0 255
0 0 255
0 0 255
0 0 254
0 0 254
0 0 254
0 0 253
0 0 255
0 0 255
0 0 254
0 0 255
0 0 254
0 0 255
0 0 254
0 0 255
0 0 255
0 0 254
0 0 254
0 0 254
0 0 254
0 0 255
0 0 255
0 0 254
0 0 253
0 0 254
0 0 255
0 0 254
0 0 255
0 0 254
0 0 254
0 0 252
0 0 254
0 0 254
0 0 254
0 0 253
0 0 252
0 0 254
0 0 254
0 0 255
0 0 255
0 0 253
0 0 254
0 0 252
0 0 253
0 0 253
0 0 255
0 0 253
0 0 255
0 0 253
0 0 253
0 0 252
0 0 253
0 0 255
0 0 253
0 0 254
0 0 253
0 0 252
0 0 252
0 0 253
0 0 255
0 0 255
0 0 255
0 0 254
0 0 253
0 0 253
0 0 253
0 0 253
0 0 246
0 0 249
0 0 255
0 0 252
0 0 253
0 0 249
0 0 255
0 0 250
0 0 250
0 0 254
0 0 250
0 0 252
0 0 250
0 0 248
0 0 248
0 0 250
0 0 249
0 0 248
0 0 250
0 0 248
0 0 250
0 0 248
0 0 250
0 0 252
0 0 254
0 0 253
0 0 249
0 0 248
0 0 250
0 0 246
0 0 252
87 89 254
196 201 254
241 247 255
241 247 255
241 247 255
241 247 255
242 247 255
242 247 255
242 247 255
242 247 255
242 247 255
242 247 255
242 247 255
242 247 255
242 247 255
242 247 255
242 247 255
242 248 255
242 248 255
242 248 255
242 248 255
242 248 255
242 248 255
242 248 255
242 248 255
242 248 255
242 248 255
242 248 255
242 248 255
242 248 255
242 248 255
243 248 255
243 248 255
243 248 255
243 248 255
243 248 255
243 248 255
243 248 255
243 248 255
243 248 255
243 248 255
243 248 255
243 248 255
243 248 255
243 248 255
243 248 255
243 248 255
243 248 255
243 248 255
243 248 255
243 248 255
243 248 255
243 248 255
243 248 255
243 248 255
243 248 255
243 248 255
243 248 255
243 248 255
243 248 255
243 248 255
243 248 255
243 248 255
243 248 255
243 248 255
243 248 255
243 248 255
243 248 255
243 248 255
243 248 255
242 248 255
242 248 255
242 248 255
242 248 255
242 248 255
242 248 255
242 248 255
242 248 255
242 248 255
242 248 255
242 248 255
242 248 255
242 248 255
242 247 255
242 247 255
242 247 255
242 247 255
242 247 255
242 247 255
242 247 255
242 247 255
242 247 255
242 247 255
242 247 255
241 247 255
241 247 255
241 247 255
241 247 255
240 204 211
236 105 108
230 0 0
226 0 0
230 0 0
230 0 0
232 0 0
233 0 0
229 0 0
228 0 0
231 0 0
227 0 0
231 0 0
233 0 0
230 0 0
234 0 0
229 0 0
228 0 0
236 0 0
233 0 0
230 0 0
232 0 0
232 0 0
228 0 0
230 0 0
231 0 0
227 0 0
233 0 0
233 0 0
233 0 0
229 0 0
233 0 0
231 0 0
234 0 0
233 0 0
230 0 0
233 0 0
228 0 0
233 0 0
234 0 0
229 0 0
232 0 0
231 0 0
228 0 0
230 0 0
232 0 0
231 0 0
236 0 0
229 0 0
232 0 0
233 0 0
232 0 0
230 0 0
229 0 0
231 0 0
234 0 0
230 0 0
231 0 0
230 0 0
233 0 0
231 0 0
232 0 0
227 0 0
234 0 0
230 0 0
235 0 0
234 0 0
229 0 0
230 0 0
230 0 0
227 0 0
231 0 0
233 0 0
232 0 0
236 0 0
232 0 0
233 0 0
228 0 0
229 0 0
227 0 0
233 0 0
235 0 0
235 0 0
231 0 0
228 0 0
230 0 0
231 0 0
230 0 0
229 0 0
233 0 0
229 0 0
228 0 0
227 0 0
231 0 0
230 0 0
228 0 0
231 0 0
234 0 0
230 0 0
232 0 0
231 0 0
234 0 0
234 0 0
233 0 0
230 0 0
232 0 0
231 0 0
229 0 0
231 0 0
232 0 0
232 0 0
231 0 0
233 0 0
228 0 0
230 0 0
231 0 0
230 0 0
231 0 0
233 0 0
231 0 0
231 0 0
230 0 0
229 0 0
227 0 0
229 0 0
231 0 0
230 0 0
232 0 0
230 0 0
228 0 0
230 0 0
229 0 0
228 0 0
231 0 0
231 0 0
229 0 0
230 0 0
233 0 0
231 0 0
229 0 0
232 0 0
231 0 0
230 0 0
230 0 0
228 0 0
228 0 0
231 0 0
231 0 0
227 0 0
229 0 0
230 0 0
233 0 0
0 0 255
0 0 255
0 0 255
0 0 255
0 0 255
0 0 255
0 0 255
0 0 255
0 0 255
0 0 255
0 0 255
0 0 255
0 0 255
0 0 255
0 0 255
0 0 255
0 0 255
0 0 255
0 0 255
0 0 255
0 0 255
0 0 255
0 0 255
0 0 255
0 0 255
0 0 255
0 0 255
0 0 255
0 0 255
0 0 255
0 0 255
0 0 255
0 0 255
0 0 255
0 0 255
0 0 255
0 0 255
0 0 255
0 0 255
0 0 255
0 0 255
0 0 255
0 0 255
0 0 254
0 0 255
0 0 254
0 0 255
0 0 254
0 0 255
0 0 255
0 0 255
0 0 255
0 0 255
0 0 255
0 0 255
0 0 255
0 0 254
0 0 255
0 0 254
0 0 255
0 0 254
0 0 254
0 0 255
0 0 255
0 0 254
0 0 254
0 0 254
0 0 255
0 0 255
0 0 254
0 0 254
0 0 255
0 0 255
0 0 255
0 0 252
0 0 254
0 0 253
0 0 254
0 0 255
0 0 255
0 0 254
0 0 253
0 0 254
0 0 254
0 0 254
0 0 253
0 0 254
0 0 255
0 0 255
0 0 255
0 0 255
0 0 253
0 0 255
0 0 255
0 0 255
0 0 254
0 0 253
0 0 254
0 0 255
0 0 253
0 0 254
0 0 253
0 0 255
0 0 254
0 0 253
0 0 253
0 0 255
0 0 252
0 0 254
0 0 253
0 0 252
0 0 250
0 0 254
0 0 255
0 0 255
0 0 253
0 0 252
0 0 252
0 0 250
0 0 252
0 0 252
0 0 250
0 0 253
0 0 250
0 0 246
0 0 249
0 0 254
0 0 252
0 0 250
0 0 250
0 0 248
0 0 252
0 0 250
0 0 253
0 0 246
0 0 254
0 0 253
0 0 248
0 0 249
0 0 246
0 0 254
0 0 253
0 0 249
0 0 249
0 0 249
0 0 249
0 0 246
0 0 246
54 55 248
180 185 255
240 246 255
241 247 255
241 247 255
242 247 255
242 247 255
242 247 255
242 247 255
242 247 255
242 247 255
242 247 255
242 247 255
242 247 255
242 247 255
242 248 255
242 248 255
242 248 255
242 248 255
242 248 255
242 248 255
242 248 255
242 248 255
242 248 255
242 248 255
242 248 255
242 248 255
243 248 255
243 248 255
243 248 255
243 248 255
243 248 255
243 248 255
243 248 255
243 248 255
243 248 255
243 248 255
243 248 255
243 248 255
243 248 255
243 248 255
243 248 255
243 248 255
243 248 255
243 248 255
243 248 255
243 248 255
243 248 255
243 248 255
243 248 255
243 248 255
243 248 255
243 248 255
243 248 255
243 248 255
243 248 255
243 248 255
243 248 255
243 248 255
243 248 255
243 248 255
243 248 255
243 248 255
243 248 255
243 248 255
243 248 255
243 248 255
243 248 255
243 248 255
243 248 255
243 248 255
243 248 255
243 248 255
243 248 255
243 248 255
243 248 255
243 248 255
242 248 255
242 248 255
242 248 255
242 248 255
242 248 255
242 248 255
242 248 255
242 248 255
242 248 255
242 248 255
242 248 255
242 248 255
242 247 255
242 247 255
242 247 255
242 247 255
242 247 255
242 247 255
242 247 255
242 247 255
242 247 255
242 247 255
241 247 255
241 247 255
241 245 253
240 188 194
239 78 80
229 0 0
229 0 0
235 0 0
229 0 0
235 0 0
236 0 0
228 0 0
229 0 0
229 0 0
232 0 0
234 0 0
234 0 0
236 0 0
232 0 0
233 0 0
233 0 0
232 0 0
225 0 0
233 0 0
225 0 0
232 0 0
229 0 0
231 0 0
233 0 0
231 0 0
235 0 0
232 0 0
233 0 0
230 0 0
229 0 0
228 0 0
229 0 0
229 0 0
229 0 0
233 0 0
233 0 0
231 0 0
232 0 0
227 0 0
233 0 0
233 0 0
234 0 0
232 0 0
225 0 0
233 0 0
230 0 0
232 0 0
230 0 0
234 0 0
233 0 0
229 0 0
232 0 0
231 0 0
229 0 0
229 0 0
231 0 0
232 0 0
229 0 0
232 0 0
229 0 0
234 0 0
231 0 0
232 0 0
227 0 0
232 0 0
226 0 0
231 0 0
229 0 0
233 0 0
230 0 0
230 0 0
230 0 0
229 0 0
233 0 0
231 0 0
230 0 0
229 0 0
232 0 0
230 0 0
229 0 0
230 0 0
227 0 0
231 0 0
230 0 0
232 0 0
229 0 0
232 0 0
236 0 0
231 0 0
229 0 0
231 0 0
231 0 0
232 0 0
229 0 0
228 0 0
228 0 0
231 0 0
230 0 0
231 0 0
231 0 0
232 0 0
232 0 0
232 0 0
234 0 0
230 0 0
232 0 0
233 0 0
230 0 0
232 0 0
230 0 0
231 0 0
231 0 0
233 0 0
230 0 0
231 0 0
231 0 0
230 0 0
231 0 0
231 0 0
232 0 0
231 0 0
230 0 0
231 0 0
227 0 0
231 0 0
230 0 0
232 0 0
232 0 0
230 0 0
230 0 0
231 0 0
231 0 0
228 0 0
234 0 0
230 0 0
231 0 0
228 0 0
230 0 0
230 0 0
227 0 0
230 0 0
234 0 0
232 0 0
230 0 0
225 0 0
231 0 0
232 0 0
230 0 0
0 0 255
0 0 255
0 0 255
0 0 255
0 0 255
0 0 255
0 0 255
0 0 255
0 0 255
0 0 255
0 0 255
0 0 255
0 0 255
0 0 255
0 0 255
0 0 255
0 0 255
0 0 255
0 0 255
0 0 255
0 0 255
0 0 255
0 0 255
0 0 255
0 0 255
0 0 255
0 0 255
0 0 255
0 0 255
0 0 255
0 0 255
0 0 255
0 0 255
0 0 255
0 0 255
0 0 255
0 0 255
0 0 255
0 0 255
0 0 255
0 0 255
0 0 254
0 0 255
0 0 254
0 0 255
0 0 255
0 0 255
0 0 254
0 0 255
0 0 254
0 0 254
0 0 255
0 0 255
0 0 255
0 0 255
0 0 255
0 0 255
0 0 254
0 0 255
0 0 254
0 0 255
0 0 254
0 0 254
0 0 255
0 0 254
0 0 253
0 0 255
0 0 253
0 0 255
0 0 254
0 0 254
0 0 254
0 0 255
0 0 254
0 0 255
0 0 254
0 0 254
0 0 254
0 0 254
0 0 253
0 0 253
0 0 255
0 0 255
0 0 254
0 0 254
0 0 255
0 0 253
0 0 255
0 0 254
0 0 252
0 0 255
0 0 253
0 0 254
0 0 254
0 0 254
0 0 255
0 0 255
0 0 255
0 0 254
0 0 254
0 0 253
0 0 255
0 0 254
0 0 254
0 0 252
0 0 254
0 0 253
0 0 254
0 0 254
0 0 254
0 0 255
0 0 253
0 0 254
0 0 255
0 0 253
0 0 252
0 0 250
0 0 255
0 0 249
0 0 254
0 0 255
0 0 254
0 0 253
0 0 252
0 0 250
0 0 253
0 0 250
0 0 252
0 0 250
0 0 250
0 0 254
0 0 254
0 0 252
0 0 244
0 0 250
0 0 249
0 0 252
0 0 254
0 0 250
0 0 252
0 0 250
0 0 253
0 0 250
0 0 250
0 0 254
0 0 253
34 35 248
152 156 255
239 245 255
241 247 255
242 247 255
242 247 255
242 247 255
242 247 255
242 247 255
242 247 255
242 247 255
242 247 255
242 247 255
242 247 255
242 248 255
242 248 255
242 248 255
242 248 255
242 248 255
242 248 255
242 248 255
242 248 255
242 248 255
242 248 255
243 248 255
243 248 255
243 248 255
243 248 255
243 248 255
243 248 255
243 248 255
243 248 255
243 248 255
243 248 255
243 248 255
243 248 255
243 248 255
243 248 255
243 248 255
243 248 255
243 248 255
243 248 255
243 248 255
243 248 255
243 248 255
243 248 255
243 248 255
243 248 255
243 248 255
243 248 255
243 248 255
243 248 255
243 248 255
243 248 255
243 248 255
243 248 255
243 248 255
243 248 255
243 248 255
243 248 255
243 248 255
243 248 255
243 248 255
243 248 255
243 248 255
243 248 255
243 248 255
243 248 255
243 248 255
243 248 255
243 248 255
243 248 255
243 248 255
243 248 255
243 248 255
243 248 255
243 248 255
243 248 255
243 248 255
243 248 255
243 248 255
243 248 255
243 248 255
243 248 255
242 248 255
242 248 255
242 248 255
242 248 255
242 248 255
242 248 255
242 248 255
242 248 255
242 248 255
242 248 255
242 247 255
242 247 255
242 247 255
242 247 255
242 247 255
242 247 255
242 247 255
242 247 255
242 247 255
242 247 255
241 247 255
241 241 249
238 173 179
239 35 36
235 0 0
240 0 0
236 0 0
233 0 0
233 0 0
233 0 0
232 0 0
231 0 0
235 0 0
234 0 0
229 0 0
233 0 0
232 0 0
234 0 0
232 0 0
237 0 0
228 0 0
236 0 0
233 0 0
235 0 0
231 0 0
235 0 0
234 0 0
226 0 0
232 0 0
231 0 0
234 0 0
228 0 0
229 0 0
232 0 0
230 0 0
231 0 0
235 0 0
233 0 0
232 0 0
231 0 0
230 0 0
231 0 0
229 0 0
235 0 0
231 0 0
232 0 0
230 0 0
235 0 0
234 0 0
236 0 0
229 0 0
232 0 0
230 0 0
234 0 0
231 0 0
233 0 0
234 0 0
225 0 0
230 0 0
231 0 0
232 0 0
233 0 0
230 0 0
227 0 0
230 0 0
232 0 0
230 0 0
229 0 0
229 0 0
235 0 0
232 0 0
234 0 0
233 0 0
230 0 0
233 0 0
233 0 0
230 0 0
229 0 0
230 0 0
232 0 0
232 0 0
227 0 0
231 0 0
232 0 0
234 0 0
233 0 0
229 0 0
233 0 0
230 0 0
230 0 0
233 0 0
233 0 0
230 0 0
229 0 0
229 0 0
232 0 0
232 0 0
231 0 0
233 0 0
233 0 0
230 0 0
231 0 0
230 0 0
227 0 0
231 0 0
232 0 0
232 0 0
228 0 0
230 0 0
231 0 0
230 0 0
230 0 0
233 0 0
229 0 0
233 0 0
231 0 0
233 0 0
235 0 0
230 0 0
231 0 0
233 0 0
235 0 0
233 0 0
234 0 0
232 0 0
229 0 0
229 0 0
229 0 0
231 0 0
225 0 0
232 0 0
231 0 0
232 0 0
229 0 0
231 0 0
231 0 0
231 0 0
232 0 0
230 0 0
229 0 0
230 0 0
229 0 0
230 0 0
234 0 0
230 0 0
231 0 0
233 0 0
233 0 0
229 0 0
229 0 0
0 0 255
0 0 255
0 0 255
0 0 255
0 0 255
0 0 255
0 0 255
0 0 255
0 0 255
0 0 255
0 0 255
0 0 255
0 0 255
0 0 255
0 0 255
0 0 255
0 0 255
0 0 255
0 0 255
0 0 255
0 0 255
0 0 255
0 0 255
0 0 255
0 0 255
0 0 255
0 0 255
0 0 255
0 0 255
0 0 255
0 0 255
0 0 255
0 0 255
0 0 254
0 0 255
0 0 255
0 0 255
0 0 255
0 0 255
0 0 255
0 0 255
0 0 255
0 0 255
0 0 255
0 0 255
0 0 255
0 0 255
0 0 255
0 0 255
0 0 255
0 0 255
0 0 255
0 0 255
0 0 255
0 0 255
0 0 255
0 0 253
0 0 253
0 0 255
0 0 255
0 0 255
0 0 255
0 0 255
0 0 255
0 0 252
0 0 255
0 0 255
0 0 255
0 0 254
0 0 255
0 0 253
0 0 255
0 0 253
0 0 255
0 0 255
0 0 254
0 0 253
0 0 254
0 0 255
0 0 255
0 0 255
0 0 255
0 0 254
0 0 255
0 0 255
0 0 255
0 0 255
0 0 253
0 0 255
0 0 255
0 0 253
0 0 254
0 0 252
0 0 254
0 0 254
0 0 254
0 0 254
0 0 254
0 0 255
0 0 253
0 0 250
0 0 253
0 0 254
0 0 253
0 0 253
0 0 254
0 0 253
0 0 253
0 0 254
0 0 254
0 0 255
0 0 255
0 0 254
0 0 255
0 0 252
0 0 253
0 0 249
0 0 252
0 0 248
0 0 253
0 0 248
0 0 254
0 0 250
0 0 253
0 0 252
0 0 253
0 0 254
0 0 253
0 0 253
0 0 252
0 0 249
0 0 254
0 0 248
0 0 250
0 0 252
0 0 248
0 0 252
0 0 249
0 0 252
0 0 255
0 0 255
0 0 253
0 0 252
0 0 248
34 35 250
164 167 255
228 233 254
242 247 255
242 247 255
242 247 255
242 247 255
242 247 255
242 247 255
242 247 255
242 247 255
242 247 255
242 248 255
242 248 255
242 248 255
242 248 255
242 248 255
242 248 255
242 248 255
242 248 255
242 248 255
242 248 255
243 248 255
243 248 255
243 248 255
243 248 255
243 248 255
243 248 255
243 248 255
243 248 255
243 248 255
243 248 255
243 248 255
243 248 255
243 248 255
243 248 255
243 248 255
243 248 255
243 248 255
243 248 255
243 248 255
243 248 255
243 248 255
243 248 255
243 248 255
243 248 255
243 248 255
243 248 255
243 248 255
243 248 255
243 248 255
243 248 255
243 248 255
243 248 255
243 248 255
243 248 255
243 248 255
243 248 255
243 248 255
243 248 255
243 248 255
243 248 255
243 248 255
243 248 255
243 248 255
243 248 255
243 248 255
243 248 255
243 248 255
243 248 255
243 248 255
243 248 255
243 248 255
243 248 255
243 248 255
243 248 255
243 248 255
243 248 255
243 248 255
243 248 255
243 248 255
243 248 255
243 248 255
243 248 255
243 248 255
243 248 255
243 248 255
243 248 255
243 248 255
243 248 255
242 248 255
242 248 255
242 248 255
242 248 255
242 248 255
242 248 255
242 248 255
242 248 255
242 248 255
242 248 255
242 247 255
242 247 255
242 247 255
242 247 255
242 247 255
242 247 255
242 247 255
242 247 255
242 247 255
242 234 242
238 164 169
235 35 36
236 0 0
232 0 0
239 0 0
229 0 0
232 0 0
229 0 0
234 0 0
236 0 0
228 0 0
233 0 0
225 0 0
234 0 0
227 0 0
232 0 0
232 0 0
230 0 0
234 0 0
231 0 0
232 0 0
229 0 0
232 0 0
232 0 0
233 0 0
234 0 0
236 0 0
227 0 0
230 0 0
235 0 0
227 0 0
232 0 0
233 0 0
229 0 0
231 0 0
232 0 0
228 0 0
230 0 0
231 0 0
232 0 0
231 0 0
235 0 0
233 0 0
231 0 0
230 0 0
232 0 0
233 0 0
231 0 0
229 0 0
235 0 0
228 0 0
233 0 0
232 0 0
226 0 0
234 0 0
230 0 0
233 0 0
232 0 0
234 0 0
233 0 0
231 0 0
232 0 0
232 0 0
230 0 0
231 0 0
233 0 0
227 0 0
231 0 0
229 0 0
230 0 0
232 0 0
238 0 0
233 0 0
232 0 0
230 0 0
231 0 0
229 0 0
230 0 0
233 0 0
230 0 0
233 0 0
231 0 0
230 0 0
231 0 0
230 0 0
234 0 0
232 0 0
226 0 0
232 0 0
231 0 0
230 0 0
231 0 0
230 0 0
232 0 0
230 0 0
230 0 0
229 0 0
233 0 0
229 0 0
228 0 0
232 0 0
229 0 0
235 0 0
231 0 0
230 0 0
229 0 0
230 0 0
232 0 0
233 0 0
228 0 0
230 0 0
229 0 0
231 0 0
230 0 0
232 0 0
233 0 0
233 0 0
229 0 0
230 0 0
232 0 0
231 0 0
230 0 0
228 0 0
228 0 0
230 0 0
231 0 0
233 0 0
233 0 0
231 0 0
232 0 0
230 0 0
234 0 0
228 0 0
230 0 0
231 0 0
230 0 0
231 0 0
231 0 0
229 0 0
231 0 0
229 0 0
233 0 0
231 0 0
234 0 0
231 0 0
231 0 0
0 0 255
0 0 255
0 0 255
0 0 255
0 0 255
0 0 255
0 0 255
0 0 255
0 0 255
0 0 255
0 0 255
0 0 255
0 0 255
0 0 255
0 0 255
0 0 255
0 0 255
0 0 255
0 0 255
0 0 255
0 0 255
0 0 255
0 0 255
0 0 255
0 0 255
0 0 255
0 0 255
0 0 255
0 0 255
0 0 255
0 0 255
0 0 255
0 0 255
0 0 255
0 0 255
0 0 255
0 0 254
0 0 255
0 0 255
0 0 255
0 0 255
0 0 255
0 0 255
0 0 254
0 0 255
0 0 255
0 0 255
0 0 255
0 0 255
0 0 255
0 0 255
0 0 255
0 0 255
0 0 255
0 0 254
0 0 254
0 0 255
0 0 255
0 0 255
0 0 255
0 0 254
0 0 255
0 0 255
0 0 255
0 0 255
0 0 255
0 0 254
0 0 255
0 0 255
0 0 255
0 0 255
0 0 254
0 0 254
0 0 255
0 0 255
0 0 254
0 0 254
0 0 254
0 0 254
0 0 253
0 0 254
0 0 254
0 0 254
0 0 255
0 0 253
0 0 255
0 0 255
0 0 254
0 0 254
0 0 254
0 0 254
0 0 253
0 0 254
0 0 254
0 0 250
0 0 255
0 0 255
0 0 255
0 0 255
0 0 252
0 0 252
0 0 249
0 0 254
0 0 252
0 0 252
0 0 254
0 0 252
0 0 253
0 0 254
0 0 253
0 0 249
0 0 253
0 0 252
0 0 254
0 0 254
0 0 252
0 0 252
0 0 253
0 0 253
0 0 252
0 0 250
0 0 254
0 0 252
0 0 248
0 0 253
0 0 252
0 0 253
0 0 255
0 0 255
0 0 249
0 0 252
0 0 250
0 0 250
0 0 250
0 0 248
0 0 250
0 0 250
0 0 249
0 0 254
0 0 252
0 0 252
0 0 252
34 35 250
145 148 253
220 225 255
242 247 255
242 247 255
242 247 255
242 247 255
242 247 255
242 247 255
242 247 255
242 247 255
242 248 255
242 248 255
242 248 255
242 248 255
242 248 255
242 248 255
242 248 255
242 248 255
242 248 255
243 248 255
243 248 255
243 248 255
243 248 255
243 248 255
243 248 255
243 248 255
243 248 255
243 248 255
243 248 255
243 248 255
243 248 255
243 248 255
243 248 255
243 248 255
243 248 255
243 248 255
243 248 255
243 248 255
243 248 255
243 248 255
243 248 255
243 248 255
243 248 255
243 248 255
243 248 255
243 248 255
243 248 255
243 248 255
243 248 255
243 248 255
243 248 255
243 248 255
243 248 255
243 248 255
243 248 255
243 248 255
243 248 255
243 248 255
243 248 255
243 248 255
243 248 255
243 248 255
243 248 255
243 248 255
243 248 255
243 248 255
243 248 255
243 248 255
243 248 255
243 248 255
243 248 255
243 248 255
243 248 255
243 248 255
243 248 255
243 248 255
243 248 255
243 248 255
243 248 255
243 248 255
243 248 255
243 248 255
243 248 255
243 248 255
243 248 255
243 248 255
243 248 255
243 248 255
243 248 255
243 248 255
243 248 255
243 248 255
243 248 255
243 248 255
243 248 255
242 248 255
242 248 255
242 248 255
242 248 255
242 248 255
242 248 255
242 248 255
242 248 255
242 248 255
242 247 255
242 247 255
242 247 255
242 247 255
242 247 255
242 247 255
242 247 255
242 247 255
242 229 237
240 162 167
236 24 25
238 0 0
234 0 0
237 0 0
235 0 0
231 0 0
234 0 0
234 0 0
232 0 0
238 0 0
239 0 0
232 0 0
234 0 0
231 0 0
234 0 0
233 0 0
232 0 0
235 0 0
233 0 0
236 0 0
233 0 0
232 0 0
233 0 0
234 0 0
231 0 0
235 0 0
233 0 0
234 0 0
231 0 0
231 0 0
232 0 0
232 0 0
233 0 0
231 0 0
230 0 0
232 0 0
231 0 0
234 0 0
233 0 0
233 0 0
230 0 0
234 0 0
235 0 0
230 0 0
232 0 0
231 0 0
236 0 0
228 0 0
230 0 0
230 0 0
231 0 0
230 0 0
231 0 0
231 0 0
233 0 0
232 0 0
230 0 0
233 0 0
231 0 0
231 0 0
229 0 0
231 0 0
235 0 0
232 0 0
229 0 0
232 0 0
230 0 0
233 0 0
233 0 0
233 0 0
233 0 0
229 0 0
231 0 0
231 0 0
233 0 0
232 0 0
232 0 0
232 0 0
230 0 0
234 0 0
228 0 0
230 0 0
236 0 0
231 0 0
234 0 0
235 0 0
232 0 0
231 0 0
231 0 0
233 0 0
230 0 0
230 0 0
231 0 0
235 0 0
232 0 0
230 0 0
232 0 0
232 0 0
233 0 0
232 0 0
232 0 0
231 0 0
229 0 0
231 0 0
231 0 0
233 0 0
231 0 0
232 0 0
234 0 0
231 0 0
231 0 0
229 0 0
229 0 0
232 0 0
231 0 0
230 0 0
232 0 0
232 0 0
232 0 0
228 0 0
232 0 0
233 0 0
232 0 0
234 0 0
231 0 0
230 0 0
234 0 0
231 0 0
231 0 0
233 0 0
228 0 0
234 0 0
228 0 0
231 0 0
233 0 0
234 0 0
229 0 0
229 0 0
233 0 0
234 0 0
227 0 0
229 0 0
231 0 0
0 0 255
0 0 255
0 0 255
0 0 255
0 0 255
0 0 255
0 0 255
0 0 255
0 0 255
0 0 255
0 0 255
0 0 255
0 0 255
0 0 255
0 0 255
0 0 255
0 0 255
0 0 255
0 0 255
0 0 255
0 0 255
0 0 255
0 0 255
0 0 255
0 0 255
0 0 255
0 0 255
0 0 255
0 0 255
0 0 255
0 0 255
0 0 255
0 0 255
0 0 254
0 0 255
0 0 255
0 0 255
0 0 255
0 0 255
0 0 255
0 0 255
0 0 255
0 0 255
0 0 255
0 0 255
0 0 255
0 0 254
0 0 255
0 0 254
0 0 255
0 0 255
0 0 255
0 0 254
0 0 255
0 0 255
0 0 255
0 0 255
0 0 255
0 0 255
0 0 255
0 0 255
0 0 255
0 0 255
0 0 255
0 0 255
0 0 254
0 0 255
0 0 255
0 0 253
0 0 255
0 0 255
0 0 254
0 0 255
0 0 255
0 0 255
0 0 255
0 0 253
0 0 254
0 0 252
0 0 255
0 0 255
0 0 252
0 0 254
0 0 254
0 0 255
0 0 254
0 0 253
0 0 254
0 0 254
0 0 255
0 0 255
0 0 254
0 0 255
0 0 254
0 0 252
0 0 255
0 0 254
0 0 255
0 0 254
0 0 255
0 0 254
0 0 255
0 0 253
0 0 253
0 0 254
0 0 255
0 0 252
0 0 255
0 0 253
0 0 254
0 0 255
0 0 253
0 0 253
0 0 255
0 0 253
0 0 255
0 0 253
0 0 254
0 0 252
0 0 255
0 0 250
0 0 254
0 0 252
0 0 249
0 0 250
0 0 249
0 0 250
0 0 253
0 0 254
0 0 252
0 0 246
0 0 255
0 0 255
0 0 248
0 0 252
0 0 255
0 0 253
0 0 252
0 0 255
0 0 252
34 35 252
153 156 254
227 232 254
242 247 255
242 247 255
242 247 255
242 247 255
242 247 255
242 247 255
242 247 255
242 248 255
242 248 255
242 248 255
242 248 255
242 248 255
242 248 255
242 248 255
242 248 255
242 248 255
243 248 255
243 248 255
243 248 255
243 248 255
243 248 255
243 248 255
243 248 255
243 248 255
243 248 255
243 248 255
243 248 255
243 248 255
243 248 255
243 248 255
243 248 255
243 248 255
243 248 255
243 248 255
243 248 255
243 248 255
243 248 255
243 248 255
243 248 255
243 248 255
243 248 255
243 248 255
243 248 255
243 248 255
243 248 255
244 248 255
244 248 255
244 248 255
244 248 255
244 248 255
244 248 255
244 248 255
244 248 255
244 248 255
244 248 255
244 248 255
244 248 255
244 248 255
244 248 255
244 248 255
244 248 255
244 248 255
244 248 255
244 248 255
244 248 255
244 248 255
244 248 255
244 248 255
244 248 255
243 248 255
243 248 255
243 248 255
243 248 255
243 248 255
243 248 255
243 248 255
243 248 255
243 248 255
243 248 255
243 248 255
243 248 255
243 248 255
243 248 255
243 248 255
243 248 255
243 248 255
243 248 255
243 248 255
243 248 255
243 248 255
243 248 255
243 248 255
243 248 255
243 248 255
243 248 255
243 248 255
243 248 255
243 248 255
242 248 255
242 248 255
242 248 255
242 248 255
242 248 255
242 248 255
242 248 255
242 248 255
242 248 255
242 247 255
242 247 255
242 247 255
242 247 255
242 247 255
242 247 255
242 247 255
242 238 246
240 164 169
230 35 36
232 0 0
238 0 0
237 0 0
238 0 0
237 0 0
228 0 0
237 0 0
228 0 0
237 0 0
236 0 0
229 0 0
227 0 0
237 0 0
235 0 0
235 0 0
237 0 0
231 0 0
235 0 0
232 0 0
230 0 0
229 0 0
230 0 0
234 0 0
234 0 0
232 0 0
237 0 0
234 0 0
227 0 0
232 0 0
228 0 0
232 0 0
235 0 0
233 0 0
232 0 0
226 0 0
231 0 0
233 0 0
232 0 0
233 0 0
231 0 0
230 0 0
232 0 0
232 0 0
231 0 0
233 0 0
229 0 0
236 0 0
234 0 0
233 0 0
234 0 0
234 0 0
236 0 0
231 0 0
233 0 0
233 0 0
235 0 0
232 0 0
229 0 0
234 0 0
235 0 0
232 0 0
233 0 0
231 0 0
229 0 0
231 0 0
230 0 0
235 0 0
228 0 0
231 0 0
231 0 0
231 0 0
231 0 0
229 0 0
234 0 0
231 0 0
233 0 0
233 0 0
232 0 0
235 0 0
233 0 0
234 0 0
231 0 0
234 0 0
229 0 0
230 0 0
235 0 0
231 0 0
229 0 0
234 0 0
229 0 0
231 0 0
233 0 0
231 0 0
234 0 0
236 0 0
231 0 0
231 0 0
234 0 0
231 0 0
232 0 0
233 0 0
232 0 0
233 0 0
232 0 0
234 0 0
232 0 0
233 0 0
229 0 0
233 0 0
231 0 0
230 0 0
232 0 0
232 0 0
230 0 0
232 0 0
231 0 0
232 0 0
231 0 0
230 0 0
232 0 0
232 0 0
228 0 0
230 0 0
232 0 0
232 0 0
230 0 0
231 0 0
231 0 0
230 0 0
231 0 0
232 0 0
232 0 0
232 0 0
233 0 0
233 0 0
232 0 0
232 0 0
228 0 0
233 0 0
232 0 0
0 0 255
0 0 255
0 0 255
0 0 255
0 0 255
0 0 255
0 0 255
0 0 255
0 0 255
0 0 255
0 0 255
0 0 255
0 0 255
0 0 255
0 0 255
0 0 255
0 0 255
0 0 255
0 0 255
0 0 255
0 0 255
0 0 255
0 0 255
0 0 255
0 0 255
0 0 255
0 0 255
0 0 255
0 0 255
0 0 255
0 0 255
0 0 255
0 0 255
0 0 255
0 0 255
0 0 255
0 0 255
0 0 255
0 0 255
0 0 255
0 0 255
0 0 255
0 0 255
0 0 255
0 0 255
0 0 255
0 0 255
0 0 255
0 0 255
0 0 255
0 0 255
0 0 255
0 0 255
0 0 255
0 0 255
0 0 255
0 0 255
0 0 255
0 0 255
0 0 253
0 0 255
0 0 255
0 0 254
0 0 254
0 0 255
0 0 253
0 0 255
0 0 254
0 0 255
0 0 254
0 0 255
0 0 255
0 0 255
0 0 255
0 0 255
0 0 253
0 0 255
0 0 254
0 0 253
0 0 253
0 0 255
0 0 254
0 0 255
0 0 254
0 0 254
0 0 253
0 0 254
0 0 254
0 0 255
0 0 253
0 0 255
0 0 254
0 0 255
0 0 254
0 0 255
0 0 254
0 0 254
0 0 255
0 0 254
0 0 254
0 0 252
0 0 254
0 0 252
0 0 254
0 0 253
0 0 255
0 0 250
0 0 255
0 0 253
0 0 254
0 0 254
0 0 254
0 0 255
0 0 254
0 0 255
0 0 252
0 0 255
0 0 250
0 0 254
0 0 252
0 0 255
0 0 253
0 0 250
0 0 253
0 0 253
0 0 255
0 0 252
0 0 252
0 0 255
0 0 249
0 0 252
0 0 252
0 0 255
0 0 252
0 0 252
0 0 254
0 0 248
0 0 253
54 55 250
167 171 252
230 236 255
242 247 255
242 247 255
242 247 255
242 247 255
242 247 255
242 247 255
242 248 255
242 248 255
242 248 255
242 248 255
242 248 255
242 248 255
242 248 255
242 248 255
242 248 255
243 248 255
243 248 255
243 248 255
243 248 255
243 248 255
243 248 255
243 248 255
243 248 255
243 248 255
243 248 255
243 248 255
243 248 255
243 248 255
243 248 255
243 248 255
243 248 255
243 248 255
243 248 255
243 248 255
243 248 255
243 248 255
243 248 255
243 248 255
243 248 255
243 248 255
244 248 255
244 248 255
244 248 255
244 248 255
244 248 255
244 248 255
244 248 255
244 248 255
244 248 255
244 248 255
244 248 255
244 249 255
244 249 255
244 249 255
244 249 255
244 249 255
244 249 255
244 249 255
244 249 255
244 249 255
244 249 255
244 249 255
244 249 255
244 249 255
244 249 255
244 249 255
244 249 255
244 248 255
244 248 255
244 248 255
244 248 255
244 248 255
244 248 255
244 248 255
244 248 255
244 248 255
244 248 255
244 248 255
244 248 255
243 248 255
243 248 255
243 248 255
243 248 255
243 248 255
243 248 255
243 248 255
243 248 255
243 248 255
243 248 255
243 248 255
243 248 255
243 248 255
243 248 255
243 248 255
243 248 255
243 248 255
243 248 255
243 248 255
243 248 255
243 248 255
243 248 255
243 248 255
243 248 255
242 248 255
242 248 255
242 248 255
242 248 255
242 248 255
242 248 255
242 248 255
242 248 255
242 248 255
242 247 255
242 247 255
242 247 255
242 247 255
242 247 255
242 247 255
241 235 242
241 178 184
236 74 76
237 0 0
237 0 0
235 0 0
234 0 0
232 0 0
233 0 0
236 0 0
230 0 0
234 0 0
236 0 0
231 0 0
235 0 0
231 0 0
227 0 0
233 0 0
234 0 0
228 0 0
232 0 0
234 0 0
232 0 0
232 0 0
236 0 0
236 0 0
235 0 0
233 0 0
231 0 0
232 0 0
235 0 0
231 0 0
233 0 0
235 0 0
235 0 0
233 0 0
234 0 0
234 0 0
233 0 0
230 0 0
230 0 0
228 0 0
235 0 0
233 0 0
231 0 0
233 0 0
233 0 0
232 0 0
235 0 0
233 0 0
232 0 0
231 0 0
227 0 0
229 0 0
233 0 0
234 0 0
233 0 0
234 0 0
233 0 0
231 0 0
232 0 0
232 0 0
231 0 0
232 0 0
231 0 0
227 0 0
228 0 0
232 0 0
231 0 0
233 0 0
232 0 0
232 0 0
231 0 0
231 0 0
234 0 0
230 0 0
232 0 0
231 0 0
232 0 0
230 0 0
234 0 0
232 0 0
235 0 0
232 0 0
233 0 0
231 0 0
232 0 0
231 0 0
232 0 0
231 0 0
232 0 0
232 0 0
233 0 0
234 0 0
232 0 0
232 0 0
232 0 0
231 0 0
232 0 0
231 0 0
232 0 0
231 0 0
232 0 0
231 0 0
233 0 0
233 0 0
230 0 0
232 0 0
235 0 0
233 0 0
233 0 0
230 0 0
234 0 0
232 0 0
230 0 0
234 0 0
230 0 0
232 0 0
232 0 0
231 0 0
232 0 0
234 0 0
230 0 0
232 0 0
233 0 0
229 0 0
233 0 0
231 0 0
232 0 0
233 0 0
233 0 0
233 0 0
233 0 0
233 0 0
232 0 0
232 0 0
232 0 0
231 0 0
233 0 0
235 0 0
233 0 0
0 0 255
0 0 255
0 0 255
0 0 255
0 0 255
0 0 255
0 0 255
0 0 255
0 0 255
0 0 255
0 0 255
0 0 255
0 0 255
0 0 255
0 0 255
0 0 255
0 0 255
0 0 255
0 0 255
0 0 255
0 0 255
0 0 255
0 0 255
0 0 255
0 0 255
0 0 255
0 0 255
0 0 255
0 0 255
0 0 255
0 0 255
0 0 255
0 0 255
0 0 255
0 0 255
0 0 255
0 0 255
0 0 255
0 0 255
0 0 255
0 0 255
0 0 255
0 0 255
0 0 254
0 0 255
0 0 255
0 0 255
0 0 255
0 0 254
0 0 255
0 0 255
0 0 255
0 0 255
0 0 254
0 0 254
0 0 255
0 0 254
0 0 255
0 0 255
0 0 255
0 0 254
0 0 255
0 0 254
0 0 255
0 0 255
0 0 255
0 0 254
0 0 255
0 0 255
0 0 255
0 0 255
0 0 255
0 0 255
0 0 255
0 0 255
0 0 254
0 0 253
0 0 254
0 0 254
0 0 255
0 0 252
0 0 255
0 0 255
0 0 255
0 0 255
0 0 255
0 0 254
0 0 255
0 0 255
0 0 254
0 0 253
0 0 254
0 0 255
0 0 255
0 0 252
0 0 254
0 0 254
0 0 254
0 0 253
0 0 253
0 0 254
0 0 254
0 0 253
0 0 254
0 0 252
0 0 254
0 0 253
0 0 253
0 0 255
0 0 253
0 0 253
0 0 252
0 0 255
0 0 255
0 0 253
0 0 252
0 0 253
0 0 252
0 0 254
0 0 253
0 0 252
0 0 254
0 0 250
0 0 253
0 0 252
0 0 249
0 0 254
0 0 252
0 0 253
0 0 253
0 0 250
0 0 253
0 0 254
0 0 249
0 0 252
0 0 248
80 82 253
177 182 254
228 233 255
242 247 255
242 247 255
242 247 255
242 247 255
242 247 255
242 248 255
242 248 255
242 248 255
242 248 255
242 248 255
242 248 255
242 248 255
242 248 255
242 248 255
243 248 255
243 248 255
243 248 255
243 248 255
243 248 255
243 248 255
243 248 255
243 248 255
243 248 255
243 248 255
243 248 255
243 248 255
243 248 255
243 248 255
243 248 255
243 248 255
243 248 255
243 248 255
243 248 255
243 248 255
243 248 255
243 248 255
244 248 255
244 248 255
244 248 255
244 248 255
244 248 255
244 248 255
244 248 255
244 248 255
244 249 255
244 249 255
244 249 255
244 249 255
244 249 255
244 249 255
244 249 255
244 249 255
244 249 255
244 249 255
244 249 255
244 249 255
244 249 255
244 249 255
244 249 255
244 249 255
244 249 255
244 249 255
244 249 255
244 249 255
244 249 255
244 249 255
244 249 255
244 249 255
244 249 255
244 249 255
244 249 255
244 249 255
244 249 255
244 249 255
244 249 255
244 249 255
244 249 255
244 249 255
244 248 255
244 248 255
244 248 255
244 248 255
244 248 255
244 248 255
244 248 255
244 248 255
243 248 255
243 248 255
243 248 255
243 248 255
243 248 255
243 248 255
243 248 255
243 248 255
243 248 255
243 248 255
243 248 255
243 248 255
243 248 255
243 248 255
243 248 255
243 248 255
243 248 255
243 248 255
243 248 255
243 248 255
243 248 255
243 248 255
242 248 255
242 248 255
242 248 255
242 248 255
242 248 255
242 248 255
242 248 255
242 248 255
242 248 255
242 247 255
242 247 255
242 247 255
242 247 255
242 247 255
242 241 249
240 173 179
239 85 88
232 0 0
239 0 0
234 0 0
236 0 0
237 0 0
237 0 0
231 0 0
236 0 0
233 0 0
235 0 0
234 0 0
232 0 0
235 0 0
233 0 0
236 0 0
232 0 0
236 0 0
237 0 0
236 0 0
233 0 0
231 0 0
232 0 0
235 0 0
229 0 0
234 0 0
232 0 0
231 0 0
234 0 0
235 0 0
234 0 0
236 0 0
234 0 0
234 0 0
234 0 0
232 0 0
234 0 0
232 0 0
234 0 0
232 0 0
232 0 0
230 0 0
232 0 0
234 0 0
231 0 0
233 0 0
230 0 0
236 0 0
234 0 0
231 0 0
232 0 0
234 0 0
231 0 0
232 0 0
232 0 0
236 0 0
232 0 0
230 0 0
233 0 0
233 0 0
234 0 0
231 0 0
234 0 0
236 0 0
230 0 0
230 0 0
233 0 0
231 0 0
231 0 0
232 0 0
232 0 0
235 0 0
233 0 0
232 0 0
231 0 0
232 0 0
233 0 0
233 0 0
231 0 0
230 0 0
232 0 0
230 0 0
228 0 0
232 0 0
231 0 0
234 0 0
233 0 0
233 0 0
233 0 0
230 0 0
235 0 0
232 0 0
235 0 0
234 0 0
229 0 0
233 0 0
230 0 0
233 0 0
232 0 0
231 0 0
232 0 0
232 0 0
233 0 0
233 0 0
232 0 0
231 0 0
233 0 0
233 0 0
229 0 0
230 0 0
234 0 0
233 0 0
230 0 0
230 0 0
231 0 0
232 0 0
231 0 0
232 0 0
234 0 0
232 0 0
233 0 0
232 0 0
234 0 0
230 0 0
234 0 0
231 0 0
229 0 0
233 0 0
230 0 0
235 0 0
233 0 0
228 0 0
233 0 0
233 0 0
230 0 0
234 0 0
232 0 0
0 0 255
0 0 255
0 0 255
0 0 255
0 0 255
0 0 255
0 0 255
0 0 255
0 0 255
0 0 255
0 0 255
0 0 255
0 0 255
0 0 255
0 0 255
0 0 255
0 0 255
0 0 255
0 0 255
0 0 255
0 0 255
0 0 255
0 0 255
0 0 255
0 0 255
0 0 255
0 0 255
0 0 255
0 0 255
0 0 255
0 0 255
0 0 255
0 0 255
0 0 255
0 0 255
0 0 255
0 0 254
0 0 255
0 0 255
0 0 255
0 0 255
0 0 255
0 0 255
0 0 255
0 0 254
0 0 255
0 0 254
0 0 255
0 0 255
0 0 255
0 0 255
0 0 255
0 0 255
0 0 255
0 0 255
0 0 255
0 0 255
0 0 255
0 0 255
0 0 255
0 0 254
0 0 255
0 0 254
0 0 255
0 0 255
0 0 255
0 0 255
0 0 255
0 0 254
0 0 254
0 0 255
0 0 254
0 0 255
0 0 255
0 0 255
0 0 255
0 0 253
0 0 255
0 0 255
0 0 255
0 0 255
0 0 254
0 0 254
0 0 254
0 0 255
0 0 253
0 0 253
0 0 253
0 0 253
0 0 254
0 0 255
0 0 254
0 0 254
0 0 254
0 0 254
0 0 253
0 0 253
0 0 254
0 0 253
0 0 254
0 0 254
0 0 255
0 0 254
0 0 254
0 0 253
0 0 254
0 0 254
0 0 252
0 0 254
0 0 253
0 0 254
0 0 254
0 0 252
0 0 253
0 0 254
0 0 250
0 0 253
0 0 250
0 0 250
0 0 255
0 0 250
0 0 254
0 0 249
0 0 250
0 0 254
0 0 252
0 0 252
0 0 253
0 0 254
0 0 254
0 0 253
0 0 252
0 0 253
0 0 254
141 144 253
201 205 255
239 245 255
242 247 255
242 247 255
242 247 255
242 247 255
242 247 255
242 248 255
242 248 255
242 248 255
242 248 255
242 248 255
242 248 255
242 248 255
242 248 255
243 248 255
243 248 255
243 248 255
243 248 255
243 248 255
243 248 255
243 248 255
243 248 255
243 248 255
243 248 255
243 248 255
243 248 255
243 248 255
243 248 255
243 248 255
243 248 255
243 248 255
243 248 255
243 248 255
243 248 255
243 248 255
244 248 255
244 248 255
244 248 255
244 248 255
244 248 255
244 248 255
244 249 255
244 249 255
244 249 255
244 249 255
244 249 255
244 249 255
244 249 255
244 249 255
244 249 255
244 249 255
244 249 255
244 249 255
244 249 255
244 249 255
244 249 255
244 249 255
244 249 255
244 249 255
244 249 255
244 249 255
244 249 255
244 249 255
244 249 255
244 249 255
244 249 255
244 249 255
244 249 255
244 249 255
244 249 255
244 249 255
244 249 255
244 249 255
244 249 255
244 249 255
244 249 255
244 249 255
244 249 255
244 249 255
244 249 255
244 249 255
244 249 255
244 249 255
244 249 255
244 249 255
244 249 255
244 249 255
244 248 255
244 248 255
244 248 255
244 248 255
244 248 255
244 248 255
243 248 255
243 248 255
243 248 255
243 248 255
243 248 255
243 248 255
243 248 255
243 248 255
243 248 255
243 248 255
243 248 255
243 248 255
243 248 255
243 248 255
243 248 255
243 248 255
243 248 255
243 248 255
243 248 255
243 248 255
243 248 255
242 248 255
242 248 255
242 248 255
242 248 255
242 248 255
242 248 255
242 248 255
242 248 255
242 247 255
242 247 255
242 247 255
242 247 255
242 247 255
242 247 255
240 218 226
239 113 117
236 0 0
239 0 0
239 0 0
238 0 0
237 0 0
235 0 0
233 0 0
235 0 0
235 0 0
237 0 0
232 0 0
235 0 0
235 0 0
232 0 0
236 0 0
239 0 0
233 0 0
235 0 0
233 0 0
235 0 0
236 0 0
233 0 0
234 0 0
233 0 0
226 0 0
232 0 0
234 0 0
233 0 0
234 0 0
233 0 0
236 0 0
236 0 0
230 0 0
238 0 0
235 0 0
235 0 0
233 0 0
233 0 0
231 0 0
237 0 0
234 0 0
236 0 0
232 0 0
231 0 0
237 0 0
234 0 0
228 0 0
233 0 0
234 0 0
232 0 0
233 0 0
227 0 0
233 0 0
233 0 0
229 0 0
230 0 0
234 0 0
231 0 0
234 0 0
232 0 0
231 0 0
232 0 0
230 0 0
232 0 0
233 0 0
232 0 0
233 0 0
236 0 0
232 0 0
231 0 0
232 0 0
230 0 0
232 0 0
230 0 0
233 0 0
233 0 0
234 0 0
230 0 0
234 0 0
230 0 0
236 0 0
231 0 0
234 0 0
232 0 0
233 0 0
235 0 0
232 0 0
234 0 0
233 0 0
232 0 0
234 0 0
234 0 0
229 0 0
231 0 0
235 0 0
232 0 0
233 0 0
233 0 0
231 0 0
232 0 0
233 0 0
233 0 0
232 0 0
232 0 0
228 0 0
234 0 0
229 0 0
232 0 0
229 0 0
230 0 0
230 0 0
233 0 0
233 0 0
231 0 0
233 0 0
236 0 0
233 0 0
231 0 0
230 0 0
231 0 0
235 0 0
230 0 0
231 0 0
235 0 0
231 0 0
232 0 0
228 0 0
231 0 0
233 0 0
234 0 0
233 0 0
229 0 0
234 0 0
234 0 0
149 155 255
57 59 255
0 0 255
0 0 255
0 0 255
0 0 255
0 0 255
0 0 255
0 0 255
0 0 255
0 0 255
0 0 255
0 0 255
0 0 255
0 0 255
0 0 255
0 0 255
0 0 255
0 0 255
0 0 255
0 0 255
0 0 255
0 0 255
0 0 255
0 0 255
0 0 255
0 0 255
0 0 255
0 0 255
0 0 255
0 0 255
0 0 255
0 0 255
0 0 255
0 0 255
0 0 255
0 0 255
0 0 255
0 0 255
0 0 255
0 0 255
0 0 255
0 0 255
0 0 255
0 0 255
0 0 255
0 0 254
0 0 254
0 0 255
0 0 255
0 0 255
0 0 255
0 0 255
0 0 254
0 0 255
0 0 255
0 0 255
0 0 255
0 0 254
0 0 255
0 0 254
0 0 255
0 0 255
0 0 255
0 0 255
0 0 254
0 0 253
0 0 253
0 0 255
0 0 255
0 0 255
0 0 253
0 0 255
0 0 255
0 0 255
0 0 254
0 0 253
0 0 255
0 0 255
0 0 254
0 0 254
0 0 254
0 0 255
0 0 254
0 0 255
0 0 254
0 0 252
0 0 254
0 0 254
0 0 253
0 0 255
0 0 255
0 0 253
0 0 255
0 0 254
0 0 253
0 0 255
0 0 254
0 0 253
0 0 254
0 0 253
0 0 254
0 0 254
0 0 255
0 0 253
0 0 253
0 0 254
0 0 253
0 0 254
0 0 254
0 0 250
0 0 255
0 0 253
0 0 254
0 0 253
0 0 252
0 0 254
0 0 253
0 0 253
0 0 255
0 0 253
0 0 249
0 0 255
0 0 254
0 0 252
0 0 250
0 0 252
0 0 254
0 0 255
0 0 255
0 0 255
59 60 254
156 160 255
228 233 255
242 247 255
242 247 255
242 247 255
242 247 255
242 247 255
242 248 255
242 248 255
242 248 255
242 248 255
242 248 255
242 248 255
242 248 255
242 248 255
243 248 255
243 248 255
243 248 255
243 248 255
243 248 255
243 248 255
243 248 255
243 248 255
243 248 255
243 248 255
243 248 255
243 248 255
243 248 255
243 248 255
243 248 255
243 248 255
243 248 255
243 248 255
243 248 255
243 248 255
244 248 255
244 248 255
244 248 255
244 248 255
244 248 255
244 248 255
244 249 255
244 249 255
244 249 255
244 249 255
244 249 255
244 249 255
244 249 255
244 249 255
244 249 255
244 249 255
244 249 255
244 249 255
244 249 255
244 249 255
244 249 255
244 249 255
244 249 255
244 249 255
244 249 255
244 249 255
244 249 255
244 249 255
244 249 255
244 249 255
244 249 255
244 249 255
244 249 255
244 249 255
244 249 255
244 249 255
244 249 255
244 249 255
244 249 255
244 249 255
244 249 255
244 249 255
244 249 255
244 249 255
244 249 255
244 249 255
244 249 255
244 249 255
244 249 255
244 249 255
244 249 255
244 249 255
244 249 255
244 249 255
244 249 255
244 249 255
244 249 255
244 249 255
244 249 255
244 249 255
244 249 255
244 248 255
244 248 255
244 248 255
244 248 255
244 248 255
243 248 255
243 248 255
243 248 255
243 248 255
243 248 255
243 248 255
243 248 255
243 248 255
243 248 255
243 248 255
243 248 255
243 248 255
243 248 255
243 248 255
243 248 255
243 248 255
243 248 255
243 248 255
243 248 255
243 248 255
242 248 255
242 248 255
242 248 255
242 248 255
242 248 255
242 248 255
242 248 255
242 248 255
242 247 255
242 247 255
242 247 255
242 247 255
242 247 255
242 217 224
240 166 171
236 78 80
239 0 0
239 0 0
234 0 0
235 0 0
230 0 0
236 0 0
236 0 0
240 0 0
234 0 0
233 0 0
235 0 0
237 0 0
235 0 0
233 0 0
236 0 0
235 0 0
236 0 0
235 0 0
235 0 0
231 0 0
237 0 0
235 0 0
232 0 0
232 0 0
233 0 0
234 0 0
226 0 0
238 0 0
237 0 0
231 0 0
233 0 0
235 0 0
231 0 0
230 0 0
232 0 0
235 0 0
235 0 0
234 0 0
231 0 0
233 0 0
234 0 0
232 0 0
232 0 0
233 0 0
234 0 0
235 0 0
232 0 0
234 0 0
232 0 0
234 0 0
233 0 0
231 0 0
236 0 0
232 0 0
232 0 0
233 0 0
234 0 0
232 0 0
235 0 0
231 0 0
235 0 0
232 0 0
233 0 0
230 0 0
234 0 0
233 0 0
231 0 0
233 0 0
232 0 0
233 0 0
235 0 0
232 0 0
230 0 0
234 0 0
230 0 0
236 0 0
234 0 0
233 0 0
234 0 0
231 0 0
232 0 0
232 0 0
230 0 0
233 0 0
233 0 0
229 0 0
232 0 0
234 0 0
234 0 0
230 0 0
232 0 0
231 0 0
232 0 0
232 0 0
230 0 0
230 0 0
231 0 0
231 0 0
233 0 0
235 0 0
232 0 0
229 0 0
234 0 0
234 0 0
231 0 0
232 0 0
231 0 0
230 0 0
233 0 0
233 0 0
235 0 0
234 0 0
234 0 0
232 0 0
232 0 0
231 0 0
233 0 0
231 0 0
233 0 0
230 0 0
233 0 0
232 0 0
232 0 0
233 0 0
235 0 0
233 0 0
234 0 0
233 0 0
231 0 0
232 64 67
234 161 169
234 243 255
232 240 255
183 190 255
132 137 255
23 24 255
0 0 255
0 0 255
0 0 255
0 0 255
0 0 255
0 0 255
0 0 255
0 0 255
0 0 255
0 0 255
0 0 255
0 0 255
0 0 255
0 0 255
0 0 255
0 0 255
0 0 255
0 0 255
0 0 255
0 0 255
0 0 255
0 0 255
0 0 255
0 0 255
0 0 255
0 0 255
0 0 255
0 0 255
0 0 255
0 0 255
0 0 255
0 0 255
0 0 255
0 0 255
0 0 255
0 0 255
0 0 255
0 0 255
0 0 255
0 0 254
0 0 255
0 0 255
0 0 253
0 0 255
0 0 255
0 0 255
0 0 255
0 0 255
0 0 255
0 0 255
0 0 254
0 0 254
0 0 255
0 0 255
0 0 255
0 0 255
0 0 255
0 0 255
0 0 255
0 0 255
0 0 255
0 0 254
0 0 255
0 0 255
0 0 255
0 0 255
0 0 255
0 0 255
0 0 255
0 0 255
0 0 255
0 0 255
0 0 254
0 0 254
0 0 254
0 0 254
0 0 255
0 0 255
0 0 254
0 0 254
0 0 254
0 0 254
0 0 255
0 0 255
0 0 255
0 0 255
0 0 254
0 0 254
0 0 255
0 0 252
0 0 252
0 0 250
0 0 255
0 0 252
0 0 253
0 0 253
0 0 254
0 0 254
0 0 253
0 0 253
0 0 253
0 0 253
0 0 254
0 0 255
0 0 255
0 0 252
0 0 254
0 0 254
0 0 254
0 0 254
0 0 255
0 0 254
0 0 252
0 0 254
0 0 253
0 0 254
0 0 254
0 0 254
0 0 254
0 0 249
0 0 253
0 0 255
0 0 254
0 0 254
118 121 254
199 204 255
236 241 255
242 247 255
242 247 255
242 247 255
242 247 255
242 247 255
242 248 255
242 248 255
242 248 255
242 248 255
242 248 255
242 248 255
242 248 255
242 248 255
243 248 255
243 248 255
243 248 255
243 248 255
243 248 255
243 248 255
243 248 255
243 248 255
243 248 255
243 248 255
243 248 255
243 248 255
243 248 255
243 248 255
243 248 255
243 248 255
243 248 255
243 248 255
244 248 255
244 248 255
244 248 255
244 248 255
244 248 255
244 249 255
244 249 255
244 249 255
244 249 255
244 249 255
244 249 255
244 249 255
244 249 255
244 249 255
244 249 255
244 249 255
244 249 255
244 249 255
244 249 255
244 249 255
244 249 255
244 249 255
244 249 255
244 249 255
244 249 255
244 249 255
244 249 255
244 249 255
244 249 255
244 249 255
244 249 255
244 249 255
244 249 255
244 249 255
244 249 255
244 249 255
244 249 255
244 249 255
244 249 255
244 249 255
244 249 255
244 249 255
244 249 255
244 249 255
244 249 255
244 249 255
244 249 255
244 249 255
244 249 255
244 249 255
244 249 255
244 249 255
244 249 255
244 249 255
244 249 255
244 249 255
244 249 255
244 249 255
244 249 255
244 249 255
244 249 255
244 249 255
244 249 255
244 249 255
244 249 255
244 249 255
244 249 255
244 249 255
244 249 255
244 248 255
244 248 255
244 248 255
244 248 255
244 248 255
243 248 255
243 248 255
243 248 255
243 248 255
243 248 255
243 248 255
243 248 255
243 248 255
243 248 255
243 248 255
243 248 255
243 248 255
243 248 255
243 248 255
243 248 255
243 248 255
243 248 255
243 248 255
243 248 255
242 248 255
242 248 255
242 248 255
242 248 255
242 248 255
242 248 255
242 248 255
242 247 255
242 247 255
242 247 255
242 247 255
242 247 255
241 242 250
241 199 206
242 118 122
237 24 25
238 0 0
237 0 0
238 0 0
233 0 0
235 0 0
234 0 0
236 0 0
237 0 0
235 0 0
235 0 0
237 0 0
238 0 0
236 0 0
234 0 0
236 0 0
233 0 0
237 0 0
231 0 0
233 0 0
232 0 0
233 0 0
236 0 0
234 0 0
234 0 0
231 0 0
229 0 0
234 0 0
233 0 0
234 0 0
234 0 0
235 0 0
232 0 0
235 0 0
233 0 0
231 0 0
234 0 0
235 0 0
233 0 0
236 0 0
230 0 0
235 0 0
233 0 0
233 0 0
233 0 0
237 0 0
233 0 0
234 0 0
232 0 0
232 0 0
234 0 0
234 0 0
233 0 0
231 0 0
233 0 0
234 0 0
236 0 0
234 0 0
234 0 0
231 0 0
234 0 0
233 0 0
228 0 0
231 0 0
231 0 0
232 0 0
232 0 0
236 0 0
232 0 0
234 0 0
233 0 0
233 0 0
233 0 0
235 0 0
230 0 0
235 0 0
234 0 0
234 0 0
232 0 0
231 0 0
233 0 0
235 0 0
233 0 0
232 0 0
233 0 0
233 0 0
230 0 0
232 0 0
233 0 0
233 0 0
233 0 0
236 0 0
235 0 0
236 0 0
233 0 0
231 0 0
235 0 0
233 0 0
233 0 0
234 0 0
236 0 0
231 0 0
232 0 0
236 0 0
233 0 0
227 0 0
233 0 0
232 0 0
230 0 0
235 0 0
236 0 0
231 0 0
232 0 0
232 0 0
233 0 0
234 0 0
230 0 0
232 0 0
230 0 0
233 0 0
233 0 0
233 0 0
232 0 0
231 0 0
236 24 25
232 135 142
233 191 201
234 238 250
234 243 255
234 243 255
234 243 255
234 243 255
234 243 255
226 234 255
164 170 255
93 97 255
0 0 255
0 0 255
0 0 255
0 0 255
0 0 255
0 0 255
0 0 255
0 0 255
0 0 255
0 0 255
0 0 255
0 0 255
0 0 255
0 0 255
0 0 255
0 0 255
0 0 255
0 0 255
0 0 255
0 0 255
0 0 255
0 0 255
0 0 255
0 0 255
0 0 255
0 0 255
0 0 255
0 0 255
0 0 255
0 0 255
0 0 255
0 0 255
0 0 255
0 0 255
0 0 255
0 0 255
0 0 255
0 0 255
0 0 255
0 0 255
0 0 255
0 0 255
0 0 255
0 0 255
0 0 255
0 0 255
0 0 255
0 0 255
0 0 255
0 0 255
0 0 255
0 0 254
0 0 255
0 0 255
0 0 255
0 0 255
0 0 255
0 0 254
0 0 254
0 0 255
0 0 254
0 0 255
0 0 255
0 0 254
0 0 255
0 0 254
0 0 255
0 0 255
0 0 255
0 0 253
0 0 254
0 0 254
0 0 254
0 0 255
0 0 255
0 0 255
0 0 254
0 0 255
0 0 254
0 0 255
0 0 254
0 0 254
0 0 253
0 0 252
0 0 255
0 0 254
0 0 255
0 0 253
0 0 255
0 0 253
0 0 253
0 0 255
0 0 255
0 0 255
0 0 254
0 0 252
0 0 250
0 0 255
0 0 254
0 0 254
0 0 255
0 0 255
0 0 252
0 0 252
0 0 250
0 0 254
0 0 253
0 0 249
0 0 254
0 0 255
0 0 252
0 0 252
0 0 254
0 0 254
0 0 254
0 0 253
0 0 253
0 0 253
0 0 252
90 92 254
171 175 255
232 237 255
242 247 255
242 247 255
242 247 255
242 247 255
242 247 255
242 248 255
242 248 255
242 248 255
242 248 255
242 248 255
242 248 255
242 248 255
242 248 255
243 248 255
243 248 255
243 248 255
243 248 255
243 248 255
243 248 255
243 248 255
243 248 255
243 248 255
243 248 255
243 248 255
243 248 255
243 248 255
243 248 255
243 248 255
243 248 255
243 248 255
243 248 255
244 248 255
244 248 255
244 248 255
244 248 255
244 248 255
244 249 255
244 249 255
244 249 255
244 249 255
244 249 255
244 249 255
244 249 255
244 249 255
244 249 255
244 249 255
244 249 255
244 249 255
244 249 255
244 249 255
244 249 255
244 249 255
244 249 255
244 249 255
244 249 255
244 249 255
244 249 255
244 249 255
244 249 255
244 249 255
244 249 255
244 249 255
244 249 255
244 249 255
245 249 255
245 249 255
245 249 255
245 249 255
245 249 255
245 249 255
245 249 255
245 249 255
245 249 255
245 249 255
245 249 255
245 249 255
245 249 255
245 249 255
245 249 255
244 249 255
244 249 255
244 249 255
244 249 255
244 249 255
244 249 255
244 249 255
244 249 255
244 249 255
244 249 255
244 249 255
244 249 255
244 249 255
244 249 255
244 249 255
244 249 255
244 249 255
244 249 255
244 249 255
244 249 255
244 249 255
244 249 255
244 249 255
244 249 255
244 249 255
244 249 255
244 249 255
244 248 255
244 248 255
244 248 255
244 248 255
244 248 255
243 248 255
243 248 255
243 248 255
243 248 255
243 248 255
243 248 255
243 248 255
243 248 255
243 248 255
243 248 255
243 248 255
243 248 255
243 248 255
243 248 255
243 248 255
243 248 255
243 248 255
243 248 255
242 248 255
242 248 255
242 248 255
242 248 255
242 248 255
242 248 255
242 248 255
242 248 255
242 247 255
242 247 255
242 247 255
242 247 255
242 247 255
242 229 237
240 182 188
238 92 95
236 0 0
238 0 0
238 0 0
238 0 0
232 0 0
236 0 0
236 0 0
238 0 0
238 0 0
235 0 0
236 0 0
235 0 0
232 0 0
236 0 0
236 0 0
236 0 0
236 0 0
235 0 0
231 0 0
234 0 0
234 0 0
236 0 0
233 0 0
236 0 0
236 0 0
234 0 0
233 0 0
231 0 0
228 0 0
234 0 0
231 0 0
234 0 0
236 0 0
232 0 0
233 0 0
236 0 0
234 0 0
237 0 0
232 0 0
233 0 0
231 0 0
235 0 0
235 0 0
233 0 0
234 0 0
234 0 0
234 0 0
238 0 0
233 0 0
235 0 0
234 0 0
233 0 0
234 0 0
233 0 0
233 0 0
234 0 0
234 0 0
234 0 0
237 0 0
233 0 0
231 0 0
234 0 0
233 0 0
232 0 0
232 0 0
233 0 0
235 0 0
233 0 0
231 0 0
232 0 0
237 0 0
235 0 0
231 0 0
232 0 0
236 0 0
234 0 0
235 0 0
233 0 0
230 0 0
234 0 0
234 0 0
232 0 0
231 0 0
230 0 0
232 0 0
232 0 0
232 0 0
233 0 0
232 0 0
233 0 0
228 0 0
234 0 0
232 0 0
237 0 0
234 0 0
234 0 0
235 0 0
235 0 0
233 0 0
231 0 0
233 0 0
236 0 0
234 0 0
234 0 0
233 0 0
229 0 0
233 0 0
235 0 0
233 0 0
231 0 0
234 0 0
233 0 0
234 0 0
233 0 0
235 0 0
230 0 0
235 0 0
233 0 0
233 0 0
234 94 99
233 187 196
234 232 244
234 243 255
234 243 255
234 243 255
234 243 255
234 243 255
234 243 255
234 243 255
234 243 255
234 243 255
234 243 255
234 243 255
212 220 255
161 167 255
66 68 255
0 0 255
0 0 255
0 0 255
0 0 255
0 0 255
0 0 255
0 0 255
0 0 255
0 0 255
0 0 255
0 0 255
0 0 255
0 0 255
0 0 255
0 0 255
0 0 255
0 0 255
0 0 255
0 0 255
0 0 255
0 0 255
0 0 255
0 0 255
0 0 255
0 0 255
0 0 255
0 0 255
0 0 255
0 0 255
0 0 255
0 0 255
0 0 255
0 0 255
0 0 255
0 0 255
0 0 255
0 0 255
0 0 255
0 0 255
0 0 255
0 0 255
0 0 255
0 0 254
0 0 255
0 0 255
0 0 254
0 0 255
0 0 255
0 0 255
0 0 254
0 0 255
0 0 255
0 0 254
0 0 255
0 0 255
0 0 255
0 0 255
0 0 254
0 0 255
0 0 254
0 0 254
0 0 255
0 0 254
0 0 255
0 0 253
0 0 254
0 0 255
0 0 254
0 0 255
0 0 255
0 0 254
0 0 250
0 0 255
0 0 254
0 0 255
0 0 255
0 0 255
0 0 255
0 0 255
0 0 255
0 0 255
0 0 253
0 0 250
0 0 254
0 0 254
0 0 255
0 0 254
0 0 253
0 0 255
0 0 254
0 0 252
0 0 253
0 0 254
0 0 253
0 0 255
0 0 254
0 0 254
0 0 252
0 0 255
0 0 255
0 0 250
0 0 254
0 0 255
0 0 255
0 0 253
0 0 253
0 0 253
0 0 255
0 0 253
0 0 254
0 0 254
0 0 255
0 0 255
80 82 253
151 154 255
221 227 255
242 247 255
242 247 255
242 247 255
242 247 255
242 247 255
242 247 255
242 248 255
242 248 255
242 248 255
242 248 255
242 248 255
242 248 255
242 248 255
242 248 255
243 248 255
243 248 255
243 248 255
243 248 255
243 248 255
243 248 255
243 248 255
243 248 255
243 248 255
243 248 255
243 248 255
243 248 255
243 248 255
243 248 255
243 248 255
243 248 255
243 248 255
244 248 255
244 248 255
244 248 255
244 248 255
244 248 255
244 249 255
244 249 255
244 249 255
244 249 255
244 249 255
244 249 255
244 249 255
244 249 255
244 249 255
244 249 255
244 249 255
244 249 255
244 249 255
244 249 255
244 249 255
244 249 255
244 249 255
244 249 255
244 249 255
244 249 255
244 249 255
244 249 255
245 249 255
245 249 255
245 249 255
245 249 255
245 249 255
245 249 255
245 249 255
245 249 255
245 249 255
245 249 255
245 249 255
245 249 255
245 249 255
245 249 255
245 249 255
245 249 255
245 249 255
245 249 255
245 249 255
245 249 255
245 249 255
245 249 255
245 249 255
245 249 255
245 249 255
245 249 255
245 249 255
245 249 255
245 249 255
245 249 255
245 249 255
245 249 255
244 249 255
244 249 255
244 249 255
244 249 255
244 249 255
244 249 255
244 249 255
244 249 255
244 249 255
244 249 255
244 249 255
244 249 255
244 249 255
244 249 255
244 249 255
244 249 255
244 249 255
244 249 255
244 249 255
244 249 255
244 249 255
244 249 255
244 248 255
244 248 255
244 248 255
244 248 255
244 248 255
243 248 255
243 248 255
243 248 255
243 248 255
243 248 255
243 248 255
243 248 255
243 248 255
243 248 255
243 248 255
243 248 255
243 248 255
243 248 255
243 248 255
243 248 255
243 248 255
243 248 255
243 248 255
242 248 255
242 248 255
242 248 255
242 248 255
242 248 255
242 248 255
242 248 255
242 247 255
242 247 255
242 247 255
242 247 255
242 247 255
242 247 255
241 214 221
242 171 177
236 74 76
241 0 0
237 0 0
236 0 0
238 0 0
233 0 0
236 0 0
234 0 0
236 0 0
234 0 0
236 0 0
238 0 0
236 0 0
235 0 0
236 0 0
235 0 0
238 0 0
233 0 0
236 0 0
232 0 0
233 0 0
235 0 0
236 0 0
236 0 0
236 0 0
237 0 0
236 0 0
235 0 0
234 0 0
235 0 0
234 0 0
236 0 0
232 0 0
236 0 0
232 0 0
233 0 0
234 0 0
235 0 0
231 0 0
233 0 0
235 0 0
235 0 0
230 0 0
237 0 0
231 0 0
234 0 0
236 0 0
237 0 0
235 0 0
235 0 0
233 0 0
235 0 0
233 0 0
233 0 0
234 0 0
236 0 0
235 0 0
234 0 0
233 0 0
232 0 0
235 0 0
233 0 0
235 0 0
234 0 0
234 0 0
234 0 0
235 0 0
233 0 0
232 0 0
235 0 0
234 0 0
233 0 0
229 0 0
232 0 0
231 0 0
234 0 0
232 0 0
232 0 0
234 0 0
232 0 0
234 0 0
233 0 0
232 0 0
235 0 0
232 0 0
232 0 0
235 0 0
234 0 0
235 0 0
232 0 0
231 0 0
235 0 0
234 0 0
236 0 0
235 0 0
232 0 0
231 0 0
233 0 0
231 0 0
233 0 0
232 0 0
234 0 0
233 0 0
232 0 0
231 0 0
229 0 0
233 0 0
236 0 0
231 0 0
233 0 0
233 0 0
234 0 0
233 0 0
233 0 0
234 87 92
233 168 177
235 228 240
234 243 255
234 243 255
234 243 255
234 243 255
234 243 255
234 243 255
234 243 255
234 243 255
234 243 255
234 243 255
234 243 255
234 243 255
234 243 255
235 243 255
235 243 255
235 243 255
235 243 255
215 223 255
148 154 255
97 100 255
0 0 255
0 0 255
0 0 255
0 0 255
0 0 255
0 0 255
0 0 255
0 0 255
0 0 255
0 0 255
0 0 255
0 0 255
0 0 255
0 0 255
0 0 255
0 0 255
0 0 255
0 0 255
0 0 255
0 0 255
0 0 255
0 0 255
0 0 255
0 0 255
0 0 255
0 0 255
0 0 255
0 0 255
0 0 255
0 0 254
0 0 255
0 0 255
0 0 255
0 0 255
0 0 255
0 0 255
0 0 255
0 0 255
0 0 255
0 0 255
0 0 255
0 0 255
0 0 255
0 0 255
0 0 255
0 0 255
0 0 255
0 0 254
0 0 255
0 0 255
0 0 255
0 0 255
0 0 255
0 0 255
0 0 255
0 0 254
0 0 255
0 0 254
0 0 255
0 0 255
0 0 255
0 0 255
0 0 255
0 0 255
0 0 254
0 0 255
0 0 254
0 0 255
0 0 255
0 0 255
0 0 255
0 0 255
0 0 255
0 0 253
0 0 253
0 0 255
0 0 254
0 0 254
0 0 255
0 0 254
0 0 255
0 0 254
0 0 254
0 0 255
0 0 255
0 0 254
0 0 255
0 0 253
0 0 254
0 0 254
0 0 253
0 0 254
0 0 253
0 0 254
0 0 255
0 0 253
0 0 255
0 0 254
0 0 255
0 0 255
0 0 253
0 0 253
0 0 252
0 0 254
0 0 254
0 0 254
0 0 255
110 113 255
164 168 253
213 218 255
242 247 255
242 247 255
242 247 255
242 247 255
242 247 255
242 247 255
242 247 255
242 248 255
242 248 255
242 248 255
242 248 255
242 248 255
242 248 255
242 248 255
243 248 255
243 248 255
243 248 255
243 248 255
243 248 255
243 248 255
243 248 255
243 248 255
243 248 255
243 248 255
243 248 255
243 248 255
243 248 255
243 248 255
243 248 255
243 248 255
243 248 255
244 248 255
244 248 255
244 248 255
244 248 255
244 249 255
244 249 255
244 249 255
244 249 255
244 249 255
244 249 255
244 249 255
244 249 255
244 249 255
244 249 255
244 249 255
244 249 255
244 249 255
244 249 255
244 249 255
244 249 255
244 249 255
244 249 255
244 249 255
244 249 255
245 249 255
245 249 255
245 249 255
245 249 255
245 249 255
245 249 255
245 249 255
245 249 255
245 249 255
245 249 255
245 249 255
245 249 255
245 249 255
245 249 255
245 249 255
245 249 255
245 249 255
245 249 255
245 249 255
245 249 255
245 249 255
245 249 255
245 249 255
245 249 255
245 249 255
245 249 255
245 249 255
245 249 255
245 249 255
245 249 255
245 249 255
245 249 255
245 249 255
245 249 255
245 249 255
245 249 255
245 249 255
245 249 255
245 249 255
245 249 255
245 249 255
245 249 255
245 249 255
245 249 255
244 249 255
244 249 255
244 249 255
244 249 255
244 249 255
244 249 255
244 249 255
244 249 255
244 249 255
244 249 255
244 249 255
244 249 255
244 249 255
244 249 255
244 249 255
244 249 255
244 249 255
244 249 255
244 249 255
244 249 255
244 248 255
244 248 255
244 248 255
244 248 255
243 248 255
243 248 255
243 248 255
243 248 255
243 248 255
243 248 255
243 248 255
243 248 255
243 248 255
243 248 255
243 248 255
243 248 255
243 248 255
243 248 255
243 248 255
243 248 255
243 248 255
242 248 255
242 248 255
242 248 255
242 248 255
242 248 255
242 248 255
242 248 255
242 247 255
242 247 255
242 247 255
242 247 255
242 247 255
242 247 255
242 247 255
239 215 223
240 150 155
238 99 102
240 0 0
237 0 0
235 0 0
239 0 0
235 0 0
237 0 0
238 0 0
238 0 0
237 0 0
237 0 0
236 0 0
237 0 0
236 0 0
236 0 0
233 0 0
235 0 0
235 0 0
236 0 0
233 0 0
237 0 0
231 0 0
236 0 0
238 0 0
237 0 0
241 0 0
235 0 0
234 0 0
234 0 0
231 0 0
233 0 0
237 0 0
236 0 0
237 0 0
233 0 0
231 0 0
235 0 0
232 0 0
238 0 0
235 0 0
233 0 0
235 0 0
236 0 0
235 0 0
230 0 0
233 0 0
234 0 0
234 0 0
233 0 0
235 0 0
230 0 0
232 0 0
235 0 0
234 0 0
231 0 0
234 0 0
233 0 0
234 0 0
235 0 0
232 0 0
234 0 0
234 0 0
236 0 0
233 0 0
232 0 0
233 0 0
233 0 0
235 0 0
233 0 0
235 0 0
236 0 0
235 0 0
234 0 0
232 0 0
230 0 0
232 0 0
234 0 0
235 0 0
234 0 0
234 0 0
234 0 0
229 0 0
234 0 0
232 0 0
237 0 0
232 0 0
230 0 0
230 0 0
232 0 0
235 0 0
233 0 0
234 0 0
231 0 0
234 0 0
234 0 0
235 0 0
237 0 0
235 0 0
234 0 0
232 0 0
233 0 0
233 0 0
234 0 0
231 0 0
231 0 0
233 0 0
234 0 0
238 0 0
233 87 92
234 165 173
234 224 236
235 243 255
235 243 255
235 243 255
235 243 255
234 243 255
234 243 255
234 243 255
234 243 255
234 243 255
234 243 255
234 243 255
234 243 255
234 243 255
235 243 255
235 243 255
235 243 255
235 243 255
235 243 255
235 243 255
235 243 255
235 243 255
235 243 255
235 243 255
223 231 255
183 190 255
115 119 255
23 24 255
0 0 255
0 0 255
0 0 255
0 0 255
0 0 255
0 0 255
0 0 255
0 0 255
0 0 255
0 0 255
0 0 255
0 0 255
0 0 255
0 0 255
0 0 255
0 0 255
0 0 255
0 0 255
0 0 255
0 0 255
0 0 255
0 0 255
0 0 255
0 0 255
0 0 255
0 0 255
0 0 255
0 0 255
0 0 255
0 0 255
0 0 255
0 0 254
0 0 255
0 0 255
0 0 255
0 0 255
0 0 255
0 0 255
0 0 255
0 0 255
0 0 255
0 0 255
0 0 255
0 0 255
0 0 255
0 0 255
0 0 255
0 0 255
0 0 255
0 0 255
0 0 255
0 0 255
0 0 255
0 0 254
0 0 255
0 0 255
0 0 255
0 0 254
0 0 255
0 0 255
0 0 255
0 0 255
0 0 254
0 0 255
0 0 254
0 0 255
0 0 254
0 0 255
0 0 254
0 0 254
0 0 253
0 0 255
0 0 255
0 0 255
0 0 254
0 0 253
0 0 255
0 0 254
0 0 255
0 0 255
0 0 252
0 0 254
0 0 253
0 0 254
0 0 254
0 0 255
0 0 255
0 0 254
0 0 255
0 0 255
0 0 252
0 0 253
0 0 254
0 0 255
0 0 255
0 0 254
0 0 254
0 0 254
0 0 255
34 35 254
99 102 253
198 202 255
219 224 255
242 247 255
242 247 255
242 247 255
242 247 255
242 247 255
242 247 255
242 247 255
242 248 255
242 248 255
242 248 255
242 248 255
242 248 255
242 248 255
242 248 255
242 248 255
243 248 255
243 248 255
243 248 255
243 248 255
243 248 255
243 248 255
243 248 255
243 248 255
243 248 255
243 248 255
243 248 255
243 248 255
243 248 255
243 248 255
243 248 255
243 248 255
244 248 255
244 248 255
244 248 255
244 248 255
244 249 255
244 249 255
244 249 255
244 249 255
244 249 255
244 249 255
244 249 255
244 249 255
244 249 255
244 249 255
244 249 255
244 249 255
244 249 255
244 249 255
244 249 255
244 249 255
244 249 255
244 249 255
244 249 255
245 249 255
245 249 255
245 249 255
245 249 255
245 249 255
245 249 255
245 249 255
245 249 255
245 249 255
245 249 255
245 249 255
245 249 255
245 249 255
245 249 255
245 249 255
245 249 255
245 249 255
245 249 255
245 249 255
245 249 255
245 249 255
245 249 255
245 249 255
245 249 255
245 249 255
245 249 255
245 249 255
245 249 255
245 249 255
245 249 255
245 249 255
245 249 255
245 249 255
245 249 255
245 249 255
245 249 255
245 249 255
245 249 255
245 249 255
245 249 255
245 249 255
245 249 255
245 249 255
245 249 255
245 249 255
245 249 255
245 249 255
245 249 255
245 249 255
245 249 255
245 249 255
245 249 255
245 249 255
244 249 255
244 249 255
244 249 255
244 249 255
244 249 255
244 249 255
244 249 255
244 249 255
244 249 255
244 249 255
244 249 255
244 249 255
244 249 255
244 249 255
244 249 255
244 249 255
244 249 255
244 248 255
244 248 255
244 248 255
244 248 255
244 248 255
243 248 255
243 248 255
243 248 255
243 248 255
243 248 255
243 248 255
243 248 255
243 248 255
243 248 255
243 248 255
243 248 255
243 248 255
243 248 255
243 248 255
243 248 255
243 248 255
242 248 255
242 248 255
242 248 255
242 248 255
242 248 255
242 248 255
242 248 255
242 248 255
242 247 255
242 247 255
242 247 255
242 247 255
242 247 255
242 247 255
242 247 255
241 231 238
240 180 186
241 121 125
240 49 51
236 0 0
240 0 0
238 0 0
239 0 0
240 0 0
240 0 0
238 0 0
237 0 0
236 0 0
238 0 0
237 0 0
234 0 0
236 0 0
238 0 0
239 0 0
234 0 0
237 0 0
236 0 0
235 0 0
235 0 0
238 0 0
234 0 0
234 0 0
236 0 0
235 0 0
232 0 0
236 0 0
231 0 0
234 0 0
235 0 0
232 0 0
233 0 0
235 0 0
232 0 0
235 0 0
235 0 0
236 0 0
234 0 0
235 0 0
234 0 0
236 0 0
233 0 0
235 0 0
234 0 0
233 0 0
235 0 0
232 0 0
234 0 0
234 0 0
234 0 0
234 0 0
229 0 0
235 0 0
234 0 0
234 0 0
235 0 0
235 0 0
232 0 0
236 0 0
232 0 0
235 0 0
235 0 0
233 0 0
234 0 0
233 0 0
234 0 0
235 0 0
235 0 0
234 0 0
233 0 0
235 0 0
232 0 0
235 0 0
236 0 0
235 0 0
229 0 0
233 0 0
232 0 0
234 0 0
231 0 0
235 0 0
234 0 0
236 0 0
232 0 0
233 0 0
233 0 0
232 0 0
238 0 0
235 0 0
234 0 0
233 0 0
234 0 0
233 0 0
234 0 0
232 0 0
233 0 0
238 0 0
231 0 0
232 0 0
232 0 0
235 140 147
235 192 201
234 219 230
235 243 255
235 243 255
235 243 255
235 243 255
235 243 255
235 243 255
235 243 255
235 243 255
235 243 255
234 243 255
234 243 255
234 243 255
234 243 255
234 243 255
235 243 255
235 243 255
235 243 255
235 243 255
235 243 255
235 243 255
235 243 255
235 243 255
235 243 255
235 243 255
235 243 255
235 243 255
235 243 255
235 243 255
235 244 255
234 242 255
187 193 255
166 172 255
100 103 255
0 0 255
0 0 255
0 0 255
0 0 255
0 0 255
0 0 255
0 0 255
0 0 255
0 0 255
0 0 255
0 0 255
0 0 255
0 0 255
0 0 255
0 0 255
0 0 255
0 0 255
0 0 255
0 0 255
0 0 255
0 0 255
0 0 255
0 0 255
0 0 255
0 0 255
0 0 255
0 0 255
0 0 255
0 0 255
0 0 255
0 0 255
0 0 255
0 0 255
0 0 255
0 0 255
0 0 255
0 0 255
0 0 255
0 0 255
0 0 255
0 0 255
0 0 255
0 0 255
0 0 255
0 0 255
0 0 255
0 0 255
0 0 254
0 0 255
0 0 255
0 0 255
0 0 255
0 0 255
0 0 255
0 0 255
0 0 255
0 0 255
0 0 254
0 0 255
0 0 255
0 0 255
0 0 255
0 0 255
0 0 254
0 0 255
0 0 255
0 0 255
0 0 255
0 0 253
0 0 255
0 0 255
0 0 253
0 0 255
0 0 254
0 0 254
0 0 253
0 0 255
0 0 254
0 0 255
0 0 255
0 0 255
0 0 255
0 0 255
0 0 254
0 0 253
0 0 255
0 0 255
0 0 254
0 0 255
0 0 255
0 0 253
0 0 253
0 0 254
80 82 254
152 156 255
200 205 255
237 242 255
242 247 255
242 247 255
242 247 255
242 247 255
242 247 255
242 247 255
242 247 255
242 247 255
242 248 255
242 248 255
242 248 255
242 248 255
242 248 255
242 248 255
242 248 255
243 248 255
243 248 255
243 248 255
243 248 255
243 248 255
243 248 255
243 248 255
243 248 255
243 248 255
243 248 255
243 248 255
243 248 255
243 248 255
243 248 255
243 248 255
243 248 255
243 248 255
244 248 255
244 248 255
244 248 255
244 248 255
244 249 255
244 249 255
244 249 255
244 249 255
244 249 255
244 249 255
244 249 255
244 249 255
244 249 255
244 249 255
244 249 255
244 249 255
244 249 255
244 249 255
244 249 255
244 249 255
244 249 255
245 249 255
245 249 255
245 249 255
245 249 255
245 249 255
245 249 255
245 249 255
245 249 255
245 249 255
245 249 255
245 249 255
245 249 255
245 249 255
245 249 255
245 249 255
245 249 255
245 249 255
245 249 255
245 249 255
245 249 255
245 249 255
245 249 255
245 249 255
245 249 255
245 249 255
245 249 255
245 249 255
245 249 255
245 249 255
245 249 255
245 249 255
245 249 255
245 249 255
245 249 255
245 249 255
245 249 255
245 249 255
245 249 255
245 249 255
245 249 255
245 249 255
245 249 255
245 249 255
245 249 255
245 249 255
245 249 255
245 249 255
245 249 255
245 249 255
245 249 255
245 249 255
245 249 255
245 249 255
245 249 255
245 249 255
245 249 255
245 249 255
245 249 255
245 249 255
245 249 255
244 249 255
244 249 255
244 249 255
244 249 255
244 249 255
244 249 255
244 249 255
244 249 255
244 249 255
244 249 255
244 249 255
244 249 255
244 249 255
244 249 255
244 249 255
244 249 255
244 249 255
244 248 255
244 248 255
244 248 255
244 248 255
243 248 255
243 248 255
243 248 255
243 248 255
243 248 255
243 248 255
243 248 255
243 248 255
243 248 255
243 248 255
243 248 255
243 248 255
243 248 255
243 248 255
243 248 255
243 248 255
243 248 255
242 248 255
242 248 255
242 248 255
242 248 255
242 248 255
242 248 255
242 248 255
242 247 255
242 247 255
242 247 255
242 247 255
242 247 255
242 247 255
242 247 255
241 247 255
241 242 250
242 198 204
241 169 175
239 99 102
236 0 0
237 0 0
239 0 0
237 0 0
237 0 0
235 0 0
237 0 0
235 0 0
237 0 0
236 0 0
231 0 0
237 0 0
238 0 0
236 0 0
235 0 0
235 0 0
237 0 0
235 0 0
233 0 0
235 0 0
234 0 0
235 0 0
235 0 0
235 0 0
235 0 0
236 0 0
235 0 0
235 0 0
234 0 0
236 0 0
237 0 0
236 0 0
234 0 0
235 0 0
238 0 0
237 0 0
234 0 0
236 0 0
235 0 0
235 0 0
235 0 0
236 0 0
232 0 0
235 0 0
234 0 0
235 0 0
235 0 0
236 0 0
233 0 0
239 0 0
233 0 0
235 0 0
232 0 0
232 0 0
234 0 0
234 0 0
232 0 0
231 0 0
233 0 0
232 0 0
236 0 0
233 0 0
236 0 0
236 0 0
234 0 0
233 0 0
233 0 0
233 0 0
233 0 0
235 0 0
233 0 0
235 0 0
231 0 0
231 0 0
235 0 0
237 0 0
235 0 0
236 0 0
234 0 0
235 0 0
235 0 0
235 0 0
233 0 0
235 0 0
234 0 0
233 0 0
236 0 0
235 0 0
233 0 0
233 0 0
232 0 0
234 0 0
233 0 0
235 100 105
234 152 159
234 207 217
235 239 250
235 244 255
235 243 255
235 243 255
235 243 255
235 243 255
235 243 255
235 243 255
235 243 255
235 243 255
235 243 255
235 243 255
235 243 255
235 243 255
235 243 255
235 243 255
234 243 255
235 243 255
235 243 255
235 243 255
235 243 255
235 243 255
235 243 255
235 243 255
235 243 255
235 243 255
235 243 255
235 243 255
235 243 255
235 244 255
235 244 255
235 244 255
235 244 255
235 244 255
235 244 255
235 244 255
236 244 255
223 231 255
187 193 255
149 154 255
81 84 255
0 0 255
0 0 255
0 0 255
0 0 255
0 0 255
0 0 255
0 0 255
0 0 255
0 0 255
0 0 255
0 0 255
0 0 255
0 0 255
0 0 255
0 0 255
0 0 255
0 0 255
0 0 255
0 0 255
0 0 255
0 0 255
0 0 255
0 0 255
0 0 255
0 0 255
0 0 255
0 0 255
0 0 255
0 0 255
0 0 255
0 0 255
0 0 255
0 0 255
0 0 255
0 0 255
0 0 255
0 0 255
0 0 255
0 0 255
0 0 255
0 0 255
0 0 255
0 0 255
0 0 255
0 0 255
0 0 252
0 0 255
0 0 254
0 0 255
0 0 255
0 0 254
0 0 255
0 0 255
0 0 255
0 0 254
0 0 255
0 0 255
0 0 255
0 0 254
0 0 255
0 0 255
0 0 254
0 0 255
0 0 253
0 0 254
0 0 255
0 0 255
0 0 253
0 0 254
0 0 255
0 0 255
0 0 255
0 0 255
0 0 255
0 0 255
0 0 255
0 0 255
0 0 255
0 0 255
0 0 254
0 0 254
0 0 255
0 0 255
0 0 254
0 0 255
99 102 255
147 150 254
190 194 255
230 236 255
241 247 255
241 247 255
242 247 255
242 247 255
242 247 255
242 247 255
242 247 255
242 247 255
242 247 255
242 247 255
242 248 255
242 248 255
242 248 255
242 248 255
242 248 255
242 248 255
242 248 255
243 248 255
243 248 255
243 248 255
243 248 255
243 248 255
243 248 255
243 248 255
243 248 255
243 248 255
243 248 255
243 248 255
243 248 255
243 248 255
243 248 255
243 248 255
243 248 255
244 248 255
244 248 255
244 248 255
244 248 255
244 249 255
244 249 255
244 249 255
244 249 255
244 249 255
244 249 255
244 249 255
244 249 255
244 249 255
244 249 255
244 249 255
244 249 255
244 249 255
244 249 255
244 249 255
244 249 255
245 249 255
245 249 255
245 249 255
245 249 255
245 249 255
245 249 255
245 249 255
245 249 255
245 249 255
245 249 255
245 249 255
245 249 255
245 249 255
245 249 255
245 249 255
245 249 255
245 249 255
245 249 255
245 249 255
245 249 255
245 249 255
245 249 255
245 249 255
245 249 255
245 249 255
245 249 255
245 249 255
245 249 255
245 249 255
245 249 255
245 249 255
245 249 255
245 249 255
245 249 255
245 249 255
245 249 255
245 249 255
245 249 255
245 249 255
245 249 255
245 249 255
245 249 255
245 249 255
245 249 255
245 249 255
245 249 255
245 249 255
245 249 255
245 249 255
245 249 255
245 249 255
245 249 255
245 249 255
245 249 255
245 249 255
245 249 255
245 249 255
245 249 255
245 249 255
245 249 255
245 249 255
245 249 255
245 249 255
245 249 255
245 249 255
245 249 255
245 249 255
245 249 255
244 249 255
244 249 255
244 249 255
244 249 255
244 249 255
244 249 255
244 249 255
244 249 255
244 249 255
244 249 255
244 249 255
244 249 255
244 249 255
244 249 255
244 249 255
244 249 255
244 248 255
244 248 255
244 248 255
244 248 255
243 248 255
243 248 255
243 248 255
243 248 255
243 248 255
243 248 255
243 248 255
243 248 255
243 248 255
243 248 255
243 248 255
243 248 255
243 248 255
243 248 255
243 248 255
243 248 255
242 248 255
242 248 255
242 248 255
242 248 255
242 248 255
242 248 255
242 248 255
242 247 255
242 247 255
242 247 255
242 247 255
242 247 255
242 247 255
242 247 255
242 247 255
241 247 255
241 247 255
241 228 236
239 191 198
239 167 173
239 85 88
238 0 0
235 0 0
240 0 0
239 0 0
238 0 0
236 0 0
234 0 0
235 0 0
237 0 0
238 0 0
234 0 0
238 0 0
237 0 0
238 0 0
237 0 0
239 0 0
237 0 0
237 0 0
234 0 0
232 0 0
237 0 0
236 0 0
235 0 0
235 0 0
236 0 0
236 0 0
235 0 0
235 0 0
235 0 0
236 0 0
235 0 0
235 0 0
234 0 0
236 0 0
234 0 0
233 0 0
235 0 0
236 0 0
237 0 0
235 0 0
234 0 0
233 0 0
236 0 0
235 0 0
234 0 0
234 0 0
233 0 0
235 0 0
233 0 0
235 0 0
236 0 0
232 0 0
232 0 0
229 0 0
231 0 0
236 0 0
235 0 0
234 0 0
235 0 0
234 0 0
235 0 0
237 0 0
233 0 0
234 0 0
233 0 0
233 0 0
235 0 0
232 0 0
234 0 0
235 0 0
235 0 0
233 0 0
235 0 0
236 0 0
234 0 0
234 0 0
232 0 0
234 0 0
231 0 0
233 0 0
235 0 0
235 0 0
231 0 0
236 0 0
233 0 0
234 73 76
234 156 163
234 204 214
236 235 246
236 244 255
235 244 255
235 244 255
235 244 255
235 244 255
235 244 255
235 244 255
235 244 255
235 243 255
235 243 255
235 243 255
235 243 255
235 243 255
235 243 255
235 243 255
235 243 255
235 243 255
235 243 255
235 243 255
235 243 255
235 243 255
235 243 255
235 243 255
235 243 255
235 243 255
235 243 255
235 243 255
235 243 255
235 243 255
235 244 255
235 244 255
235 244 255
235 244 255
235 244 255
235 244 255
235 244 255
236 244 255
236 244 255
236 244 255
236 244 255
236 244 255
236 244 255
236 244 255
236 244 255
220 228 255
197 204 255
156 162 255
110 114 255
23 24 255
0 0 255
0 0 255
0 0 255
0 0 255
0 0 255
0 0 255
0 0 255
0 0 255
0 0 255
0 0 255
0 0 255
0 0 255
0 0 255
0 0 255
0 0 255
0 0 255
0 0 255
0 0 255
0 0 255
0 0 255
0 0 255
0 0 255
0 0 255
0 0 255
0 0 255
0 0 254
0 0 255
0 0 255
0 0 255
0 0 255
0 0 255
0 0 255
0 0 255
0 0 255
0 0 255
0 0 255
0 0 255
0 0 255
0 0 255
0 0 255
0 0 255
0 0 255
0 0 254
0 0 255
0 0 255
0 0 255
0 0 255
0 0 255
0 0 255
0 0 255
0 0 255
0 0 255
0 0 255
0 0 255
0 0 254
0 0 254
0 0 255
0 0 254
0 0 254
0 0 254
0 0 254
0 0 254
0 0 255
0 0 254
0 0 255
0 0 255
0 0 253
0 0 255
0 0 255
0 0 255
0 0 255
0 0 255
0 0 253
0 0 254
0 0 255
24 24 255
123 126 255
163 167 255
191 196 255
231 237 255
241 247 255
241 247 255
241 247 255
241 247 255
242 247 255
242 247 255
242 247 255
242 247 255
242 247 255
242 247 255
242 247 255
242 247 255
242 248 255
242 248 255
242 248 255
242 248 255
242 248 255
242 248 255
242 248 255
243 248 255
243 248 255
243 248 255
243 248 255
243 248 255
243 248 255
243 248 255
243 248 255
243 248 255
243 248 255
243 248 255
243 248 255
243 248 255
243 248 255
243 248 255
243 248 255
244 248 255
244 248 255
244 248 255
244 248 255
244 249 255
244 249 255
244 249 255
244 249 255
244 249 255
244 249 255
244 249 255
244 249 255
244 249 255
244 249 255
244 249 255
244 249 255
244 249 255
244 249 255
244 249 255
245 249 255
245 249 255
245 249 255
245 249 255
245 249 255
245 249 255
245 249 255
245 249 255
245 249 255
245 249 255
245 249 255
245 249 255
245 249 255
245 249 255
245 249 255
245 249 255
245 249 255
245 249 255
245 249 255
245 249 255
245 249 255
245 249 255
245 249 255
245 249 255
245 249 255
245 249 255
245 249 255
245 249 255
245 249 255
245 249 255
245 249 255
245 249 255
245 249 255
245 249 255
245 249 255
245 249 255
245 249 255
245 249 255
245 249 255
245 249 255
245 249 255
245 249 255
245 249 255
245 249 255
245 249 255
245 249 255
245 249 255
245 249 255
245 249 255
245 249 255
245 249 255
245 249 255
245 249 255
245 249 255
245 249 255
245 249 255
245 249 255
245 249 255
245 249 255
245 249 255
245 249 255
245 249 255
245 249 255
245 249 255
245 249 255
245 249 255
245 249 255
245 249 255
245 249 255
245 249 255
245 249 255
245 249 255
245 249 255
245 249 255
244 249 255
244 249 255
244 249 255
244 249 255
244 249 255
244 249 255
244 249 255
244 249 255
244 249 255
244 249 255
244 249 255
244 249 255
244 249 255
244 249 255
244 249 255
244 248 255
244 248 255
244 248 255
244 248 255
243 248 255
243 248 255
243 248 255
243 248 255
243 248 255
243 248 255
243 248 255
243 248 255
243 248 255
243 248 255
243 248 255
243 248 255
243 248 255
243 248 255
243 248 255
243 248 255
242 248 255
242 248 255
242 248 255
242 248 255
242 248 255
242 248 255
242 248 255
242 247 255
242 247 255
242 247 255
242 247 255
242 247 255
242 247 255
242 247 255
242 247 255
241 247 255
241 247 255
241 247 255
241 247 255
241 237 245
240 194 201
240 160 165
239 107 111
237 49 51
238 0 0
239 0 0
239 0 0
236 0 0
238 0 0
235 0 0
236 0 0
235 0 0
235 0 0
240 0 0
237 0 0
234 0 0
240 0 0
236 0 0
237 0 0
237 0 0
235 0 0
233 0 0
238 0 0
236 0 0
238 0 0
238 0 0
237 0 0
236 0 0
236 0 0
235 0 0
237 0 0
234 0 0
236 0 0
236 0 0
234 0 0
235 0 0
231 0 0
237 0 0
236 0 0
236 0 0
237 0 0
235 0 0
236 0 0
233 0 0
234 0 0
231 0 0
234 0 0
235 0 0
236 0 0
234 0 0
237 0 0
237 0 0
235 0 0
236 0 0
237 0 0
233 0 0
235 0 0
233 0 0
232 0 0
234 0 0
235 0 0
235 0 0
234 0 0
233 0 0
234 0 0
235 0 0
233 0 0
236 0 0
235 0 0
231 0 0
235 0 0
236 0 0
235 0 0
236 0 0
236 0 0
234 0 0
232 0 0
235 0 0
235 0 0
232 0 0
235 100 105
236 150 157
235 203 212
236 233 244
236 244 255
236 244 255
236 244 255
236 244 255
236 244 255
236 244 255
236 244 255
236 244 255
235 244 255
235 244 255
235 244 255
235 244 255
235 244 255
235 244 255
235 244 255
235 243 255
235 243 255
235 243 255
235 243 255
235 243 255
235 243 255
235 243 255
235 243 255
235 243 255
235 243 255
235 243 255
235 243 255
235 243 255
235 243 255
235 243 255
235 243 255
235 244 255
235 244 255
235 244 255
235 244 255
235 244 255
235 244 255
235 244 255
236 244 255
236 244 255
236 244 255
236 244 255
236 244 255
236 244 255
236 244 255
236 244 255
236 244 255
236 244 255
236 244 255
236 244 255
236 244 255
236 244 255
234 242 255
206 213 255
185 191 255
147 152 255
118 122 255
47 48 255
0 0 255
0 0 255
0 0 255
0 0 255
0 0 255
0 0 255
0 0 255
0 0 255
0 0 255
0 0 255
0 0 255
0 0 255
0 0 255
0 0 255
0 0 255
0 0 255
0 0 255
0 0 255
0 0 255
0 0 255
0 0 255
0 0 255
0 0 255
0 0 255
0 0 255
0 0 255
0 0 255
0 0 255
0 0 255
0 0 255
0 0 255
0 0 255
0 0 255
0 0 255
0 0 255
0 0 255
0 0 255
0 0 255
0 0 255
0 0 255
0 0 255
0 0 255
0 0 255
0 0 255
0 0 255
0 0 255
0 0 254
0 0 254
0 0 254
0 0 255
0 0 255
0 0 255
0 0 255
0 0 255
0 0 255
0 0 255
0 0 255
0 0 255
0 0 253
0 0 255
0 0 255
0 0 254
0 0 255
0 0 254
0 0 255
53 55 255
105 107 255
154 158 255
183 188 255
222 228 255
240 246 255
241 247 255
241 247 255
241 247 255
241 247 255
241 247 255
241 247 255
242 247 255
242 247 255
242 247 255
242 247 255
242 247 255
242 247 255
242 247 255
242 247 255
242 248 255
242 248 255
242 248 255
242 248 255
242 248 255
242 248 255
242 248 255
243 248 255
243 248 255
243 248 255
243 248 255
243 248 255
243 248 255
243 248 255
243 248 255
243 248 255
243 248 255
243 248 255
243 248 255
243 248 255
243 248 255
243 248 255
243 248 255
244 248 255
244 248 255
244 248 255
244 249 255
244 249 255
244 249 255
244 249 255
244 249 255
244 249 255
244 249 255
244 249 255
244 249 255
244 249 255
244 249 255
244 249 255
244 249 255
244 249 255
244 249 255
245 249 255
245 249 255
245 249 255
245 249 255
245 249 255
245 249 255
245 249 255
245 249 255
245 249 255
245 249 255
245 249 255
245 249 255
245 249 255
245 249 255
245 249 255
245 249 255
245 249 255
245 249 255
245 249 255
245 249 255
245 249 255
245 249 255
245 249 255
245 249 255
245 249 255
245 249 255
245 249 255
245 249 255
245 250 255
245 250 255
245 250 255
245 250 255
245 250 255
245 250 255
245 250 255
246 250 255
245 250 255
246 250 255
246 250 255
246 250 255
246 250 255
246 250 255
246 250 255
246 250 255
245 250 255
245 250 255
245 250 255
245 250 255
245 250 255
245 250 255
245 250 255
245 250 255
245 249 255
245 249 255
245 249 255
245 249 255
245 249 255
245 249 255
245 249 255
245 249 255
245 249 255
245 249 255
245 249 255
245 249 255
245 249 255
245 249 255
245 249 255
245 249 255
245 249 255
245 249 255
245 249 255
245 249 255
245 249 255
245 249 255
245 249 255
245 249 255
245 249 255
245 249 255
245 249 255
245 249 255
244 249 255
244 249 255
244 249 255
244 249 255
244 249 255
244 249 255
244 249 255
244 249 255
244 249 255
244 249 255
244 249 255
244 249 255
244 249 255
244 249 255
244 249 255
244 248 255
244 248 255
244 248 255
243 248 255
243 248 255
243 248 255
243 248 255
243 248 255
243 248 255
243 248 255
243 248 255
243 248 255
243 248 255
243 248 255
243 248 255
243 248 255
243 248 255
243 248 255
243 248 255
242 248 255
242 248 255
242 248 255
242 248 255
242 248 255
242 248 255
242 248 255
242 247 255
242 247 255
242 247 255
242 247 255
242 247 255
242 247 255
242 247 255
242 247 255
241 247 255
241 247 255
241 247 255
241 247 255
241 247 255
241 247 255
240 242 250
241 225 233
241 176 182
239 178 184
240 101 105
237 49 51
237 0 0
237 0 0
238 0 0
233 0 0
234 0 0
236 0 0
236 0 0
237 0 0
236 0 0
237 0 0
238 0 0
238 0 0
237 0 0
237 0 0
235 0 0
237 0 0
234 0 0
235 0 0
238 0 0
237 0 0
234 0 0
235 0 0
234 0 0
237 0 0
236 0 0
235 0 0
238 0 0
234 0 0
235 0 0
236 0 0
236 0 0
236 0 0
235 0 0
233 0 0
234 0 0
233 0 0
236 0 0
236 0 0
236 0 0
233 0 0
235 0 0
238 0 0
234 0 0
236 0 0
235 0 0
236 0 0
237 0 0
237 0 0
235 0 0
236 0 0
235 0 0
232 0 0
237 0 0
236 0 0
233 0 0
235 0 0
236 0 0
236 0 0
234 0 0
234 0 0
238 0 0
236 0 0
235 0 0
238 0 0
235 0 0
232 54 57
234 106 111
233 156 163
235 200 209
235 218 228
236 242 253
236 244 255
236 244 255
236 244 255
236 244 255
236 244 255
236 244 255
236 244 255
236 244 255
236 244 255
236 244 255
236 244 255
236 244 255
236 244 255
236 244 255
235 244 255
235 244 255
235 244 255
235 244 255
235 244 255
235 244 255
235 244 255
235 243 255
235 243 255
235 243 255
235 243 255
235 243 255
235 243 255
235 243 255
235 243 255
235 243 255
235 243 255
235 243 255
235 244 255
235 244 255
235 244 255
235 244 255
235 244 255
235 244 255
235 244 255
236 244 255
236 244 255
236 244 255
236 244 255
236 244 255
236 244 255
236 244 255
236 244 255
236 244 255
236 244 255
236 244 255
236 244 255
236 244 255
236 244 255
236 244 255
236 244 255
236 244 255
236 244 255
236 244 255
237 244 255
237 244 255
237 244 255
237 244 255
223 231 255
198 204 255
180 186 255
146 151 255
113 117 255
78 81 255
0 0 255
0 0 255
0 0 255
0 0 255
0 0 255
0 0 255
0 0 255
0 0 255
0 0 255
0 0 255
0 0 255
0 0 255
0 0 255
0 0 255
0 0 255
0 0 255
0 0 255
0 0 255
0 0 255
0 0 255
0 0 255
0 0 255
0 0 255
0 0 255
0 0 255
0 0 255
0 0 255
0 0 255
0 0 255
0 0 255
0 0 255
0 0 255
0 0 255
0 0 255
0 0 254
0 0 255
0 0 255
0 0 254
0 0 255
0 0 255
0 0 255
0 0 254
0 0 255
0 0 255
0 0 255
0 0 255
0 0 255
0 0 255
0 0 255
0 0 255
0 0 255
0 0 255
0 0 254
48 49 255
105 107 254
150 154 255
168 173 255
198 203 255
223 229 255
241 247 255
241 247 255
241 247 255
241 247 255
241 247 255
241 247 255
241 247 255
241 247 255
241 247 255
241 247 255
242 247 255
242 247 255
242 247 255
242 247 255
242 247 255
242 247 255
242 247 255
242 247 255
242 248 255
242 248 255
242 248 255
242 248 255
242 248 255
242 248 255
242 248 255
243 248 255
243 248 255
243 248 255
243 248 255
243 248 255
243 248 255
243 248 255
243 248 255
243 248 255
243 248 255
243 248 255
243 248 255
243 248 255
243 248 255
243 248 255
244 248 255
244 248 255
244 248 255
244 248 255
244 249 255
244 249 255
244 249 255
244 249 255
244 249 255
244 249 255
244 249 255
244 249 255
244 249 255
244 249 255
244 249 255
244 249 255
244 249 255
244 249 255
245 249 255
245 249 255
245 249 255
245 249 255
245 249 255
245 249 255
245 249 255
245 249 255
245 249 255
245 249 255
245 249 255
245 249 255
245 249 255
245 249 255
245 249 255
245 249 255
245 249 255
245 249 255
245 249 255
245 249 255
245 249 255
245 249 255
245 249 255
245 249 255
245 249 255
245 250 255
245 250 255
245 250 255
246 250 255
246 250 255
246 250 255
246 250 255
246 250 255
246 250 255
246 250 255
246 250 255
246 250 255
246 250 255
246 250 255
246 250 255
246 250 255
246 250 255
246 250 255
246 250 255
246 250 255
246 250 255
246 250 255
246 250 255
246 250 255
246 250 255
246 250 255
246 250 255
246 250 255
246 250 255
246 250 255
246 250 255
246 250 255
246 250 255
245 250 255
245 250 255
245 250 255
245 250 255
245 249 255
245 249 255
245 249 255
245 249 255
245 249 255
245 249 255
245 249 255
245 249 255
245 249 255
245 249 255
245 249 255
245 249 255
245 249 255
245 249 255
245 249 255
245 249 255
245 249 255
245 249 255
245 249 255
245 249 255
245 249 255
245 249 255
245 249 255
245 249 255
244 249 255
244 249 255
244 249 255
244 249 255
244 249 255
244 249 255
244 249 255
244 249 255
244 249 255
244 249 255
244 249 255
244 249 255
244 249 255
244 249 255
244 248 255
244 248 255
244 248 255
244 248 255
243 248 255
243 248 255
243 248 255
243 248 255
243 248 255
243 248 255
243 248 255
243 248 255
243 248 255
243 248 255
243 248 255
243 248 255
243 248 255
243 248 255
243 248 255
242 248 255
242 248 255
242 248 255
242 248 255
242 248 255
242 248 255
242 248 255
242 247 255
242 247 255
242 247 255
242 247 255
242 247 255
242 247 255
242 247 255
242 247 255
241 247 255
241 247 255
241 247 255
241 247 255
241 247 255
241 247 255
241 247 255
241 247 255
241 247 255
241 247 255
241 230 238
240 208 215
239 178 184
240 141 147
236 101 105
238 60 62
239 0 0
238 0 0
236 0 0
238 0 0
239 0 0
237 0 0
238 0 0
233 0 0
236 0 0
236 0 0
236 0 0
237 0 0
236 0 0
236 0 0
237 0 0
239 0 0
235 0 0
236 0 0
235 0 0
235 0 0
240 0 0
236 0 0
238 0 0
237 0 0
232 0 0
238 0 0
233 0 0
236 0 0
238 0 0
237 0 0
237 0 0
236 0 0
235 0 0
235 0 0
237 0 0
237 0 0
238 0 0
234 0 0
238 0 0
237 0 0
235 0 0
237 0 0
234 0 0
236 0 0
236 0 0
232 0 0
236 0 0
234 0 0
237 0 0
237 0 0
234 0 0
237 0 0
235 0 0
233 54 57
235 117 122
235 131 137
235 174 182
236 192 201
237 220 230
237 242 253
237 244 255
237 244 255
237 244 255
236 244 255
236 244 255
236 244 255
236 244 255
236 244 255
236 244 255
236 244 255
236 244 255
236 244 255
236 244 255
236 244 255
236 244 255
236 244 255
236 244 255
236 244 255
236 244 255
236 244 255
236 244 255
236 244 255
235 244 255
235 244 255
235 244 255
235 244 255
235 244 255
235 244 255
235 244 255
235 243 255
235 243 255
235 243 255
235 243 255
235 243 255
235 243 255
235 244 255
235 244 255
235 244 255
235 244 255
235 244 255
235 244 255
235 244 255
236 244 255
236 244 255
236 244 255
236 244 255
236 244 255
236 244 255
236 244 255
236 244 255
236 244 255
236 244 255
236 244 255
236 244 255
236 244 255
236 244 255
236 244 255
236 244 255
236 244 255
236 244 255
236 244 255
237 244 255
237 244 255
237 244 255
237 244 255
237 244 255
237 244 255
237 244 255
237 245 255
237 245 255
237 245 255
237 245 255
237 245 255
225 232 255
203 209 255
197 203 255
173 178 255
136 140 255
98 101 255
78 81 255
67 69 255
0 0 255
0 0 255
0 0 255
0 0 255
0 0 255
0 0 255
0 0 255
0 0 255
0 0 255
0 0 255
0 0 255
0 0 255
0 0 255
0 0 255
0 0 255
0 0 255
0 0 255
0 0 255
0 0 255
0 0 255
0 0 255
0 0 255
0 0 255
0 0 255
0 0 254
0 0 255
0 0 255
0 0 255
0 0 255
0 0 255
0 0 255
0 0 255
0 0 255
0 0 255
0 0 254
0 0 255
0 0 255
53 55 255
110 113 255
131 135 255
150 154 255
175 179 255
192 197 255
214 219 255
228 234 255
241 247 255
241 247 255
241 247 255
241 247 255
241 247 255
241 247 255
241 247 255
241 247 255
241 247 255
241 247 255
241 247 255
241 247 255
241 247 255
241 247 255
242 247 255
242 247 255
242 247 255
242 247 255
242 247 255
242 247 255
242 247 255
242 248 255
242 248 255
242 248 255
242 248 255
242 248 255
242 248 255
242 248 255
242 248 255
243 248 255
243 248 255
243 248 255
243 248 255
243 248 255
243 248 255
243 248 255
243 248 255
243 248 255
243 248 255
243 248 255
243 248 255
243 248 255
243 248 255
243 248 255
244 248 255
244 248 255
244 248 255
244 248 255
244 249 255
244 249 255
244 249 255
244 249 255
244 249 255
244 249 255
244 249 255
244 249 255
244 249 255
244 249 255
244 249 255
244 249 255
244 249 255
245 249 255
245 249 255
245 249 255
245 249 255
245 249 255
245 249 255
245 249 255
245 249 255
245 249 255
245 249 255
245 249 255
245 249 255
245 249 255
245 249 255
245 249 255
245 249 255
245 249 255
245 249 255
245 249 255
245 249 255
245 249 255
245 249 255
245 249 255
245 250 255
245 250 255
246 250 255
246 250 255
246 250 255
246 250 255
246 250 255
246 250 255
246 250 255
246 250 255
246 250 255
246 250 255
246 250 255
246 250 255
246 250 255
246 250 255
246 250 255
246 250 255
246 250 255
246 250 255
246 250 255
246 250 255
246 250 255
246 250 255
246 250 255
246 250 255
246 250 255
246 250 255
246 250 255
246 250 255
246 250 255
246 250 255
246 250 255
246 250 255
246 250 255
246 250 255
246 250 255
246 250 255
246 250 255
246 250 255
246 250 255
246 250 255
246 250 255
246 250 255
245 250 255
245 250 255
245 249 255
245 249 255
245 249 255
245 249 255
245 249 255
245 249 255
245 249 255
245 249 255
245 249 255
245 249 255
245 249 255
245 249 255
245 249 255
245 249 255
245 249 255
245 249 255
245 249 255
245 249 255
245 249 255
245 249 255
245 249 255
245 249 255
245 249 255
244 249 255
244 249 255
244 249 255
244 249 255
244 249 255
244 249 255
244 249 255
244 249 255
244 249 255
244 249 255
244 249 255
244 249 255
244 249 255
244 248 255
244 248 255
244 248 255
244 248 255
243 248 255
243 248 255
243 248 255
243 248 255
243 248 255
243 248 255
243 248 255
243 248 255
243 248 255
243 248 255
243 248 255
243 248 255
243 248 255
243 248 255
243 248 255
242 248 255
242 248 255
242 248 255
242 248 255
242 248 255
242 248 255
242 248 255
242 248 255
242 247 255
242 247 255
242 247 255
242 247 255
242 247 255
242 247 255
242 247 255
241 247 255
241 247 255
241 247 255
241 247 255
241 247 255
241 247 255
241 247 255
241 247 255
241 247 255
241 247 255
241 247 255
241 247 255
241 247 255
241 245 254
239 231 240
241 213 221
240 197 204
239 189 196
240 169 175
239 104 108
241 104 108
238 81 84
240 0 0
236 0 0
237 0 0
237 0 0
238 0 0
236 0 0
237 0 0
239 0 0
238 0 0
240 0 0
235 0 0
238 0 0
238 0 0
237 0 0
239 0 0
236 0 0
236 0 0
237 0 0
239 0 0
236 0 0
237 0 0
237 0 0
237 0 0
238 0 0
235 0 0
238 0 0
233 0 0
237 0 0
233 0 0
235 0 0
236 0 0
235 0 0
235 0 0
240 0 0
237 0 0
235 0 0
235 0 0
235 60 62
235 95 99
235 125 130
236 158 165
236 171 179
237 180 188
238 216 226
236 232 242
237 243 254
237 245 255
237 245 255
237 245 255
237 245 255
237 244 255
237 244 255
237 244 255
237 244 255
237 244 255
237 244 255
237 244 255
236 244 255
236 244 255
236 244 255
236 244 255
236 244 255
236 244 255
236 244 255
236 244 255
236 244 255
236 244 255
236 244 255
236 244 255
236 244 255
236 244 255
236 244 255
236 244 255
236 244 255
236 244 255
236 244 255
235 244 255
235 244 255
235 244 255
235 244 255
235 244 255
235 244 255
235 244 255
235 243 255
235 243 255
235 244 255
235 244 255
235 244 255
235 244 255
235 244 255
235 244 255
236 244 255
236 244 255
236 244 255
236 244 255
236 244 255
236 244 255
236 244 255
236 244 255
236 244 255
236 244 255
236 244 255
236 244 255
236 244 255
236 244 255
236 244 255
236 244 255
236 244 255
236 244 255
236 244 255
236 244 255
237 244 255
237 244 255
237 244 255
237 244 255
237 244 255
237 244 255
237 244 255
237 245 255
237 245 255
237 245 255
237 245 255
237 245 255
237 245 255
237 245 255
237 245 255
237 245 255
237 245 255
238 245 255
238 245 255
238 245 255
238 245 255
238 245 255
233 240 255
226 232 255
203 209 255
206 212 255
183 188 255
173 178 255
172 177 255
143 147 255
147 151 255
117 120 255
126 130 255
119 122 255
106 110 255
95 98 255
98 101 255
79 81 255
79 81 255
41 42 255
53 55 255
82 85 255
75 77 255
79 81 255
89 92 255
98 101 255
119 123 255
124 128 255
126 130 255
129 132 255
142 145 255
153 157 255
164 169 255
174 179 255
190 195 255
199 204 255
212 217 255
223 228 255
236 243 255
240 246 255
240 246 255
240 246 255
240 247 255
240 247 255
241 247 255
241 247 255
241 247 255
241 247 255
241 247 255
241 247 255
241 247 255
241 247 255
241 247 255
241 247 255
241 247 255
241 247 255
241 247 255
241 247 255
241 247 255
242 247 255
242 247 255
242 247 255
242 247 255
242 247 255
242 247 255
242 247 255
242 247 255
242 248 255
242 248 255
242 248 255
242 248 255
242 248 255
242 248 255
243 248 255
243 248 255
243 248 255
243 248 255
243 248 255
243 248 255
243 248 255
243 248 255
243 248 255
243 248 255
243 248 255
243 248 255
243 248 255
243 248 255
243 248 255
243 248 255
244 248 255
244 248 255
244 248 255
244 249 255
244 249 255
244 249 255
244 249 255
244 249 255
244 249 255
244 249 255
244 249 255
244 249 255
244 249 255
244 249 255
244 249 255
244 249 255
244 249 255
245 249 255
245 249 255
245 249 255
245 249 255
245 249 255
245 249 255
245 249 255
245 249 255
245 249 255
245 249 255
245 249 255
245 249 255
245 249 255
245 249 255
245 249 255
245 249 255
245 249 255
245 249 255
245 249 255
245 249 255
245 249 255
245 250 255
245 250 255
246 250 255
246 250 255
246 250 255
246 250 255
246 250 255
246 250 255
246 250 255
246 250 255
246 250 255
246 250 255
246 250 255
246 250 255
246 250 255
246 250 255
246 250 255
246 250 255
246 250 255
246 250 255
246 250 255
246 250 255
246 250 255
246 250 255
246 250 255
246 250 255
246 250 255
246 250 255
246 250 255
246 250 255
246 250 255
246 250 255
246 250 255
246 250 255
246 250 255
246 250 255
246 250 255
246 250 255
246 250 255
246 250 255
246 250 255
246 250 255
246 250 255
246 250 255
246 250 255
246 250 255
246 250 255
246 250 255
246 250 255
246 250 255
246 250 255
246 250 255
245 250 255
245 250 255
245 249 255
245 249 255
245 249 255
245 249 255
245 249 255
245 249 255
245 249 255
245 249 255
245 249 255
245 249 255
245 249 255
245 249 255
245 249 255
245 249 255
245 249 255
245 249 255
245 249 255
245 249 255
245 249 255
245 249 255
245 249 255
244 249 255
244 249 255
244 249 255
244 249 255
244 249 255
244 249 255
244 249 255
244 249 255
244 249 255
244 249 255
244 249 255
244 249 255
244 249 255
244 249 255
244 248 255
244 248 255
244 248 255
243 248 255
243 248 255
243 248 255
243 248 255
243 248 255
243 248 255
243 248 255
243 248 255
243 248 255
243 248 255
243 248 255
243 248 255
243 248 255
243 248 255
243 248 255
242 248 255
242 248 255
242 248 255
242 248 255
242 248 255
242 248 255
242 248 255
242 247 255
242 247 255
242 247 255
242 247 255
242 247 255
242 247 255
242 247 255
242 247 255
241 247 255
241 247 255
241 247 255
241 247 255
241 247 255
241 247 255
241 247 255
241 247 255
241 247 255
241 247 255
241 247 255
241 247 255
241 247 255
241 247 255
241 247 255
240 247 255
240 247 255
240 246 255
240 246 255
240 246 255
240 239 248
240 222 230
240 212 220
240 209 217
239 191 198
239 189 196
239 169 175
238 155 161
236 143 149
238 128 133
240 115 120
238 110 114
237 101 105
237 104 108
237 88 92
239 55 57
237 81 84
238 81 84
237 95 99
237 88 92
237 81 84
237 81 84
238 118 122
237 101 105
236 112 117
235 107 111
238 120 125
238 120 125
234 147 153
237 164 171
238 161 167
237 195 203
238 190 198
237 202 211
237 211 220
238 235 245
237 240 250
238 245 255
238 245 255
238 245 255
238 245 255
238 245 255
237 245 255
237 245 255
237 245 255
237 245 255
237 245 255
237 245 255
237 245 255
237 245 255
237 245 255
237 245 255
237 244 255
237 244 255
237 244 255
237 244 255
237 244 255
237 244 255
237 244 255
236 244 255
236 244 255
236 244 255
236 244 255
236 244 255
236 244 255
236 244 255
236 244 255
236 244 255
236 244 255
236 244 255
236 244 255
236 244 255
236 244 255
236 244 255
236 244 255
236 244 255
236 244 255
236 244 255
236 244 255
235 244 255
235 244 255
235 244 255
235 244 255
235 244 255
235 244 255
235 244 255
235 244 255
235 244 255
236 244 255
236 244 255
236 244 255
236 244 255
236 244 255
236 244 255
236 244 255
236 244 255
236 244 255
236 244 255
236 244 255
236 244 255
236 244 255
236 244 255
236 244 255
236 244 255
236 244 255
236 244 255
236 244 255
236 244 255
237 244 255
237 244 255
237 244 255
237 244 255
237 244 255
237 244 255
237 244 255
237 245 255
237 245 255
237 245 255
237 245 255
237 245 255
237 245 255
237 245 255
237 245 255
237 245 255
237 245 255
237 245 255
238 245 255
238 245 255
238 245 255
238 245 255
238 245 255
238 245 255
238 245 255
238 245 255
238 245 255
238 245 255
238 245 255
238 245 255
238 245 255
238 245 255
238 245 255
238 245 255
238 245 255
239 245 255
239 246 255
239 246 255
239 246 255
239 246 255
239 246 255
239 246 255
239 246 255
239 246 255
239 246 255
239 246 255
239 246 255
239 246 255
239 246 255
239 246 255
240 246 255
240 246 255
240 246 255
240 246 255
240 246 255
240 246 255
240 246 255
240 246 255
240 246 255
240 246 255
240 246 255
240 246 255
240 246 255
240 247 255
240 247 255
241 247 255
241 247 255
241 247 255
241 247 255
241 247 255
241 247 255
241 247 255
241 247 255
241 247 255
241 247 255
241 247 255
241 247 255
241 247 255
241 247 255
241 247 255
242 247 255
242 247 255
242 247 255
242 247 255
242 247 255
242 247 255
242 247 255
242 247 255
242 248 255
242 248 255
242 248 255
242 248 255
242 248 255
242 248 255
242 248 255
243 248 255
243 248 255
243 248 255
243 248 255
243 248 255
243 248 255
243 248 255
243 248 255
243 248 255
243 248 255
243 248 255
243 248 255
243 248 255
243 248 255
243 248 255
244 248 255
244 248 255
244 248 255
244 249 255
244 249 255
244 249 255
244 249 255
244 249 255
244 249 255
244 249 255
244 249 255
244 249 255
244 249 255
244 249 255
244 249 255
244 249 255
244 249 255
245 249 255
245 249 255
245 249 255
245 249 255
245 249 255
245 249 255
245 249 255
245 249 255
245 249 255
245 249 255
245 249 255
245 249 255
245 249 255
245 249 255
245 249 255
245 249 255
245 249 255
245 249 255
245 249 255
245 250 255
245 250 255
246 250 255
246 250 255
246 250 255
246 250 255
246 250 255
246 250 255
246 250 255
246 250 255
246 250 255
246 250 255
246 250 255
246 250 255
246 250 255
246 250 255
246 250 255
246 250 255
246 250 255
246 250 255
246 250 255
246 250 255
246 250 255
246 250 255
246 250 255
246 250 255
246 250 255
246 250 255
246 250 255
246 250 255
246 250 255
246 250 255
246 250 255
246 250 255
246 250 255
246 250 255
246 250 255
246 250 255
246 250 255
246 250 255
246 250 255
246 250 255
246 250 255
246 250 255
246 250 255
246 250 255
246 250 255
246 250 255
246 250 255
246 250 255
246 250 255
246 250 255
246 250 255
246 250 255
246 250 255
246 250 255
246 250 255
246 250 255
246 250 255
246 250 255
245 250 255
245 250 255
245 249 255
245 249 255
245 249 255
245 249 255
245 249 255
245 249 255
245 249 255
245 249 255
245 249 255
245 249 255
245 249 255
245 249 255
245 249 255
245 249 255
245 249 255
245 249 255
245 249 255
245 249 255
245 249 255
245 249 255
244 249 255
244 249 255
244 249 255
244 249 255
244 249 255
244 249 255
244 249 255
244 249 255
244 249 255
244 249 255
244 249 255
244 249 255
244 249 255
244 248 255
244 248 255
244 248 255
243 248 255
243 248 255
243 248 255
243 248 255
243 248 255
243 248 255
243 248 255
243 248 255
243 248 255
243 248 255
243 248 255
243 248 255
243 248 255
243 248 255
243 248 255
242 248 255
242 248 255
242 248 255
242 248 255
242 248 255
242 248 255
242 248 255
242 247 255
242 247 255
242 247 255
242 247 255
242 247 255
242 247 255
242 247 255
242 247 255
241 247 255
241 247 255
241 247 255
241 247 255
241 247 255
241 247 255
241 247 255
241 247 255
241 247 255
241 247 255
241 247 255
241 247 255
241 247 255
241 247 255
241 247 255
240 247 255
240 247 255
240 246 255
240 246 255
240 246 255
240 246 255
240 246 255
240 246 255
240 246 255
240 246 255
240 246 255
240 246 255
240 246 255
240 246 255
240 246 255
239 246 255
239 246 255
239 246 255
239 246 255
239 246 255
239 246 255
239 246 255
239 246 255
239 246 255
239 246 255
239 246 255
239 246 255
239 246 255
239 246 255
239 245 255
238 245 255
238 245 255
238 245 255
238 245 255
238 245 255
238 245 255
238 245 255
238 245 255
238 245 255
238 245 255
238 245 255
238 245 255
238 245 255
238 245 255
238 245 255
238 245 255
238 245 255
237 245 255
237 245 255
237 245 255
237 245 255
237 245 255
237 245 255
237 245 255
237 245 255
237 245 255
237 245 255
237 245 255
237 244 255
237 244 255
237 244 255
237 244 255
237 244 255
237 244 255
237 244 255
236 244 255
236 244 255
236 244 255
236 244 255
236 244 255
236 244 255
236 244 255
236 244 255
236 244 255
236 244 255
236 244 255
236 244 255
236 244 255
236 244 255
236 244 255
236 244 255
236 244 255
236 244 255
236 244 255
236 244 255
235 244 255
235 244 255
235 244 255
235 244 255
236 244 255
236 244 255
236 244 255
236 244 255
236 244 255
236 244 255
236 244 255
236 244 255
236 244 255
236 244 255
236 244 255
236 244 255
236 244 255
236 244 255
236 244 255
236 244 255
236 244 255
236 244 255
236 244 255
236 244 255
237 244 255
237 244 255
237 244 255
237 244 255
237 244 255
237 244 255
237 244 255
237 245 255
237 245 255
237 245 255
237 245 255
237 245 255
237 245 255
237 245 255
237 245 255
237 245 255
237 245 255
237 245 255
238 245 255
238 245 255
238 245 255
238 245 255
238 245 255
238 245 255
238 245 255
238 245 255
238 245 255
238 245 255
238 245 255
238 245 255
238 245 255
238 245 255
238 245 255
238 245 255
238 245 255
239 245 255
239 246 255
239 246 255
239 246 255
239 246 255
239 246 255
239 246 255
239 246 255
239 246 255
239 246 255
239 246 255
239 246 255
239 246 255
239 246 255
239 246 255
240 246 255
240 246 255
240 246 255
240 246 255
240 246 255
240 246 255
240 246 255
240 246 255
240 246 255
240 246 255
240 246 255
240 246 255
240 246 255
240 247 255
240 247 255
241 247 255
241 247 255
241 247 255
241 247 255
241 247 255
241 247 255
241 247 255
241 247 255
241 247 255
241 247 255
241 247 255
241 247 255
241 247 255
241 247 255
241 247 255
242 247 255
242 247 255
242 247 255
242 247 255
242 247 255
242 247 255
242 247 255
242 247 255
242 248 255
242 248 255
242 248 255
242 248 255
242 248 255
242 248 255
242 248 255
243 248 255
243 248 255
243 248 255
243 248 255
243 248 255
243 248 255
243 248 255
243 248 255
243 248 255
243 248 255
243 248 255
243 248 255
243 248 255
243 248 255
243 248 255
244 248 255
244 248 255
244 248 255
244 249 255
244 249 255
244 249 255
244 249 255
244 249 255
244 249 255
244 249 255
244 249 255
244 249 255
244 249 255
244 249 255
244 249 255
244 249 255
245 249 255
245 249 255
245 249 255
245 249 255
245 249 255
245 249 255
245 249 255
245 249 255
245 249 255
245 249 255
245 249 255
245 249 255
245 249 255
245 249 255
245 249 255
245 249 255
245 249 255
245 249 255
245 249 255
245 250 255
245 250 255
246 250 255
246 250 255
246 250 255
246 250 255
246 250 255
246 250 255
246 250 255
246 250 255
246 250 255
246 250 255
246 250 255
246 250 255
246 250 255
246 250 255
246 250 255
246 250 255
246 250 255
246 250 255
246 250 255
246 250 255
246 250 255
246 250 255
246 250 255
246 250 255
246 250 255
246 250 255
246 250 255
246 250 255
246 250 255
246 250 255
246 250 255
246 250 255
246 250 255
246 250 255
246 250 255
246 250 255
246 250 255
246 250 255
246 250 255
246 250 255
246 250 255
246 250 255
246 250 255
246 250 255
246 250 255
246 250 255
246 250 255
246 250 255
246 250 255
246 250 255
246 250 255
246 250 255
246 250 255
246 250 255
246 250 255
246 250 255
246 250 255
246 250 255
246 250 255
246 250 255
246 250 255
246 250 255
246 250 255
246 250 255
245 250 255
245 250 255
245 249 255
245 249 255
245 249 255
245 249 255
245 249 255
245 249 255
245 249 255
245 249 255
245 249 255
245 249 255
245 249 255
245 249 255
245 249 255
245 249 255
245 249 255
245 249 255
245 249 255
245 249 255
245 249 255
244 249 255
244 249 255
244 249 255
244 249 255
244 249 255
244 249 255
244 249 255
244 249 255
244 249 255
244 249 255
244 249 255
244 249 255
244 249 255
244 248 255
244 248 255
244 248 255
243 248 255
243 248 255
243 248 255
243 248 255
243 248 255
243 248 255
243 248 255
243 248 255
243 248 255
243 248 255
243 248 255
243 248 255
243 248 255
243 248 255
243 248 255
242 248 255
242 248 255
242 248 255
242 248 255
242 248 255
242 248 255
242 248 255
242 247 255
242 247 255
242 247 255
242 247 255
242 247 255
242 247 255
242 247 255
242 247 255
241 247 255
241 247 255
241 247 255
241 247 255
241 247 255
241 247 255
241 247 255
241 247 255
241 247 255
241 247 255
241 247 255
241 247 255
241 247 255
241 247 255
241 247 255
240 247 255
240 247 255
240 246 255
240 246 255
240 246 255
240 246 255
240 246 255
240 246 255
240 246 255
240 246 255
240 246 255
240 246 255
240 246 255
240 246 255
240 246 255
239 246 255
239 246 255
239 246 255
239 246 255
239 246 255
239 246 255
239 246 255
239 246 255
239 246 255
239 246 255
239 246 255
239 246 255
239 246 255
239 246 255
239 245 255
238 245 255
238 245 255
238 245 255
238 245 255
238 245 255
238 245 255
238 245 255
238 245 255
238 245 255
238 245 255
238 245 255
238 245 255
238 245 255
238 245 255
238 245 255
238 245 255
238 245 255
237 245 255
237 245 255
237 245 255
237 245 255
237 245 255
237 245 255
237 245 255
237 245 255
237 245 255
237 245 255
237 245 255
237 244 255
237 244 255
237 244 255
237 244 255
237 244 255
237 244 255
237 244 255
236 244 255
236 244 255
236 244 255
236 244 255
236 244 255
236 244 255
236 244 255
236 244 255
236 244 255
236 244 255
236 244 255
236 244 255
236 244 255
236 244 255
236 244 255
236 244 255
236 244 255
236 244 255
236 244 255
236 244 255
235 244 255
236 244 255
236 244 255
236 244 255
236 244 255
236 244 255
236 244 255
236 244 255
236 244 255
236 244 255
236 244 255
236 244 255
236 244 255
236 244 255
236 244 255
236 244 255
236 244 255
236 244 255
236 244 255
237 244 255
237 244 255
237 244 255
237 244 255
237 244 255
237 244 255
237 244 255
237 244 255
237 245 255
237 245 255
237 245 255
237 245 255
237 245 255
237 245 255
237 245 255
237 245 255
237 245 255
237 245 255
237 245 255
238 245 255
238 245 255
238 245 255
238 245 255
238 245 255
238 245 255
238 245 255
238 245 255
238 245 255
238 245 255
238 245 255
238 245 255
238 245 255
238 245 255
238 245 255
238 245 255
238 245 255
239 245 255
239 246 255
239 246 255
239 246 255
239 246 255
239 246 255
239 246 255
239 246 255
239 246 255
239 246 255
239 246 255
239 246 255
239 246 255
239 246 255
239 246 255
240 246 255
240 246 255
240 246 255
240 246 255
240 246 255
240 246 255
240 246 255
240 246 255
240 246 255
240 246 255
240 246 255
240 246 255
240 246 255
240 247 255
240 247 255
241 247 255
241 247 255
241 247 255
241 247 255
241 247 255
241 247 255
241 247 255
241 247 255
241 247 255
241 247 255
241 247 255
241 247 255
241 247 255
241 247 255
241 247 255
242 247 255
242 247 255
242 247 255
242 247 255
242 247 255
242 247 255
242 247 255
242 247 255
242 248 255
242 248 255
242 248 255
242 248 255
242 248 255
242 248 255
242 248 255
243 248 255
243 248 255
243 248 255
243 248 255
243 248 255
243 248 255
243 248 255
243 248 255
243 248 255
243 248 255
243 248 255
243 248 255
243 248 255
243 248 255
244 248 255
244 248 255
244 248 255
244 248 255
244 249 255
244 249 255
244 249 255
244 249 255
244 249 255
244 249 255
244 249 255
244 249 255
244 249 255
244 249 255
244 249 255
244 249 255
244 249 255
245 249 255
245 249 255
245 249 255
245 249 255
245 249 255
245 249 255
245 249 255
245 249 255
245 249 255
245 249 255
245 249 255
245 249 255
245 249 255
245 249 255
245 249 255
245 249 255
245 249 255
245 249 255
245 250 255
245 250 255
246 250 255
246 250 255
246 250 255
246 250 255
246 250 255
246 250 255
246 250 255
246 250 255
246 250 255
246 250 255
246 250 255
246 250 255
246 250 255
246 250 255
246 250 255
246 250 255
246 250 255
246 250 255
246 250 255
246 250 255
246 250 255
246 250 255
246 250 255
246 250 255
246 250 255
246 250 255
246 250 255
246 250 255
246 250 255
246 250 255
246 250 255
246 250 255
246 250 255
246 250 255
246 250 255
246 250 255
246 250 255
246 250 255
246 250 255
246 250 255
246 250 255
246 250 255
246 250 255
246 250 255
246 250 255
246 250 255
246 250 255
246 250 255
246 250 255
246 250 255
246 250 255
246 250 255
246 250 255
246 250 255
246 250 255
246 250 255
246 250 255
246 250 255
246 250 255
246 250 255
246 250 255
246 250 255
246 250 255
246 250 255
246 250 255
246 250 255
246 250 255
246 250 255
246 250 255
246 250 255
245 250 255
245 250 255
245 249 255
245 249 255
245 249 255
245 249 255
245 249 255
245 249 255
245 249 255
245 249 255
245 249 255
245 249 255
245 249 255
245 249 255
245 249 255
245 249 255
245 249 255
245 249 255
245 249 255
245 249 255
244 249 255
244 249 255
244 249 255
244 249 255
244 249 255
244 249 255
244 249 255
244 249 255
244 249 255
244 249 255
244 249 255
244 249 255
244 249 255
244 248 255
244 248 255
244 248 255
243 248 255
243 248 255
243 248 255
243 248 255
243 248 255
243 248 255
243 248 255
243 248 255
243 248 255
243 248 255
243 248 255
243 248 255
243 248 255
243 248 255
243 248 255
242 248 255
242 248 255
242 248 255
242 248 255
242 248 255
242 248 255
242 248 255
242 247 255
242 247 255
242 247 255
242 247 255
242 247 255
242 247 255
242 247 255
242 247 255
241 247 255
241 247 255
241 247 255
241 247 255
241 247 255
241 247 255
241 247 255
241 247 255
241 247 255
241 247 255
241 247 255
241 247 255
241 247 255
241 247 255
241 247 255
240 247 255
240 247 255
240 246 255
240 246 255
240 246 255
240 246 255
240 246 255
240 246 255
240 246 255
240 246 255
240 246 255
240 246 255
240 246 255
240 246 255
240 246 255
239 246 255
239 246 255
239 246 255
239 246 255
239 246 255
239 246 255
239 246 255
239 246 255
239 246 255
239 246 255
239 246 255
239 246 255
239 246 255
239 246 255
239 245 255
238 245 255
238 245 255
238 245 255
238 245 255
238 245 255
238 245 255
238 245 255
238 245 255
238 245 255
238 245 255
238 245 255
238 245 255
238 245 255
238 245 255
238 245 255
238 245 255
238 245 255
237 245 255
237 245 255
237 245 255
237 245 255
237 245 255
237 245 255
237 245 255
237 245 255
237 245 255
237 245 255
237 245 255
237 244 255
237 244 255
237 244 255
237 244 255
237 244 255
237 244 255
237 244 255
237 244 255
236 244 255
236 244 255
236 244 255
236 244 255
236 244 255
236 244 255
236 244 255
236 244 255
236 244 255
236 244 255
236 244 255
236 244 255
236 244 255
236 244 255
236 244 255
236 244 255
236 244 255
236 244 255
236 244 255
236 244 255
236 244 255
236 244 255
236 244 255
236 244 255
236 244 255
236 244 255
236 244 255
236 244 255
236 244 255
236 244 255
236 244 255
236 244 255
236 244 255
236 244 255
237 244 255
237 244 255
237 244 255
237 244 255
237 244 255
237 244 255
237 244 255
237 245 255
237 245 255
237 245 255
237 245 255
237 245 255
237 245 255
237 245 255
237 245 255
237 245 255
237 245 255
237 245 255
238 245 255
238 245 255
238 245 255
238 245 255
238 245 255
238 245 255
238 245 255
238 245 255
238 245 255
238 245 255
238 245 255
238 245 255
238 245 255
238 245 255
238 245 255
238 245 255
238 245 255
239 245 255
239 245 255
239 246 255
239 246 255
239 246 255
239 246 255
239 246 255
239 246 255
239 246 255
239 246 255
239 246 255
239 246 255
239 246 255
239 246 255
239 246 255
239 246 255
240 246 255
240 246 255
240 246 255
240 246 255
240 246 255
240 246 255
240 246 255
240 246 255
240 246 255
240 246 255
240 246 255
240 246 255
240 246 255
240 247 255
240 247 255
241 247 255
241 247 255
241 247 255
241 247 255
241 247 255
241 247 255
241 247 255
241 247 255
241 247 255
241 247 255
241 247 255
241 247 255
241 247 255
241 247 255
241 247 255
242 247 255
242 247 255
242 247 255
242 247 255
242 247 255
242 247 255
242 247 255
242 247 255
242 248 255
242 248 255
242 248 255
242 248 255
242 248 255
242 248 255
242 248 255
243 248 255
243 248 255
243 248 255
243 248 255
243 248 255
243 248 255
243 248 255
243 248 255
243 248 255
243 248 255
243 248 255
243 248 255
243 248 255
243 248 255
243 248 255
244 248 255
244 248 255
244 248 255
244 249 255
244 249 255
244 249 255
244 249 255
244 249 255
244 249 255
244 249 255
244 249 255
244 249 255
244 249 255
244 249 255
244 249 255
244 249 255
245 249 255
245 249 255
245 249 255
245 249 255
245 249 255
245 249 255
245 249 255
245 249 255
245 249 255
245 249 255
245 249 255
245 249 255
245 249 255
245 249 255
245 249 255
245 249 255
245 249 255
245 250 255
245 250 255
246 250 255
246 250 255
246 250 255
246 250 255
246 250 255
246 250 255
246 250 255
246 250 255
246 250 255
246 250 255
246 250 255
246 250 255
246 250 255
246 250 255
246 250 255
246 250 255
246 250 255
246 250 255
246 250 255
246 250 255
246 250 255
246 250 255
246 250 255
246 250 255
246 250 255
246 250 255
246 250 255
246 250 255
246 250 255
246 250 255
246 250 255
246 250 255
246 250 255
246 250 255
246 250 255
246 250 255
246 250 255
246 250 255
246 250 255
246 250 255
246 250 255
246 250 255
246 250 255
246 250 255
246 250 255
246 250 255
246 250 255
246 250 255
246 250 255
246 250 255
246 250 255
246 250 255
246 250 255
246 250 255
246 250 255
246 250 255
246 250 255
246 250 255
246 250 255
246 250 255
246 250 255
246 250 255
246 250 255
246 250 255
246 250 255
246 250 255
246 250 255
246 250 255
246 250 255
246 250 255
246 250 255
246 250 255
246 250 255
246 250 255
246 250 255
246 250 255
245 250 255
245 250 255
245 249 255
245 249 255
245 249 255
245 249 255
245 249 255
245 249 255
245 249 255
245 249 255
245 249 255
245 249 255
245 249 255
245 249 255
245 249 255
245 249 255
245 249 255
245 249 255
245 249 255
244 249 255
244 249 255
244 249 255
244 249 255
244 249 255
244 249 255
244 249 255
244 249 255
244 249 255
244 249 255
244 249 255
244 249 255
244 249 255
244 248 255
244 248 255
244 248 255
243 248 255
243 248 255
243 248 255
243 248 255
243 248 255
243 248 255
243 248 255
243 248 255
243 248 255
243 248 255
243 248 255
243 248 255
243 248 255
243 248 255
243 248 255
242 248 255
242 248 255
242 248 255
242 248 255
242 248 255
242 248 255
242 248 255
242 247 255
242 247 255
242 247 255
242 247 255
242 247 255
242 247 255
242 247 255
242 247 255
241 247 255
241 247 255
241 247 255
241 247 255
241 247 255
241 247 255
241 247 255
241 247 255
241 247 255
241 247 255
241 247 255
241 247 255
241 247 255
241 247 255
241 247 255
240 247 255
240 247 255
240 246 255
240 246 255
240 246 255
240 246 255
240 246 255
240 246 255
240 246 255
240 246 255
240 246 255
240 246 255
240 246 255
240 246 255
240 246 255
239 246 255
239 246 255
239 246 255
239 246 255
239 246 255
239 246 255
239 246 255
239 246 255
239 246 255
239 246 255
239 246 255
239 246 255
239 246 255
239 246 255
239 245 255
238 245 255
238 245 255
238 245 255
238 245 255
238 245 255
238 245 255
238 245 255
238 245 255
238 245 255
238 245 255
238 245 255
238 245 255
238 245 255
238 245 255
238 245 255
238 245 255
238 245 255
237 245 255
237 245 255
237 245 255
237 245 255
237 245 255
237 245 255
237 245 255
237 245 255
237 245 255
237 245 255
237 245 255
237 245 255
237 244 255
237 244 255
237 244 255
237 244 255
237 244 255
237 244 255
237 244 255
236 244 255
236 244 255
236 244 255
236 244 255
236 244 255
236 244 255
236 244 255
236 244 255
236 244 255
236 244 255
236 244 255
236 244 255
236 244 255
236 244 255
236 244 255
236 244 255
236 244 255
236 244 255
236 244 255
236 244 255
236 244 255
236 244 255
236 244 255
236 244 255
236 244 255
236 244 255
236 244 255
236 244 255
236 244 255
236 244 255
237 244 255
237 244 255
237 244 255
237 244 255
237 244 255
237 244 255
237 244 255
237 245 255
237 245 255
237 245 255
237 245 255
237 245 255
237 245 255
237 245 255
237 245 255
237 245 255
237 245 255
237 245 255
238 245 255
238 245 255
238 245 255
238 245 255
238 245 255
238 245 255
238 245 255
238 245 255
238 245 255
238 245 255
238 245 255
238 245 255
238 245 255
238 245 255
238 245 255
238 245 255
238 245 255
239 245 255
239 245 255
239 246 255
239 246 255
239 246 255
239 246 255
239 246 255
239 246 255
239 246 255
239 246 255
239 246 255
239 246 255
239 246 255
239 246 255
239 246 255
239 246 255
240 246 255
240 246 255
240 246 255
240 246 255
240 246 255
240 246 255
240 246 255
240 246 255
240 246 255
240 246 255
240 246 255
240 246 255
240 246 255
240 247 255
240 247 255
241 247 255
241 247 255
241 247 255
241 247 255
241 247 255
241 247 255
241 247 255
241 247 255
241 247 255
241 247 255
241 247 255
241 247 255
241 247 255
241 247 255
241 247 255
242 247 255
242 247 255
242 247 255
242 247 255
242 247 255
242 247 255
242 247 255
242 247 255
242 248 255
242 248 255
242 248 255
242 248 255
242 248 255
242 248 255
242 248 255
243 248 255
243 248 255
243 248 255
243 248 255
243 248 255
243 248 255
243 248 255
243 248 255
243 248 255
243 248 255
243 248 255
243 248 255
243 248 255
243 248 255
243 248 255
244 248 255
244 248 255
244 248 255
244 249 255
244 249 255
244 249 255
244 249 255
244 249 255
244 249 255
244 249 255
244 249 255
244 249 255
244 249 255
244 249 255
244 249 255
244 249 255
245 249 255
245 249 255
245 249 255
245 249 255
245 249 255
245 249 255
245 249 255
245 249 255
245 249 255
245 249 255
245 249 255
245 249 255
245 249 255
245 249 255
245 249 255
245 249 255
245 250 255
245 250 255
246 250 255
246 250 255
246 250 255
246 250 255
246 250 255
246 250 255
246 250 255
246 250 255
246 250 255
246 250 255
246 250 255
246 250 255
246 250 255
246 250 255
246 250 255
246 250 255
246 250 255
246 250 255
246 250 255
246 250 255
246 250 255
246 250 255
246 250 255
246 250 255
246 250 255
246 250 255
246 250 255
246 250 255
246 250 255
246 250 255
246 250 255
246 250 255
246 250 255
246 250 255
246 250 255
246 250 255
246 250 255
246 250 255
246 250 255
247 250 255
246 250 255
247 250 255
247 250 255
246 250 255
246 250 255
246 250 255
246 250 255
246 250 255
246 250 255
246 250 255
246 250 255
246 250 255
246 250 255
246 250 255
246 250 255
246 250 255
246 250 255
246 250 255
246 250 255
246 250 255
246 250 255
246 250 255
246 250 255
246 250 255
246 250 255
246 250 255
246 250 255
246 250 255
246 250 255
246 250 255
246 250 255
246 250 255
246 250 255
246 250 255
246 250 255
246 250 255
246 250 255
246 250 255
246 250 255
246 250 255
246 250 255
246 250 255
245 250 255
245 249 255
245 249 255
245 249 255
245 249 255
245 249 255
245 249 255
245 249 255
245 249 255
245 249 255
245 249 255
245 249 255
245 249 255
245 249 255
245 249 255
245 249 255
245 249 255
245 249 255
244 249 255
244 249 255
244 249 255
244 249 255
244 249 255
244 249 255
244 249 255
244 249 255
244 249 255
244 249 255
244 249 255
244 249 255
244 249 255
244 248 255
244 248 255
244 248 255
243 248 255
243 248 255
243 248 255
243 248 255
243 248 255
243 248 255
243 248 255
243 248 255
243 248 255
243 248 255
243 248 255
243 248 255
243 248 255
243 248 255
243 248 255
242 248 255
242 248 255
242 248 255
242 248 255
242 248 255
242 248 255
242 248 255
242 247 255
242 247 255
242 247 255
242 247 255
242 247 255
242 247 255
242 247 255
242 247 255
241 247 255
241 247 255
241 247 255
241 247 255
241 247 255
241 247 255
241 247 255
241 247 255
241 247 255
241 247 255
241 247 255
241 247 255
241 247 255
241 247 255
241 247 255
240 247 255
240 247 255
240 246 255
240 246 255
240 246 255
240 246 255
240 246 255
240 246 255
240 246 255
240 246 255
240 246 255
240 246 255
240 246 255
240 246 255
240 246 255
239 246 255
239 246 255
239 246 255
239 246 255
239 246 255
239 246 255
239 246 255
239 246 255
239 246 255
239 246 255
239 246 255
239 246 255
239 246 255
239 246 255
239 245 255
239 245 255
238 245 255
238 245 255
238 245 255
238 245 255
238 245 255
238 245 255
238 245 255
238 245 255
238 245 255
238 245 255
238 245 255
238 245 255
238 245 255
238 245 255
238 245 255
238 245 255
238 245 255
237 245 255
237 245 255
237 245 255
237 245 255
237 245 255
237 245 255
237 245 255
237 245 255
237 245 255
237 245 255
237 245 255
237 244 255
237 244 255
237 244 255
237 244 255
237 244 255
237 244 255
237 244 255
236 244 255
236 244 255
236 244 255
236 244 255
236 244 255
236 244 255
236 244 255
236 244 255
236 244 255
236 244 255
236 244 255
236 244 255
236 244 255
236 244 255
236 244 255
236 244 255
236 244 255
236 244 255
236 244 255
236 244 255
236 244 255
236 244 255
236 244 255
236 244 255
236 244 255
237 244 255
237 244 255
237 244 255
237 244 255
237 244 255
237 244 255
237 244 255
237 244 255
237 245 255
237 245 255
237 245 255
237 245 255
237 245 255
237 245 255
237 245 255
237 245 255
237 245 255
237 245 255
237 245 255
238 245 255
238 245 255
238 245 255
238 245 255
238 245 255
238 245 255
238 245 255
238 245 255
238 245 255
238 245 255
238 245 255
238 245 255
238 245 255
238 245 255
238 245 255
238 245 255
238 245 255
239 245 255
239 245 255
239 246 255
239 246 255
239 246 255
239 246 255
239 246 255
239 246 255
239 246 255
239 246 255
239 246 255
239 246 255
239 246 255
239 246 255
239 246 255
239 246 255
240 246 255
240 246 255
240 246 255
240 246 255
240 246 255
240 246 255
240 246 255
240 246 255
240 246 255
240 246 255
240 246 255
240 246 255
240 246 255
240 247 255
240 247 255
240 247 255
241 247 255
241 247 255
241 247 255
241 247 255
241 247 255
241 247 255
241 247 255
241 247 255
241 247 255
241 247 255
241 247 255
241 247 255
241 247 255
241 247 255
242 247 255
242 247 255
242 247 255
242 247 255
242 247 255
242 247 255
242 247 255
242 247 255
242 248 255
242 248 255
242 248 255
242 248 255
242 248 255
242 248 255
242 248 255
243 248 255
243 248 255
243 248 255
243 248 255
243 248 255
243 248 255
243 248 255
243 248 255
243 248 255
243 248 255
243 248 255
243 248 255
243 248 255
243 248 255
243 248 255
244 248 255
244 248 255
244 248 255
244 249 255
244 249 255
244 249 255
244 249 255
244 249 255
244 249 255
244 249 255
244 249 255
244 249 255
244 249 255
244 249 255
244 249 255
245 249 255
245 249 255
245 249 255
245 249 255
245 249 255
245 249 255
245 249 255
245 249 255
245 249 255
245 249 255
245 249 255
245 249 255
245 249 255
245 249 255
245 249 255
245 249 255
245 249 255
245 250 255
245 250 255
246 250 255
246 250 255
246 250 255
246 250 255
246 250 255
246 250 255
246 250 255
246 250 255
246 250 255
246 250 255
246 250 255
246 250 255
246 250 255
246 250 255
246 250 255
246 250 255
246 250 255
246 250 255
246 250 255
246 250 255
246 250 255
246 250 255
246 250 255
246 250 255
246 250 255
246 250 255
246 250 255
246 250 255
246 250 255
247 250 255
247 250 255
247 250 255
247 250 255
247 250 255
247 250 255
247 250 255
247 250 255
247 250 255
247 250 255
247 250 255
247 250 255
247 250 255
247 250 255
247 250 255
247 250 255
247 250 255
247 250 255
247 250 255
247 250 255
247 250 255
247 250 255
247 250 255
247 250 255
247 250 255
247 250 255
247 250 255
247 250 255
246 250 255
246 250 255
246 250 255
246 250 255
246 250 255
246 250 255
246 250 255
246 250 255
246 250 255
246 250 255
246 250 255
246 250 255
246 250 255
246 250 255
246 250 255
246 250 255
246 250 255
246 250 255
246 250 255
246 250 255
246 250 255
246 250 255
246 250 255
246 250 255
246 250 255
246 250 255
246 250 255
246 250 255
246 250 255
245 250 255
245 250 255
245 249 255
245 249 255
245 249 255
245 249 255
245 249 255
245 249 255
245 249 255
245 249 255
245 249 255
245 249 255
245 249 255
245 249 255
245 249 255
245 249 255
245 249 255
245 249 255
245 249 255
244 249 255
244 249 255
244 249 255
244 249 255
244 249 255
244 249 255
244 249 255
244 249 255
244 249 255
244 249 255
244 249 255
244 249 255
244 248 255
244 248 255
244 248 255
243 248 255
243 248 255
243 248 255
243 248 255
243 248 255
243 248 255
243 248 255
243 248 255
243 248 255
243 248 255
243 248 255
243 248 255
243 248 255
243 248 255
243 248 255
242 248 255
242 248 255
242 248 255
242 248 255
242 248 255
242 248 255
242 248 255
242 247 255
242 247 255
242 247 255
242 247 255
242 247 255
242 247 255
242 247 255
242 247 255
241 247 255
241 247 255
241 247 255
241 247 255
241 247 255
241 247 255
241 247 255
241 247 255
241 247 255
241 247 255
241 247 255
241 247 255
241 247 255
241 247 255
241 247 255
240 247 255
240 247 255
240 246 255
240 246 255
240 246 255
240 246 255
240 246 255
240 246 255
240 246 255
240 246 255
240 246 255
240 246 255
240 246 255
240 246 255
240 246 255
239 246 255
239 246 255
239 246 255
239 246 255
239 246 255
239 246 255
239 246 255
239 246 255
239 246 255
239 246 255
239 246 255
239 246 255
239 246 255
239 246 255
239 245 255
239 245 255
238 245 255
238 245 255
238 245 255
238 245 255
238 245 255
238 245 255
238 245 255
238 245 255
238 245 255
238 245 255
238 245 255
238 245 255
238 245 255
238 245 255
238 245 255
238 245 255
238 245 255
237 245 255
237 245 255
237 245 255
237 245 255
237 245 255
237 245 255
237 245 255
237 245 255
237 245 255
237 245 255
237 245 255
237 244 255
237 244 255
237 244 255
237 244 255
237 244 255
237 244 255
237 244 255
237 244 255
236 244 255
236 244 255
236 244 255
236 244 255
236 244 255
236 244 255
236 244 255
236 244 255
236 244 255
236 244 255
236 244 255
236 244 255
236 244 255
236 244 255
236 244 255
236 244 255
236 244 255
236 244 255
236 244 255
236 244 255
237 244 255
237 244 255
237 244 255
237 244 255
237 244 255
237 244 255
237 244 255
237 245 255
237 245 255
237 245 255
237 245 255
237 245 255
237 245 255
237 245 255
237 245 255
237 245 255
237 245 255
237 245 255
237 245 255
238 245 255
238 245 255
238 245 255
238 245 255
238 245 255
238 245 255
238 245 255
238 245 255
238 245 255
238 245 255
238 245 255
238 245 255
238 245 255
238 245 255
238 245 255
238 245 255
238 245 255
239 245 255
239 245 255
239 246 255
239 246 255
239 246 255
239 246 255
239 246 255
239 246 255
239 246 255
239 246 255
239 246 255
239 246 255
239 246 255
239 246 255
239 246 255
239 246 255
240 246 255
240 246 255
240 246 255
240 246 255
240 246 255
240 246 255
240 246 255
240 246 255
240 246 255
240 246 255
240 246 255
240 246 255
240 246 255
240 247 255
240 247 255
240 247 255
241 247 255
241 247 255
241 247 255
241 247 255
241 247 255
241 247 255
241 247 255
241 247 255
241 247 255
241 247 255
241 247 255
241 247 255
241 247 255
241 247 255
242 247 255
242 247 255
242 247 255
242 247 255
242 247 255
242 247 255
242 247 255
242 247 255
242 248 255
242 248 255
242 248 255
242 248 255
242 248 255
242 248 255
242 248 255
243 248 255
243 248 255
243 248 255
243 248 255
243 248 255
243 248 255
243 248 255
243 248 255
243 248 255
243 248 255
243 248 255
243 248 255
243 248 255
243 248 255
243 248 255
244 248 255
244 248 255
244 248 255
244 249 255
244 249 255
244 249 255
244 249 255
244 249 255
244 249 255
244 249 255
244 249 255
244 249 255
244 249 255
244 249 255
244 249 255
245 249 255
245 249 255
245 249 255
245 249 255
245 249 255
245 249 255
245 249 255
245 249 255
245 249 255
245 249 255
245 249 255
245 249 255
245 249 255
245 249 255
245 249 255
245 249 255
245 249 255
245 250 255
246 250 255
246 250 255
246 250 255
246 250 255
246 250 255
246 250 255
246 250 255
246 250 255
246 250 255
246 250 255
246 250 255
246 250 255
246 250 255
246 250 255
246 250 255
246 250 255
246 250 255
246 250 255
246 250 255
246 250 255
246 250 255
246 250 255
246 250 255
246 250 255
246 250 255
246 250 255
246 250 255
247 250 255
247 250 255
247 250 255
247 250 255
247 250 255
247 250 255
247 250 255
247 250 255
247 250 255
247 250 255
247 250 255
247 250 255
247 250 255
247 250 255
247 250 255
247 250 255
247 250 255
247 250 255
247 250 255
247 250 255
247 250 255
247 250 255
247 250 255
247 250 255
247 250 255
247 250 255
247 250 255
247 250 255
247 250 255
247 250 255
247 250 255
247 250 255
247 250 255
247 250 255
247 250 255
247 250 255
247 250 255
247 250 255
246 250 255
246 250 255
246 250 255
246 250 255
246 250 255
246 250 255
246 250 255
246 250 255
246 250 255
246 250 255
246 250 255
246 250 255
246 250 255
246 250 255
246 250 255
246 250 255
246 250 255
246 250 255
246 250 255
246 250 255
246 250 255
246 250 255
246 250 255
246 250 255
246 250 255
246 250 255
246 250 255
245 250 255
245 249 255
245 249 255
245 249 255
245 249 255
245 249 255
245 249 255
245 249 255
245 249 255
245 249 255
245 249 255
245 249 255
245 249 255
245 249 255
245 249 255
245 249 255
245 249 255
245 249 255
244 249 255
244 249 255
244 249 255
244 249 255
244 249 255
244 249 255
244 249 255
244 249 255
244 249 255
244 249 255
244 249 255
244 249 255
244 248 255
244 248 255
244 248 255
243 248 255
243 248 255
243 248 255
243 248 255
243 248 255
243 248 255
243 248 255
243 248 255
243 248 255
243 248 255
243 248 255
243 248 255
243 248 255
243 248 255
243 248 255
242 248 255
242 248 255
242 248 255
242 248 255
242 248 255
242 248 255
242 248 255
242 247 255
242 247 255
242 247 255
242 247 255
242 247 255
242 247 255
242 247 255
242 247 255
241 247 255
241 247 255
241 247 255
241 247 255
241 247 255
241 247 255
241 247 255
241 247 255
241 247 255
241 247 255
241 247 255
241 247 255
241 247 255
241 247 255
240 247 255
240 247 255
240 247 255
240 246 255
240 246 255
240 246 255
240 246 255
240 246 255
240 246 255
240 246 255
240 246 255
240 246 255
240 246 255
240 246 255
240 246 255
240 246 255
239 246 255
239 246 255
239 246 255
239 246 255
239 246 255
239 246 255
239 246 255
239 246 255
239 246 255
239 246 255
239 246 255
239 246 255
239 246 255
239 246 255
239 245 255
239 245 255
238 245 255
238 245 255
238 245 255
238 245 255
238 245 255
238 245 255
238 245 255
238 245 255
238 245 255
238 245 255
238 245 255
238 245 255
238 245 255
238 245 255
238 245 255
238 245 255
238 245 255
237 245 255
237 245 255
237 245 255
237 245 255
237 245 255
237 245 255
237 245 255
237 245 255
237 245 255
237 245 255
237 245 255
237 245 255
237 244 255
237 244 255
237 244 255
237 244 255
237 244 255
237 244 255
237 244 255
236 244 255
236 244 255
236 244 255
236 244 255
236 244 255
236 244 255
236 244 255
236 244 255
236 244 255
236 244 255
236 244 255
236 244 255
236 244 255
236 244 255
236 244 255
236 244 255
237 244 255
237 244 255
237 244 255
237 244 255
237 244 255
237 244 255
237 244 255
237 245 255
237 245 255
237 245 255
237 245 255
237 245 255
237 245 255
237 245 255
237 245 255
237 245 255
237 245 255
237 245 255
238 245 255
238 245 255
238 245 255
238 245 255
238 245 255
238 245 255
238 245 255
238 245 255
238 245 255
238 245 255
238 245 255
238 245 255
238 245 255
238 245 255
238 245 255
238 245 255
238 245 255
238 245 255
239 245 255
239 245 255
239 246 255
239 246 255
239 246 255
239 246 255
239 246 255
239 246 255
239 246 255
239 246 255
239 246 255
239 246 255
239 246 255
239 246 255
239 246 255
239 246 255
240 246 255
240 246 255
240 246 255
240 246 255
240 246 255
240 246 255
240 246 255
240 246 255
240 246 255
240 246 255
240 246 255
240 246 255
240 246 255
240 247 255
240 247 255
240 247 255
241 247 255
241 247 255
241 247 255
241 247 255
241 247 255
241 247 255
241 247 255
241 247 255
241 247 255
241 247 255
241 247 255
241 247 255
241 247 255
241 247 255
242 247 255
242 247 255
242 247 255
242 247 255
242 247 255
242 247 255
242 247 255
242 247 255
242 248 255
242 248 255
242 248 255
242 248 255
242 248 255
242 248 255
242 248 255
243 248 255
243 248 255
243 248 255
243 248 255
243 248 255
243 248 255
243 248 255
243 248 255
243 248 255
243 248 255
243 248 255
243 248 255
243 248 255
243 248 255
243 248 255
244 248 255
244 248 255
244 248 255
244 249 255
244 249 255
244 249 255
244 249 255
244 249 255
244 249 255
244 249 255
244 249 255
244 249 255
244 249 255
244 249 255
244 249 255
245 249 255
245 249 255
245 249 255
245 249 255
245 249 255
245 249 255
245 249 255
245 249 255
245 249 255
245 249 255
245 249 255
245 249 255
245 249 255
245 249 255
245 249 255
245 249 255
245 250 255
245 250 255
246 250 255
246 250 255
246 250 255
246 250 255
246 250 255
246 250 255
246 250 255
246 250 255
246 250 255
246 250 255
246 250 255
246 250 255
246 250 255
246 250 255
246 250 255
246 250 255
246 250 255
246 250 255
246 250 255
246 250 255
246 250 255
246 250 255
246 250 255
246 250 255
246 250 255
247 250 255
247 250 255
247 250 255
247 250 255
247 250 255
247 250 255
247 250 255
247 250 255
247 250 255
247 250 255
247 250 255
247 250 255
247 250 255
247 250 255
247 250 255
247 250 255
247 250 255
247 250 255
247 250 255
247 250 255
247 250 255
247 250 255
247 250 255
247 250 255
247 250 255
247 250 255
247 250 255
247 250 255
247 250 255
247 250 255
247 250 255
247 250 255
247 250 255
247 250 255
247 250 255
247 250 255
247 250 255
247 250 255
247 250 255
247 250 255
247 250 255
247 250 255
247 250 255
247 250 255
247 250 255
247 250 255
246 250 255
246 250 255
246 250 255
246 250 255
246 250 255
246 250 255
246 250 255
246 250 255
246 250 255
246 250 255
246 250 255
246 250 255
246 250 255
246 250 255
246 250 255
246 250 255
246 250 255
246 250 255
246 250 255
246 250 255
246 250 255
246 250 255
246 250 255
246 250 255
246 250 255
245 250 255
245 250 255
245 249 255
245 249 255
245 249 255
245 249 255
245 249 255
245 249 255
245 249 255
245 249 255
245 249 255
245 249 255
245 249 255
245 249 255
245 249 255
245 249 255
245 249 255
244 249 255
244 249 255
244 249 255
244 249 255
244 249 255
244 249 255
244 249 255
244 249 255
244 249 255
244 249 255
244 249 255
244 249 255
244 249 255
244 248 255
244 248 255
244 248 255
243 248 255
243 248 255
243 248 255
243 248 255
243 248 255
243 248 255
243 248 255
243 248 255
243 248 255
243 248 255
243 248 255
243 248 255
243 248 255
243 248 255
243 248 255
242 248 255
242 248 255
242 248 255
242 248 255
242 248 255
242 248 255
242 248 255
242 247 255
242 247 255
242 247 255
242 247 255
242 247 255
242 247 255
242 247 255
242 247 255
241 247 255
241 247 255
241 247 255
241 247 255
241 247 255
241 247 255
241 247 255
241 247 255
241 247 255
241 247 255
241 247 255
241 247 255
241 247 255
241 247 255
241 247 255
240 247 255
240 247 255
240 246 255
240 246 255
240 246 255
240 246 255
240 246 255
240 246 255
240 246 255
240 246 255
240 246 255
240 246 255
240 246 255
240 246 255
240 246 255
239 246 255
239 246 255
239 246 255
239 246 255
239 246 255
239 246 255
239 246 255
239 246 255
239 246 255
239 246 255
239 246 255
239 246 255
239 246 255
239 246 255
239 245 255
239 245 255
238 245 255
238 245 255
238 245 255
238 245 255
238 245 255
238 245 255
238 245 255
238 245 255
238 245 255
238 245 255
238 245 255
238 245 255
238 245 255
238 245 255
238 245 255
238 245 255
238 245 255
238 245 255
237 245 255
237 245 255
237 245 255
237 245 255
237 245 255
237 245 255
237 245 255
237 245 255
237 245 255
237 245 255
237 245 255
237 244 255
237 244 255
237 244 255
237 244 255
237 244 255
237 244 255
237 244 255
236 244 255
236 244 255
236 244 255
236 244 255
236 244 255
236 244 255
236 244 255
236 244 255
236 244 255
236 244 255
236 244 255
237 244 255
237 244 255
237 244 255
237 244 255
237 244 255
237 244 255
237 244 255
237 244 255
237 245 255
237 245 255
237 245 255
237 245 255
237 245 255
237 245 255
237 245 255
237 245 255
237 245 255
237 245 255
237 245 255
238 245 255
238 245 255
238 245 255
238 245 255
238 245 255
238 245 255
238 245 255
238 245 255
238 245 255
238 245 255
238 245 255
238 245 255
238 245 255
238 245 255
238 245 255
238 245 255
238 245 255
238 245 255
239 245 255
239 245 255
239 246 255
239 246 255
239 246 255
239 246 255
239 246 255
239 246 255
239 246 255
239 246 255
239 246 255
239 246 255
239 246 255
239 246 255
239 246 255
239 246 255
240 246 255
240 246 255
240 246 255
240 246 255
240 246 255
240 246 255
240 246 255
240 246 255
240 246 255
240 246 255
240 246 255
240 246 255
240 246 255
240 247 255
240 247 255
240 247 255
241 247 255
241 247 255
241 247 255
241 247 255
241 247 255
241 247 255
241 247 255
241 247 255
241 247 255
241 247 255
241 247 255
241 247 255
241 247 255
241 247 255
241 247 255
242 247 255
242 247 255
242 247 255
242 247 255
242 247 255
242 247 255
242 247 255
242 248 255
242 248 255
242 248 255
242 248 255
242 248 255
242 248 255
242 248 255
243 248 255
243 248 255
243 248 255
243 248 255
243 248 255
243 248 255
243 248 255
243 248 255
243 248 255
243 248 255
243 248 255
243 248 255
243 248 255
243 248 255
243 248 255
244 248 255
244 248 255
244 248 255
244 249 255
244 249 255
244 249 255
244 249 255
244 249 255
244 249 255
244 249 255
244 249 255
244 249 255
244 249 255
244 249 255
244 249 255
245 249 255
245 249 255
245 249 255
245 249 255
245 249 255
245 249 255
245 249 255
245 249 255
245 249 255
245 249 255
245 249 255
245 249 255
245 249 255
245 249 255
245 249 255
245 249 255
245 250 255
245 250 255
246 250 255
246 250 255
246 250 255
246 250 255
246 250 255
246 250 255
246 250 255
246 250 255
246 250 255
246 250 255
246 250 255
246 250 255
246 250 255
246 250 255
246 250 255
246 250 255
246 250 255
246 250 255
246 250 255
246 250 255
246 250 255
246 250 255
246 250 255
247 250 255
247 250 255
247 250 255
247 250 255
247 250 255
247 250 255
247 250 255
247 250 255
247 250 255
247 250 255
247 250 255
247 250 255
247 250 255
247 250 255
247 250 255
247 250 255
247 250 255
247 250 255
247 250 255
247 250 255
247 250 255
247 250 255
247 250 255
247 250 255
247 250 255
247 250 255
247 250 255
247 250 255
247 250 255
247 250 255
247 250 255
247 250 255
247 250 255
247 250 255
247 250 255
247 250 255
247 250 255
247 250 255
247 250 255
247 250 255
247 250 255
247 250 255
247 250 255
247 250 255
247 250 255
247 250 255
247 250 255
247 250 255
247 250 255
247 250 255
247 250 255
247 250 255
247 250 255
247 250 255
246 250 255
246 250 255
246 250 255
246 250 255
246 250 255
246 250 255
246 250 255
246 250 255
246 250 255
246 250 255
246 250 255
246 250 255
246 250 255
246 250 255
246 250 255
246 250 255
246 250 255
246 250 255
246 250 255
246 250 255
246 250 255
246 250 255
246 250 255
245 250 255
245 250 255
245 249 255
245 249 255
245 249 255
245 249 255
245 249 255
245 249 255
245 249 255
245 249 255
245 249 255
245 249 255
245 249 255
245 249 255
245 249 255
245 249 255
245 249 255
245 249 255
244 249 255
244 249 255
244 249 255
244 249 255
244 249 255
244 249 255
244 249 255
244 249 255
244 249 255
244 249 255
244 249 255
244 249 255
244 248 255
244 248 255
244 248 255
243 248 255
243 248 255
243 248 255
243 248 255
243 248 255
243 248 255
243 248 255
243 248 255
243 248 255
243 248 255
243 248 255
243 248 255
243 248 255
243 248 255
243 248 255
242 248 255
242 248 255
242 248 255
242 248 255
242 248 255
242 248 255
242 248 255
242 247 255
242 247 255
242 247 255
242 247 255
242 247 255
242 247 255
242 247 255
241 247 255
241 247 255
241 247 255
241 247 255
241 247 255
241 247 255
241 247 255
241 247 255
241 247 255
241 247 255
241 247 255
241 247 255
241 247 255
241 247 255
241 247 255
240 247 255
240 247 255
240 247 255
240 246 255
240 246 255
240 246 255
240 246 255
240 246 255
240 246 255
240 246 255
240 246 255
240 246 255
240 246 255
240 246 255
240 246 255
240 246 255
239 246 255
239 246 255
239 246 255
239 246 255
239 246 255
239 246 255
239 246 255
239 246 255
239 246 255
239 246 255
239 246 255
239 246 255
239 246 255
239 246 255
239 246 255
239 245 255
238 245 255
238 245 255
238 245 255
238 245 255
238 245 255
238 245 255
238 245 255
238 245 255
238 245 255
238 245 255
238 245 255
238 245 255
238 245 255
238 245 255
238 245 255
238 245 255
238 245 255
238 245 255
237 245 255
237 245 255
237 245 255
237 245 255
237 245 255
237 245 255
237 245 255
237 245 255
237 245 255
237 245 255
237 245 255
237 244 255
237 244 255
237 244 255
237 244 255
237 244 255
237 244 255
237 244 255
237 244 255
236 244 255
236 244 255
236 244 255
236 244 255
236 244 255
236 244 255
237 244 255
237 244 255
237 244 255
237 244 255
237 244 255
237 244 255
237 244 255
237 245 255
237 245 255
237 245 255
237 245 255
237 245 255
237 245 255
237 245 255
237 245 255
237 245 255
237 245 255
237 245 255
237 245 255
238 245 255
238 245 255
238 245 255
238 245 255
238 245 255
238 245 255
238 245 255
238 245 255
238 245 255
238 245 255
238 245 255
238 245 255
238 245 255
238 245 255
238 245 255
238 245 255
238 245 255
238 245 255
239 245 255
239 246 255
239 246 255
239 246 255
239 246 255
239 246 255
239 246 255
239 246 255
239 246 255
239 246 255
239 246 255
239 246 255
239 246 255
239 246 255
239 246 255
239 246 255
240 246 255
240 246 255
240 246 255
240 246 255
240 246 255
240 246 255
240 246 255
240 246 255
240 246 255
240 246 255
240 246 255
240 246 255
240 246 255
240 247 255
240 247 255
240 247 255
241 247 255
241 247 255
241 247 255
241 247 255
241 247 255
241 247 255
241 247 255
241 247 255
241 247 255
241 247 255
241 247 255
241 247 255
241 247 255
241 247 255
241 247 255
242 247 255
242 247 255
242 247 255
242 247 255
242 247 255
242 247 255
242 247 255
242 248 255
242 248 255
242 248 255
242 248 255
242 248 255
242 248 255
242 248 255
243 248 255
243 248 255
243 248 255
243 248 255
243 248 255
243 248 255
243 248 255
243 248 255
243 248 255
243 248 255
243 248 255
243 248 255
243 248 255
243 248 255
243 248 255
244 248 255
244 248 255
244 248 255
244 248 255
244 249 255
244 249 255
244 249 255
244 249 255
244 249 255
244 249 255
244 249 255
244 249 255
244 249 255
244 249 255
244 249 255
245 249 255
245 249 255
245 249 255
245 249 255
245 249 255
245 249 255
245 249 255
245 249 255
245 249 255
245 249 255
245 249 255
245 249 255
245 249 255
245 249 255
245 249 255
245 249 255
245 250 255
246 250 255
246 250 255
246 250 255
246 250 255
246 250 255
246 250 255
246 250 255
246 250 255
246 250 255
246 250 255
246 250 255
246 250 255
246 250 255
246 250 255
246 250 255
246 250 255
246 250 255
246 250 255
246 250 255
246 250 255
246 250 255
246 250 255
246 250 255
247 250 255
247 250 255
247 250 255
247 250 255
247 250 255
247 250 255
247 250 255
247 250 255
247 250 255
247 250 255
247 250 255
247 250 255
247 250 255
247 250 255
247 250 255
247 250 255
247 250 255
247 250 255
247 250 255
247 250 255
247 250 255
247 250 255
247 250 255
247 250 255
247 250 255
247 250 255
247 250 255
247 250 255
247 250 255
247 250 255
247 250 255
247 250 255
247 250 255
247 250 255
247 250 255
247 250 255
247 250 255
247 250 255
247 250 255
247 250 255
247 250 255
247 250 255
247 250 255
247 250 255
247 250 255
247 250 255
247 250 255
247 250 255
247 250 255
247 250 255
247 250 255
247 250 255
247 250 255
247 250 255
247 250 255
247 250 255
247 250 255
247 250 255
247 250 255
247 250 255
246 250 255
246 250 255
246 250 255
246 250 255
246 250 255
246 250 255
246 250 255
246 250 255
246 250 255
246 250 255
246 250 255
246 250 255
246 250 255
246 250 255
246 250 255
246 250 255
246 250 255
246 250 255
246 250 255
246 250 255
246 250 255
246 250 255
246 250 255
245 250 255
245 249 255
245 249 255
245 249 255
245 249 255
245 249 255
245 249 255
245 249 255
245 249 255
245 249 255
245 249 255
245 249 255
245 249 255
245 249 255
245 249 255
245 249 255
245 249 255
244 249 255
244 249 255
244 249 255
244 249 255
244 249 255
244 249 255
244 249 255
244 249 255
244 249 255
244 249 255
244 249 255
244 249 255
244 248 255
244 248 255
244 248 255
243 248 255
243 248 255
243 248 255
243 248 255
243 248 255
243 248 255
243 248 255
243 248 255
243 248 255
243 248 255
243 248 255
243 248 255
243 248 255
243 248 255
243 248 255
242 248 255
242 248 255
242 248 255
242 248 255
242 248 255
242 248 255
242 248 255
242 247 255
242 247 255
242 247 255
242 247 255
242 247 255
242 247 255
242 247 255
241 247 255
241 247 255
241 247 255
241 247 255
241 247 255
241 247 255
241 247 255
241 247 255
241 247 255
241 247 255
241 247 255
241 247 255
241 247 255
241 247 255
241 247 255
240 247 255
240 247 255
240 247 255
240 246 255
240 246 255
240 246 255
240 246 255
240 246 255
240 246 255
240 246 255
240 246 255
240 246 255
240 246 255
240 246 255
240 246 255
240 246 255
239 246 255
239 246 255
239 246 255
239 246 255
239 246 255
239 246 255
239 246 255
239 246 255
239 246 255
239 246 255
239 246 255
239 246 255
239 246 255
239 246 255
239 246 255
239 245 255
238 245 255
238 245 255
238 245 255
238 245 255
238 245 255
238 245 255
238 245 255
238 245 255
238 245 255
238 245 255
238 245 255
238 245 255
238 245 255
238 245 255
238 245 255
238 245 255
238 245 255
238 245 255
237 245 255
237 245 255
237 245 255
237 245 255
237 245 255
237 245 255
237 245 255
237 245 255
237 245 255
237 245 255
237 245 255
237 244 255
237 244 255
237 244 255
237 244 255
237 244 255
237 244 255
237 244 255
237 244 255
236 244 255
236 244 255
237 244 255
237 244 255
237 244 255
237 244 255
237 244 255
237 244 255
237 244 255
237 245 255
237 245 255
237 245 255
237 245 255
237 245 255
237 245 255
237 245 255
237 245 255
237 245 255
237 245 255
237 245 255
237 245 255
238 245 255
238 245 255
238 245 255
238 245 255
238 245 255
238 245 255
238 245 255
238 245 255
238 245 255
238 245 255
238 245 255
238 245 255
238 245 255
238 245 255
238 245 255
238 245 255
238 245 255
238 245 255
239 245 255
239 246 255
239 246 255
239 246 255
239 246 255
239 246 255
239 246 255
239 246 255
239 246 255
239 246 255
239 246 255
239 246 255
239 246 255
239 246 255
239 246 255
239 246 255
240 246 255
240 246 255
240 246 255
240 246 255
240 246 255
240 246 255
240 246 255
240 246 255
240 246 255
240 246 255
240 246 255
240 246 255
240 246 255
240 247 255
240 247 255
240 247 255
241 247 255
241 247 255
241 247 255
241 247 255
241 247 255
241 247 255
241 247 255
241 247 255
241 247 255
241 247 255
241 247 255
241 247 255
241 247 255
241 247 255
241 247 255
242 247 255
242 247 255
242 247 255
242 247 255
242 247 255
242 247 255
242 247 255
242 247 255
242 248 255
242 248 255
242 248 255
242 248 255
242 248 255
242 248 255
242 248 255
243 248 255
243 248 255
243 248 255
243 248 255
243 248 255
243 248 255
243 248 255
243 248 255
243 248 255
243 248 255
243 248 255
243 248 255
243 248 255
243 248 255
244 248 255
244 248 255
244 248 255
244 248 255
244 249 255
244 249 255
244 249 255
244 249 255
244 249 255
244 249 255
244 249 255
244 249 255
244 249 255
244 249 255
244 249 255
244 249 255
245 249 255
245 249 255
245 249 255
245 249 255
245 249 255
245 249 255
245 249 255
245 249 255
245 249 255
245 249 255
245 249 255
245 249 255
245 249 255
245 249 255
245 249 255
245 250 255
245 250 255
246 250 255
246 250 255
246 250 255
246 250 255
246 250 255
246 250 255
246 250 255
246 250 255
246 250 255
246 250 255
246 250 255
246 250 255
246 250 255
246 250 255
246 250 255
246 250 255
246 250 255
246 250 255
246 250 255
246 250 255
246 250 255
247 250 255
247 250 255
247 250 255
247 250 255
247 250 255
247 250 255
247 250 255
247 250 255
247 250 255
247 250 255
247 250 255
247 250 255
247 250 255
247 250 255
247 250 255
247 250 255
247 250 255
247 250 255
247 250 255
247 250 255
247 250 255
247 250 255
247 250 255
247 250 255
247 251 255
247 251 255
247 251 255
247 251 255
247 251 255
247 251 255
247 251 255
247 251 255
247 251 255
247 251 255
247 251 255
247 251 255
247 251 255
247 251 255
247 251 255
247 251 255
247 251 255
247 251 255
247 250 255
247 250 255
247 250 255
247 250 255
247 250 255
247 250 255
247 250 255
247 250 255
247 250 255
247 250 255
247 250 255
247 250 255
247 250 255
247 250 255
247 250 255
247 250 255
247 250 255
247 250 255
247 250 255
247 250 255
247 250 255
247 250 255
247 250 255
247 250 255
246 250 255
246 250 255
246 250 255
246 250 255
246 250 255
246 250 255
246 250 255
246 250 255
246 250 255
246 250 255
246 250 255
246 250 255
246 250 255
246 250 255
246 250 255
246 250 255
246 250 255
246 250 255
246 250 255
246 250 255
246 250 255
246 250 255
245 250 255
245 249 255
245 249 255
245 249 255
245 249 255
245 249 255
245 249 255
245 249 255
245 249 255
245 249 255
245 249 255
245 249 255
245 249 255
245 249 255
245 249 255
245 249 255
244 249 255
244 249 255
244 249 255
244 249 255
244 249 255
244 249 255
244 249 255
244 249 255
244 249 255
244 249 255
244 249 255
244 249 255
244 248 255
244 248 255
244 248 255
244 248 255
243 248 255
243 248 255
243 248 255
243 248 255
243 248 255
243 248 255
243 248 255
243 248 255
243 248 255
243 248 255
243 248 255
243 248 255
243 248 255
243 248 255
242 248 255
242 248 255
242 248 255
242 248 255
242 248 255
242 248 255
242 248 255
242 247 255
242 247 255
242 247 255
242 247 255
242 247 255
242 247 255
242 247 255
242 247 255
241 247 255
241 247 255
241 247 255
241 247 255
241 247 255
241 247 255
241 247 255
241 247 255
241 247 255
241 247 255
241 247 255
241 247 255
241 247 255
241 247 255
241 247 255
240 247 255
240 247 255
240 247 255
240 246 255
240 246 255
240 246 255
240 246 255
240 246 255
240 246 255
240 246 255
240 246 255
240 246 255
240 246 255
240 246 255
240 246 255
240 246 255
239 246 255
239 246 255
239 246 255
239 246 255
239 246 255
239 246 255
239 246 255
239 246 255
239 246 255
239 246 255
239 246 255
239 246 255
239 246 255
239 246 255
239 246 255
239 245 255
238 245 255
238 245 255
238 245 255
238 245 255
238 245 255
238 245 255
238 245 255
238 245 255
238 245 255
238 245 255
238 245 255
238 245 255
238 245 255
238 245 255
238 245 255
238 245 255
238 245 255
238 245 255
237 245 255
237 245 255
237 245 255
237 245 255
237 245 255
237 245 255
237 245 255
237 245 255
237 245 255
237 245 255
237 245 255
237 245 255
237 244 255
237 244 255
237 244 255
237 244 255
237 244 255
237 244 255
237 244 255
237 244 255
237 244 255
237 244 255
237 244 255
237 244 255
237 245 255
237 245 255
237 245 255
237 245 255
237 245 255
237 245 255
237 245 255
237 245 255
237 245 255
237 245 255
237 245 255
237 245 255
238 245 255
238 245 255
238 245 255
238 245 255
238 245 255
238 245 255
238 245 255
238 245 255
238 245 255
238 245 255
238 245 255
238 245 255
238 245 255
238 245 255
238 245 255
238 245 255
238 245 255
238 245 255
239 245 255
239 246 255
239 246 255
239 246 255
239 246 255
239 246 255
239 246 255
239 246 255
239 246 255
239 246 255
239 246 255
239 246 255
239 246 255
239 246 255
239 246 255
239 246 255
240 246 255
240 246 255
240 246 255
240 246 255
240 246 255
240 246 255
240 246 255
240 246 255
240 246 255
240 246 255
240 246 255
240 246 255
240 246 255
240 247 255
240 247 255
240 247 255
241 247 255
241 247 255
241 247 255
241 247 255
241 247 255
241 247 255
241 247 255
241 247 255
241 247 255
241 247 255
241 247 255
241 247 255
241 247 255
241 247 255
241 247 255
242 247 255
242 247 255
242 247 255
242 247 255
242 247 255
242 247 255
242 247 255
242 247 255
242 248 255
242 248 255
242 248 255
242 248 255
242 248 255
242 248 255
242 248 255
243 248 255
243 248 255
243 248 255
243 248 255
243 248 255
243 248 255
243 248 255
243 248 255
243 248 255
243 248 255
243 248 255
243 248 255
243 248 255
243 248 255
244 248 255
244 248 255
244 248 255
244 248 255
244 249 255
244 249 255
244 249 255
244 249 255
244 249 255
244 249 255
244 249 255
244 249 255
244 249 255
244 249 255
244 249 255
244 249 255
245 249 255
245 249 255
245 249 255
245 249 255
245 249 255
245 249 255
245 249 255
245 249 255
245 249 255
245 249 255
245 249 255
245 249 255
245 249 255
245 249 255
245 249 255
245 250 255
246 250 255
246 250 255
246 250 255
246 250 255
246 250 255
246 250 255
246 250 255
246 250 255
246 250 255
246 250 255
246 250 255
246 250 255
246 250 255
246 250 255
246 250 255
246 250 255
246 250 255
246 250 255
246 250 255
246 250 255
246 250 255
247 250 255
247 250 255
247 250 255
247 250 255
247 250 255
247 250 255
247 250 255
247 250 255
247 250 255
247 250 255
247 250 255
247 250 255
247 250 255
247 250 255
247 250 255
247 250 255
247 250 255
247 250 255
247 250 255
247 250 255
247 251 255
247 251 255
247 251 255
247 251 255
247 251 255
247 251 255
247 251 255
247 251 255
247 251 255
247 251 255
247 251 255
247 251 255
247 251 255
247 251 255
247 251 255
247 251 255
247 251 255
247 251 255
247 251 255
247 251 255
247 251 255
247 251 255
247 251 255
247 251 255
247 251 255
247 251 255
247 251 255
247 251 255
247 251 255
247 251 255
247 251 255
247 251 255
247 250 255
247 250 255
247 250 255
247 250 255
247 250 255
247 250 255
247 250 255
247 250 255
247 250 255
247 250 255
247 250 255
247 250 255
247 250 255
247 250 255
247 250 255
247 250 255
247 250 255
247 250 255
247 250 255
247 250 255
246 250 255
246 250 255
246 250 255
246 250 255
246 250 255
246 250 255
246 250 255
246 250 255
246 250 255
246 250 255
246 250 255
246 250 255
246 250 255
246 250 255
246 250 255
246 250 255
246 250 255
246 250 255
246 250 255
246 250 255
246 250 255
245 250 255
245 249 255
245 249 255
245 249 255
245 249 255
245 249 255
245 249 255
245 249 255
245 249 255
245 249 255
245 249 255
245 249 255
245 249 255
245 249 255
245 249 255
245 249 255
244 249 255
244 249 255
244 249 255
244 249 255
244 249 255
244 249 255
244 249 255
244 249 255
244 249 255
244 249 255
244 249 255
244 249 255
244 248 255
244 248 255
244 248 255
243 248 255
243 248 255
243 248 255
243 248 255
243 248 255
243 248 255
243 248 255
243 248 255
243 248 255
243 248 255
243 248 255
243 248 255
243 248 255
243 248 255
243 248 255
242 248 255
242 248 255
242 248 255
242 248 255
242 248 255
242 248 255
242 248 255
242 247 255
242 247 255
242 247 255
242 247 255
242 247 255
242 247 255
242 247 255
242 247 255
241 247 255
241 247 255
241 247 255
241 247 255
241 247 255
241 247 255
241 247 255
241 247 255
241 247 255
241 247 255
241 247 255
241 247 255
241 247 255
241 247 255
241 247 255
240 247 255
240 247 255
240 247 255
240 246 255
240 246 255
240 246 255
240 246 255
240 246 255
240 246 255
240 246 255
240 246 255
240 246 255
240 246 255
240 246 255
240 246 255
240 246 255
239 246 255
239 246 255
239 246 255
239 246 255
239 246 255
239 246 255
239 246 255
239 246 255
239 246 255
239 246 255
239 246 255
239 246 255
239 246 255
239 246 255
239 246 255
239 245 255
238 245 255
238 245 255
238 245 255
238 245 255
238 245 255
238 245 255
238 245 255
238 245 255
238 245 255
238 245 255
238 245 255
238 245 255
238 245 255
238 245 255
238 245 255
238 245 255
238 245 255
238 245 255
237 245 255
237 245 255
237 245 255
237 245 255
237 245 255
237 245 255
237 245 255
237 245 255
237 245 255
237 245 255
237 245 255
237 245 255
237 244 255
237 244 255
237 244 255
237 244 255
237 244 255
237 244 255
237 244 255
237 244 255
237 245 255
237 245 255
237 245 255
237 245 255
237 245 255
237 245 255
237 245 255
237 245 255
237 245 255
237 245 255
237 245 255
237 245 255
238 245 255
238 245 255
238 245 255
238 245 255
238 245 255
238 245 255
238 245 255
238 245 255
238 245 255
238 245 255
238 245 255
238 245 255
238 245 255
238 245 255
238 245 255
238 245 255
238 245 255
239 245 255
239 245 255
239 246 255
239 246 255
239 246 255
239 246 255
239 246 255
239 246 255
239 246 255
239 246 255
239 246 255
239 246 255
239 246 255
239 246 255
239 246 255
239 246 255
239 246 255
240 246 255
240 246 255
240 246 255
240 246 255
240 246 255
240 246 255
240 246 255
240 246 255
240 246 255
240 246 255
240 246 255
240 246 255
240 246 255
240 247 255
240 247 255
240 247 255
241 247 255
241 247 255
241 247 255
241 247 255
241 247 255
241 247 255
241 247 255
241 247 255
241 247 255
241 247 255
241 247 255
241 247 255
241 247 255
241 247 255
241 247 255
242 247 255
242 247 255
242 247 255
242 247 255
242 247 255
242 247 255
242 247 255
242 247 255
242 248 255
242 248 255
242 248 255
242 248 255
242 248 255
242 248 255
242 248 255
243 248 255
243 248 255
243 248 255
243 248 255
243 248 255
243 248 255
243 248 255
243 248 255
243 248 255
243 248 255
243 248 255
243 248 255
243 248 255
243 248 255
243 248 255
244 248 255
244 248 255
244 248 255
244 249 255
244 249 255
244 249 255
244 249 255
244 249 255
244 249 255
244 249 255
244 249 255
244 249 255
244 249 255
244 249 255
244 249 255
245 249 255
245 249 255
245 249 255
245 249 255
245 249 255
245 249 255
245 249 255
245 249 255
245 249 255
245 249 255
245 249 255
245 249 255
245 249 255
245 249 255
245 249 255
245 250 255
246 250 255
246 250 255
246 250 255
246 250 255
246 250 255
246 250 255
246 250 255
246 250 255
246 250 255
246 250 255
246 250 255
246 250 255
246 250 255
246 250 255
246 250 255
246 250 255
246 250 255
246 250 255
246 250 255
246 250 255
247 250 255
247 250 255
247 250 255
247 250 255
247 250 255
247 250 255
247 250 255
247 250 255
247 250 255
247 250 255
247 250 255
247 250 255
247 250 255
247 250 255
247 250 255
247 250 255
247 250 255
247 250 255
247 251 255
247 251 255
247 251 255
247 251 255
247 251 255
247 251 255
247 251 255
247 251 255
247 251 255
247 251 255
247 251 255
247 251 255
247 251 255
247 251 255
247 251 255
247 251 255
247 251 255
247 251 255
247 251 255
247 251 255
247 251 255
247 251 255
247 251 255
247 251 255
247 251 255
247 251 255
247 251 255
247 251 255
247 251 255
247 251 255
247 251 255
247 251 255
247 251 255
247 251 255
247 251 255
247 251 255
247 251 255
247 251 255
247 251 255
247 251 255
247 251 255
247 251 255
247 250 255
247 250 255
247 250 255
247 250 255
247 250 255
247 250 255
247 250 255
247 250 255
247 250 255
247 250 255
247 250 255
247 250 255
247 250 255
247 250 255
247 250 255
247 250 255
247 250 255
247 250 255
246 250 255
246 250 255
246 250 255
246 250 255
246 250 255
246 250 255
246 250 255
246 250 255
246 250 255
246 250 255
246 250 255
246 250 255
246 250 255
246 250 255
246 250 255
246 250 255
246 250 255
246 250 255
246 250 255
246 250 255
245 250 255
245 249 255
245 249 255
245 249 255
245 249 255
245 249 255
245 249 255
245 249 255
245 249 255
245 249 255
245 249 255
245 249 255
245 249 255
245 249 255
245 249 255
245 249 255
244 249 255
244 249 255
244 249 255
244 249 255
244 249 255
244 249 255
244 249 255
244 249 255
244 249 255
244 249 255
244 249 255
244 249 255
244 248 255
244 248 255
244 248 255
243 248 255
243 248 255
243 248 255
243 248 255
243 248 255
243 248 255
243 248 255
243 248 255
243 248 255
243 248 255
243 248 255
243 248 255
243 248 255
243 248 255
243 248 255
242 248 255
242 248 255
242 248 255
242 248 255
242 248 255
242 248 255
242 248 255
242 247 255
242 247 255
242 247 255
242 247 255
242 247 255
242 247 255
242 247 255
242 247 255
241 247 255
241 247 255
241 247 255
241 247 255
241 247 255
241 247 255
241 247 255
241 247 255
241 247 255
241 247 255
241 247 255
241 247 255
241 247 255
241 247 255
241 247 255
240 247 255
240 247 255
240 247 255
240 246 255
240 246 255
240 246 255
240 246 255
240 246 255
240 246 255
240 246 255
240 246 255
240 246 255
240 246 255
240 246 255
240 246 255
240 246 255
239 246 255
239 246 255
239 246 255
239 246 255
239 246 255
239 246 255
239 246 255
239 246 255
239 246 255
239 246 255
239 246 255
239 246 255
239 246 255
239 246 255
239 246 255
239 245 255
238 245 255
238 245 255
238 245 255
238 245 255
238 245 255
238 245 255
238 245 255
238 245 255
238 245 255
238 245 255
238 245 255
238 245 255
238 245 255
238 245 255
238 245 255
238 245 255
238 245 255
238 245 255
237 245 255
237 245 255
237 245 255
237 245 255
237 245 255
237 245 255
237 245 255
237 245 255
237 245 255
237 245 255
237 245 255
237 245 255
237 244 255
237 244 255
237 244 255
237 245 255
237 245 255
237 245 255
237 245 255
237 245 255
237 245 255
237 245 255
237 245 255
237 245 255
237 245 255
237 245 255
237 245 255
238 245 255
238 245 255
238 245 255
238 245 255
238 245 255
238 245 255
238 245 255
238 245 255
238 245 255
238 245 255
238 245 255
238 245 255
238 245 255
238 245 255
238 245 255
238 245 255
238 245 255
238 245 255
239 245 255
239 245 255
239 246 255
239 246 255
239 246 255
239 246 255
239 246 255
239 246 255
239 246 255
239 246 255
239 246 255
239 246 255
239 246 255
239 246 255
239 246 255
239 246 255
239 246 255
240 246 255
240 246 255
240 246 255
240 246 255
240 246 255
240 246 255
240 246 255
240 246 255
240 246 255
240 246 255
240 246 255
240 246 255
240 246 255
240 247 255
240 247 255
240 247 255
241 247 255
241 247 255
241 247 255
241 247 255
241 247 255
241 247 255
241 247 255
241 247 255
241 247 255
241 247 255
241 247 255
241 247 255
241 247 255
241 247 255
241 247 255
242 247 255
242 247 255
242 247 255
242 247 255
242 247 255
242 247 255
242 247 255
242 247 255
242 248 255
242 248 255
242 248 255
242 248 255
242 248 255
242 248 255
242 248 255
243 248 255
243 248 255
243 248 255
243 248 255
243 248 255
243 248 255
243 248 255
243 248 255
243 248 255
243 248 255
243 248 255
243 248 255
243 248 255
243 248 255
243 248 255
244 248 255
244 248 255
244 248 255
244 249 255
244 249 255
244 249 255
244 249 255
244 249 255
244 249 255
244 249 255
244 249 255
244 249 255
244 249 255
244 249 255
244 249 255
245 249 255
245 249 255
245 249 255
245 249 255
245 249 255
245 249 255
245 249 255
245 249 255
245 249 255
245 249 255
245 249 255
245 249 255
245 249 255
245 249 255
245 249 255
245 250 255
246 250 255
246 250 255
246 250 255
246 250 255
246 250 255
246 250 255
246 250 255
246 250 255
246 250 255
246 250 255
246 250 255
246 250 255
246 250 255
246 250 255
246 250 255
246 250 255
246 250 255
246 250 255
246 250 255
246 250 255
247 250 255
247 250 255
247 250 255
247 250 255
247 250 255
247 250 255
247 250 255
247 250 255
247 250 255
247 250 255
247 250 255
247 250 255
247 250 255
247 250 255
247 250 255
247 250 255
247 251 255
247 251 255
247 251 255
247 251 255
247 251 255
247 251 255
247 251 255
247 251 255
247 251 255
247 251 255
247 251 255
247 251 255
247 251 255
247 251 255
247 251 255
247 251 255
247 251 255
247 251 255
247 251 255
247 251 255
247 251 255
247 251 255
247 251 255
247 251 255
247 251 255
247 251 255
247 251 255
247 251 255
247 251 255
247 251 255
247 251 255
247 251 255
247 251 255
247 251 255
247 251 255
247 251 255
247 251 255
247 251 255
247 251 255
247 251 255
247 251 255
247 251 255
247 251 255
247 251 255
247 251 255
247 251 255
247 251 255
247 251 255
247 251 255
247 251 255
247 250 255
247 250 255
247 250 255
247 250 255
247 250 255
247 250 255
247 250 255
247 250 255
247 250 255
247 250 255
247 250 255
247 250 255
247 250 255
247 250 255
247 250 255
247 250 255
246 250 255
246 250 255
246 250 255
246 250 255
246 250 255
246 250 255
246 250 255
246 250 255
246 250 255
246 250 255
246 250 255
246 250 255
246 250 255
246 250 255
246 250 255
246 250 255
246 250 255
246 250 255
246 250 255
246 250 255
245 250 255
245 249 255
245 249 255
245 249 255
245 249 255
245 249 255
245 249 255
245 249 255
245 249 255
245 249 255
245 249 255
245 249 255
245 249 255
245 249 255
245 249 255
245 249 255
244 249 255
244 249 255
244 249 255
244 249 255
244 249 255
244 249 255
244 249 255
244 249 255
244 249 255
244 249 255
244 249 255
244 249 255
244 248 255
244 248 255
244 248 255
243 248 255
243 248 255
243 248 255
243 248 255
243 248 255
243 248 255
243 248 255
243 248 255
243 248 255
243 248 255
243 248 255
243 248 255
243 248 255
243 248 255
243 248 255
242 248 255
242 248 255
242 248 255
242 248 255
242 248 255
242 248 255
242 248 255
242 247 255
242 247 255
242 247 255
242 247 255
242 247 255
242 247 255
242 247 255
242 247 255
241 247 255
241 247 255
241 247 255
241 247 255
241 247 255
241 247 255
241 247 255
241 247 255
241 247 255
241 247 255
241 247 255
241 247 255
241 247 255
241 247 255
241 247 255
240 247 255
240 247 255
240 247 255
240 246 255
240 246 255
240 246 255
240 246 255
240 246 255
240 246 255
240 246 255
240 246 255
240 246 255
240 246 255
240 246 255
240 246 255
240 246 255
239 246 255
239 246 255
239 246 255
239 246 255
239 246 255
239 246 255
239 246 255
239 246 255
239 246 255
239 246 255
239 246 255
239 246 255
239 246 255
239 246 255
239 246 255
239 245 255
238 245 255
238 245 255
238 245 255
238 245 255
238 245 255
238 245 255
238 245 255
238 245 255
238 245 255
238 245 255
238 245 255
238 245 255
238 245 255
238 245 255
238 245 255
238 245 255
238 245 255
238 245 255
238 245 255
237 245 255
237 245 255
237 245 255
237 245 255
237 245 255
237 245 255
237 245 255
237 245 255
237 245 255
237 245 255
237 245 255
237 245 255
237 245 255
237 245 255
237 245 255
237 245 255
237 245 255
237 245 255
237 245 255
237 245 255
237 245 255
237 245 255
238 245 255
238 245 255
238 245 255
238 245 255
238 245 255
238 245 255
238 245 255
238 245 255
238 245 255
238 245 255
238 245 255
238 245 255
238 245 255
238 245 255
238 245 255
238 245 255
238 245 255
238 245 255
239 245 255
239 245 255
239 246 255
239 246 255
239 246 255
239 246 255
239 246 255
239 246 255
239 246 255
239 246 255
239 246 255
239 246 255
239 246 255
239 246 255
239 246 255
239 246 255
239 246 255
240 246 255
240 246 255
240 246 255
240 246 255
240 246 255
240 246 255
240 246 255
240 246 255
240 246 255
240 246 255
240 246 255
240 246 255
240 246 255
240 247 255
240 247 255
240 247 255
241 247 255
241 247 255
241 247 255
241 247 255
241 247 255
241 247 255
241 247 255
241 247 255
241 247 255
241 247 255
241 247 255
241 247 255
241 247 255
241 247 255
241 247 255
241 247 255
242 247 255
242 247 255
242 247 255
242 247 255
242 247 255
242 247 255
242 247 255
242 248 255
242 248 255
242 248 255
242 248 255
242 248 255
242 248 255
242 248 255
242 248 255
243 248 255
243 248 255
243 248 255
243 248 255
243 248 255
243 248 255
243 248 255
243 248 255
243 248 255
243 248 255
243 248 255
243 248 255
243 248 255
243 248 255
244 248 255
244 248 255
244 248 255
244 248 255
244 249 255
244 249 255
244 249 255
244 249 255
244 249 255
244 249 255
244 249 255
244 249 255
244 249 255
244 249 255
244 249 255
245 249 255
245 249 255
245 249 255
245 249 255
245 249 255
245 249 255
245 249 255
245 249 255
245 249 255
245 249 255
245 249 255
245 249 255
245 249 255
245 249 255
245 249 255
245 250 255
246 250 255
246 250 255
246 250 255
246 250 255
246 250 255
246 250 255
246 250 255
246 250 255
246 250 255
246 250 255
246 250 255
246 250 255
246 250 255
246 250 255
246 250 255
246 250 255
246 250 255
246 250 255
246 250 255
247 250 255
247 250 255
247 250 255
247 250 255
247 250 255
247 250 255
247 250 255
247 250 255
247 250 255
247 250 255
247 250 255
247 250 255
247 250 255
247 250 255
247 250 255
247 250 255
247 251 255
247 251 255
247 251 255
247 251 255
247 251 255
247 251 255
247 251 255
247 251 255
247 251 255
247 251 255
247 251 255
247 251 255
247 251 255
247 251 255
247 251 255
247 251 255
247 251 255
248 251 255
248 251 255
248 251 255
248 251 255
248 251 255
248 251 255
248 251 255
248 251 255
248 251 255
248 251 255
248 251 255
248 251 255
248 251 255
248 251 255
248 251 255
248 251 255
248 251 255
248 251 255
248 251 255
248 251 255
248 251 255
248 251 255
247 251 255
247 251 255
247 251 255
247 251 255
247 251 255
247 251 255
247 251 255
247 251 255
247 251 255
247 251 255
247 251 255
247 251 255
247 251 255
247 251 255
247 251 255
247 251 255
247 251 255
247 250 255
247 250 255
247 250 255
247 250 255
247 250 255
247 250 255
247 250 255
247 250 255
247 250 255
247 250 255
247 250 255
247 250 255
247 250 255
247 250 255
247 250 255
246 250 255
246 250 255
246 250 255
246 250 255
246 250 255
246 250 255
246 250 255
246 250 255
246 250 255
246 250 255
246 250 255
246 250 255
246 250 255
246 250 255
246 250 255
246 250 255
246 250 255
246 250 255
246 250 255
245 250 255
245 250 255
245 249 255
245 249 255
245 249 255
245 249 255
245 249 255
245 249 255
245 249 255
245 249 255
245 249 255
245 249 255
245 249 255
245 249 255
245 249 255
245 249 255
245 249 255
244 249 255
244 249 255
244 249 255
244 249 255
244 249 255
244 249 255
244 249 255
244 249 255
244 249 255
244 249 255
244 249 255
244 248 255
244 248 255
244 248 255
244 248 255
243 248 255
243 248 255
243 248 255
243 248 255
243 248 255
243 248 255
243 248 255
243 248 255
243 248 255
243 248 255
243 248 255
243 248 255
243 248 255
243 248 255
243 248 255
242 248 255
242 248 255
242 248 255
242 248 255
242 248 255
242 248 255
242 248 255
242 247 255
242 247 255
242 247 255
242 247 255
242 247 255
242 247 255
242 247 255
241 247 255
241 247 255
241 247 255
241 247 255
241 247 255
241 247 255
241 247 255
241 247 255
241 247 255
241 247 255
241 247 255
241 247 255
241 247 255
241 247 255
241 247 255
241 247 255
240 247 255
240 247 255
240 247 255
240 246 255
240 246 255
240 246 255
240 246 255
240 246 255
240 246 255
240 246 255
240 246 255
240 246 255
240 246 255
240 246 255
240 246 255
240 246 255
239 246 255
239 246 255
239 246 255
239 246 255
239 246 255
239 246 255
239 246 255
239 246 255
239 246 255
239 246 255
239 246 255
239 246 255
239 246 255
239 246 255
239 246 255
239 245 255
238 245 255
238 245 255
238 245 255
238 245 255
238 245 255
238 245 255
238 245 255
238 245 255
238 245 255
238 245 255
238 245 255
238 245 255
238 245 255
238 245 255
238 245 255
238 245 255
238 245 255
238 245 255
238 245 255
237 245 255
237 245 255
237 245 255
237 245 255
237 245 255
237 245 255
237 245 255
237 245 255
237 245 255
237 245 255
237 245 255
237 245 255
237 245 255
237 245 255
237 245 255
237 245 255
237 245 255
237 245 255
238 245 255
238 245 255
238 245 255
238 245 255
238 245 255
238 245 255
238 245 255
238 245 255
238 245 255
238 245 255
238 245 255
238 245 255
238 245 255
238 245 255
238 245 255
238 245 255
238 245 255
238 245 255
239 245 255
239 245 255
239 246 255
239 246 255
239 246 255
239 246 255
239 246 255
239 246 255
239 246 255
239 246 255
239 246 255
239 246 255
239 246 255
239 246 255
239 246 255
239 246 255
239 246 255
239 246 255
240 246 255
240 246 255
240 246 255
240 246 255
240 246 255
240 246 255
240 246 255
240 246 255
240 246 255
240 246 255
240 246 255
240 246 255
240 246 255
240 247 255
240 247 255
240 247 255
241 247 255
241 247 255
241 247 255
241 247 255
241 247 255
241 247 255
241 247 255
241 247 255
241 247 255
241 247 255
241 247 255
241 247 255
241 247 255
241 247 255
241 247 255
242 247 255
242 247 255
242 247 255
242 247 255
242 247 255
242 247 255
242 247 255
242 247 255
242 248 255
242 248 255
242 248 255
242 248 255
242 248 255
242 248 255
242 248 255
243 248 255
243 248 255
243 248 255
243 248 255
243 248 255
243 248 255
243 248 255
243 248 255
243 248 255
243 248 255
243 248 255
243 248 255
243 248 255
243 248 255
243 248 255
244 248 255
244 248 255
244 248 255
244 249 255
244 249 255
244 249 255
244 249 255
244 249 255
244 249 255
244 249 255
244 249 255
244 249 255
244 249 255
244 249 255
244 249 255
245 249 255
245 249 255
245 249 255
245 249 255
245 249 255
245 249 255
245 249 255
245 249 255
245 249 255
245 249 255
245 249 255
245 249 255
245 249 255
245 249 255
245 250 255
245 250 255
246 250 255
246 250 255
246 250 255
246 250 255
246 250 255
246 250 255
246 250 255
246 250 255
246 250 255
246 250 255
246 250 255
246 250 255
246 250 255
246 250 255
246 250 255
246 250 255
246 250 255
246 250 255
247 250 255
247 250 255
247 250 255
247 250 255
247 250 255
247 250 255
247 250 255
247 250 255
247 250 255
247 250 255
247 250 255
247 250 255
247 250 255
247 250 255
247 250 255
247 251 255
247 251 255
247 251 255
247 251 255
247 251 255
247 251 255
247 251 255
247 251 255
247 251 255
247 251 255
247 251 255
247 251 255
247 251 255
247 251 255
248 251 255
248 251 255
248 251 255
248 251 255
248 251 255
248 251 255
248 251 255
248 251 255
248 251 255
248 251 255
248 251 255
248 251 255
248 251 255
248 251 255
248 251 255
248 251 255
248 251 255
248 251 255
248 251 255
248 251 255
248 251 255
248 251 255
248 251 255
248 251 255
248 251 255
248 251 255
248 251 255
248 251 255
248 251 255
248 251 255
248 251 255
248 251 255
248 251 255
248 251 255
247 251 255
247 251 255
247 251 255
247 251 255
247 251 255
247 251 255
247 251 255
247 251 255
247 251 255
247 251 255
247 251 255
247 251 255
247 251 255
247 251 255
247 250 255
247 250 255
247 250 255
247 250 255
247 250 255
247 250 255
247 250 255
247 250 255
247 250 255
247 250 255
247 250 255
247 250 255
247 250 255
247 250 255
247 250 255
246 250 255
246 250 255
246 250 255
246 250 255
246 250 255
246 250 255
246 250 255
246 250 255
246 250 255
246 250 255
246 250 255
246 250 255
246 250 255
246 250 255
246 250 255
246 250 255
246 250 255
246 250 255
245 250 255
245 250 255
245 249 255
245 249 255
245 249 255
245 249 255
245 249 255
245 249 255
245 249 255
245 249 255
245 249 255
245 249 255
245 249 255
245 249 255
245 249 255
245 249 255
244 249 255
244 249 255
244 249 255
244 249 255
244 249 255
244 249 255
244 249 255
244 249 255
244 249 255
244 249 255
244 249 255
244 249 255
244 248 255
244 248 255
244 248 255
243 248 255
243 248 255
243 248 255
243 248 255
243 248 255
243 248 255
243 248 255
243 248 255
243 248 255
243 248 255
243 248 255
243 248 255
243 248 255
243 248 255
243 248 255
242 248 255
242 248 255
242 248 255
242 248 255
242 248 255
242 248 255
242 248 255
242 247 255
242 247 255
242 247 255
242 247 255
242 247 255
242 247 255
242 247 255
242 247 255
241 247 255
241 247 255
241 247 255
241 247 255
241 247 255
241 247 255
241 247 255
241 247 255
241 247 255
241 247 255
241 247 255
241 247 255
241 247 255
241 247 255
241 247 255
240 247 255
240 247 255
240 247 255
240 246 255
240 246 255
240 246 255
240 246 255
240 246 255
240 246 255
240 246 255
240 246 255
240 246 255
240 246 255
240 246 255
240 246 255
240 246 255
240 246 255
239 246 255
239 246 255
239 246 255
239 246 255
239 246 255
239 246 255
239 246 255
239 246 255
239 246 255
239 246 255
239 246 255
239 246 255
239 246 255
239 246 255
239 246 255
239 245 255
239 245 255
238 245 255
238 245 255
238 245 255
238 245 255
238 245 255
238 245 255
238 245 255
238 245 255
238 245 255
238 245 255
238 245 255
238 245 255
238 245 255
238 245 255
238 245 255
238 245 255
238 245 255
238 245 255
237 245 255
237 245 255
237 245 255
237 245 255
237 245 255
237 245 255
237 245 255
237 245 255
237 245 255
237 245 255
237 245 255
237 245 255
237 245 255
237 245 255
238 245 255
238 245 255
238 245 255
238 245 255
238 245 255
238 245 255
238 245 255
238 245 255
238 245 255
238 245 255
238 245 255
238 245 255
238 245 255
238 245 255
238 245 255
238 245 255
238 245 255
238 245 255
239 245 255
239 245 255
239 246 255
239 246 255
239 246 255
239 246 255
239 246 255
239 246 255
239 246 255
239 246 255
239 246 255
239 246 255
239 246 255
239 246 255
239 246 255
239 246 255
239 246 255
239 246 255
240 246 255
240 246 255
240 246 255
240 246 255
240 246 255
240 246 255
240 246 255
240 246 255
240 246 255
240 246 255
240 246 255
240 246 255
240 246 255
240 247 255
240 247 255
240 247 255
241 247 255
241 247 255
241 247 255
241 247 255
241 247 255
241 247 255
241 247 255
241 247 255
241 247 255
241 247 255
241 247 255
241 247 255
241 247 255
241 247 255
241 247 255
242 247 255
242 247 255
242 247 255
242 247 255
242 247 255
242 247 255
242 247 255
242 247 255
242 248 255
242 248 255
242 248 255
242 248 255
242 248 255
242 248 255
242 248 255
243 248 255
243 248 255
243 248 255
243 248 255
243 248 255
243 248 255
243 248 255
243 248 255
243 248 255
243 248 255
243 248 255
243 248 255
243 248 255
243 248 255
243 248 255
244 248 255
244 248 255
244 248 255
244 249 255
244 249 255
244 249 255
244 249 255
244 249 255
244 249 255
244 249 255
244 249 255
244 249 255
244 249 255
244 249 255
244 249 255
245 249 255
245 249 255
245 249 255
245 249 255
245 249 255
245 249 255
245 249 255
245 249 255
245 249 255
245 249 255
245 249 255
245 249 255
245 249 255
245 249 255
245 250 255
245 250 255
246 250 255
246 250 255
246 250 255
246 250 255
246 250 255
246 250 255
246 250 255
246 250 255
246 250 255
246 250 255
246 250 255
246 250 255
246 250 255
246 250 255
246 250 255
246 250 255
246 250 255
246 250 255
247 250 255
247 250 255
247 250 255
247 250 255
247 250 255
247 250 255
247 250 255
247 250 255
247 250 255
247 250 255
247 250 255
247 250 255
247 250 255
247 250 255
247 251 255
247 251 255
247 251 255
247 251 255
247 251 255
247 251 255
247 251 255
247 251 255
247 251 255
247 251 255
247 251 255
247 251 255
247 251 255
248 251 255
248 251 255
248 251 255
248 251 255
248 251 255
248 251 255
248 251 255
248 251 255
248 251 255
248 251 255
248 251 255
248 251 255
248 251 255
248 251 255
248 251 255
248 251 255
248 251 255
248 251 255
248 251 255
248 251 255
248 251 255
248 251 255
248 251 255
248 251 255
248 251 255
248 251 255
248 251 255
248 251 255
248 251 255
248 251 255
248 251 255
248 251 255
248 251 255
248 251 255
248 251 255
248 251 255
248 251 255
248 251 255
248 251 255
248 251 255
248 251 255
248 251 255
247 251 255
247 251 255
247 251 255
247 251 255
247 251 255
247 251 255
247 251 255
247 251 255
247 251 255
247 251 255
247 251 255
247 251 255
247 251 255
247 250 255
247 250 255
247 250 255
247 250 255
247 250 255
247 250 255
247 250 255
247 250 255
247 250 255
247 250 255
247 250 255
247 250 255
247 250 255
247 250 255
246 250 255
246 250 255
246 250 255
246 250 255
246 250 255
246 250 255
246 250 255
246 250 255
246 250 255
246 250 255
246 250 255
246 250 255
246 250 255
246 250 255
246 250 255
246 250 255
246 250 255
246 250 255
245 250 255
245 250 255
245 249 255
245 249 255
245 249 255
245 249 255
245 249 255
245 249 255
245 249 255
245 249 255
245 249 255
245 249 255
245 249 255
245 249 255
245 249 255
245 249 255
244 249 255
244 249 255
244 249 255
244 249 255
244 249 255
244 249 255
244 249 255
244 249 255
244 249 255
244 249 255
244 249 255
244 249 255
244 248 255
244 248 255
244 248 255
243 248 255
243 248 255
243 248 255
243 248 255
243 248 255
243 248 255
243 248 255
243 248 255
243 248 255
243 248 255
243 248 255
243 248 255
243 248 255
243 248 255
243 248 255
242 248 255
242 248 255
242 248 255
242 248 255
242 248 255
242 248 255
242 248 255
242 247 255
242 247 255
242 247 255
242 247 255
242 247 255
242 247 255
242 247 255
242 247 255
241 247 255
241 247 255
241 247 255
241 247 255
241 247 255
241 247 255
241 247 255
241 247 255
241 247 255
241 247 255
241 247 255
241 247 255
241 247 255
241 247 255
241 247 255
240 247 255
240 247 255
240 247 255
240 246 255
240 246 255
240 246 255
240 246 255
240 246 255
240 246 255
240 246 255
240 246 255
240 246 255
240 246 255
240 246 255
240 246 255
240 246 255
239 246 255
239 246 255
239 246 255
239 246 255
239 246 255
239 246 255
239 246 255
239 246 255
239 246 255
239 246 255
239 246 255
239 246 255
239 246 255
239 246 255
239 246 255
239 246 255
239 245 255
239 245 255
238 245 255
238 245 255
238 245 255
238 245 255
238 245 255
238 245 255
238 245 255
238 245 255
238 245 255
238 245 255
238 245 255
238 245 255
238 245 255
238 245 255
238 245 255
238 245 255
238 245 255
238 245 255
237 245 255
237 245 255
237 245 255
237 245 255
237 245 255
237 245 255
237 245 255
237 245 255
237 245 255
237 245 255
238 245 255
238 245 255
238 245 255
238 245 255
238 245 255
238 245 255
238 245 255
238 245 255
238 245 255
238 245 255
238 245 255
238 245 255
238 245 255
238 245 255
238 245 255
238 245 255
238 245 255
238 245 255
239 245 255
239 245 255
239 246 255
239 246 255
239 246 255
239 246 255
239 246 255
239 246 255
239 246 255
239 246 255
239 246 255
239 246 255
239 246 255
239 246 255
239 246 255
239 246 255
239 246 255
239 246 255
240 246 255
240 246 255
240 246 255
240 246 255
240 246 255
240 246 255
240 246 255
240 246 255
240 246 255
240 246 255
240 246 255
240 246 255
240 246 255
240 247 255
240 247 255
240 247 255
241 247 255
241 247 255
241 247 255
241 247 255
241 247 255
241 247 255
241 247 255
241 247 255
241 247 255
241 247 255
241 247 255
241 247 255
241 247 255
241 247 255
241 247 255
242 247 255
242 247 255
242 247 255
242 247 255
242 247 255
242 247 255
242 247 255
242 247 255
242 248 255
242 248 255
242 248 255
242 248 255
242 248 255
242 248 255
242 248 255
243 248 255
243 248 255
243 248 255
243 248 255
243 248 255
243 248 255
243 248 255
243 248 255
243 248 255
243 248 255
243 248 255
243 248 255
243 248 255
243 248 255
243 248 255
244 248 255
244 248 255
244 248 255
244 248 255
244 249 255
244 249 255
244 249 255
244 249 255
244 249 255
244 249 255
244 249 255
244 249 255
244 249 255
244 249 255
244 249 255
245 249 255
245 249 255
245 249 255
245 249 255
245 249 255
245 249 255
245 249 255
245 249 255
245 249 255
245 249 255
245 249 255
245 249 255
245 249 255
245 249 255
245 249 255
245 250 255
246 250 255
246 250 255
246 250 255
246 250 255
246 250 255
246 250 255
246 250 255
246 250 255
246 250 255
246 250 255
246 250 255
246 250 255
246 250 255
246 250 255
246 250 255
246 250 255
246 250 255
246 250 255
247 250 255
247 250 255
247 250 255
247 250 255
247 250 255
247 250 255
247 250 255
247 250 255
247 250 255
247 250 255
247 250 255
247 250 255
247 250 255
247 250 255
247 251 255
247 251 255
247 251 255
247 251 255
247 251 255
247 251 255
247 251 255
247 251 255
247 251 255
247 251 255
247 251 255
248 251 255
248 251 255
248 251 255
248 251 255
248 251 255
248 251 255
248 251 255
248 251 255
248 251 255
248 251 255
248 251 255
248 251 255
248 251 255
248 251 255
248 251 255
248 251 255
248 251 255
248 251 255
248 251 255
248 251 255
248 251 255
248 251 255
248 251 255
248 251 255
248 251 255
248 251 255
248 251 255
248 251 255
248 251 255
248 251 255
248 251 255
248 251 255
248 251 255
248 251 255
248 251 255
248 251 255
248 251 255
248 251 255
248 251 255
248 251 255
248 251 255
248 251 255
248 251 255
248 251 255
248 251 255
248 251 255
248 251 255
248 251 255
248 251 255
248 251 255
247 251 255
247 251 255
247 251 255
247 251 255
247 251 255
247 251 255
247 251 255
247 251 255
247 251 255
247 251 255
247 251 255
247 250 255
247 250 255
247 250 255
247 250 255
247 250 255
247 250 255
247 250 255
247 250 255
247 250 255
247 250 255
247 250 255
247 250 255
247 250 255
247 250 255
246 250 255
246 250 255
246 250 255
246 250 255
246 250 255
246 250 255
246 250 255
246 250 255
246 250 255
246 250 255
246 250 255
246 250 255
246 250 255
246 250 255
246 250 255
246 250 255
246 250 255
246 250 255
245 250 255
245 249 255
245 249 255
245 249 255
245 249 255
245 249 255
245 249 255
245 249 255
245 249 255
245 249 255
245 249 255
245 249 255
245 249 255
245 249 255
245 249 255
245 249 255
244 249 255
244 249 255
244 249 255
244 249 255
244 249 255
244 249 255
244 249 255
244 249 255
244 249 255
244 249 255
244 249 255
244 249 255
244 248 255
244 248 255
244 248 255
243 248 255
243 248 255
243 248 255
243 248 255
243 248 255
243 248 255
243 248 255
243 248 255
243 248 255
243 248 255
243 248 255
243 248 255
243 248 255
243 248 255
243 248 255
242 248 255
242 248 255
242 248 255
242 248 255
242 248 255
242 248 255
242 248 255
242 247 255
242 247 255
242 247 255
242 247 255
242 247 255
242 247 255
242 247 255
242 247 255
241 247 255
241 247 255
241 247 255
241 247 255
241 247 255
241 247 255
241 247 255
241 247 255
241 247 255
241 247 255
241 247 255
241 247 255
241 247 255
241 247 255
241 247 255
240 247 255
240 247 255
240 247 255
240 246 255
240 246 255
240 246 255
240 246 255
240 246 255
240 246 255
240 246 255
240 246 255
240 246 255
240 246 255
240 246 255
240 246 255
240 246 255
239 246 255
239 246 255
239 246 255
239 246 255
239 246 255
239 246 255
239 246 255
239 246 255
239 246 255
239 246 255
239 246 255
239 246 255
239 246 255
239 246 255
239 246 255
239 246 255
239 245 255
239 245 255
238 245 255
238 245 255
238 245 255
238 245 255
238 245 255
238 245 255
238 245 255
238 245 255
238 245 255
238 245 255
238 245 255
238 245 255
238 245 255
238 245 255
238 245 255
238 245 255
238 245 255
238 245 255
237 245 255
237 245 255
237 245 255
237 245 255
