P3
400 225
255
174 197 0
173 196 0
174 198 0
174 197 0
174 198 0
171 195 0
174 198 0
173 197 0
174 198 0
174 197 0
174 198 0
176 198 0
173 197 0
175 198 0
175 198 0
175 198 0
174 198 0
175 198 0
173 195 0
174 198 0
173 197 0
174 197 0
173 197 0
174 197 0
173 196 0
175 198 0
175 198 0
173 197 0
175 198 0
174 198 0
174 198 0
173 196 0
173 196 0
174 197 0
175 198 0
174 197 0
173 197 0
174 197 0
174 197 0
173 197 0
175 198 0
174 197 0
177 199 0
174 198 0
175 198 0
173 197 0
172 196 0
175 198 0
172 196 0
175 198 0
174 197 0
174 198 0
174 197 0
174 197 0
174 197 0
175 198 0
173 197 0
174 198 0
173 196 0
174 197 0
174 198 0
173 197 0
173 197 0
174 197 0
175 198 0
173 197 0
174 197 0
174 197 0
173 196 0
174 197 0
173 197 0
173 197 0
174 198 0
172 196 0
174 197 0
172 196 0
173 196 0
174 196 0
174 198 0
175 198 0
174 197 0
173 196 0
173 197 0
174 197 0
173 196 0
173 196 0
173 195 0
172 196 0
174 197 0
173 197 0
173 196 0
173 197 0
173 196 0
174 197 0
173 197 0
174 198 0
174 197 0
171 196 0
174 197 0
175 198 0
174 197 0
173 197 0
173 196 0
173 196 0
174 198 0
172 196 0
174 197 0
172 196 0
172 196 0
172 196 0
173 197 0
173 197 0
175 197 0
174 198 0
173 197 0
174 197 0
173 196 0
173 197 0
174 197 0
170 194 0
173 195 0
176 199 0
172 196 0
173 196 0
174 197 0
175 197 0
172 196 0
173 196 0
172 195 0
173 197 0
173 196 0
172 196 0
172 196 0
174 197 0
171 196 0
174 197 0
174 197 0
174 198 0
173 197 0
173 196 0
174 198 0
174 197 0
173 197 0
170 193 0
173 196 0
174 197 0
174 198 0
174 198 0
172 196 0
172 196 0
174 197 0
173 196 0
173 197 0
174 197 0
172 196 0
172 196 0
171 194 0
173 196 0
174 197 0
171 195 0
173 197 0
171 194 0
173 196 0
173 197 0
171 195 0
170 195 0
172 195 0
175 198 0
174 198 0
173 197 0
174 197 0
172 195 0
173 196 0
172 196 0
171 195 0
172 195 0
171 195 0
174 196 0
172 196 0
174 197 0
173 196 0
173 196 0
171 195 0
173 197 0
175 198 0
172 196 0
174 198 0
172 195 0
172 195 0
171 196 0
173 197 0
174 197 0
176 198 0
172 195 0
169 193 0
174 197 0
171 195 0
173 196 0
174 198 0
173 197 0
172 196 0
173 195 0
174 198 0
174 197 0
175 198 0
174 197 0
173 197 0
174 196 0
174 197 0
173 196 0
174 196 0
171 194 0
174 197 0
172 196 0
174 197 0
174 197 0
173 197 0
173 196 0
174 197 0
173 196 0
172 195 0
173 196 0
171 194 0
174 196 0
170 194 0
172 196 0
173 196 0
174 197 0
175 197 0
174 197 0
173 197 0
173 197 0
172 195 0
171 194 0
173 196 0
172 196 0
171 194 0
173 197 0
174 196 0
170 193 0
172 194 19
170 192 22
167 188 22
167 184 39
164 179 42
155 169 42
162 180 36
155 167 47
159 169 62
158 167 59
143 148 60
147 152 67
146 153 60
158 161 73
146 148 67
157 155 85
154 151 84
152 148 85
143 139 80
154 148 89
143 138 81
146 140 87
155 149 91
147 143 89
155 150 93
146 141 89
152 147 95
151 146 89
152 147 94
156 151 97
159 154 98
154 150 98
154 150 97
155 149 96
168 162 105
157 153 101
152 148 95
160 156 103
161 157 102
162 159 105
166 161 104
155 152 100
160 156 103
160 155 102
161 157 103
168 165 109
159 156 104
161 158 103
155 152 102
164 160 106
161 157 104
164 161 107
161 158 105
169 165 109
161 159 106
164 160 107
164 161 108
163 161 107
159 157 105
159 157 105
159 157 105
161 159 106
162 160 107
162 159 106
154 152 101
162 159 106
161 159 107
162 160 107
159 156 104
166 164 110
160 157 105
165 162 108
167 164 110
166 164 109
163 162 109
163 161 108
164 161 108
164 161 108
166 164 109
163 161 108
169 166 110
161 159 106
166 163 109
162 160 107
162 161 108
163 161 108
166 163 109
159 157 105
165 163 109
160 158 106
166 163 108
167 164 109
162 159 106
160 157 104
159 157 104
167 164 109
171 168 112
163 159 106
162 159 106
158 156 103
163 159 106
162 159 106
167 165 109
163 159 105
167 164 109
160 157 103
160 157 103
163 160 106
164 159 103
164 161 105
170 166 110
165 160 104
161 158 103
157 154 101
158 154 101
162 158 103
163 158 104
162 158 103
155 150 96
161 155 100
161 157 99
151 146 94
149 144 89
156 151 97
153 148 96
159 153 97
141 137 83
152 147 93
144 140 85
149 143 89
152 147 90
147 142 86
136 131 81
156 153 87
157 155 84
151 152 74
157 159 73
149 154 63
155 163 61
158 167 59
162 174 49
160 174 49
163 179 41
164 182 37
168 186 34
169 191 19
171 193 16
174 197 0
174 196 0
175 198 0
174 197 0
175 198 0
173 197 0
174 197 0
174 198 0
175 198 0
175 198 0
175 198 0
173 197 0
173 196 0
173 196 0
173 197 0
174 197 0
175 197 0
173 197 0
175 198 0
173 197 0
174 197 0
174 197 0
173 197 0
174 197 0
175 198 0
172 196 0
173 197 0
172 196 0
175 198 0
173 196 0
172 197 0
175 198 0
173 196 0
175 197 0
173 197 0
174 197 0
174 198 0
174 198 0
173 197 0
174 197 0
176 198 0
173 196 0
175 198 0
174 198 0
176 198 0
175 198 0
174 197 0
172 196 0
173 197 0
173 196 0
176 198 0
173 196 0
170 195 0
173 197 0
174 198 0
174 197 0
174 198 0
172 196 0
175 198 0
174 197 0
175 198 0
172 196 0
175 198 0
173 197 0
175 198 0
175 198 0
174 198 0
174 198 0
174 197 0
173 197 0
174 197 0
171 195 0
174 197 0
173 197 0
173 196 0
174 197 0
173 196 0
173 196 0
173 197 0
174 197 0
172 195 0
175 198 0
172 197 0
174 197 0
175 198 0
172 195 0
173 196 0
174 198 0
174 197 0
173 197 0
173 196 0
171 195 0
173 197 0
174 197 0
172 195 0
172 195 0
173 196 0
173 197 0
173 196 0
174 197 0
175 198 0
174 197 0
172 197 0
175 198 0
171 195 0
174 197 0
173 196 0
171 196 0
174 198 0
174 197 0
173 197 0
172 196 0
174 197 0
171 195 0
172 195 0
173 197 0
170 194 0
175 198 0
172 196 0
173 197 0
173 197 0
172 196 0
173 197 0
172 195 0
171 195 0
173 197 0
173 196 0
173 197 0
174 197 0
173 196 0
175 198 0
173 197 0
175 198 0
173 196 0
171 195 0
175 198 0
174 197 0
175 198 0
170 193 0
173 196 0
173 196 0
169 192 0
171 195 0
174 197 0
173 197 0
175 197 0
171 195 0
173 197 0
172 196 0
174 198 0
173 197 0
175 198 0
173 196 0
174 198 0
173 197 0
172 195 0
175 197 0
172 195 0
172 196 0
173 197 0
174 197 0
173 197 0
172 196 0
176 198 0
174 197 0
174 196 0
174 197 0
172 196 0
171 195 0
172 195 0
170 194 0
174 197 0
174 197 0
173 197 0
170 194 0
172 195 0
174 196 0
173 195 0
174 197 0
172 195 0
173 197 0
170 193 0
172 195 0
173 197 0
171 195 0
173 197 0
176 199 0
173 195 0
174 197 0
171 195 0
172 196 0
172 196 0
172 195 0
173 196 0
174 198 0
173 197 0
171 195 0
173 196 0
174 198 0
173 196 0
173 195 0
173 196 0
173 195 0
176 198 0
172 196 0
172 195 0
174 197 0
173 196 0
173 196 0
175 198 0
174 197 0
177 199 0
172 196 0
173 197 0
172 196 0
172 194 0
172 197 0
173 197 0
170 193 0
174 197 0
174 197 0
173 196 0
174 197 0
172 195 0
173 197 0
172 195 0
173 196 0
174 197 0
171 195 0
174 197 0
173 196 0
173 196 0
174 197 0
172 195 0
173 196 0
173 197 0
173 196 0
172 196 0
175 198 0
174 197 0
173 196 0
172 196 0
174 197 0
173 197 0
174 197 0
173 197 0
173 196 0
172 196 0
171 194 0
173 196 0
171 194 0
173 196 11
167 188 19
173 192 30
167 187 22
166 186 28
161 179 32
164 179 44
161 175 47
158 174 42
156 168 44
149 158 51
155 161 62
145 156 45
150 148 78
152 155 68
148 148 76
151 147 81
156 153 84
149 143 85
150 146 90
158 151 94
153 149 92
152 146 91
152 147 91
154 149 95
150 145 91
148 144 93
151 147 95
155 150 95
156 152 97
162 157 102
156 152 100
163 157 99
157 153 100
164 159 103
161 157 102
157 152 99
159 155 100
156 151 98
162 157 102
162 159 104
156 153 100
160 156 103
161 158 104
163 159 105
157 154 102
160 156 104
166 162 107
153 150 100
161 157 104
162 159 105
160 157 105
168 164 109
164 161 107
164 161 107
164 161 107
165 162 108
162 159 106
161 158 106
162 159 105
161 159 107
165 163 109
170 166 110
159 156 104
165 162 108
164 162 108
166 164 110
165 163 109
167 164 109
165 162 108
165 162 108
166 164 109
162 159 106
164 161 108
162 160 107
165 163 109
166 163 109
164 162 108
167 163 109
164 162 109
170 168 112
169 166 111
161 160 107
168 166 111
159 157 105
156 154 103
167 165 110
167 163 109
167 164 109
165 162 108
163 161 108
168 165 110
163 161 108
160 157 104
158 155 103
160 158 105
164 161 107
160 158 106
161 158 104
165 162 108
163 159 105
161 157 104
166 162 107
165 161 106
161 158 105
156 153 101
163 159 106
161 158 104
162 157 104
167 163 108
166 163 106
162 157 103
161 156 102
159 156 103
157 152 99
163 158 101
159 156 100
164 159 104
159 155 100
158 153 98
159 154 99
154 150 97
152 147 94
156 151 97
159 154 98
158 154 101
151 146 90
159 154 99
151 145 93
143 139 88
154 148 94
150 145 88
152 145 87
137 133 81
136 131 74
143 139 81
141 139 75
152 154 81
156 159 74
151 155 67
155 159 69
155 165 54
165 174 61
159 171 51
157 170 42
164 183 34
165 183 34
171 191 30
173 196 11
172 194 11
173 196 0
174 197 0
174 197 0
175 197 0
174 197 0
174 197 0
175 198 0
174 197 0
174 197 0
175 198 0
174 198 0
173 197 0
175 198 0
172 196 0
173 197 0
174 197 0
175 198 0
175 198 0
175 198 0
172 197 0
174 197 0
172 196 0
171 194 0
175 198 0
174 197 0
172 196 0
173 197 0
171 196 0
175 198 0
174 198 0
174 198 0
175 198 0
173 196 0
174 198 0
173 197 0
173 196 0
172 196 0
174 198 0
174 197 0
173 196 0
173 197 0
173 197 0
172 195 0
173 196 0
172 195 0
175 198 0
174 197 0
172 196 0
174 198 0
173 196 0
174 198 0
174 197 0
172 196 0
175 198 0
173 196 0
173 196 0
173 197 0
175 198 0
172 196 0
173 197 0
173 197 0
172 196 0
174 198 0
174 197 0
174 198 0
174 197 0
174 198 0
173 196 0
173 197 0
173 197 0
172 196 0
173 196 0
174 198 0
174 197 0
172 197 0
171 194 0
175 198 0
174 197 0
174 197 0
173 197 0
174 197 0
172 196 0
173 196 0
174 197 0
172 196 0
172 196 0
173 196 0
173 196 0
174 198 0
172 196 0
174 197 0
171 195 0
173 197 0
174 197 0
172 195 0
174 198 0
174 197 0
173 197 0
171 195 0
175 198 0
175 198 0
173 197 0
174 197 0
174 197 0
175 198 0
175 197 0
172 196 0
173 197 0
175 197 0
174 197 0
172 195 0
173 197 0
173 196 0
173 196 0
174 198 0
174 197 0
174 198 0
173 196 0
173 196 0
172 195 0
174 197 0
171 195 0
173 196 0
173 197 0
172 196 0
172 195 0
176 199 0
172 197 0
170 193 0
175 198 0
172 196 0
174 198 0
174 197 0
173 196 0
173 196 0
171 195 0
175 198 0
172 196 0
173 197 0
173 196 0
174 197 0
174 197 0
174 197 0
172 195 0
173 197 0
173 196 0
173 196 0
173 196 0
173 197 0
173 196 0
172 195 0
172 195 0
176 198 0
173 196 0
173 195 0
172 196 0
173 196 0
175 198 0
175 197 0
174 197 0
174 198 0
173 196 0
175 198 0
173 196 0
174 197 0
173 197 0
174 197 0
173 197 0
176 198 0
173 196 0
173 196 0
176 198 0
172 196 0
173 197 0
174 197 0
172 194 0
175 198 0
171 195 0
175 198 0
172 194 0
174 197 0
172 195 0
173 196 0
172 195 0
172 195 0
173 196 0
173 197 0
173 196 0
174 197 0
173 197 0
172 195 0
174 197 0
174 197 0
173 197 0
173 196 0
173 197 0
171 195 0
172 197 0
174 197 0
175 198 0
171 194 0
171 194 0
173 196 0
172 196 0
171 194 0
173 197 0
173 196 0
174 197 0
172 195 0
175 197 0
175 197 0
174 197 0
173 196 0
173 196 0
173 196 0
173 196 0
171 195 0
174 198 0
173 196 0
174 197 0
173 196 0
173 197 0
172 196 0
174 196 0
172 196 0
174 197 0
172 196 0
172 194 0
172 195 0
174 197 0
174 197 0
172 194 0
173 197 0
173 195 0
173 196 0
174 197 0
174 197 0
172 195 0
174 197 0
171 194 0
174 197 0
173 197 0
174 197 0
173 197 0
173 197 0
173 195 0
174 197 0
173 197 0
171 194 0
173 197 0
174 196 16
166 187 25
168 189 19
166 186 22
162 182 22
161 177 42
160 178 32
165 177 49
164 174 62
156 169 48
155 165 56
152 159 61
156 161 67
154 155 75
147 148 73
164 165 82
150 148 79
146 144 80
151 145 85
140 134 82
159 153 94
155 149 93
153 148 93
142 136 83
151 147 92
149 144 94
147 144 90
147 143 93
159 155 99
155 151 98
159 154 99
156 151 96
149 145 94
148 144 93
155 151 98
158 153 98
156 152 99
158 154 102
163 158 103
160 155 101
166 161 105
163 159 104
160 156 100
162 159 105
157 153 101
148 145 95
157 155 103
158 153 102
167 163 108
162 158 104
164 160 107
167 163 108
164 162 107
160 157 104
163 159 106
159 156 105
161 157 105
162 159 107
160 159 107
164 162 108
160 158 105
160 158 106
168 165 110
165 162 108
165 162 108
165 163 109
167 164 109
164 161 107
169 166 110
168 165 110
169 166 111
162 160 107
166 163 109
169 167 112
168 165 110
168 166 110
170 167 111
163 161 108
162 160 107
161 159 106
164 162 109
162 159 106
162 160 107
161 159 106
166 163 109
167 164 109
162 159 106
166 163 109
159 157 106
163 161 108
158 156 104
164 162 108
167 165 110
165 162 108
164 162 108
159 157 105
160 157 105
165 162 107
165 162 107
159 157 104
168 164 109
166 162 108
162 159 105
163 160 106
160 156 103
160 157 104
158 154 102
162 159 105
166 163 108
164 161 105
157 154 102
163 159 104
158 154 101
163 158 103
160 156 102
158 156 103
160 156 101
168 162 106
157 152 99
164 159 102
157 152 95
162 158 102
148 144 93
157 152 95
151 147 94
154 149 95
152 146 93
153 148 93
157 152 99
155 150 95
152 147 93
160 154 93
156 150 93
147 142 87
161 154 95
148 143 85
151 147 83
145 143 75
159 158 84
145 148 64
155 158 64
157 166 59
157 167 56
149 160 47
160 176 41
166 183 37
163 178 41
167 188 16
168 189 16
174 196 11
174 196 0
173 196 0
173 197 0
175 197 0
175 198 0
175 197 0
174 198 0
173 197 0
175 198 0
173 197 0
174 198 0
173 196 0
174 198 0
175 198 0
175 198 0
174 197 0
174 198 0
174 197 0
174 198 0
173 196 0
173 197 0
173 196 0
174 198 0
174 198 0
172 196 0
174 198 0
172 196 0
175 198 0
174 198 0
174 197 0
175 198 0
173 197 0
173 196 0
175 198 0
172 197 0
174 198 0
174 197 0
175 198 0
175 198 0
174 197 0
173 196 0
175 198 0
174 197 0
174 197 0
174 197 0
176 198 0
172 196 0
175 198 0
172 196 0
174 197 0
175 198 0
174 197 0
174 197 0
175 198 0
173 196 0
174 197 0
174 198 0
176 198 0
173 196 0
174 198 0
174 197 0
174 197 0
174 197 0
172 196 0
175 197 0
174 197 0
173 197 0
172 195 0
174 197 0
175 198 0
174 198 0
174 197 0
173 196 0
174 197 0
173 196 0
174 197 0
175 198 0
173 196 0
175 198 0
173 196 0
169 192 0
176 198 0
174 198 0
174 198 0
174 198 0
173 196 0
174 196 0
173 197 0
174 197 0
173 196 0
173 197 0
173 196 0
174 198 0
174 197 0
172 196 0
172 195 0
173 196 0
170 194 0
172 195 0
173 197 0
173 197 0
174 197 0
174 197 0
173 196 0
173 197 0
173 196 0
173 196 0
173 196 0
172 196 0
175 198 0
174 197 0
175 198 0
171 195 0
173 197 0
173 197 0
172 196 0
175 198 0
173 196 0
172 196 0
173 196 0
173 196 0
174 197 0
173 196 0
174 198 0
174 197 0
173 196 0
172 195 0
176 198 0
171 194 0
173 196 0
173 196 0
172 195 0
175 198 0
173 196 0
173 197 0
175 198 0
175 198 0
174 198 0
174 197 0
173 196 0
173 197 0
173 196 0
174 198 0
173 197 0
172 195 0
172 196 0
175 197 0
173 197 0
173 197 0
171 195 0
173 197 0
174 197 0
173 196 0
172 196 0
173 196 0
173 196 0
175 198 0
170 194 0
173 196 0
173 196 0
175 197 0
175 198 0
171 195 0
172 196 0
173 196 0
172 196 0
173 197 0
175 197 0
173 197 0
172 195 0
170 195 0
173 196 0
172 195 0
175 198 0
171 193 0
172 196 0
175 198 0
171 194 0
173 196 0
173 195 0
172 196 0
173 196 0
172 196 0
171 194 0
171 194 0
172 195 0
174 197 0
172 195 0
174 198 0
174 197 0
174 197 0
172 196 0
172 195 0
172 196 0
173 197 0
174 198 0
171 194 0
174 197 0
172 196 0
173 196 0
173 197 0
171 194 0
173 197 0
173 196 0
174 196 0
173 196 0
175 197 0
172 195 0
175 198 0
171 194 0
171 194 0
173 196 0
173 197 0
176 198 0
173 196 0
173 197 0
175 198 0
173 196 0
173 197 0
171 194 0
171 195 0
173 196 0
173 196 0
174 197 0
173 196 0
172 195 0
172 195 0
173 197 0
173 197 0
172 195 0
172 196 0
170 194 0
174 196 0
172 196 0
173 195 0
170 194 0
172 194 0
173 197 0
170 194 0
173 196 0
174 197 0
173 197 0
173 196 0
171 195 0
173 195 0
173 196 0
172 196 0
174 197 0
173 196 0
172 196 0
170 191 19
168 190 16
168 188 19
166 187 25
159 175 39
162 180 28
161 174 47
158 172 41
162 173 57
151 156 62
156 166 56
150 155 64
151 156 68
155 158 75
153 154 79
144 143 77
147 144 80
152 147 87
148 143 84
147 142 89
152 146 90
150 144 89
147 141 86
151 146 92
155 151 92
149 145 90
147 143 88
155 150 95
156 152 97
149 146 94
150 145 93
152 148 97
160 154 97
160 155 101
156 151 98
155 151 97
165 161 107
160 155 102
159 156 102
160 156 101
158 154 102
154 151 99
153 150 100
163 158 104
159 156 103
160 157 103
160 157 105
152 149 99
164 161 107
167 163 105
161 158 105
164 161 108
163 160 106
163 159 104
160 157 105
161 159 106
164 161 108
160 158 105
161 158 106
160 157 104
164 161 108
169 167 111
165 162 108
168 164 110
159 158 106
167 164 109
163 160 107
168 165 110
169 167 112
168 166 111
169 166 111
164 162 108
167 164 109
172 169 112
166 164 109
166 163 109
163 161 108
167 165 110
165 163 109
170 167 111
161 158 106
165 163 109
160 157 105
168 164 109
167 164 110
167 165 109
173 170 113
166 163 108
168 165 110
161 159 107
162 159 106
162 159 106
164 161 107
164 160 106
162 159 106
166 163 109
161 158 105
165 162 108
166 162 108
166 163 108
163 160 106
167 163 108
168 165 109
158 155 103
157 155 103
163 160 105
164 160 106
162 159 103
161 158 105
162 159 105
168 164 108
164 160 104
164 160 105
163 159 105
166 160 104
158 153 99
159 155 101
167 162 103
157 153 100
157 153 98
159 154 101
167 162 104
159 154 98
161 156 99
150 146 90
156 150 97
153 149 92
159 154 98
148 143 91
165 158 100
162 155 95
158 153 95
151 146 91
149 144 90
147 142 85
150 143 90
144 140 81
143 141 81
152 151 79
152 153 78
157 163 69
156 161 64
164 172 61
157 168 45
160 173 48
160 175 48
162 180 30
167 185 36
165 183 25
175 195 30
169 191 16
173 196 0
176 197 0
176 199 0
174 197 0
173 197 0
173 196 0
175 198 0
174 198 0
173 196 0
175 198 0
173 197 0
175 198 0
174 197 0
174 197 0
174 197 0
175 198 0
174 198 0
174 198 0
172 196 0
174 197 0
173 196 0
171 196 0
173 197 0
174 197 0
174 197 0
174 198 0
173 196 0
173 197 0
173 197 0
174 197 0
174 197 0
175 197 0
174 198 0
175 198 0
174 197 0
173 196 0
173 196 0
174 198 0
175 198 0
176 198 0
174 197 0
174 198 0
174 197 0
172 196 0
171 195 0
175 198 0
174 198 0
173 197 0
174 198 0
174 197 0
173 197 0
175 197 0
175 198 0
173 197 0
172 196 0
176 198 0
172 196 0
172 196 0
175 198 0
171 194 0
172 196 0
176 198 0
174 197 0
176 198 0
171 195 0
174 197 0
173 197 0
176 199 0
174 197 0
173 196 0
173 196 0
173 196 0
172 195 0
172 197 0
174 198 0
172 196 0
175 198 0
174 197 0
173 196 0
174 197 0
174 197 0
174 197 0
175 198 0
174 197 0
172 196 0
175 198 0
173 197 0
171 195 0
174 198 0
174 197 0
176 199 0
173 197 0
174 197 0
173 197 0
171 194 0
174 198 0
172 195 0
174 197 0
175 198 0
174 198 0
174 197 0
171 195 0
173 197 0
173 196 0
175 198 0
175 197 0
173 197 0
172 196 0
174 197 0
175 198 0
174 197 0
174 198 0
173 196 0
174 198 0
174 197 0
172 196 0
171 195 0
173 196 0
173 197 0
173 196 0
174 197 0
175 198 0
173 197 0
174 197 0
176 198 0
174 197 0
171 196 0
174 197 0
174 197 0
175 198 0
173 196 0
172 195 0
173 196 0
175 198 0
173 196 0
171 195 0
172 195 0
175 198 0
174 197 0
173 197 0
171 194 0
170 194 0
172 195 0
173 196 0
172 196 0
174 197 0
172 196 0
173 196 0
174 196 0
175 198 0
174 197 0
175 198 0
173 197 0
172 195 0
174 196 0
173 197 0
174 197 0
174 197 0
171 195 0
175 198 0
173 196 0
172 195 0
171 194 0
173 196 0
174 197 0
173 196 0
174 197 0
174 197 0
172 196 0
172 195 0
172 196 0
173 196 0
175 198 0
173 197 0
174 197 0
173 197 0
172 195 0
173 196 0
173 196 0
174 197 0
171 195 0
173 195 0
174 197 0
173 196 0
173 196 0
173 196 0
173 195 0
172 196 0
172 194 0
174 197 0
173 196 0
173 196 0
173 197 0
174 197 0
173 195 0
175 197 0
173 196 0
174 197 0
173 196 0
173 196 0
174 197 0
174 198 0
172 196 0
171 194 0
171 194 0
174 197 0
173 197 0
173 196 0
174 197 0
172 196 0
173 197 0
172 196 0
172 195 0
173 196 0
174 197 0
172 194 0
172 196 0
172 195 0
174 198 0
175 198 0
172 195 0
174 197 0
174 197 0
172 195 0
173 197 0
170 194 0
174 197 0
173 197 0
171 194 0
175 198 0
174 196 0
173 196 0
172 195 0
175 197 0
170 194 0
172 196 0
175 198 0
175 198 0
173 197 0
170 194 0
174 195 0
171 195 0
171 194 0
173 195 0
175 198 0
172 195 0
173 195 0
172 196 11
168 191 19
173 195 16
168 189 16
170 190 28
166 183 37
168 184 42
159 173 42
163 175 53
162 176 52
152 161 58
152 160 62
151 158 54
156 162 71
158 158 74
140 141 69
151 147 81
152 149 86
154 149 80
150 145 86
144 139 85
144 138 84
146 140 88
152 148 93
150 144 91
151 145 87
152 146 91
152 147 93
159 154 95
144 140 88
151 147 91
149 144 92
162 157 99
166 160 101
148 144 96
151 148 95
160 156 102
161 157 101
158 154 102
164 160 103
159 156 102
162 158 101
160 156 102
158 155 103
159 155 102
163 159 104
167 163 109
166 162 108
151 149 98
159 157 105
159 157 105
160 157 104
163 160 106
163 159 106
161 158 105
162 159 106
166 163 109
166 162 108
164 161 107
168 165 110
167 165 110
163 161 108
167 165 110
167 164 109
163 161 108
166 163 109
169 167 111
172 168 112
171 168 112
167 164 109
164 161 108
164 162 108
167 164 110
169 166 110
166 164 109
172 169 113
169 167 112
165 163 109
160 158 106
164 162 109
166 164 109
164 162 108
164 162 109
161 159 106
164 161 108
166 163 109
168 165 110
164 161 107
167 165 110
165 162 108
166 163 109
162 160 107
158 156 104
169 167 111
167 163 108
157 155 103
163 161 107
166 163 109
170 166 109
166 163 109
162 159 106
166 163 107
166 163 108
164 161 106
160 157 103
158 156 103
165 161 106
161 158 106
158 155 103
162 159 106
164 161 106
166 162 106
160 157 102
165 161 104
162 159 105
162 158 103
158 154 100
166 161 106
161 157 101
162 158 103
161 157 103
155 151 99
151 146 93
153 149 96
154 150 95
159 154 99
156 152 99
165 160 101
156 150 95
159 154 99
152 146 92
146 141 89
153 147 90
148 143 88
160 154 97
151 146 90
153 147 90
147 141 85
152 146 88
148 143 82
146 146 74
155 153 84
148 150 73
151 157 61
158 166 61
157 165 60
161 169 58
162 175 42
165 181 44
162 179 37
171 190 22
169 189 30
168 189 16
172 194 16
174 197 0
172 195 0
173 196 0
172 195 0
173 197 0
175 197 0
174 197 0
173 196 0
173 197 0
174 197 0
175 197 0
171 195 0
173 197 0
175 198 0
174 197 0
174 197 0
174 198 0
174 197 0
175 198 0
174 198 0
175 197 0
176 198 0
174 197 0
173 196 0
175 198 0
173 196 0
173 197 0
175 198 0
174 197 0
173 197 0
173 197 0
171 195 0
175 198 0
176 198 0
175 198 0
173 197 0
175 197 0
173 197 0
174 198 0
175 198 0
173 197 0
175 198 0
174 197 0
172 196 0
174 197 0
173 197 0
172 197 0
172 196 0
174 197 0
173 197 0
171 195 0
174 197 0
174 197 0
173 197 0
174 197 0
175 198 0
173 197 0
172 196 0
174 197 0
174 197 0
172 195 0
173 196 0
174 198 0
174 198 0
173 196 0
175 198 0
172 196 0
174 198 0
174 197 0
174 198 0
171 195 0
174 197 0
174 197 0
174 197 0
172 196 0
172 196 0
172 196 0
173 196 0
173 197 0
173 196 0
175 198 0
174 196 0
174 197 0
174 198 0
173 197 0
173 197 0
174 197 0
175 198 0
174 197 0
173 196 0
174 197 0
174 197 0
174 197 0
172 196 0
171 195 0
172 196 0
174 198 0
173 196 0
174 197 0
173 196 0
172 196 0
174 197 0
173 197 0
173 196 0
170 194 0
174 197 0
174 197 0
175 198 0
174 197 0
176 198 0
174 196 0
174 198 0
172 196 0
170 194 0
173 196 0
175 198 0
174 197 0
172 196 0
171 194 0
173 196 0
175 198 0
171 195 0
173 196 0
174 197 0
173 196 0
174 197 0
174 197 0
173 197 0
171 195 0
175 198 0
173 197 0
174 197 0
171 195 0
175 198 0
172 196 0
172 196 0
172 196 0
175 198 0
173 196 0
173 197 0
175 198 0
171 194 0
173 196 0
171 194 0
173 197 0
171 196 0
173 196 0
174 197 0
175 198 0
175 198 0
175 197 0
174 197 0
173 197 0
173 196 0
172 196 0
171 196 0
173 197 0
175 198 0
172 196 0
173 197 0
173 197 0
172 195 0
174 196 0
173 197 0
172 195 0
173 196 0
172 196 0
173 196 0
174 198 0
175 198 0
173 197 0
173 196 0
174 197 0
174 197 0
174 197 0
171 195 0
172 195 0
173 196 0
173 197 0
172 196 0
175 198 0
172 195 0
173 197 18
172 196 0
173 196 18
170 193 0
173 196 0
172 196 0
173 196 0
173 197 0
173 196 0
172 195 0
171 193 0
173 196 0
172 196 0
174 197 0
173 197 0
175 198 0
173 196 0
173 196 0
172 195 0
173 196 0
172 196 0
173 195 0
173 196 0
170 193 0
172 196 0
172 195 0
173 196 0
173 195 0
173 196 0
173 195 0
173 197 0
173 197 0
173 196 0
175 198 0
175 198 0
173 196 0
173 196 0
171 194 0
175 198 0
173 197 0
173 195 0
169 193 0
169 191 0
172 196 0
172 195 0
174 197 0
171 195 0
172 195 0
173 196 0
171 194 0
173 197 0
172 196 0
173 196 0
173 197 0
175 198 0
172 196 0
172 195 0
172 196 0
173 196 0
172 195 0
174 197 0
172 196 0
173 196 0
172 196 0
170 192 0
172 193 16
166 187 19
167 186 34
167 184 36
166 183 34
158 172 42
165 181 39
165 178 52
162 173 55
156 163 64
143 151 51
159 164 70
140 143 66
141 142 71
152 150 81
149 147 81
145 142 79
141 136 79
148 143 88
145 140 86
151 147 88
150 146 89
148 143 91
146 141 89
160 154 98
156 151 91
158 151 95
144 141 91
153 148 94
158 153 96
155 151 98
158 154 99
156 152 98
157 153 100
157 152 96
157 153 99
157 154 103
155 151 99
157 154 102
158 154 97
162 158 104
163 159 106
159 155 102
150 147 98
160 157 104
164 159 105
159 156 102
163 160 106
159 156 104
168 163 108
159 156 105
156 153 103
164 162 108
158 156 104
169 165 109
165 162 108
158 156 104
163 161 108
164 161 108
161 158 106
165 162 108
161 159 106
166 164 110
167 164 109
164 161 107
160 159 107
168 165 110
168 165 110
165 163 109
165 163 109
168 166 111
159 158 106
165 162 108
158 156 104
165 163 109
162 161 108
167 164 110
165 163 109
166 164 110
166 164 110
168 166 111
167 164 110
168 165 110
168 166 111
164 161 108
172 169 112
165 163 109
173 170 113
160 158 105
170 167 111
165 162 108
164 162 108
165 163 109
161 158 104
166 163 109
167 164 109
164 162 108
169 165 109
167 164 109
169 166 110
167 165 110
162 159 105
161 158 104
165 163 109
170 166 109
169 167 112
165 162 107
163 160 106
154 150 99
162 158 104
161 158 104
156 153 101
159 156 103
160 156 102
171 166 109
160 156 103
159 155 101
159 155 101
164 160 105
163 158 103
169 164 106
161 155 100
155 151 97
164 159 104
157 151 94
156 150 96
162 158 99
159 153 97
161 155 98
157 152 95
156 151 95
157 152 99
157 151 96
152 146 89
150 145 89
147 141 87
151 145 87
155 149 91
143 137 78
151 148 80
154 150 84
156 156 76
152 153 73
144 146 70
154 160 67
159 169 60
162 176 53
160 176 41
164 178 41
164 183 34
165 184 34
170 191 19
172 193 22
174 197 11
174 197 0
174 197 0
172 196 0
172 196 0
172 196 0
174 196 0
172 196 0
174 196 0
173 197 0
172 195 0
175 197 0
174 197 0
174 197 0
172 195 0
173 197 0
173 197 0
172 196 0
175 198 0
172 196 0
173 196 0
174 198 0
173 197 0
175 198 0
174 197 0
176 198 0
173 197 0
174 197 0
173 196 0
171 195 0
174 197 0
172 196 0
174 197 0
174 198 0
175 198 0
174 198 0
175 198 0
174 197 0
174 197 0
173 197 0
174 197 0
173 197 0
172 196 0
174 197 0
173 196 0
173 197 0
174 198 0
173 197 0
174 198 0
174 197 0
174 197 0
174 197 0
173 196 0
175 198 0
174 197 0
174 198 0
176 198 0
174 198 0
172 196 0
175 198 0
173 197 0
172 196 0
175 198 0
173 197 0
174 198 0
172 197 0
173 197 0
172 196 0
175 198 0
174 197 0
172 196 0
172 196 0
174 197 0
171 195 0
171 195 0
172 195 0
169 193 0
173 197 0
174 197 0
174 197 0
174 197 0
174 197 0
174 198 0
174 196 0
174 197 0
172 195 0
172 196 0
175 198 0
173 197 0
174 197 0
172 196 0
175 198 0
173 196 0
172 196 0
174 197 0
174 197 0
175 197 0
173 196 0
172 195 0
172 196 0
173 197 0
173 197 0
173 196 0
174 197 0
174 197 0
174 197 0
172 196 0
172 196 0
175 198 0
174 196 0
174 197 0
173 197 0
173 196 0
175 197 0
174 197 0
174 197 0
174 197 0
174 198 0
172 196 0
173 197 0
174 198 0
174 198 0
173 197 0
171 195 0
172 195 0
170 194 0
171 194 0
175 197 0
172 196 0
170 193 0
174 197 0
174 197 0
173 197 0
172 196 0
173 196 0
172 196 0
173 195 0
173 196 0
173 197 0
172 195 0
173 197 0
172 195 0
174 197 0
172 196 0
174 197 0
174 197 0
172 195 0
172 195 0
174 197 0
174 198 0
174 197 0
173 196 0
171 194 0
170 194 0
171 195 0
174 197 0
173 196 0
173 196 0
172 196 0
174 198 0
173 196 0
172 195 0
173 196 0
174 197 0
173 196 0
172 195 0
174 197 0
174 197 0
172 195 0
173 196 0
173 197 0
174 197 0
174 197 18
168 192 44
170 193 25
170 193 36
167 190 44
168 190 44
169 192 51
167 191 51
162 186 65
166 190 54
159 183 80
165 188 54
165 187 60
157 181 74
166 189 54
168 191 51
164 188 60
167 191 51
167 191 47
169 193 44
169 192 40
166 188 44
169 192 31
169 194 31
174 197 0
171 194 0
170 194 0
170 193 0
170 193 0
173 197 0
171 194 0
171 195 0
173 196 0
172 196 0
172 195 0
172 195 0
173 196 0
171 194 0
171 195 0
175 197 0
173 197 0
172 195 0
173 196 0
173 197 0
174 197 0
174 197 0
175 198 0
173 197 0
172 196 0
171 194 0
171 195 0
173 195 0
171 194 0
172 195 0
174 197 0
175 198 0
175 198 0
172 196 0
171 194 0
173 195 0
174 197 0
172 195 0
173 197 0
172 196 0
174 197 0
173 196 0
171 194 0
172 196 0
175 197 0
171 195 0
170 194 0
173 196 0
172 195 0
172 195 0
166 187 11
168 189 19
169 187 32
167 188 16
168 187 30
159 173 45
157 173 34
161 174 49
152 163 48
152 162 53
149 154 64
154 157 67
146 150 66
148 151 68
148 148 71
151 150 78
141 138 77
147 144 81
141 137 81
144 140 84
150 145 90
142 137 83
159 153 94
153 148 93
149 145 91
146 141 89
149 144 89
155 150 95
152 147 94
149 146 94
154 150 97
145 141 89
150 146 95
154 149 95
156 153 99
155 152 102
159 155 101
157 154 102
161 156 103
158 155 101
162 158 105
158 154 100
157 153 101
164 161 107
165 161 106
164 160 107
167 163 108
162 159 106
165 161 107
161 158 104
160 157 105
163 159 105
166 163 110
164 162 109
161 158 106
167 164 109
160 158 106
160 157 105
165 161 108
172 168 112
168 165 111
166 164 110
167 164 110
161 160 108
165 162 108
166 164 110
162 160 107
159 157 105
158 156 104
164 161 108
164 161 107
170 167 111
168 165 110
168 166 111
170 167 112
166 164 110
165 162 108
169 166 110
172 169 113
160 158 106
166 164 109
169 166 110
164 162 108
168 165 110
163 161 108
171 167 111
166 164 109
172 168 112
168 166 110
165 162 108
165 163 109
170 167 111
163 161 108
168 166 110
166 163 108
166 163 108
162 159 106
171 167 110
168 165 109
166 163 108
165 162 108
166 162 106
168 165 109
167 164 109
167 164 109
169 165 109
164 160 105
164 160 103
161 158 104
164 161 106
170 166 109
156 152 99
158 155 103
167 164 108
164 160 104
162 158 103
159 156 100
162 157 102
160 156 100
162 158 103
165 161 103
159 154 99
165 159 102
165 160 103
161 155 98
152 146 94
152 147 93
159 153 97
158 153 95
162 157 100
154 149 95
156 152 95
164 158 99
153 148 91
156 150 94
154 149 93
146 141 83
154 148 89
144 140 86
144 140 86
139 135 82
145 141 80
154 152 80
153 153 72
142 146 67
156 163 62
151 158 56
157 168 53
154 165 44
169 184 47
159 177 32
166 184 28
172 194 22
170 190 25
171 194 0
173 196 0
174 197 0
172 197 0
174 197 0
176 198 0
175 198 0
174 197 0
173 197 0
172 195 0
173 197 0
171 195 0
172 196 0
173 196 0
174 197 0
171 195 0
172 196 0
173 196 0
174 197 0
174 197 0
174 198 0
173 196 0
174 197 0
172 195 0
173 197 0
174 198 0
174 196 0
173 197 0
174 198 0
172 196 0
175 198 0
172 196 0
172 195 0
173 196 0
174 197 0
172 195 0
173 197 0
175 198 0
173 197 0
173 197 0
174 197 0
171 195 0
174 198 0
174 197 0
175 198 0
170 194 0
174 197 0
173 197 0
175 198 0
174 198 0
172 196 0
173 197 0
173 197 0
173 197 0
172 195 0
174 197 0
175 198 0
171 194 0
174 198 0
172 196 0
174 198 0
174 198 0
174 198 0
173 196 0
173 197 0
173 197 0
172 196 0
175 198 0
173 197 0
175 198 0
171 194 0
172 196 0
174 197 0
173 197 0
172 196 0
176 198 0
174 197 0
172 196 0
174 197 0
175 198 0
173 196 0
172 196 0
173 197 0
174 197 0
174 197 0
173 197 0
172 195 0
173 196 0
174 197 0
174 197 0
174 197 0
173 197 0
173 197 0
173 196 0
173 197 0
174 198 0
174 197 0
174 198 0
173 196 0
175 197 0
176 199 0
173 196 0
169 193 0
173 197 0
173 196 0
172 196 0
174 196 0
172 195 0
174 197 0
174 198 0
173 196 0
172 196 0
175 198 0
173 197 0
170 194 0
172 195 0
174 197 0
172 195 0
173 195 0
175 198 0
172 196 0
172 196 0
174 197 0
173 197 0
171 194 0
173 196 0
172 196 0
174 197 0
175 198 0
172 195 0
173 197 0
174 197 0
172 196 0
172 196 0
175 198 0
173 196 0
173 196 0
172 196 0
175 198 0
174 198 0
172 194 0
174 198 0
172 195 0
172 196 0
174 198 0
173 197 0
170 194 0
172 195 0
173 197 0
173 195 0
173 197 0
174 197 0
171 194 0
175 198 0
173 196 0
174 197 0
172 196 0
173 196 0
171 195 0
172 196 0
172 196 0
173 196 0
174 197 0
175 198 0
172 195 0
171 194 18
171 195 25
169 193 31
172 196 25
168 191 40
163 185 65
161 184 72
160 184 76
160 183 74
153 177 86
146 170 105
146 170 103
148 172 99
136 160 117
147 171 102
142 167 108
142 167 111
140 165 114
130 156 129
136 161 117
143 167 110
128 154 130
128 154 129
147 171 103
153 177 90
141 165 110
147 172 97
136 162 117
146 170 103
159 183 80
151 175 92
166 189 60
160 183 76
165 189 54
167 190 51
167 190 47
170 194 31
169 193 40
171 196 0
172 195 0
174 197 0
172 194 0
173 196 0
172 195 0
174 196 0
174 197 0
172 195 0
173 196 0
172 196 0
172 196 0
172 195 0
173 196 0
175 197 0
173 197 0
173 197 0
169 193 0
174 196 0
173 197 0
175 197 0
173 195 0
173 196 0
167 191 0
171 194 0
169 193 0
172 195 0
170 193 0
173 196 0
171 195 0
173 195 0
173 196 0
170 194 0
172 195 0
171 195 0
173 196 0
173 196 0
174 195 0
174 197 0
172 196 0
172 195 0
172 194 0
170 192 0
167 188 19
169 188 32
168 189 0
171 192 19
157 175 30
159 176 40
160 170 57
156 168 47
155 164 57
158 167 62
154 162 57
143 149 58
147 152 61
148 146 76
152 148 82
140 139 73
144 141 79
143 138 83
146 141 83
145 139 84
151 146 86
156 150 91
151 147 91
139 135 82
162 155 95
142 139 92
150 145 93
157 153 94
157 153 94
148 144 92
156 151 96
159 154 100
155 151 99
153 148 95
152 149 98
156 152 101
146 144 96
153 149 99
161 158 106
156 153 103
164 161 106
159 156 103
158 155 103
158 155 103
160 156 102
152 149 99
163 161 107
162 158 105
165 160 106
164 161 107
162 158 104
162 159 106
161 159 106
166 162 107
162 160 107
167 164 108
160 158 106
166 163 108
159 157 105
162 159 106
166 163 108
170 166 111
164 162 109
164 161 107
161 158 106
166 164 110
166 163 109
166 164 110
170 167 111
166 163 109
163 160 107
166 164 110
166 163 109
166 164 109
167 164 110
159 158 106
165 163 109
163 161 108
166 163 109
170 167 112
163 162 109
171 168 112
166 164 110
167 164 109
166 163 109
167 163 109
164 162 108
165 163 109
166 164 109
165 163 109
166 163 108
167 165 110
168 165 110
167 164 109
165 162 108
164 161 107
164 161 107
162 161 108
168 164 109
168 165 109
170 165 109
167 164 108
161 157 103
169 165 108
160 157 104
168 164 109
162 159 105
167 163 108
169 165 108
164 161 107
165 160 104
164 160 105
165 160 103
163 158 102
160 156 103
166 163 106
166 161 104
161 157 101
171 165 108
161 158 103
160 156 100
159 154 101
154 149 97
161 157 102
161 157 100
162 156 98
153 149 96
159 153 98
163 157 99
157 152 97
157 151 95
149 144 88
147 142 87
149 143 91
155 149 90
161 154 95
148 142 88
153 148 91
142 136 77
160 153 94
153 147 89
143 138 78
144 141 79
152 152 73
161 162 78
152 155 66
156 164 61
144 151 56
162 177 44
162 178 39
163 177 42
168 186 28
168 186 28
170 190 25
172 193 22
173 196 11
174 197 0
172 195 0
172 196 0
174 197 0
171 194 0
173 196 0
173 197 0
174 197 0
172 196 0
173 196 0
174 198 0
175 198 0
174 197 0
174 198 0
173 197 0
172 196 0
172 196 0
173 197 0
173 197 0
175 198 0
174 197 0
173 196 0
174 198 0
172 196 0
174 197 0
176 198 0
170 194 0
173 197 0
174 197 0
173 197 0
172 196 0
173 196 0
173 197 0
173 197 0
174 197 0
173 197 0
173 197 0
171 195 0
173 197 0
173 196 0
172 196 0
174 198 0
173 197 0
176 199 0
173 196 0
174 197 0
173 197 0
173 197 0
176 198 0
175 198 0
173 197 0
172 195 0
175 198 0
171 195 0
172 195 0
173 196 0
173 197 0
172 196 0
173 196 0
174 197 0
174 198 0
175 198 0
174 197 0
172 196 0
175 197 0
174 198 0
176 198 0
174 198 0
173 197 0
174 198 0
175 198 0
174 197 0
172 195 0
175 197 0
173 196 0
172 195 0
173 197 0
173 197 0
174 198 0
173 197 0
172 196 0
175 197 0
174 197 0
173 196 0
175 198 0
174 197 0
173 196 0
172 195 0
174 197 0
172 196 0
173 196 0
173 197 0
171 194 0
172 196 0
176 198 0
172 196 0
174 197 0
174 196 0
171 195 0
174 197 0
173 196 0
174 197 0
172 195 0
172 196 0
174 197 0
173 197 0
173 196 0
174 197 0
174 198 0
173 197 0
174 197 0
171 195 0
175 198 0
173 197 0
175 198 0
172 195 0
174 197 0
174 196 0
172 196 0
173 195 0
173 196 0
174 197 0
174 197 0
173 197 0
174 197 0
174 196 0
175 198 0
171 195 0
174 197 0
173 196 0
175 198 0
172 196 0
170 195 0
171 195 0
169 193 0
175 198 0
173 196 0
173 197 0
173 197 0
174 197 0
172 195 0
172 196 0
169 192 0
173 196 0
174 197 0
176 198 0
173 197 0
173 196 0
174 196 0
172 196 0
173 196 0
173 196 0
171 195 0
175 197 0
172 195 0
173 197 0
171 195 0
174 197 0
169 193 0
170 193 0
170 194 25
168 192 36
166 189 51
155 179 86
156 180 80
151 175 97
149 173 97
143 168 108
132 158 124
135 161 121
121 149 135
122 148 136
122 148 137
110 138 148
99 128 158
98 127 159
95 124 159
75 108 172
82 114 169
82 114 168
88 119 166
88 119 166
96 125 161
80 113 169
95 125 161
92 122 164
81 113 169
94 124 161
104 132 154
103 131 155
110 137 149
108 137 149
123 149 135
127 152 133
129 155 130
134 159 121
146 171 103
146 170 102
159 184 72
155 179 86
162 186 65
165 189 54
167 190 45
165 187 51
171 194 25
170 194 18
172 196 0
175 197 0
174 197 0
173 196 0
172 196 0
173 196 0
175 198 0
173 196 0
172 196 0
173 196 0
172 195 0
174 197 0
172 196 0
174 197 0
174 197 0
172 197 0
170 193 0
173 196 0
175 198 0
173 195 0
173 196 0
171 194 0
172 196 0
171 195 0
172 196 0
173 196 0
172 195 0
174 197 0
173 197 0
171 194 0
173 197 0
172 195 0
172 194 0
174 197 0
171 195 0
172 195 0
173 194 0
169 192 0
172 192 22
161 181 22
166 187 19
165 181 37
166 183 36
165 178 51
159 170 51
154 167 47
154 162 63
151 159 64
153 158 67
156 159 67
146 145 75
143 139 72
146 144 74
142 138 77
142 139 81
145 140 83
153 147 89
148 143 82
144 140 88
149 145 90
152 147 91
154 149 90
142 137 86
157 152 93
157 153 96
159 153 97
156 152 98
150 147 93
157 153 101
153 149 96
151 147 96
160 156 98
159 154 99
153 150 99
154 151 99
161 157 104
159 154 98
156 153 99
159 155 103
159 156 103
161 158 106
159 155 101
160 157 105
164 160 104
159 156 102
161 158 106
164 161 106
161 158 105
161 158 106
163 160 107
165 162 108
166 164 109
164 162 109
165 162 108
162 159 107
161 159 106
163 161 108
162 158 106
162 160 107
164 162 108
165 162 108
163 160 106
164 161 107
168 166 111
169 166 110
166 164 110
163 161 108
171 167 111
167 164 109
168 165 110
168 166 110
165 162 108
160 158 105
169 166 110
169 166 110
171 168 112
170 167 112
164 161 108
168 166 110
167 164 110
163 161 108
168 164 109
164 162 109
170 167 112
171 168 112
172 168 112
168 165 110
165 163 108
165 163 109
165 161 106
167 164 109
166 163 108
167 163 108
170 167 111
167 165 110
168 165 109
170 167 110
164 161 106
163 160 105
162 160 106
164 161 107
166 164 109
168 165 109
165 162 108
165 163 108
169 165 108
166 162 105
162 159 104
164 160 106
166 162 106
157 154 102
159 156 103
165 161 106
163 160 104
167 162 104
161 158 103
161 157 101
160 156 103
158 154 100
157 153 101
160 155 99
161 158 101
164 159 102
155 151 95
163 157 101
155 151 95
145 142 90
163 157 101
150 145 92
150 146 95
155 150 93
158 151 93
152 147 87
154 149 91
162 156 94
143 138 83
141 136 83
141 136 84
144 138 84
145 139 81
152 148 86
147 145 80
147 149 63
148 154 57
145 152 54
151 160 60
155 166 49
163 175 52
160 175 42
162 179 36
163 181 28
172 191 32
170 191 16
173 195 0
173 195 11
173 196 0
173 197 0
174 197 0
173 197 0
173 196 0
175 197 0
172 196 0
173 196 0
174 197 0
174 197 0
174 198 0
172 196 0
172 195 0
172 196 0
174 198 0
174 197 0
175 198 0
173 197 0
173 197 0
173 197 0
175 198 0
175 198 0
174 197 0
175 198 0
173 197 0
175 198 0
175 198 0
173 197 0
174 196 0
173 197 0
173 197 0
173 196 0
172 195 0
174 198 0
172 195 0
173 197 0
173 197 0
173 197 0
173 196 0
174 197 0
175 198 0
173 197 0
174 197 0
176 198 0
175 198 0
173 197 0
171 196 0
174 197 0
174 197 0
174 197 0
173 197 0
172 196 0
171 195 0
175 198 0
175 198 0
172 196 0
173 196 0
172 195 0
175 197 0
171 195 0
173 197 0
172 196 0
174 198 0
173 197 0
174 197 0
172 196 0
173 196 0
174 197 0
172 195 0
174 198 0
172 196 0
173 196 0
174 197 0
173 197 0
174 197 0
174 197 0
176 199 0
174 197 0
174 198 0
172 196 0
174 197 0
173 196 0
173 196 0
175 198 0
172 196 0
170 194 0
172 196 0
174 198 0
174 197 0
172 195 0
173 196 0
174 198 0
173 197 0
172 195 0
173 196 0
173 197 0
170 193 0
173 196 0
173 197 0
175 198 0
173 196 0
174 198 0
173 197 0
173 196 0
173 196 0
172 196 0
172 196 0
172 195 0
172 196 0
172 195 0
174 198 0
172 196 0
173 195 0
173 197 0
171 195 0
174 197 0
174 197 0
172 196 0
172 196 0
171 194 0
173 196 0
175 198 0
170 193 0
173 196 0
172 196 0
172 194 0
170 194 0
173 196 0
172 196 0
174 197 0
173 196 0
174 197 0
172 195 0
175 198 0
172 196 0
172 196 0
174 197 0
174 197 0
171 194 0
173 197 0
173 196 0
173 197 0
171 195 0
173 196 0
174 197 0
174 197 0
173 196 0
170 194 0
174 197 0
173 196 0
172 196 0
173 195 0
174 197 0
173 196 0
172 195 0
170 193 25
168 191 36
170 193 25
165 188 57
157 181 76
151 175 99
148 173 99
139 164 111
117 144 143
120 145 139
117 144 143
100 129 157
90 120 164
83 115 170
70 105 177
69 105 177
67 103 178
67 102 179
63 100 180
64 100 179
61 98 181
62 99 181
62 99 181
62 99 181
61 98 180
61 99 181
62 99 181
62 99 181
62 99 181
62 99 180
62 99 181
61 99 181
61 99 181
64 100 180
65 101 176
66 102 178
71 106 176
76 109 173
75 109 173
89 119 166
92 122 163
113 140 145
108 135 148
126 151 129
122 148 135
132 158 122
143 167 101
151 176 89
160 183 78
161 185 70
166 190 54
169 192 36
167 191 31
172 195 18
174 197 0
174 197 0
171 196 0
172 196 0
171 193 0
174 197 0
173 197 0
173 195 0
174 197 0
172 195 0
172 195 0
173 196 0
172 196 0
174 197 0
170 192 0
173 196 0
173 195 0
176 198 0
171 194 0
172 195 0
173 197 0
171 194 0
171 195 0
173 196 0
172 195 0
173 197 0
170 193 0
173 196 0
171 193 0
173 196 0
172 195 0
170 192 0
167 188 16
169 191 11
171 193 19
158 177 30
162 180 37
165 181 37
165 178 48
152 167 39
158 170 45
158 169 53
153 160 60
152 157 60
145 151 60
152 154 65
141 142 69
147 146 75
152 150 80
147 143 79
151 146 89
136 131 73
147 141 83
155 149 94
136 133 80
146 140 85
149 144 91
152 147 93
146 142 88
156 151 97
141 138 89
150 146 90
158 154 98
150 145 95
146 142 93
158 155 101
154 150 99
156 152 100
155 151 100
151 148 95
156 153 101
158 155 103
159 156 104
158 155 103
163 159 103
162 159 105
156 152 101
155 151 99
160 157 105
166 163 107
159 157 105
164 161 108
163 161 108
167 164 109
160 157 104
163 159 106
165 163 109
164 162 107
166 162 107
160 158 106
166 163 110
162 159 106
166 162 108
168 164 108
164 162 108
160 158 106
169 166 110
162 159 106
164 162 109
165 162 108
165 163 109
165 162 108
166 164 109
165 162 108
165 163 109
163 161 107
166 164 110
171 167 111
165 162 108
167 164 109
166 164 110
165 163 109
166 164 110
164 162 108
169 167 112
169 166 111
170 167 111
173 170 113
170 167 111
165 163 108
171 168 111
168 165 110
169 165 109
162 159 106
163 161 108
171 168 112
167 165 110
166 163 108
163 160 106
170 166 110
167 164 109
172 168 112
168 164 108
160 157 103
168 164 109
171 167 110
167 164 109
166 162 108
166 163 108
162 158 104
171 167 110
166 162 106
170 164 108
166 162 106
166 162 106
164 161 106
165 161 104
164 161 104
170 166 109
162 158 103
168 164 108
169 164 104
168 164 106
167 162 104
162 157 102
155 150 99
161 155 101
168 163 104
166 162 106
160 155 100
154 149 97
161 156 99
159 154 97
155 149 94
157 153 97
163 156 95
154 149 93
147 142 89
158 152 90
156 150 90
157 150 91
153 147 88
150 144 87
152 147 91
144 138 80
155 149 88
144 140 82
137 133 72
150 150 78
156 158 74
155 160 68
151 158 56
151 160 59
160 173 48
160 176 34
163 179 34
165 182 32
174 193 32
170 191 16
171 194 11
173 195 11
174 197 0
171 194 0
174 197 0
174 197 0
173 196 0
173 196 0
172 196 0
176 198 0
173 195 0
173 197 0
174 197 0
174 197 0
174 198 0
171 194 0
171 195 0
173 197 0
173 197 0
173 196 0
175 198 0
174 198 0
172 195 0
174 198 0
174 197 0
174 197 0
173 197 0
174 198 0
173 196 0
172 195 0
172 196 0
173 197 0
172 196 0
174 197 0
173 197 0
174 197 0
173 196 0
173 197 0
175 197 0
173 196 0
174 196 0
173 197 0
175 198 0
174 198 0
172 197 0
175 198 0
174 197 0
174 197 0
176 198 0
174 198 0
173 197 0
173 197 0
175 198 0
174 197 0
172 196 0
175 198 0
173 196 0
174 197 0
172 196 0
172 196 0
175 198 0
172 196 0
176 199 0
172 196 0
172 195 0
176 198 0
172 196 0
173 196 0
172 195 0
171 195 0
175 197 0
172 196 0
175 197 0
173 197 0
172 196 0
173 197 0
172 195 0
172 196 0
174 197 0
172 196 0
171 195 0
175 198 0
172 195 0
174 197 0
174 197 0
172 196 0
171 195 0
171 195 0
174 198 0
175 198 0
174 197 0
173 196 0
175 198 0
175 197 0
172 196 0
173 196 0
173 197 0
170 193 0
172 196 0
170 193 0
175 198 0
174 197 0
170 194 0
173 196 0
173 196 0
173 196 0
174 197 0
172 196 0
171 195 0
173 197 0
171 195 0
174 197 0
174 197 0
175 198 0
173 196 0
172 195 0
173 197 0
172 196 0
173 196 0
173 197 0
174 196 0
172 196 0
174 197 0
174 197 0
173 197 0
173 196 0
174 196 0
174 197 0
175 198 0
171 195 0
173 197 0
171 195 0
173 197 0
171 194 0
173 197 0
173 196 0
174 197 0
172 195 0
174 197 0
173 197 0
173 197 0
173 195 0
174 197 0
173 196 0
174 197 0
173 197 0
172 195 0
170 194 0
171 195 0
172 195 0
172 194 0
170 194 0
172 195 0
171 195 0
174 196 18
170 193 40
168 191 54
158 183 74
143 167 107
136 161 118
132 157 121
124 150 136
109 137 149
97 127 159
83 115 169
70 105 176
66 102 178
62 99 181
62 99 180
61 99 181
62 99 181
61 99 180
62 99 181
61 99 181
62 99 180
61 98 181
62 99 180
62 99 181
61 98 181
62 99 181
62 99 181
61 99 181
61 98 181
61 99 181
62 99 181
62 99 181
61 99 181
62 99 181
61 99 181
61 98 179
61 98 180
61 98 180
62 99 180
61 99 181
62 99 181
61 98 179
62 99 180
61 99 180
68 103 174
66 101 177
69 104 175
82 114 170
87 117 167
111 138 147
116 143 141
116 142 141
140 164 107
142 167 103
155 179 86
165 189 54
167 191 47
167 191 40
173 196 0
170 192 0
173 196 0
170 193 0
173 196 0
174 196 0
173 196 0
172 195 0
175 197 0
171 195 0
173 197 0
172 196 0
171 195 0
173 195 0
175 197 0
174 196 0
173 196 0
172 195 0
175 197 0
173 196 0
172 194 0
174 197 0
173 196 0
172 196 0
171 194 0
173 196 0
173 196 0
173 195 0
172 195 0
173 196 0
170 194 11
169 190 16
164 184 28
162 182 16
168 187 28
168 185 41
158 176 31
160 175 41
153 166 45
152 162 57
149 157 56
148 153 61
146 149 63
147 153 61
141 143 68
152 150 81
154 151 82
143 139 78
150 144 84
153 148 89
155 150 86
157 150 93
147 142 84
139 134 83
149 144 93
158 153 96
151 147 94
152 147 93
149 144 92
149 145 93
145 141 90
151 147 94
155 150 97
153 149 97
149 145 95
155 151 98
152 149 97
157 153 102
160 154 99
155 151 99
160 155 100
154 152 101
157 154 99
158 155 101
153 150 100
157 154 103
158 153 98
159 157 106
163 160 106
155 152 100
166 162 108
159 155 104
163 160 107
166 163 107
164 161 108
164 161 107
165 162 108
162 159 107
167 163 108
159 157 105
165 163 109
165 162 108
166 164 109
159 157 105
169 166 110
166 164 110
164 161 108
167 164 109
164 162 109
170 167 111
165 163 109
164 161 108
163 161 108
168 164 109
168 164 109
168 166 110
168 166 111
168 165 110
168 166 111
167 164 109
165 162 108
167 165 110
166 163 108
170 166 111
169 166 110
169 166 110
169 167 111
168 165 110
170 167 111
174 170 113
173 170 113
166 164 109
165 163 109
165 162 108
167 164 109
164 161 107
170 168 112
167 164 109
163 161 106
167 164 109
166 163 108
168 164 109
169 166 110
165 161 106
167 164 109
170 166 110
171 167 110
171 167 110
166 162 106
168 165 109
168 165 109
171 166 109
168 164 108
168 165 109
166 163 106
162 159 104
163 160 104
165 162 107
162 157 103
160 156 101
161 157 103
173 168 110
163 157 101
164 160 104
157 154 99
157 153 96
165 160 101
157 152 95
159 155 99
156 152 97
157 152 93
161 156 98
153 148 93
153 148 90
158 152 97
153 149 92
153 149 90
157 151 93
159 153 93
157 150 89
162 156 95
157 150 94
153 147 87
157 151 90
142 137 83
151 145 84
146 140 85
145 142 78
154 151 80
148 153 63
152 156 67
149 158 57
153 165 51
159 172 42
162 175 41
163 181 37
169 188 36
171 189 36
169 190 22
172 195 0
174 196 0
176 198 0
172 196 0
173 196 0
172 196 0
174 197 0
175 198 0
173 196 0
172 195 0
175 198 0
174 197 0
172 196 0
174 198 0
174 197 0
174 197 0
172 195 0
174 197 0
172 195 0
174 197 0
173 197 0
174 197 0
175 198 0
174 197 0
173 197 0
173 196 0
172 196 0
175 198 0
173 197 0
172 196 0
172 196 0
172 196 0
174 197 0
175 198 0
173 196 0
172 196 0
172 196 0
173 197 0
172 196 0
173 197 0
175 198 0
172 196 0
172 196 0
172 196 0
175 198 0
173 196 0
173 197 0
174 197 0
175 198 0
172 195 0
176 198 0
174 198 0
168 192 0
173 197 0
174 197 0
175 197 0
175 198 0
174 197 0
173 196 0
173 196 0
173 197 0
175 198 0
174 198 0
173 196 0
174 197 0
174 197 0
174 198 0
172 196 0
173 196 0
173 196 0
174 197 0
175 198 0
174 197 0
173 196 0
172 196 0
175 198 0
174 197 0
173 197 0
175 198 0
175 198 0
173 197 0
174 197 0
172 196 0
173 197 0
173 197 0
173 196 0
172 196 0
173 196 0
175 197 0
172 196 0
175 198 0
173 196 0
173 196 0
173 195 0
172 196 0
172 196 0
173 196 0
174 197 0
172 195 0
173 196 0
170 193 0
174 197 0
173 196 0
174 197 0
173 196 0
174 197 0
171 194 0
172 196 0
174 196 0
174 198 0
173 196 0
171 194 0
174 197 0
170 194 0
173 196 0
173 197 0
173 197 0
173 197 0
175 198 0
173 197 0
173 197 0
175 198 0
174 197 0
172 195 0
170 193 0
173 196 0
173 196 0
171 195 0
172 196 0
170 193 0
172 196 0
174 198 0
171 195 0
175 198 0
174 198 0
174 196 0
173 196 0
175 197 0
175 198 0
175 198 0
174 197 0
174 198 0
172 196 0
173 197 0
171 195 0
172 196 0
173 197 0
171 195 0
173 196 0
174 198 0
171 194 0
168 192 44
166 190 44
164 188 60
148 172 102
131 157 121
112 139 142
102 131 154
94 124 158
86 117 165
70 105 176
65 102 179
62 99 180
62 99 181
62 99 180
62 99 181
62 99 181
61 99 180
61 99 181
62 99 181
62 99 181
61 98 181
61 99 181
62 99 181
62 99 181
61 98 180
61 99 181
61 99 181
61 99 181
62 99 181
61 99 181
61 98 181
61 99 181
61 99 181
61 99 181
62 99 181
62 99 181
61 99 181
61 98 180
62 99 181
62 99 181
61 98 181
61 99 181
62 99 179
62 99 181
62 99 181
61 99 180
61 98 180
61 98 180
61 98 179
61 98 179
61 98 179
61 99 181
75 108 171
82 113 169
102 130 155
101 129 153
120 147 136
132 157 124
137 162 114
146 171 100
155 179 86
165 189 51
168 191 36
170 193 8
172 195 0
173 196 0
173 197 0
172 195 0
173 197 0
171 193 0
172 194 0
173 196 0
171 195 0
174 196 0
173 196 0
169 192 0
170 194 0
171 193 0
172 196 0
169 191 0
172 196 0
175 197 0
173 196 0
171 194 0
174 197 0
174 196 0
171 194 0
172 195 0
172 194 0
171 193 0
172 194 16
169 191 11
165 186 16
162 179 30
166 186 25
160 175 32
165 180 42
166 181 42
153 165 51
149 157 56
154 161 64
155 161 61
146 152 62
148 151 69
144 144 70
151 149 79
144 140 82
145 142 80
154 148 88
141 136 80
146 142 86
143 139 87
139 134 78
147 142 85
149 145 91
141 137 89
141 137 85
149 145 92
148 144 93
158 153 98
159 155 98
148 145 95
135 133 86
151 148 97
159 156 99
153 150 95
159 155 101
152 150 98
155 151 100
152 149 99
157 153 102
153 150 100
149 147 100
163 159 104
162 159 106
158 155 102
155 153 103
155 153 103
156 153 101
158 155 103
161 159 107
161 158 105
160 157 104
164 161 107
158 155 104
167 164 109
158 154 102
165 163 110
166 163 108
164 162 108
164 161 108
164 162 108
165 163 110
169 165 110
171 167 111
170 167 112
166 162 108
164 161 108
169 166 110
168 166 111
162 160 107
170 167 111
166 163 109
164 161 108
169 166 111
172 168 112
170 167 111
166 163 108
169 166 110
173 170 113
163 161 107
169 167 112
170 167 112
171 167 111
169 166 110
173 170 113
171 168 112
172 168 112
171 167 111
169 166 110
171 167 111
169 166 110
171 168 112
167 164 109
165 163 108
172 169 112
167 164 109
169 165 109
169 165 109
174 171 112
168 165 110
169 166 109
168 164 108
166 164 109
169 165 109
171 167 110
169 164 108
165 161 105
165 161 106
168 164 108
167 164 108
165 161 106
166 162 106
169 165 108
169 164 109
171 166 108
168 163 106
163 159 103
164 159 104
163 160 104
167 163 106
165 160 104
163 158 102
162 157 99
164 160 102
160 155 100
165 160 101
163 158 100
162 158 100
161 156 100
163 158 99
162 157 98
165 159 102
158 153 95
161 156 96
149 143 86
149 145 90
153 147 92
147 142 87
151 146 90
148 144 86
151 145 90
149 143 88
147 140 80
151 144 82
147 141 85
151 145 84
147 147 77
150 147 80
142 145 62
155 158 64
150 154 62
157 163 64
157 169 47
159 175 37
164 177 49
165 182 36
172 194 22
170 190 32
170 191 22
173 195 11
173 197 0
176 198 0
175 198 0
170 194 0
171 195 0
174 197 0
174 197 0
172 196 0
174 198 0
172 196 0
173 197 0
175 198 0
173 197 0
174 198 0
173 197 0
175 198 0
173 197 0
173 197 0
174 198 0
172 196 0
175 198 0
175 198 0
173 197 0
173 197 0
174 197 0
176 199 0
174 198 0
173 197 0
172 196 0
172 196 0
175 198 0
175 198 0
173 196 0
173 196 0
172 196 0
176 198 0
175 198 0
173 197 0
171 195 0
174 198 0
172 195 0
172 196 0
175 198 0
173 196 0
173 197 0
174 197 0
175 198 0
174 198 0
174 197 0
174 197 0
173 196 0
173 197 0
173 197 0
172 196 0
174 198 0
173 196 0
172 196 0
172 196 0
174 197 0
174 198 0
173 196 0
173 197 0
174 197 0
175 197 0
175 198 0
173 196 0
174 197 0
175 198 0
174 197 0
173 196 0
174 197 0
174 198 0
173 197 0
173 197 0
171 194 0
174 198 0
176 199 0
174 198 0
172 196 0
174 198 0
172 195 0
173 197 0
174 197 0
174 197 0
172 196 0
173 196 0
174 197 0
175 198 0
173 195 0
174 197 0
174 198 0
172 196 0
174 197 0
171 195 0
172 196 0
174 196 0
174 198 0
173 196 0
173 196 0
171 194 0
174 197 0
173 197 0
174 196 0
171 195 0
174 197 0
172 196 0
173 196 0
174 198 0
173 197 0
173 196 0
174 197 0
173 196 0
174 197 0
171 194 0
174 197 0
174 197 0
171 195 0
173 197 0
174 196 0
173 196 0
172 195 0
173 197 0
173 197 0
174 197 0
173 196 0
173 196 0
171 195 0
173 196 0
171 193 0
174 197 0
173 197 0
172 196 0
173 195 0
174 197 0
172 196 0
172 196 0
172 195 0
172 197 0
173 196 0
171 194 0
173 195 0
169 194 0
174 197 0
173 196 0
174 198 0
172 194 0
173 197 18
164 187 62
159 183 74
148 173 99
139 163 113
125 151 131
107 135 151
97 126 158
78 111 171
69 105 176
62 99 180
61 99 180
62 99 181
62 99 181
61 99 181
61 99 181
62 99 181
61 98 181
62 99 181
62 99 180
62 99 181
62 99 181
61 98 181
62 99 181
62 99 181
61 99 181
61 99 181
62 99 181
62 99 181
61 98 181
61 99 181
61 99 181
62 99 181
61 99 181
61 99 181
62 99 181
61 99 181
62 99 181
61 98 181
61 99 181
61 99 181
61 99 181
61 99 181
61 99 181
62 99 181
61 98 181
62 99 181
62 99 180
62 99 181
61 98 181
61 98 179
61 99 181
62 99 181
61 98 179
61 98 178
62 99 179
62 99 180
62 99 178
61 99 180
76 109 173
88 119 166
117 144 136
115 142 142
137 161 115
148 172 100
159 182 76
166 189 57
166 189 57
171 195 36
171 194 18
174 197 0
169 192 0
173 197 0
171 194 0
173 196 0
171 195 0
168 192 0
173 195 0
174 196 0
173 196 0
171 194 0
174 198 0
172 196 0
171 194 0
172 195 0
169 193 0
171 193 0
173 196 0
172 195 0
171 193 0
172 195 0
172 195 0
171 193 11
170 191 22
170 191 22
169 188 32
162 179 32
163 180 36
159 173 41
159 174 37
158 170 49
154 167 49
154 162 56
148 156 60
148 153 57
150 152 73
157 156 79
143 142 76
142 141 72
140 136 77
147 143 85
143 139 85
149 143 86
142 138 88
142 137 84
150 144 86
147 143 90
153 147 92
154 149 95
153 148 93
162 157 103
142 140 91
152 147 96
158 153 98
152 148 97
150 147 94
146 143 92
156 152 98
156 153 100
153 149 98
148 145 95
154 151 99
159 155 102
154 151 100
152 149 99
157 154 102
158 154 102
155 152 102
158 156 104
155 152 103
161 159 105
153 151 102
161 159 106
160 157 105
162 160 108
160 157 105
157 155 104
159 157 106
162 159 106
159 156 105
167 164 110
164 161 108
157 154 103
163 160 107
164 161 108
161 159 107
171 168 112
165 163 109
168 165 110
165 163 109
169 166 111
170 167 112
161 160 107
168 165 110
167 165 110
166 164 110
168 165 110
169 166 111
164 162 108
174 170 113
171 168 113
168 165 110
172 169 113
170 167 111
170 168 112
170 168 111
169 166 110
174 170 113
172 169 113
168 165 110
170 167 111
171 168 112
169 166 110
165 162 108
172 169 112
172 168 112
169 166 110
167 164 109
169 165 109
172 168 110
170 167 110
169 166 109
167 164 109
164 161 107
170 167 111
170 166 110
169 166 110
171 168 110
171 167 110
168 164 108
169 165 108
166 163 108
166 163 107
170 167 110
172 168 110
166 162 106
172 167 109
166 162 104
162 159 104
168 164 106
163 158 102
160 157 103
165 161 103
164 160 104
162 158 103
162 159 102
162 158 102
159 155 101
168 163 104
162 157 100
165 160 100
165 159 99
162 157 99
158 153 98
162 158 97
152 147 94
161 156 99
155 150 95
163 157 97
154 148 92
157 151 91
151 145 89
145 141 83
152 146 86
149 144 84
154 148 89
152 146 87
154 148 90
145 139 84
145 140 79
144 140 80
141 137 75
146 146 71
152 156 66
160 165 72
161 170 56
159 172 49
158 173 37
160 176 41
166 182 41
169 187 30
170 190 16
171 192 22
171 194 0
174 197 0
175 197 0
172 194 0
174 197 0
173 196 0
173 197 0
173 197 0
173 196 0
173 197 0
172 197 0
175 198 0
174 197 0
175 198 0
173 197 0
174 196 0
173 196 0
173 197 0
174 198 0
173 197 0
171 195 0
174 197 0
175 198 0
174 198 0
173 197 0
174 198 0
173 196 0
174 197 0
174 198 0
172 195 0
174 197 0
172 195 0
174 198 0
174 197 0
173 196 0
174 197 0
172 196 0
173 197 0
173 197 0
174 197 0
175 198 0
173 196 0
173 197 0
172 195 0
172 196 0
175 198 0
174 197 0
171 195 0
175 198 0
173 197 0
173 197 0
175 198 0
172 196 0
172 196 0
172 196 0
172 196 0
172 196 0
174 198 0
171 195 0
174 197 0
174 198 0
173 197 0
174 197 0
172 195 0
173 197 0
174 197 0
172 196 0
173 197 0
174 196 0
172 195 0
172 195 0
174 197 0
172 195 0
174 197 0
174 197 0
173 196 0
172 194 0
173 195 0
173 197 0
173 196 0
175 198 0
172 196 0
173 195 0
174 198 0
171 196 0
171 195 0
173 196 0
172 195 0
173 197 0
171 195 0
173 196 0
173 197 0
173 197 0
174 197 0
173 196 0
172 196 0
173 197 0
174 198 0
173 197 0
174 197 0
175 198 0
171 195 0
172 195 0
174 197 0
171 195 0
174 196 0
172 196 0
174 197 0
174 198 0
174 197 0
174 197 0
172 194 0
174 197 0
172 195 0
171 194 0
174 198 0
172 196 0
173 197 0
174 196 0
173 196 0
172 196 0
176 198 0
171 194 0
173 197 0
173 196 0
174 197 0
174 197 0
172 195 0
173 196 0
172 196 0
170 194 0
171 195 0
172 195 0
173 197 0
175 197 0
172 196 0
172 196 0
174 197 0
173 196 0
173 196 0
173 196 0
173 196 0
172 195 0
173 196 0
175 197 0
160 184 60
162 185 62
149 173 97
138 163 111
120 146 140
110 138 148
93 123 162
75 108 171
66 102 176
61 98 178
62 99 181
61 98 181
61 99 180
62 99 178
61 99 181
62 99 181
61 99 181
61 99 179
62 99 181
62 99 181
61 98 180
62 99 181
62 99 181
61 98 181
61 99 181
61 98 181
61 99 181
61 99 181
62 99 181
62 99 181
61 98 181
61 99 181
61 99 181
61 98 181
62 99 181
61 99 181
61 99 181
61 99 181
61 98 181
62 99 181
61 99 181
61 98 180
62 99 181
62 99 181
62 99 181
62 99 180
62 99 181
62 99 181
61 99 181
62 99 181
61 98 181
62 99 181
62 99 181
61 98 180
61 98 180
61 98 181
62 99 181
61 98 179
61 98 178
62 99 181
62 99 179
62 99 181
62 99 181
65 101 177
63 100 178
90 120 165
105 133 151
124 149 134
127 152 120
145 169 102
159 182 82
161 184 68
169 192 44
172 196 18
172 195 0
173 196 0
172 195 0
172 195 0
172 195 0
171 194 0
172 194 0
170 194 0
173 196 0
174 196 0
171 194 0
172 194 0
174 198 0
174 197 0
171 194 0
174 197 0
172 195 0
172 194 0
172 195 0
172 195 0
174 196 0
170 190 28
164 184 19
165 183 32
164 180 30
166 182 42
159 176 34
163 176 47
157 170 45
159 168 53
159 166 60
155 164 56
144 149 64
150 151 73
135 135 63
145 142 77
134 133 78
142 138 81
152 147 86
140 136 77
144 139 82
145 139 85
154 150 94
153 148 89
143 140 87
147 142 89
138 134 84
141 138 88
148 143 88
156 151 95
149 145 95
149 146 95
149 145 94
148 146 96
154 151 98
151 148 96
154 151 100
160 157 101
150 148 95
156 152 99
145 142 96
157 153 103
156 152 98
157 154 103
166 161 106
154 151 100
159 155 104
160 156 104
163 160 106
153 150 100
167 164 109
165 161 106
158 155 104
161 157 105
162 158 104
156 154 103
161 158 105
157 154 103
163 160 106
162 160 107
164 161 107
169 165 111
165 162 108
165 162 108
170 166 111
169 166 111
157 156 105
169 165 110
168 165 110
166 163 109
168 165 110
162 158 106
169 165 110
167 164 109
166 164 110
167 164 108
170 168 112
167 164 110
171 168 111
168 165 110
171 168 111
170 167 112
169 166 111
172 170 114
169 166 110
169 167 112
171 167 111
168 166 111
172 169 113
166 162 108
171 168 112
169 166 110
169 166 110
166 163 108
169 167 110
170 166 110
170 167 112
171 168 112
172 168 111
170 166 110
170 166 109
169 166 109
167 164 108
165 163 109
169 166 109
170 166 110
167 164 106
167 164 107
166 162 108
164 161 106
163 159 105
168 163 106
169 165 107
171 167 110
165 161 106
170 166 108
169 164 108
162 158 101
165 161 105
158 153 101
170 165 107
166 161 104
159 155 99
165 161 104
163 159 103
158 152 96
166 163 105
162 158 100
163 157 100
161 157 101
159 154 98
163 158 101
165 160 103
158 154 99
156 151 93
156 152 95
159 154 97
161 156 97
165 158 97
160 154 96
159 153 95
153 148 89
161 155 96
153 146 88
153 147 88
151 146 86
154 148 90
147 142 83
149 142 84
148 143 77
143 144 68
150 149 74
157 161 72
150 155 59
158 168 52
155 167 42
163 176 45
164 182 37
168 186 34
168 187 25
169 189 22
171 193 19
172 195 0
174 198 0
173 196 0
175 197 0
173 196 0
174 197 0
173 197 0
174 198 0
173 197 0
172 196 0
173 197 0
173 197 0
173 197 0
173 197 0
175 198 0
174 197 0
174 196 0
172 195 0
171 194 0
173 196 0
173 196 0
173 197 0
174 198 0
174 197 0
174 197 0
173 197 0
173 197 0
173 197 0
173 196 0
173 197 0
175 197 0
173 197 0
174 198 0
174 197 0
172 196 0
176 198 0
174 198 0
175 198 0
173 196 0
173 197 0
175 198 0
172 195 0
174 197 0
174 197 0
173 197 0
175 198 0
172 195 0
173 196 0
172 196 0
171 195 0
174 197 0
172 196 0
175 198 0
173 196 0
174 198 0
171 194 0
172 196 0
173 196 0
171 195 0
174 197 0
174 197 0
172 195 0
171 196 0
175 198 0
175 198 0
173 196 0
173 196 0
172 196 0
175 197 0
173 197 0
174 198 0
174 197 0
172 196 0
170 194 0
173 197 0
174 198 0
174 196 0
172 195 0
175 198 0
172 196 0
172 196 0
173 197 0
173 196 0
172 196 0
174 198 0
172 196 0
173 196 0
174 197 0
174 197 0
174 197 0
175 198 0
174 196 0
171 195 0
172 196 0
173 197 0
173 197 0
174 198 0
173 195 0
175 198 0
174 197 0
173 197 0
174 197 0
174 197 0
174 197 0
172 196 0
174 197 0
172 196 0
173 197 0
171 195 0
171 195 0
171 195 0
172 196 0
173 197 0
173 196 0
172 195 0
173 196 0
175 197 0
170 194 0
170 194 0
169 193 0
172 196 0
173 196 0
171 194 0
173 196 0
172 196 0
173 196 0
174 197 0
171 194 0
168 192 0
173 197 0
174 197 0
173 197 0
172 196 0
173 197 0
172 195 0
174 197 0
172 195 0
173 197 0
173 195 0
172 195 0
174 198 0
171 194 25
166 190 51
162 185 72
146 171 100
130 156 125
126 152 135
91 121 162
76 109 168
64 101 180
62 99 179
62 99 180
62 99 179
62 99 181
62 99 179
62 99 181
61 99 181
62 99 181
61 99 181
61 99 181
61 99 181
62 99 181
61 99 181
61 98 181
61 99 181
62 99 181
62 99 181
61 99 181
61 99 181
62 99 181
62 99 181
62 99 181
62 99 181
61 98 181
61 99 181
62 99 181
61 99 181
62 99 181
61 99 181
61 99 181
62 99 181
61 98 181
62 99 181
61 98 181
62 99 181
61 99 181
61 98 181
61 99 181
61 99 181
61 98 180
61 99 181
61 99 181
62 99 181
62 99 180
62 99 181
61 99 180
62 99 181
62 99 180
62 99 179
61 98 180
61 98 180
61 98 179
61 98 180
62 98 178
61 98 180
61 98 181
61 99 181
62 99 180
62 98 177
62 98 176
66 102 177
78 111 170
98 127 156
111 138 147
130 155 120
137 162 116
145 169 100
161 185 60
167 191 40
169 193 31
171 193 0
173 196 0
172 195 0
171 194 0
171 194 0
173 196 0
169 192 0
171 194 0
174 196 0
173 197 0
173 196 0
170 194 0
174 196 0
171 194 0
174 197 0
169 192 0
171 194 0
173 196 0
170 191 16
168 189 11
167 187 22
161 180 34
167 184 32
156 172 44
157 172 40
156 168 47
164 170 69
156 164 59
148 154 57
152 157 60
141 144 62
142 142 69
148 146 75
149 145 80
135 132 71
140 135 81
138 134 80
145 140 85
148 143 88
150 145 91
147 142 84
144 139 89
148 144 89
150 147 93
153 150 96
144 141 88
148 143 92
153 149 96
155 150 95
150 146 95
157 153 99
151 148 97
154 150 100
159 155 101
152 148 95
154 152 101
154 150 97
141 138 92
156 152 100
155 152 103
163 159 106
158 155 103
156 153 103
156 153 102
151 149 100
158 155 103
165 163 108
162 158 105
162 158 105
160 157 104
160 156 105
158 155 104
163 160 106
160 157 106
164 162 108
164 162 109
158 156 104
163 160 107
165 162 109
166 163 109
169 165 110
168 165 108
167 164 109
163 160 107
169 166 111
162 161 108
172 168 112
167 164 110
168 164 109
171 168 112
170 167 111
170 167 111
171 168 112
167 164 109
166 164 109
168 165 110
170 166 109
170 167 111
171 168 112
168 165 109
170 166 110
171 167 111
173 169 112
167 164 109
165 162 108
167 164 109
172 168 111
168 164 108
172 169 112
163 160 106
170 166 109
168 163 108
173 169 112
173 170 113
172 168 111
167 163 108
164 161 106
166 163 108
169 167 111
164 161 107
168 165 109
166 163 106
168 165 109
172 167 110
169 165 108
170 166 110
166 164 108
166 163 108
169 165 108
172 167 109
172 168 110
164 161 106
163 158 102
164 161 104
168 163 108
169 164 106
166 161 106
164 160 105
173 168 108
167 163 107
161 157 99
171 166 108
167 162 103
158 154 100
162 158 101
170 165 103
157 152 95
161 156 101
163 157 100
155 150 94
162 157 96
161 156 97
159 153 95
157 152 96
160 154 97
162 157 99
149 143 90
156 151 88
155 149 89
152 146 88
161 154 95
151 145 90
151 145 85
149 144 88
156 150 90
152 145 84
146 142 83
141 138 74
154 149 85
146 144 74
147 149 65
153 159 57
155 163 57
156 165 53
155 170 34
162 177 45
164 181 32
171 192 25
171 192 19
172 194 16
174 198 0
172 195 0
174 198 0
173 197 0
175 197 0
174 197 0
173 197 0
172 197 0
172 196 0
174 197 0
172 196 0
173 196 0
174 197 0
172 195 0
173 196 0
174 197 0
174 198 0
174 198 0
174 197 0
172 195 0
174 197 0
171 195 0
176 199 0
174 197 0
174 197 0
175 198 0
173 197 0
175 197 0
174 197 0
172 196 0
176 198 0
171 196 0
172 196 0
172 197 0
175 198 0
174 197 0
171 195 0
173 196 0
172 196 0
174 197 0
173 197 0
173 196 0
174 197 0
173 197 0
173 197 0
174 198 0
174 198 0
173 196 0
173 196 0
172 196 0
173 196 0
175 198 0
174 197 0
174 197 0
172 196 0
173 197 0
173 196 0
176 198 0
175 198 0
176 198 0
171 195 0
175 198 0
172 195 0
173 196 0
174 197 0
172 197 0
174 197 0
172 196 0
173 197 0
174 196 0
172 195 0
174 198 0
172 195 0
174 197 0
173 196 0
173 197 0
170 194 0
173 197 0
169 193 0
173 197 0
172 195 0
173 195 0
174 197 0
172 195 0
174 198 0
174 198 0
173 196 0
173 196 0
174 198 0
174 197 0
170 194 0
168 192 0
172 197 0
173 197 0
173 197 0
172 196 0
175 198 0
172 196 0
174 197 0
173 196 0
173 197 0
173 197 0
171 194 0
173 196 0
171 195 0
173 196 0
173 197 0
173 197 0
171 194 0
172 195 0
170 194 0
174 196 0
170 195 0
173 197 0
174 197 0
173 197 0
174 198 0
174 197 0
172 196 0
175 198 0
172 195 0
172 194 0
175 198 0
174 197 0
173 196 0
173 197 0
174 197 0
172 196 0
171 195 0
175 198 0
172 195 0
174 197 0
173 197 0
173 196 0
171 195 0
171 196 0
172 195 0
171 194 0
173 197 0
169 193 0
166 189 60
157 180 82
143 168 107
133 159 124
112 139 143
71 106 175
69 104 176
62 99 179
62 99 177
62 99 181
62 99 179
62 99 179
61 99 181
62 99 181
62 99 181
62 99 181
62 99 181
61 98 181
62 99 181
61 99 181
62 99 181
61 99 181
62 99 181
62 99 181
61 99 181
62 99 181
61 98 181
61 99 181
61 98 181
61 99 181
61 99 181
61 99 181
61 99 181
61 98 181
62 99 181
62 99 181
61 99 181
61 99 181
61 98 181
61 99 181
61 99 181
61 98 181
61 99 181
62 99 181
61 98 181
61 99 181
61 98 181
61 98 181
61 99 181
62 99 181
61 99 181
62 99 181
61 99 181
62 99 181
61 98 179
62 99 181
62 99 181
61 98 178
62 99 181
61 99 181
61 99 181
61 98 180
61 98 179
62 99 180
61 99 180
61 98 181
62 99 181
62 99 180
61 98 180
61 98 178
62 99 180
62 99 180
62 99 178
63 100 177
79 111 170
106 133 152
128 154 127
138 164 113
144 168 105
164 187 60
171 193 44
172 195 18
172 196 0
176 198 0
173 195 0
171 195 0
172 194 0
171 194 0
172 195 0
172 196 0
172 196 0
172 196 0
170 194 0
172 196 0
169 192 0
170 193 0
170 193 0
169 192 0
170 191 25
171 192 22
166 186 25
163 181 30
162 177 36
161 175 42
162 176 46
154 163 54
152 159 51
157 163 63
157 161 67
148 151 64
155 154 78
153 152 72
140 140 72
140 137 68
142 138 80
137 132 78
148 142 83
146 140 88
142 138 81
148 143 87
159 154 93
143 140 86
148 145 92
145 142 87
141 137 88
150 147 96
150 146 92
138 135 88
151 147 95
145 141 92
153 149 97
155 150 98
147 144 95
151 148 98
145 143 93
153 149 98
151 149 98
153 151 100
161 157 103
151 148 98
150 148 98
156 153 101
157 155 102
151 148 101
153 151 101
158 156 105
162 158 105
156 153 103
159 156 105
161 157 105
161 158 106
162 159 107
162 160 108
161 159 107
164 160 106
161 157 105
156 154 103
155 153 104
163 161 108
159 158 106
165 162 108
164 161 108
164 161 108
167 164 109
160 157 105
168 165 110
164 161 108
167 164 109
173 169 112
164 162 109
168 165 110
170 167 110
169 166 111
170 168 112
172 169 113
168 164 109
165 163 109
169 166 110
172 169 113
172 169 112
171 168 112
171 168 111
172 169 112
170 167 112
171 168 112
172 169 112
170 167 111
173 169 112
169 166 110
169 166 110
169 165 108
173 170 112
166 164 109
168 166 110
166 164 108
166 162 108
174 169 112
168 165 109
172 167 110
167 164 109
175 171 112
168 165 109
171 167 109
171 167 109
165 160 104
168 164 104
169 165 108
168 163 106
166 163 106
169 166 108
167 163 106
164 160 105
167 164 107
168 164 108
165 161 105
162 158 101
171 166 108
166 162 107
167 163 105
158 155 99
167 162 105
162 159 102
168 163 104
159 154 101
165 159 100
156 151 97
154 150 95
160 155 97
166 160 99
152 148 93
158 153 95
160 155 96
155 150 90
160 155 98
159 154 94
164 158 98
150 145 90
159 154 95
151 146 92
152 147 88
156 150 94
157 151 89
157 151 88
154 147 86
146 139 81
159 152 87
150 143 82
138 136 69
150 147 76
149 148 73
145 146 64
148 154 60
157 160 62
160 168 62
162 172 56
158 173 39
164 181 36
170 189 34
168 188 19
170 189 30
173 195 16
174 197 0
172 196 0
174 197 0
175 198 0
174 197 0
172 196 0
174 197 0
173 197 0
173 196 0
172 196 0
175 198 0
173 196 0
174 198 0
173 197 0
173 197 0
173 196 0
173 197 0
172 197 0
172 196 0
173 197 0
175 198 0
171 195 0
175 198 0
171 195 0
172 195 0
174 197 0
173 197 0
171 196 0
174 197 0
173 197 0
173 197 0
171 195 0
174 198 0
173 196 0
173 197 0
174 197 0
171 195 0
170 194 0
174 197 0
174 197 0
174 197 0
174 198 0
173 196 0
171 196 0
174 196 0
175 198 0
173 196 0
172 196 0
172 197 0
171 195 0
174 197 0
172 196 0
175 198 0
175 197 0
174 198 0
172 196 0
174 198 0
174 198 0
173 196 0
173 197 0
176 198 0
173 197 0
173 197 0
173 197 0
172 196 0
171 194 0
173 196 0
174 197 0
173 196 0
175 198 0
172 197 0
175 198 0
173 196 0
174 197 0
173 196 0
174 197 0
173 196 0
172 195 0
171 195 0
174 197 0
172 196 0
174 197 0
174 197 0
173 196 0
174 197 0
174 197 0
173 196 0
173 196 0
174 197 0
171 194 0
174 197 0
175 198 0
174 197 0
174 197 0
174 197 0
172 196 0
172 196 0
172 196 0
170 194 0
172 196 0
172 196 0
170 194 0
174 196 0
173 196 0
173 197 0
172 195 0
173 196 0
174 196 0
170 194 0
170 194 0
171 194 0
175 198 0
171 194 0
170 194 0
173 197 0
173 197 0
173 197 0
173 196 0
173 196 0
173 196 0
174 198 0
172 195 0
174 197 0
174 197 0
173 196 0
173 196 0
173 196 0
174 197 0
171 194 0
173 196 0
171 194 0
173 195 0
173 197 0
173 196 0
174 198 0
173 196 0
167 191 40
164 188 62
159 183 70
146 170 102
133 157 126
106 134 153
78 111 172
69 104 177
62 99 179
61 99 180
62 99 181
61 99 179
63 100 179
62 99 179
62 99 181
61 99 181
62 99 179
62 99 180
62 99 181
61 99 181
62 99 180
61 98 180
62 99 181
61 99 181
63 100 181
62 99 181
61 99 181
61 98 181
61 98 181
62 99 181
62 99 181
61 99 181
61 99 181
61 99 181
61 99 181
62 99 181
62 99 181
61 98 181
61 98 181
62 99 181
61 99 181
61 98 181
61 98 181
61 98 181
61 98 181
61 99 181
61 99 181
61 98 181
61 98 181
61 98 181
61 99 181
61 99 181
61 99 181
61 98 180
61 98 181
61 98 181
62 99 181
62 99 181
62 99 181
61 99 181
62 99 181
61 99 180
61 99 181
62 99 181
62 99 181
61 98 181
61 99 181
62 99 181
61 98 179
61 98 180
61 98 178
62 98 179
62 99 179
62 99 180
62 99 181
62 99 178
61 98 178
60 97 175
61 97 175
74 107 171
104 132 149
117 143 141
130 156 126
145 168 99
152 175 92
165 188 60
171 194 18
174 197 0
172 196 0
172 195 0
171 193 0
172 195 0
174 197 0
171 193 0
173 196 0
173 196 0
169 192 0
172 194 0
170 192 0
174 196 0
170 192 0
166 186 22
164 184 30
166 184 32
161 176 41
156 169 41
161 172 47
155 166 49
153 164 49
158 167 60
152 158 61
144 149 60
147 147 66
143 147 63
131 130 64
148 145 73
135 131 70
143 138 80
142 137 82
148 143 84
141 136 82
148 144 87
142 138 84
140 137 88
140 136 88
144 139 89
149 145 90
149 145 90
146 143 94
150 146 94
161 156 99
152 148 97
155 151 97
140 137 92
150 146 98
140 138 91
152 149 98
155 152 101
152 149 100
147 145 98
154 150 100
149 146 96
148 146 98
161 158 103
157 152 100
154 151 100
152 149 99
153 151 103
153 150 101
159 156 105
154 151 101
157 154 104
162 159 106
157 155 103
157 155 105
158 155 105
163 161 108
159 157 106
159 157 105
161 159 106
162 159 105
166 162 109
155 153 102
165 163 109
167 165 110
162 158 106
164 161 108
170 166 111
167 163 108
164 162 108
162 160 106
166 163 109
172 169 113
166 164 109
171 168 111
167 163 108
172 168 111
170 166 110
169 165 110
169 166 110
169 166 110
171 167 111
171 168 112
172 169 111
165 162 108
167 165 108
171 167 111
171 166 109
170 167 110
167 165 110
170 166 110
172 169 111
165 163 108
167 164 109
174 170 112
173 169 112
173 169 109
174 170 112
174 170 112
169 165 108
167 164 108
170 166 109
171 168 112
173 169 112
170 168 112
166 163 107
176 171 112
164 161 106
164 161 105
171 167 110
163 159 105
166 163 108
170 166 110
167 164 107
168 163 106
167 162 105
170 166 109
166 162 108
165 160 104
166 163 107
165 161 104
167 162 104
169 164 105
168 163 104
154 150 97
166 161 102
156 152 97
163 157 99
161 156 97
163 158 99
166 161 101
158 153 97
158 153 98
161 155 95
168 162 99
162 157 95
155 150 93
159 153 93
155 151 93
156 151 93
158 153 93
157 152 91
143 139 85
156 151 91
157 151 91
152 147 87
147 141 84
141 136 77
146 142 84
152 145 88
149 143 81
145 140 78
141 139 69
141 143 65
155 159 65
146 150 60
152 160 49
152 162 51
156 170 39
166 183 34
160 177 32
169 186 36
165 185 16
171 193 16
171 193 19
172 194 0
173 197 0
174 197 0
174 197 0
176 199 0
176 198 0
174 197 0
173 197 0
177 199 0
174 197 0
172 196 0
173 197 0
174 197 0
173 197 0
174 198 0
174 198 0
171 195 0
175 198 0
174 197 0
171 195 0
172 196 0
175 198 0
174 197 0
173 197 0
174 197 0
174 197 0
173 195 0
175 198 0
173 196 0
173 196 0
173 197 0
174 198 0
173 197 0
170 194 0
175 197 0
174 198 0
172 196 0
174 197 0
171 195 0
174 197 0
175 197 0
173 197 0
175 197 0
173 196 0
174 197 0
173 196 0
173 196 0
172 196 0
175 198 0
172 196 0
174 197 0
174 197 0
175 198 0
173 197 0
174 197 0
172 195 0
174 198 0
174 198 0
175 198 0
174 197 0
174 197 0
175 198 0
174 196 0
174 197 0
174 198 0
172 196 0
173 197 0
173 197 0
171 194 0
172 195 0
171 195 0
174 197 0
175 198 0
173 197 0
173 196 0
172 195 0
173 196 0
173 196 0
173 196 0
173 197 0
172 195 0
174 197 0
174 197 0
173 196 0
172 195 0
174 197 0
176 199 0
176 198 0
173 196 0
175 198 0
174 197 0
174 196 0
173 197 0
174 197 0
173 196 0
171 195 0
173 196 0
171 194 0
173 196 0
171 195 0
173 197 0
174 197 0
169 193 0
173 196 0
174 198 0
170 194 0
173 196 0
173 196 0
171 195 0
173 197 0
172 195 0
172 195 0
173 196 0
172 195 0
171 195 0
172 196 0
169 193 0
170 193 0
171 195 0
173 197 0
174 198 0
171 195 0
172 196 0
172 195 0
172 195 0
173 197 0
172 195 0
175 198 0
174 197 0
172 195 0
173 196 0
171 195 0
172 196 0
171 195 25
164 188 51
153 177 84
139 164 110
133 158 124
101 130 155
73 107 174
62 99 180
62 99 179
62 99 179
62 99 179
61 99 180
62 99 181
62 99 179
62 99 181
62 99 180
61 99 180
61 99 181
62 99 180
62 99 181
62 99 181
62 99 181
61 99 181
61 98 181
62 99 181
62 99 181
61 99 181
62 99 181
61 98 181
62 99 181
62 99 181
61 99 181
62 99 181
61 99 181
61 99 181
61 99 181
61 99 181
61 98 181
61 98 181
61 99 181
61 98 181
61 99 181
62 99 181
61 98 181
61 99 181
61 99 181
61 99 181
61 99 181
61 98 181
61 99 181
61 99 181
61 99 181
61 99 181
61 98 181
62 99 181
60 98 181
62 99 181
61 99 181
62 99 181
61 99 181
61 99 181
62 99 181
61 98 181
62 99 180
62 99 181
61 98 180
62 99 180
61 98 180
61 99 179
62 99 181
62 99 181
61 99 181
61 98 179
61 99 180
61 99 181
61 98 178
61 98 180
62 99 180
62 98 179
61 98 176
61 98 174
61 97 176
63 100 176
69 104 175
95 124 162
112 139 144
138 163 108
149 172 96
159 182 72
165 188 48
174 197 0
171 193 0
171 194 0
171 193 0
173 196 0
174 197 0
172 194 0
174 197 0
173 196 0
172 194 0
171 194 0
169 191 11
172 192 16
170 192 16
164 183 28
160 176 32
160 176 34
161 174 45
157 172 44
162 173 56
166 178 51
149 157 54
157 162 68
148 151 68
148 149 70
148 149 71
145 142 78
140 137 74
148 143 84
141 137 79
144 139 82
145 141 84
145 139 84
144 140 84
145 140 88
146 142 89
148 144 89
152 147 94
150 146 93
142 139 91
156 151 97
146 142 92
150 147 95
157 154 99
149 146 95
152 148 97
146 143 95
143 140 93
150 147 98
158 154 102
149 146 96
151 148 97
152 149 99
155 152 103
155 152 103
154 151 102
156 152 99
148 145 98
152 151 101
155 153 102
154 151 100
160 157 105
156 154 104
157 155 104
152 150 102
156 154 104
157 154 104
159 157 105
157 155 104
163 160 107
167 163 108
165 162 109
166 162 108
159 157 106
161 158 106
165 162 108
166 163 109
170 167 112
167 164 110
167 164 110
163 161 108
169 165 110
164 162 109
169 165 109
170 166 110
166 163 108
170 167 111
167 164 110
170 167 110
171 169 113
171 168 112
169 165 110
173 170 112
170 167 111
167 165 109
165 163 110
173 169 112
169 166 110
169 166 110
170 166 110
171 169 113
168 165 109
172 168 109
171 167 110
166 164 109
173 169 112
174 171 113
173 169 112
170 167 111
171 166 108
169 166 109
169 166 110
168 166 109
171 167 111
171 167 110
172 168 110
169 165 108
169 166 110
176 170 111
168 164 107
172 167 110
167 164 108
167 164 108
170 167 110
172 168 110
165 161 106
172 167 109
172 167 109
168 163 106
166 162 102
162 158 101
167 163 106
165 161 104
164 160 103
169 165 106
163 159 103
166 162 103
163 158 102
168 163 104
170 165 105
158 153 100
166 162 104
163 158 101
166 159 97
162 156 101
165 161 102
168 162 102
162 156 98
163 157 96
157 153 92
157 151 92
160 155 93
152 147 88
147 143 85
159 153 89
158 152 91
154 149 89
159 153 90
141 135 80
149 143 84
144 140 80
146 141 81
145 139 81
141 135 71
147 145 76
149 147 76
145 146 71
151 155 64
152 159 60
161 170 49
162 178 39
154 170 32
168 186 34
167 186 25
170 190 30
172 192 16
171 194 0
174 197 0
173 195 0
171 194 0
174 197 0
175 198 0
175 198 0
174 197 0
172 195 0
175 198 0
174 198 0
174 197 0
172 196 0
174 198 0
174 198 0
173 197 0
173 197 0
174 197 0
174 197 0
172 196 0
173 197 0
172 196 0
173 196 0
173 196 0
175 198 0
172 196 0
174 197 0
173 196 0
172 196 0
174 197 0
175 198 0
173 197 0
174 197 0
174 197 0
175 198 0
172 196 0
171 195 0
174 197 0
173 197 0
174 197 0
172 195 0
173 197 0
170 194 0
173 197 0
175 198 0
173 197 0
172 196 0
173 197 0
173 196 0
173 196 0
174 197 0
173 197 0
175 198 0
174 197 0
173 197 0
173 197 0
172 196 0
173 197 0
173 197 0
173 196 0
173 196 0
175 198 0
174 197 0
171 195 0
171 194 0
173 197 0
175 198 0
174 198 0
173 197 0
173 196 0
173 197 0
170 193 0
173 196 0
172 195 0
174 197 0
172 196 0
174 197 0
174 198 0
173 195 0
174 197 0
169 194 0
172 196 0
174 197 0
176 198 0
171 194 0
171 194 0
173 196 0
174 197 0
174 197 0
172 196 0
173 196 0
173 196 0
172 195 0
172 195 0
170 194 0
172 195 0
171 195 0
170 194 0
172 195 0
172 195 0
173 196 0
172 196 0
172 196 0
174 197 0
173 197 0
171 194 0
173 197 0
174 197 0
174 198 0
172 195 0
172 195 0
174 197 0
169 193 0
172 196 0
173 197 0
175 197 0
172 196 0
173 196 0
174 197 0
172 195 0
174 197 0
172 195 0
171 195 0
172 196 0
173 196 0
172 196 0
175 198 0
171 194 0
171 194 0
173 197 0
171 194 0
174 197 0
174 197 0
166 190 40
159 183 74
145 169 105
128 153 130
102 130 153
76 110 173
62 99 177
61 98 179
62 99 181
62 99 179
62 99 180
62 99 179
61 99 181
62 99 179
62 99 180
62 99 179
62 99 179
62 99 180
61 99 181
61 99 180
62 99 181
62 99 180
61 98 181
61 99 181
62 99 181
62 99 180
61 98 181
61 99 181
62 99 181
62 99 181
62 99 181
62 99 181
61 99 181
61 98 181
62 99 181
61 99 181
61 99 181
61 99 181
61 99 181
61 99 181
61 98 181
61 99 181
61 99 181
62 99 181
62 99 181
61 98 181
61 98 181
62 99 181
61 99 181
62 99 181
61 99 181
61 98 181
62 99 181
61 98 181
61 99 181
61 99 181
62 99 181
61 99 181
62 99 180
61 99 181
61 99 181
62 99 181
62 99 181
62 99 180
61 99 181
61 99 181
61 98 181
61 98 180
61 98 181
61 98 180
62 99 181
63 99 180
62 99 179
62 98 178
61 97 176
62 99 180
61 98 178
61 98 176
61 98 178
60 97 175
62 99 180
61 99 180
61 98 177
61 98 178
62 98 176
61 98 177
74 106 166
94 123 158
120 146 136
134 158 121
152 176 89
158 181 70
170 193 31
169 191 18
170 194 0
171 194 0
171 194 0
174 196 0
172 196 0
172 193 0
170 193 0
172 195 0
172 195 11
171 193 16
169 190 11
163 182 33
161 178 30
160 175 40
161 177 30
160 172 45
159 167 56
154 164 51
151 160 47
153 159 63
142 143 71
142 146 65
145 144 67
146 144 76
154 148 86
133 130 72
150 145 83
146 141 86
139 135 81
141 136 81
143 139 84
147 142 89
142 139 87
149 144 89
141 137 86
145 143 90
149 146 94
154 149 97
148 145 96
151 147 95
161 157 104
144 141 93
142 140 94
163 159 102
154 150 96
156 152 101
149 146 99
154 150 98
146 144 97
155 152 101
157 154 101
149 147 99
163 159 106
162 158 105
159 156 103
158 155 103
154 151 103
155 153 104
159 156 104
161 158 104
156 153 103
158 156 105
155 152 102
165 162 108
164 161 108
168 165 110
166 163 108
163 160 107
165 162 108
164 161 108
161 158 104
168 165 110
165 163 108
166 163 109
164 162 108
171 167 111
163 161 109
169 166 110
165 162 108
169 166 110
159 157 105
170 167 111
172 169 113
167 164 110
168 165 109
170 168 112
166 163 109
173 169 112
169 166 110
168 165 110
175 171 112
169 166 111
171 167 110
173 170 113
170 167 111
172 169 111
170 167 110
169 165 109
173 169 112
166 163 108
175 171 112
174 169 111
171 167 110
169 165 108
168 164 109
174 171 113
171 168 110
171 167 110
172 168 110
171 167 111
174 170 112
171 167 111
170 166 109
168 164 109
175 170 112
169 164 108
172 169 112
170 166 109
171 167 109
167 164 108
166 163 108
169 165 108
170 166 107
170 166 108
171 167 109
175 170 110
169 165 109
167 163 104
168 163 103
167 162 103
170 165 108
158 154 96
167 163 104
171 166 105
163 158 100
169 164 106
170 165 104
159 156 101
168 163 103
159 155 100
165 160 99
166 160 103
163 158 98
150 146 90
159 155 97
156 152 94
168 161 99
155 150 95
160 154 94
157 152 94
149 144 86
154 148 92
157 152 91
161 154 91
160 154 93
149 143 81
145 140 79
155 149 87
150 144 87
150 143 84
136 131 79
139 135 73
147 147 72
144 146 64
147 152 60
159 167 58
156 165 54
157 169 45
163 178 47
165 183 34
160 177 28
162 180 28
168 190 11
172 195 16
173 196 0
174 197 0
174 197 0
173 196 0
174 197 0
173 196 0
174 198 0
172 196 0
172 196 0
174 197 0
174 197 0
173 197 0
168 192 0
173 196 0
173 196 0
172 196 0
173 197 0
173 197 0
174 198 0
172 194 0
175 198 0
175 198 0
173 197 0
174 197 0
173 197 0
174 197 0
173 197 0
173 196 0
175 198 0
172 196 0
174 197 0
175 198 0
172 195 0
173 196 0
173 196 0
173 196 0
174 197 0
174 198 0
173 197 0
173 196 0
172 196 0
173 196 0
174 196 0
173 197 0
173 197 0
174 198 0
173 197 0
174 198 0
175 198 0
175 197 0
173 196 0
174 197 0
174 197 0
173 196 0
171 195 0
173 197 0
173 196 0
173 196 0
174 197 0
174 196 0
172 195 0
172 196 0
173 197 0
173 196 0
173 196 0
171 195 0
173 196 0
174 197 0
174 198 0
174 197 0
174 197 0
173 197 0
172 196 0
172 196 0
171 194 0
173 196 0
171 195 0
173 196 0
175 198 0
173 196 0
173 196 0
171 195 0
174 197 0
174 196 0
172 196 0
173 196 0
173 197 0
173 197 0
171 195 0
170 194 0
171 195 0
172 196 0
173 196 0
173 196 0
174 197 0
172 195 0
173 197 0
171 195 0
172 195 0
171 195 0
173 196 0
173 196 0
170 193 0
172 196 0
171 194 0
173 197 0
170 193 0
174 197 0
172 196 0
173 196 0
173 197 0
174 196 0
172 195 0
172 195 0
172 195 0
172 195 0
173 195 0
171 195 0
171 195 0
173 196 0
171 195 0
173 196 0
169 193 0
173 196 0
172 196 0
170 194 0
172 196 0
172 195 0
170 193 0
174 197 0
171 194 31
166 190 60
149 173 97
129 155 129
103 131 153
74 108 172
65 101 173
62 99 180
62 99 179
61 99 180
62 99 178
62 99 181
61 99 181
61 99 180
62 99 178
62 99 181
62 99 181
62 99 181
62 99 181
61 98 180
61 99 181
61 99 179
62 99 181
62 99 181
61 99 181
62 99 181
62 99 181
62 99 181
61 99 181
62 99 181
61 99 181
62 99 181
62 99 181
62 99 181
61 99 181
61 99 181
61 99 181
61 99 181
61 99 181
61 99 181
61 99 181
62 99 181
61 99 181
61 98 181
61 98 181
62 99 181
62 99 181
61 98 181
61 99 181
62 99 181
62 99 181
61 99 181
62 99 181
62 99 181
61 99 181
61 99 181
61 99 181
61 99 181
61 98 181
61 98 180
61 98 181
61 99 181
61 99 181
62 99 181
62 99 181
61 98 178
61 99 181
62 99 181
61 98 181
62 99 181
62 99 181
62 99 181
61 98 179
62 99 181
62 99 181
61 99 181
62 99 181
62 99 179
62 99 181
61 98 178
62 99 181
62 99 181
61 98 177
62 99 178
62 99 181
62 99 180
62 99 177
61 98 177
62 99 179
62 98 176
77 109 166
99 127 150
112 139 141
138 163 107
155 179 75
161 182 67
165 188 36
173 196 0
172 194 0
168 192 0
171 193 0
172 194 0
171 193 0
173 197 0
171 192 11
171 192 28
167 187 16
170 191 19
161 178 32
164 180 37
156 171 37
148 160 34
156 168 47
153 162 57
147 153 57
147 152 67
141 144 67
144 146 68
133 133 64
141 137 79
134 130 72
145 140 84
137 133 77
142 138 84
140 135 78
138 134 82
140 136 85
148 144 91
144 139 88
141 138 88
139 135 84
138 136 88
145 142 91
146 142 92
151 146 97
144 140 94
151 147 96
141 138 89
148 146 97
160 156 103
146 142 95
148 146 97
155 152 98
145 142 95
150 147 96
139 137 91
152 149 99
154 151 100
160 156 102
153 151 101
164 160 106
155 152 101
152 150 100
151 149 101
154 152 100
156 155 105
153 151 102
157 154 104
158 155 104
162 159 107
163 160 106
162 160 107
160 157 105
163 161 108
163 161 108
165 162 109
157 155 104
166 163 109
165 162 108
161 158 105
165 162 108
168 165 111
170 167 111
168 165 111
168 165 110
166 163 108
168 164 110
163 161 108
166 164 109
170 166 109
171 168 112
171 167 110
170 167 112
168 165 109
171 167 110
171 167 111
170 167 110
168 164 109
172 168 111
174 170 112
171 168 111
173 169 112
174 169 112
176 171 113
169 167 109
172 168 112
167 164 109
169 166 109
171 168 111
170 167 111
171 168 110
169 165 109
171 167 111
168 165 110
168 164 108
172 168 110
172 168 110
173 169 111
172 168 109
169 164 107
168 165 108
172 167 109
171 166 109
170 166 109
169 164 106
169 165 107
169 165 108
171 166 107
173 168 109
172 168 110
170 166 109
170 165 107
167 163 106
168 164 106
167 163 105
165 160 103
167 162 103
165 161 103
164 160 103
167 162 102
167 161 103
170 165 106
169 164 103
164 160 103
163 158 100
162 157 97
159 153 95
168 162 101
166 159 99
166 161 98
170 165 105
157 151 94
160 154 97
162 156 93
160 154 95
155 149 91
160 153 95
157 151 93
158 153 89
155 149 92
158 152 87
150 145 82
156 150 90
146 139 81
140 134 75
151 144 80
143 137 71
138 134 71
155 152 80
149 149 73
154 157 68
153 157 69
155 164 57
160 170 49
166 178 48
162 177 39
160 176 36
166 185 28
169 191 28
170 193 11
174 197 0
174 196 0
172 195 0
174 197 0
171 195 0
173 196 0
174 197 0
174 197 0
174 197 0
174 197 0
175 198 0
175 198 0
172 196 0
174 197 0
172 196 0
174 198 0
172 195 0
173 196 0
174 197 0
174 198 0
175 198 0
174 197 0
171 195 0
174 197 0
171 195 0
173 197 0
173 197 0
174 197 0
172 195 0
174 197 0
174 196 0
172 197 0
173 196 0
173 196 0
172 196 0
170 194 0
173 197 0
174 196 0
174 198 0
173 197 0
173 195 0
173 197 0
174 197 0
172 196 0
174 198 0
174 197 0
174 197 0
174 197 0
174 197 0
174 197 0
173 196 0
174 196 0
174 197 0
174 198 0
175 198 0
175 198 0
173 197 0
173 196 0
173 195 0
174 197 0
176 198 0
175 198 0
173 196 0
173 197 0
174 197 0
175 198 0
173 196 0
173 196 0
173 196 0
173 196 0
174 198 0
173 196 0
171 194 0
175 198 0
172 196 0
173 196 0
172 195 0
173 196 0
173 196 0
174 197 0
174 197 0
173 196 0
172 195 0
173 196 0
173 195 0
170 194 0
174 197 0
172 196 0
174 197 0
170 194 0
173 197 0
172 196 0
174 197 0
174 197 0
174 197 0
174 198 0
172 195 0
172 196 0
173 196 0
172 196 0
172 196 0
171 196 0
173 196 0
173 196 0
175 198 0
171 194 0
174 197 0
173 196 0
173 196 0
172 195 0
169 192 0
171 195 0
174 195 0
171 194 0
173 196 0
174 197 0
173 197 0
173 196 0
173 196 0
173 196 0
173 197 0
174 197 0
174 196 0
173 197 0
173 196 0
169 192 0
171 194 0
171 195 0
174 196 18
160 184 70
154 178 86
129 154 128
113 140 142
97 126 157
64 101 178
62 99 180
61 98 178
61 99 176
62 99 181
61 99 179
62 99 179
62 99 181
62 99 181
62 99 180
61 99 181
61 98 179
62 99 180
62 99 181
62 99 180
62 99 181
62 99 181
62 99 181
62 99 181
61 99 181
61 99 181
61 99 181
62 99 181
61 99 181
61 99 181
62 99 181
62 99 181
62 99 181
61 99 181
62 99 181
61 99 181
61 99 181
61 98 181
61 99 181
61 98 181
61 99 181
61 98 181
62 99 181
61 99 181
62 99 181
61 99 181
61 99 181
62 99 181
61 99 181
61 99 181
61 98 181
61 98 181
62 99 181
62 99 181
61 98 181
62 99 181
61 99 181
62 99 181
61 98 181
61 99 181
61 98 181
61 99 181
61 99 181
62 99 181
61 98 180
62 99 181
62 99 181
61 99 180
62 99 181
62 99 181
62 99 181
61 99 181
62 99 181
61 99 179
61 98 179
62 99 180
62 99 181
62 99 181
62 99 180
61 97 176
61 98 178
62 98 177
62 99 180
62 99 177
62 98 178
61 98 177
61 97 177
62 99 178
62 98 178
61 98 175
62 98 178
61 98 176
64 101 177
76 108 166
104 131 145
131 155 118
143 168 101
157 181 78
164 188 54
169 192 0
173 196 0
173 196 0
173 196 0
172 194 0
173 195 0
169 190 19
170 190 19
167 188 16
167 184 30
161 180 25
154 167 38
164 177 50
162 174 49
157 167 57
154 161 56
146 153 52
147 152 63
135 140 49
139 141 65
140 139 75
133 131 71
141 137 74
140 135 84
143 138 80
144 139 81
148 143 85
144 140 83
138 135 86
135 131 78
136 134 84
150 146 91
140 136 88
138 134 88
139 136 87
151 146 94
157 152 97
142 139 94
145 142 91
146 143 95
148 145 92
145 143 96
148 146 96
150 147 96
141 140 93
147 144 97
148 145 95
148 145 98
157 153 101
139 139 94
166 162 107
146 143 97
161 158 106
143 141 96
157 155 103
159 155 104
157 155 104
148 147 100
156 154 103
163 160 107
160 157 105
161 159 107
167 163 109
160 157 106
157 155 103
163 161 108
162 158 105
167 164 110
169 166 110
165 162 109
161 158 107
169 165 108
160 157 106
170 166 110
171 167 110
162 159 107
166 163 110
168 166 110
169 165 109
166 163 110
171 167 110
168 165 110
169 166 111
168 165 110
171 167 111
170 167 111
172 169 112
172 169 112
172 168 111
170 167 109
169 166 110
174 170 112
174 170 113
170 167 111
169 166 109
174 170 113
173 169 112
175 170 111
177 172 113
170 166 109
171 168 111
170 165 108
176 171 113
173 169 112
172 168 110
173 169 112
172 167 109
174 169 111
171 169 112
168 165 108
166 163 106
173 168 110
170 166 109
169 165 108
171 168 109
167 164 108
164 159 102
169 165 108
167 163 106
169 165 108
174 169 109
171 167 109
168 164 104
167 162 102
168 163 106
161 158 102
167 162 104
172 166 106
169 164 106
166 161 102
171 167 108
165 159 101
170 165 104
161 156 98
170 164 103
161 157 98
167 162 103
163 157 99
163 158 98
156 153 97
164 159 101
164 159 99
163 158 97
167 160 101
164 158 97
160 155 95
156 151 92
160 154 93
157 151 92
154 148 86
151 146 87
158 152 88
156 150 93
152 148 87
147 142 81
150 145 83
148 142 83
152 146 83
147 142 82
144 138 78
141 137 75
149 149 73
150 149 71
155 157 69
152 157 60
153 162 51
161 173 37
163 177 41
162 176 42
165 183 34
169 191 11
171 193 19
174 196 11
174 197 0
174 196 0
173 196 0
173 196 0
172 196 0
173 196 0
172 196 0
174 197 0
175 198 0
174 198 0
173 197 0
173 196 0
173 196 0
172 196 0
174 197 0
169 193 0
173 197 0
173 197 0
172 196 0
175 197 0
175 198 0
173 196 0
174 197 0
174 197 0
175 198 0
175 198 0
176 199 0
174 197 0
171 195 0
174 197 0
174 197 0
174 198 0
172 196 0
174 197 0
174 197 0
174 197 0
174 198 0
172 195 0
172 195 0
170 194 0
171 195 0
172 195 0
172 196 0
172 196 0
174 197 0
174 197 0
174 197 0
170 193 0
174 198 0
176 199 0
174 197 0
173 196 0
172 195 0
173 196 0
171 195 0
173 197 0
171 194 0
172 196 0
173 196 0
172 195 0
173 197 0
173 197 0
173 196 0
173 197 0
169 193 0
174 196 0
173 196 0
171 195 0
173 196 0
172 196 0
174 198 0
174 197 0
172 196 0
174 198 0
175 198 0
174 197 0
174 197 0
170 194 0
174 197 0
174 197 0
172 195 0
174 197 0
171 195 0
174 197 0
172 196 0
172 196 0
173 196 0
173 196 0
172 196 0
171 195 0
172 195 0
172 195 0
174 197 0
174 197 0
170 193 0
172 196 0
174 198 0
172 196 0
171 195 0
171 195 0
170 194 0
173 196 0
171 195 0
173 195 0
174 198 0
172 195 0
172 195 0
173 197 0
174 197 0
171 194 0
175 198 0
173 197 0
173 196 0
174 197 0
172 195 0
170 193 0
169 193 0
175 198 0
173 196 0
171 195 0
171 194 0
171 194 0
172 195 0
172 196 0
173 197 0
169 193 18
168 192 51
165 188 57
140 164 110
121 147 133
83 115 167
62 99 177
61 98 175
62 99 179
62 99 179
62 99 180
62 99 180
62 99 181
62 99 181
62 99 177
62 99 181
62 99 181
62 99 181
62 99 179
61 99 178
61 98 181
62 99 180
61 99 181
61 99 181
61 99 181
62 99 180
61 99 180
61 99 181
61 99 181
61 99 181
61 99 181
61 99 181
62 99 181
62 99 181
62 99 181
61 99 181
61 99 181
61 99 181
61 98 181
62 99 181
62 99 181
62 99 181
62 99 181
61 98 181
61 99 181
62 99 181
61 98 181
62 99 181
62 99 181
61 99 181
62 99 181
61 98 181
61 98 181
61 99 181
61 99 181
61 98 181
61 99 181
61 98 181
62 99 181
61 99 181
61 99 181
61 99 181
61 98 181
62 99 180
61 99 181
61 99 181
61 98 181
61 99 181
61 99 180
62 99 181
61 98 181
62 99 181
61 99 181
61 98 180
62 99 180
62 99 181
61 98 180
62 99 181
62 99 179
62 99 178
61 98 180
61 98 180
62 99 180
61 98 178
62 99 177
61 98 180
62 99 179
61 98 179
62 99 179
62 99 180
62 99 179
62 98 176
62 98 178
61 98 179
62 98 178
61 98 176
62 99 177
61 97 175
92 122 160
114 141 137
134 159 116
146 171 95
159 182 70
170 193 32
174 196 0
170 194 0
168 191 0
170 193 11
167 188 0
165 185 25
166 185 25
158 175 30
166 181 41
162 176 42
150 162 42
149 157 47
150 161 47
138 147 49
142 147 58
144 148 59
146 146 66
144 144 72
145 143 75
138 135 69
132 128 68
148 142 78
146 141 85
138 133 78
146 142 87
135 132 82
137 134 85
147 142 87
139 136 85
140 136 87
151 147 94
135 132 85
133 132 86
138 136 88
140 137 89
136 133 88
146 144 97
140 139 94
137 135 90
146 143 91
144 142 94
144 141 92
137 135 90
148 144 95
145 143 96
149 146 97
145 144 99
149 147 100
149 147 99
152 150 101
149 148 101
157 154 103
156 153 103
148 146 98
155 152 101
150 148 100
159 156 105
161 159 105
156 154 104
157 154 103
155 153 104
159 156 105
162 159 106
159 156 105
161 158 107
157 156 106
159 157 106
164 161 108
168 165 107
165 162 108
165 162 108
169 166 110
163 160 106
160 158 106
168 164 108
168 164 108
170 167 111
166 162 107
168 165 109
167 164 106
169 166 110
171 168 110
174 170 112
173 168 111
165 163 108
169 165 109
169 166 109
175 171 113
171 168 111
168 165 109
174 169 112
171 168 110
171 167 108
173 170 113
176 171 113
171 168 111
176 171 113
172 168 110
168 165 109
171 167 110
169 166 109
176 171 113
169 165 109
173 169 110
172 169 110
169 166 109
174 170 111
170 166 109
174 170 111
170 166 108
168 164 106
173 168 110
170 165 106
170 165 108
173 168 108
165 161 105
166 162 103
175 171 112
172 167 108
166 161 103
172 166 106
171 166 106
169 164 104
166 162 106
168 162 103
167 162 104
165 162 107
167 161 104
168 163 108
168 164 104
168 164 103
164 159 101
170 164 106
163 159 99
160 155 95
164 160 101
162 158 103
162 158 102
162 157 97
160 154 97
150 144 87
160 154 94
162 157 98
160 154 94
161 155 98
161 155 97
161 155 93
156 150 90
156 151 87
155 149 91
152 146 90
145 139 81
152 146 90
153 148 89
139 135 78
150 144 81
150 144 80
138 133 75
142 138 70
153 152 75
151 152 67
148 152 61
154 163 58
157 167 56
158 170 48
156 170 36
170 188 36
165 183 30
168 187 28
171 193 19
169 192 11
174 197 0
173 196 0
174 196 0
172 195 0
171 194 0
170 194 0
175 198 0
174 197 0
173 197 0
173 196 0
172 196 0
173 196 0
173 197 0
174 197 0
173 196 0
173 197 0
173 196 0
176 198 0
173 197 0
174 197 0
173 197 0
173 197 0
174 198 0
174 198 0
172 195 0
175 198 0
173 197 0
173 197 0
173 197 0
174 197 0
172 196 0
174 197 0
172 196 0
175 198 0
174 198 0
174 197 0
173 197 0
171 195 0
173 196 0
173 196 0
172 195 0
175 198 0
174 197 0
173 196 0
171 195 0
173 197 0
173 196 0
172 196 0
172 196 0
173 197 0
174 198 0
174 198 0
174 197 0
174 197 0
175 198 0
174 197 0
173 197 0
170 194 0
173 196 0
171 194 0
171 195 0
173 197 0
173 197 0
173 197 0
172 196 0
174 197 0
169 193 0
174 198 0
172 195 0
171 195 0
170 193 0
174 197 0
173 197 0
172 195 0
175 197 0
171 194 0
174 197 0
173 197 0
174 197 0
172 196 0
174 198 0
173 195 0
173 197 0
171 194 0
175 198 0
174 197 0
173 196 0
172 195 0
171 194 0
170 194 0
171 194 0
168 192 0
172 195 0
173 196 0
171 195 0
173 197 0
173 197 0
174 197 0
174 197 0
173 196 0
171 195 0
174 197 0
174 198 0
171 195 0
176 198 0
172 196 0
174 196 0
170 194 0
174 196 0
173 196 0
173 197 0
173 197 0
174 196 0
170 193 0
174 197 0
173 197 0
171 194 0
169 194 0
172 195 0
172 196 0
172 195 0
173 197 0
168 191 0
174 197 0
172 195 18
161 185 65
156 180 78
132 157 120
102 131 150
73 107 170
62 99 180
62 99 178
62 99 178
62 99 176
62 99 178
61 98 178
62 99 176
62 99 177
61 98 177
61 98 181
62 99 181
62 99 180
62 99 180
62 99 180
62 99 178
62 99 178
61 99 181
62 99 180
62 99 181
62 99 181
61 99 181
62 99 181
62 99 180
61 99 181
61 99 181
61 99 181
62 99 181
62 99 181
62 99 181
62 99 180
62 99 181
61 99 181
62 99 181
62 99 181
61 99 181
61 98 181
62 99 181
61 98 181
61 99 181
61 98 181
62 99 181
62 99 181
61 99 181
62 99 181
61 98 181
61 99 181
62 99 181
62 99 181
61 99 181
62 99 181
61 99 181
62 99 181
61 99 181
61 99 181
61 99 181
61 99 181
61 99 181
61 99 181
61 98 181
62 99 181
62 99 181
62 99 181
62 99 181
61 99 179
62 99 180
62 99 181
61 99 181
62 99 179
62 99 181
61 98 180
62 99 181
62 99 181
61 98 179
62 99 179
61 99 180
62 99 181
62 99 180
62 99 179
61 98 178
61 99 181
61 98 180
61 98 179
62 99 180
62 99 178
61 98 177
61 98 177
61 97 175
62 99 177
62 99 179
61 98 177
61 97 176
61 98 177
62 99 178
61 98 176
75 108 169
88 118 163
120 145 132
136 161 115
152 176 84
169 192 44
172 196 0
169 193 0
170 192 0
170 191 19
170 192 16
162 181 25
167 186 34
164 178 36
159 172 41
160 170 50
150 161 43
148 157 49
148 154 62
146 149 65
141 142 68
137 140 55
139 137 73
135 132 75
138 134 75
138 133 73
138 133 84
139 135 78
146 141 85
148 144 91
134 130 80
133 130 74
133 129 78
139 136 84
148 143 92
130 128 83
148 145 93
137 134 87
136 135 89
141 139 89
132 130 86
144 141 92
144 141 93
142 139 93
149 146 99
149 147 100
136 136 92
151 149 100
144 141 93
149 146 97
152 150 101
145 144 98
151 148 100
148 146 98
150 148 100
162 158 106
150 147 100
154 152 103
155 153 103
153 151 102
157 155 104
157 155 104
156 154 104
152 150 102
154 152 104
154 152 103
167 164 110
161 158 107
165 162 108
154 153 104
165 162 108
165 163 108
166 163 108
162 159 107
164 161 108
159 158 107
167 164 109
164 160 107
162 159 106
164 162 108
169 165 108
168 164 109
170 166 109
167 164 110
171 167 110
167 163 109
173 169 111
163 160 106
172 169 112
174 170 112
172 168 112
167 165 108
172 168 110
169 166 107
172 168 111
170 167 110
174 170 113
168 165 109
170 167 111
168 165 109
172 168 110
173 169 111
173 169 112
174 170 111
172 169 111
172 167 110
172 168 111
172 168 109
170 168 110
168 165 108
172 168 108
170 166 107
172 167 109
173 168 110
170 167 110
167 164 106
174 170 111
171 167 109
171 166 108
170 166 108
172 167 108
170 167 109
168 164 106
169 165 106
173 168 107
168 164 105
166 163 104
164 160 103
164 160 103
167 163 106
159 155 97
162 157 101
159 156 101
167 163 103
165 159 102
167 162 104
171 165 106
163 159 101
162 158 101
171 165 105
165 159 99
166 161 99
160 156 97
171 165 104
157 153 95
160 155 94
164 159 97
158 154 93
160 154 97
154 149 92
156 151 91
152 146 88
165 160 99
168 161 94
155 149 86
153 148 85
158 151 90
161 153 92
151 145 83
154 149 86
155 149 88
149 143 82
154 148 83
153 148 84
149 148 65
138 138 64
150 152 69
150 155 60
154 162 56
159 169 52
163 174 53
166 182 44
162 179 34
169 189 28
172 192 25
169 191 16
174 196 0
172 195 0
175 198 0
173 197 0
176 199 0
172 196 0
174 197 0
173 197 0
174 197 0
174 197 0
172 196 0
173 196 0
171 196 0
172 196 0
174 198 0
173 197 0
174 197 0
173 197 0
174 198 0
170 193 0
171 195 0
172 195 0
174 198 0
174 197 0
175 197 0
174 198 0
174 198 0
172 196 0
173 197 0
174 197 0
175 198 0
174 197 0
174 196 0
172 196 0
171 195 0
173 196 0
173 197 0
170 194 0
173 197 0
171 194 0
170 194 0
172 196 0
173 197 0
173 196 0
174 197 0
175 198 0
173 196 0
176 198 0
174 197 0
174 197 0
173 197 0
173 196 0
173 196 0
174 198 0
172 195 0
173 197 0
173 196 0
173 197 0
173 196 0
172 196 0
173 197 0
173 196 0
173 197 0
173 197 0
174 198 0
172 196 0
173 196 0
173 196 0
171 195 0
173 197 0
173 197 0
174 197 0
174 197 0
172 195 0
172 196 0
171 195 0
172 196 0
173 196 0
172 196 0
176 199 0
173 196 0
174 197 0
170 194 0
173 196 0
171 194 0
173 197 0
174 197 0
174 197 0
172 195 0
171 195 0
172 195 0
171 195 0
171 195 0
171 195 0
174 196 0
174 197 0
172 196 0
173 196 0
174 198 0
175 198 0
170 194 0
172 195 0
171 194 0
171 195 0
173 197 0
172 195 0
172 196 0
173 197 0
172 195 0
173 197 0
172 195 0
171 195 0
173 197 0
173 196 0
173 196 0
171 195 0
173 197 0
174 197 0
171 193 0
171 195 0
171 195 0
171 195 0
172 195 0
168 192 25
159 183 74
146 170 100
121 146 139
89 119 162
64 100 179
62 99 180
62 99 179
62 99 173
62 99 179
62 99 177
62 99 179
62 99 178
62 99 178
62 99 179
62 99 179
62 99 180
62 99 179
62 99 180
62 99 181
62 99 180
62 99 180
62 99 181
62 99 181
62 100 181
61 99 181
62 99 181
62 99 181
62 99 181
61 99 181
62 99 181
61 98 181
61 99 181
61 99 181
61 98 181
61 98 181
62 99 181
61 98 181
61 99 181
62 99 181
62 99 181
62 99 181
62 99 181
61 98 181
61 99 181
61 99 181
62 99 181
62 99 181
61 98 181
61 98 181
61 98 181
62 99 181
62 99 181
61 99 181
61 99 181
61 98 181
61 99 181
62 99 181
61 98 181
62 99 181
61 98 181
61 99 181
62 99 181
62 99 181
61 99 181
62 99 181
62 99 181
62 99 181
61 99 181
62 99 181
62 99 181
61 99 180
62 99 181
62 99 181
62 99 181
62 99 181
62 99 181
61 99 179
62 99 181
61 98 179
61 99 180
61 99 181
62 99 181
61 99 181
61 99 181
61 98 177
62 99 181
61 99 181
62 99 180
62 99 178
61 98 178
62 99 179
61 98 177
62 99 179
63 99 180
62 98 177
61 98 178
61 98 176
62 98 176
61 98 176
62 98 177
61 98 174
69 103 174
90 119 156
108 135 145
142 166 103
152 176 87
162 185 66
169 192 37
172 193 16
164 185 11
167 187 19
168 188 22
161 180 19
157 170 42
155 168 46
152 163 49
154 166 42
151 160 51
150 155 62
152 154 64
146 146 73
147 147 73
145 142 67
138 134 72
135 129 73
135 131 76
134 129 73
141 137 82
140 135 79
138 135 85
139 135 83
134 131 83
141 137 83
144 140 87
151 147 93
135 133 88
140 137 89
152 148 98
148 144 92
130 129 88
134 133 90
146 143 93
137 135 90
146 143 95
145 141 92
144 142 97
147 145 96
144 142 96
145 143 98
151 149 100
147 146 100
147 144 97
146 144 96
149 148 99
153 150 100
157 154 105
148 146 98
154 152 104
161 158 108
160 157 103
149 147 100
150 149 100
157 154 103
144 143 98
154 152 103
159 157 105
159 157 106
162 159 106
151 149 101
162 159 106
162 159 106
159 156 103
163 161 108
161 158 105
162 159 106
166 163 108
168 165 110
167 164 110
167 164 109
169 165 109
168 165 109
170 167 110
163 160 106
169 166 111
166 163 108
166 164 108
166 163 108
171 167 110
170 166 110
173 169 110
168 165 110
168 164 110
172 169 112
173 169 111
170 167 111
174 170 113
170 167 110
172 169 112
170 167 110
171 167 111
168 165 107
173 170 113
173 169 109
168 164 108
174 169 112
176 171 112
173 169 112
168 164 108
172 168 109
173 169 110
173 167 108
173 170 111
172 168 109
171 167 108
172 168 108
174 170 110
168 164 104
170 164 104
166 163 107
172 167 107
170 166 107
171 166 108
171 167 106
168 164 104
163 159 103
166 162 104
174 169 111
171 166 106
170 165 106
169 165 108
164 160 103
166 162 102
169 164 106
170 164 105
166 161 103
166 161 104
163 158 99
164 158 97
170 164 103
165 160 101
160 155 97
167 161 100
170 165 104
165 159 101
164 159 99
169 164 102
158 153 91
163 158 99
166 159 97
153 148 89
159 152 93
161 156 95
157 150 90
159 154 92
146 141 82
160 154 92
163 156 96
157 151 90
146 142 81
152 147 84
159 152 85
148 142 76
152 146 84
154 147 87
156 152 78
141 137 69
151 154 62
149 153 60
151 161 52
160 170 48
158 168 51
162 179 39
163 178 42
167 187 19
166 187 16
172 194 16
172 194 0
174 197 0
174 196 0
174 197 0
173 197 0
173 196 0
172 196 0
173 197 0
174 197 0
175 198 0
174 198 0
175 198 0
174 197 0
172 196 0
171 195 0
173 197 0
172 196 0
172 195 0
172 196 0
175 198 0
172 196 0
173 197 0
173 196 0
174 198 0
174 197 0
174 198 0
175 198 0
173 197 0
173 196 0
173 196 0
172 196 0
173 197 0
174 197 0
174 197 0
174 197 0
176 198 0
171 194 0
173 197 0
174 197 0
175 198 0
172 196 0
169 193 0
174 197 0
172 196 0
176 199 0
173 195 0
176 199 0
170 193 0
173 196 0
173 196 0
174 197 0
176 199 0
176 199 0
174 198 0
174 198 0
173 196 0
173 196 0
171 195 0
173 196 0
171 195 0
173 196 0
170 195 0
175 197 0
173 197 0
173 197 0
171 195 0
173 196 0
171 195 0
174 197 0
174 197 0
173 196 0
173 197 0
172 196 0
170 194 0
170 193 0
173 197 0
171 195 0
172 195 0
172 196 0
175 198 0
174 198 0
172 195 0
175 197 0
171 195 0
173 197 0
173 196 0
173 197 0
172 195 0
171 194 0
172 195 0
172 196 0
174 198 0
172 195 0
171 194 0
171 195 0
172 196 0
174 197 0
172 195 0
175 198 0
172 196 0
171 194 0
173 196 0
173 196 0
173 195 0
174 197 0
174 198 0
172 196 0
171 193 0
174 197 0
173 197 0
170 193 0
174 197 0
174 197 0
169 193 0
173 196 0
173 195 0
172 195 0
172 195 0
172 195 0
171 195 0
173 197 0
171 194 18
169 191 40
154 178 90
127 153 124
109 137 144
72 106 173
61 99 179
63 99 177
62 99 178
62 99 181
61 99 179
62 99 179
62 99 180
62 99 179
62 99 180
62 99 181
62 99 181
62 99 179
61 99 179
62 99 179
61 99 179
62 99 180
62 99 181
62 99 179
61 98 181
62 99 181
61 99 181
61 99 181
62 99 181
61 99 180
62 99 181
61 98 180
62 99 180
62 99 181
61 99 181
61 99 181
62 99 181
61 99 181
61 99 181
61 99 181
62 99 181
62 99 181
62 99 181
61 99 181
62 99 181
62 99 181
61 98 181
62 99 181
62 99 181
61 98 181
62 99 181
62 99 181
62 99 181
61 98 181
62 99 181
61 99 181
62 99 181
61 99 181
61 99 181
62 99 181
62 99 181
61 99 181
62 99 181
62 99 181
61 99 181
61 98 181
61 99 181
62 99 181
62 99 181
61 99 181
62 99 181
62 99 181
62 99 181
62 99 181
61 98 181
62 99 180
61 98 180
61 99 181
61 98 180
62 99 181
61 99 180
61 98 181
62 99 179
62 99 181
61 98 180
61 98 180
61 98 179
62 99 179
61 98 179
61 98 180
61 98 178
62 99 180
62 99 178
62 99 181
61 99 179
62 99 180
62 98 177
61 97 175
62 98 178
61 98 175
62 98 177
62 99 178
62 99 180
61 97 172
61 98 176
62 98 176
70 103 170
98 127 152
118 144 134
139 163 103
155 177 66
166 189 44
159 180 22
163 183 26
160 177 28
167 184 34
158 172 41
152 164 48
161 171 54
154 165 47
151 157 60
146 152 56
140 146 56
150 151 66
141 140 70
136 132 78
139 135 77
137 133 76
132 128 81
137 133 73
136 132 79
127 124 79
142 139 86
147 142 86
132 129 81
143 138 87
139 135 82
141 137 83
138 136 89
140 137 90
141 139 88
140 138 91
148 145 94
145 142 92
139 137 91
138 135 89
145 143 94
147 144 96
148 145 97
148 145 97
147 145 98
140 137 92
143 141 95
147 145 98
156 153 103
147 146 99
148 146 99
140 139 95
155 153 103
148 146 99
160 157 106
157 155 104
149 147 100
154 152 103
157 154 103
152 151 102
162 159 106
158 155 104
161 159 107
164 160 105
151 149 101
153 151 103
165 161 108
160 157 105
162 159 106
164 162 110
161 159 105
165 162 108
170 165 110
166 163 109
164 162 107
163 160 107
168 165 111
166 163 107
172 168 111
169 166 111
164 161 108
172 167 111
172 168 111
172 168 110
169 166 109
169 166 111
173 169 111
170 167 110
174 170 110
170 166 110
171 166 109
171 167 110
173 169 111
174 169 111
171 167 110
172 168 110
172 167 108
173 169 110
172 168 110
172 168 108
175 171 112
171 168 112
172 168 111
174 169 110
175 170 112
172 168 109
169 164 107
171 166 109
171 167 109
170 166 105
173 168 110
174 169 110
172 168 108
170 166 107
175 171 112
174 169 110
170 165 106
170 165 106
168 163 104
167 163 103
170 166 105
165 162 105
167 163 101
168 164 107
169 164 106
169 165 106
173 168 107
173 167 106
167 162 101
166 160 101
171 165 106
168 163 103
167 161 100
167 163 104
165 160 100
165 161 101
164 159 99
166 160 99
167 162 100
168 162 102
168 162 101
160 154 95
161 155 95
167 161 102
163 158 96
164 157 97
164 158 97
162 157 93
161 156 97
151 147 90
157 152 89
159 152 90
151 146 86
153 146 85
160 153 90
146 140 83
149 143 83
157 150 90
147 142 80
161 154 91
148 142 78
144 139 75
155 152 76
139 140 67
151 155 66
152 158 61
160 171 44
152 163 47
155 166 48
161 177 34
163 181 22
169 189 22
171 192 11
172 194 11
171 194 0
173 196 0
173 197 0
175 198 0
173 197 0
173 197 0
173 197 0
175 198 0
174 197 0
173 197 0
172 196 0
174 197 0
173 197 0
175 198 0
174 198 0
174 198 0
174 198 0
175 198 0
175 198 0
173 196 0
172 196 0
174 198 0
175 198 0
174 197 0
172 196 0
175 198 0
171 196 0
173 196 0
174 197 0
174 197 0
172 195 0
175 198 0
174 197 0
174 197 0
171 195 0
174 197 0
171 194 0
172 196 0
174 198 0
171 194 0
173 196 0
175 198 0
172 196 0
172 195 0
174 197 0
173 197 0
173 197 0
174 198 0
171 195 0
172 196 0
175 198 0
174 197 0
170 195 0
173 196 0
174 197 0
172 195 0
175 198 0
174 197 0
174 197 0
172 196 0
172 195 0
175 198 0
174 197 0
173 196 0
173 197 0
174 198 0
174 196 0
175 198 0
174 196 0
170 194 0
169 193 0
175 198 0
173 197 0
173 196 0
173 197 0
173 196 0
175 198 0
173 197 0
173 197 0
173 196 0
171 194 0
174 197 0
173 197 0
173 197 0
172 197 0
173 196 0
173 197 0
173 196 0
172 196 0
172 195 0
171 195 0
171 195 0
174 197 0
176 198 0
171 194 0
173 197 0
171 194 0
174 198 0
172 195 0
174 197 0
173 197 0
174 196 0
173 196 0
173 197 0
173 196 0
172 196 0
172 195 0
171 195 0
172 195 0
172 196 0
167 190 0
174 197 0
172 196 0
171 194 0
172 196 0
174 198 0
174 196 0
171 195 0
170 195 0
173 195 18
161 185 65
156 180 80
112 139 143
93 123 159
63 99 175
61 98 176
63 100 179
62 99 179
62 99 177
62 99 177
62 99 178
62 99 180
62 99 181
62 99 178
61 98 180
62 99 179
61 98 179
62 99 181
62 99 180
62 99 180
61 99 181
62 99 181
62 99 181
61 99 181
61 99 180
61 99 181
62 99 180
61 99 179
62 99 181
61 99 181
62 99 180
62 99 180
62 99 181
61 98 181
62 99 181
62 99 181
61 99 181
61 99 181
62 99 181
61 99 181
62 99 181
61 99 181
62 99 181
61 99 181
62 99 181
61 98 181
61 99 181
61 98 181
62 99 181
61 99 181
61 99 181
62 99 181
62 99 181
62 99 181
62 99 181
61 99 181
62 99 181
61 99 181
62 99 181
62 99 181
61 98 181
61 99 181
61 98 181
61 99 181
62 99 181
61 99 181
62 99 181
61 99 181
61 99 181
61 99 181
62 99 181
62 99 181
62 99 180
62 99 181
61 98 180
62 99 181
62 99 181
62 99 181
61 98 180
62 99 181
62 99 181
62 99 179
62 99 181
61 99 181
61 98 180
62 99 180
61 98 178
62 99 181
62 99 181
61 98 179
61 99 180
62 98 179
61 99 179
61 98 177
61 98 178
61 98 179
61 98 177
61 98 177
62 99 179
62 99 178
62 98 176
61 98 177
61 97 176
62 98 176
61 97 176
61 96 170
62 98 176
64 100 177
77 109 166
107 133 141
140 163 94
147 169 86
161 181 51
165 183 32
161 178 32
161 177 32
156 173 32
154 163 45
149 161 45
152 161 54
146 154 48
153 158 65
144 147 65
151 152 67
130 131 60
136 133 77
126 122 71
131 128 72
137 131 80
145 140 80
139 134 81
139 135 80
134 131 82
128 125 79
139 135 86
139 137 86
137 134 87
144 141 86
131 130 85
133 130 84
140 138 89
134 131 88
144 141 93
135 133 88
137 135 92
140 138 91
134 132 88
142 139 93
142 140 93
148 146 96
137 135 91
143 142 99
153 150 102
154 151 102
144 144 100
147 146 100
151 148 99
144 142 97
150 148 99
155 152 101
154 153 105
149 148 101
156 154 105
152 150 102
156 154 104
159 157 105
157 155 105
163 161 109
161 158 106
159 156 104
154 153 105
166 163 110
160 157 105
163 160 107
157 154 105
159 157 106
171 167 111
167 163 106
166 161 107
163 160 107
168 165 109
167 164 108
164 162 108
169 166 110
170 167 111
169 166 109
168 165 108
165 162 105
170 167 111
170 166 110
171 167 110
169 166 109
169 166 107
171 167 110
170 166 109
168 165 110
170 167 109
170 166 108
173 169 111
173 168 110
174 169 110
171 166 109
174 170 111
177 172 113
171 168 109
170 166 109
173 169 110
172 168 109
171 166 108
172 167 108
172 168 109
172 169 110
174 169 110
175 170 110
171 167 109
173 168 109
169 165 109
173 169 110
168 164 107
170 166 108
170 165 107
171 167 108
175 170 111
172 167 108
174 170 109
170 166 106
166 162 106
164 161 106
171 166 104
169 164 102
172 167 106
166 162 103
168 163 104
173 169 109
171 166 106
163 159 99
170 164 102
166 161 99
172 167 106
173 167 104
166 161 103
164 159 99
164 160 101
165 160 99
161 156 97
165 159 99
161 156 97
159 154 93
164 159 97
163 156 96
162 156 95
166 160 99
169 164 97
153 148 85
158 152 90
161 154 93
151 147 85
165 159 97
155 149 88
149 143 83
160 153 94
144 139 78
141 136 74
148 143 77
141 136 76
154 147 84
140 134 75
147 142 71
149 145 73
144 145 64
148 150 61
154 159 62
159 166 57
160 170 54
158 170 45
163 179 37
160 177 28
166 185 30
171 190 32
173 195 16
172 195 0
172 195 0
174 197 0
174 196 0
173 197 0
174 196 0
174 197 0
174 197 0
174 197 0
174 197 0
173 197 0
171 194 0
174 198 0
175 198 0
174 197 0
175 198 0
168 192 0
170 194 0
173 196 0
174 197 0
175 198 0
172 196 0
172 195 0
175 198 0
174 197 0
172 196 0
173 196 0
175 198 0
173 196 0
174 197 0
174 197 0
173 197 0
174 198 0
175 198 0
174 198 0
171 195 0
173 195 0
174 198 0
173 197 0
173 197 0
172 195 0
173 195 0
172 197 0
172 195 0
175 198 0
174 197 0
174 197 0
171 195 0
174 197 0
174 197 0
173 196 0
173 196 0
173 196 0
174 196 0
173 196 0
172 195 0
172 196 0
174 197 0
173 196 0
171 194 0
173 197 0
172 196 0
173 196 0
173 197 0
176 197 0
173 197 0
172 195 0
173 196 0
173 195 0
173 196 0
174 197 0
173 197 0
173 196 0
173 197 0
174 197 0
171 194 0
174 197 0
171 194 0
172 196 0
174 197 0
173 197 0
173 196 0
172 195 0
173 196 0
174 197 0
171 194 0
173 197 0
172 196 0
169 192 0
172 196 0
171 193 0
172 195 0
172 195 0
173 195 0
172 196 0
173 197 0
173 196 0
172 195 0
168 192 0
174 197 0
174 197 0
175 198 0
174 196 0
173 196 0
172 195 0
172 195 0
171 193 0
173 196 0
173 196 0
173 196 0
170 194 0
172 194 0
171 194 0
170 193 0
176 198 0
171 194 0
173 196 0
173 195 0
170 193 25
161 185 72
142 167 103
111 139 142
76 109 171
63 100 179
62 99 176
62 99 178
62 99 175
62 99 178
62 99 178
61 98 177
61 98 176
62 99 179
62 99 181
63 100 181
62 99 180
61 99 181
61 99 180
61 98 180
61 99 179
62 99 180
62 99 180
62 99 181
62 99 178
61 99 181
61 99 180
61 99 181
61 98 181
62 99 181
62 99 181
62 99 181
61 99 180
61 98 181
62 99 181
62 99 181
61 98 180
62 99 181
62 99 181
62 99 181
62 99 181
62 99 181
62 99 181
62 99 181
62 99 181
61 99 181
62 99 181
62 99 181
61 98 181
61 99 181
61 98 181
62 99 181
61 99 181
61 99 181
62 99 181
62 99 181
61 98 181
61 98 181
61 99 181
61 99 181
62 99 181
61 99 181
62 99 180
61 98 181
62 99 181
61 98 181
62 99 181
62 99 181
62 99 181
62 99 181
62 99 181
61 99 181
61 99 181
62 99 181
61 99 181
62 99 181
62 99 181
61 99 181
62 99 181
62 99 181
61 99 181
62 99 180
61 99 181
62 99 181
62 99 180
61 98 179
62 99 180
61 99 181
62 99 179
62 99 181
62 99 180
62 99 179
62 99 180
62 98 178
62 99 179
62 99 181
62 99 179
62 99 179
61 98 176
62 99 178
61 98 178
61 98 177
61 98 177
62 98 176
62 99 180
62 99 178
61 98 179
62 99 179
61 97 169
60 97 174
62 98 174
66 101 173
99 126 146
123 146 120
145 166 79
158 177 59
163 179 44
150 166 25
150 164 33
160 172 51
153 163 51
143 150 52
143 148 56
137 142 50
146 148 66
147 146 75
128 126 67
126 123 62
141 136 75
132 127 80
148 143 85
141 136 82
131 127 75
136 133 83
139 136 85
136 132 83
133 130 82
134 131 84
134 133 86
137 135 86
139 136 89
140 138 92
141 138 87
139 136 90
130 129 86
130 130 87
141 139 93
141 139 94
139 137 90
141 139 90
149 146 99
146 144 96
145 143 97
147 145 98
143 141 97
143 142 98
150 146 98
149 147 98
153 150 102
154 151 103
161 158 106
149 148 101
145 144 99
156 153 104
156 155 106
156 154 105
154 151 102
158 155 104
157 155 104
159 157 105
161 158 107
158 156 105
162 159 106
163 161 108
160 157 105
156 154 104
162 159 106
163 160 107
162 160 107
166 162 108
164 161 107
163 160 107
164 160 106
163 160 106
166 163 109
170 168 111
164 161 107
168 165 110
171 168 111
166 163 108
167 164 109
171 167 110
169 165 109
170 166 110
173 169 110
171 167 108
171 167 108
171 168 110
171 168 109
176 170 110
170 167 110
173 169 109
171 167 109
174 170 110
173 169 110
175 171 111
173 169 110
176 171 111
175 171 112
173 168 108
173 169 110
170 165 107
176 170 112
172 167 106
174 169 110
172 168 109
172 167 108
173 169 112
173 168 109
171 166 106
171 166 107
171 166 106
170 167 107
169 165 105
176 171 109
170 165 105
171 166 104
172 167 108
172 167 109
168 164 104
174 169 108
170 165 106
172 167 105
172 167 107
167 162 99
167 163 103
166 160 103
172 167 107
174 168 106
165 160 99
167 161 102
163 157 99
164 159 99
161 157 95
171 165 102
165 160 99
164 158 97
167 161 101
163 157 96
165 159 96
164 158 97
165 159 98
161 155 95
163 159 96
163 157 95
151 147 85
165 159 98
154 148 87
159 154 93
157 152 92
148 141 81
154 148 84
147 141 83
153 147 86
146 141 75
152 146 84
145 139 77
144 138 79
133 127 65
138 132 72
138 135 61
149 146 68
150 150 68
159 163 65
155 164 49
157 165 56
161 174 45
160 173 42
164 181 36
168 185 36
171 192 25
172 192 16
172 195 0
173 196 0
173 196 0
173 195 0
174 197 0
173 196 0
174 198 0
174 198 0
172 196 0
172 196 0
172 196 0
175 198 0
173 196 0
172 196 0
173 196 0
173 197 0
172 196 0
171 195 0
174 197 0
172 195 0
176 198 0
173 197 0
172 196 0
172 196 0
172 196 0
173 196 0
174 198 0
172 196 0
174 198 0
174 198 0
175 197 0
174 197 0
172 195 0
172 196 0
173 196 0
172 195 0
173 196 0
172 196 0
174 198 0
174 198 0
172 195 0
172 197 0
174 197 0
170 193 0
174 197 0
172 195 0
171 195 0
173 196 0
174 197 0
174 197 0
173 196 0
175 198 0
172 196 0
173 197 0
173 197 0
172 195 0
175 198 0
175 198 0
171 196 0
175 197 0
174 197 0
169 192 0
174 197 0
172 196 0
172 196 0
173 197 0
173 197 0
173 197 0
172 195 0
173 196 0
173 196 0
172 196 0
175 198 0
171 195 0
172 195 0
171 195 0
172 196 0
174 197 0
172 196 0
172 195 0
173 196 0
174 197 0
173 196 0
173 196 0
175 198 0
172 196 0
173 197 0
173 197 0
172 195 0
170 194 0
172 196 0
175 198 0
174 197 0
171 195 0
170 193 0
174 196 0
173 195 0
172 195 0
172 195 0
172 196 0
174 196 0
171 195 0
170 193 0
173 197 0
171 195 0
172 196 0
171 195 0
169 193 0
173 197 0
170 192 0
171 195 0
173 196 0
174 196 0
172 195 0
172 195 0
172 196 0
172 196 0
168 192 36
157 181 78
133 158 117
97 126 156
65 101 176
62 99 175
61 98 174
62 99 176
61 98 175
62 99 175
62 99 180
61 98 179
61 98 176
62 99 180
62 99 181
61 98 178
63 100 181
61 98 176
63 100 180
62 99 180
62 99 178
61 98 178
62 99 181
62 99 181
62 99 180
62 99 181
62 99 181
62 99 180
62 99 180
62 99 180
61 98 181
61 99 181
61 98 181
62 99 181
62 99 181
61 99 181
62 99 181
61 98 181
62 99 180
61 98 181
62 99 181
61 99 181
61 98 181
62 99 181
62 99 181
61 99 181
61 99 181
61 98 181
61 99 181
61 99 181
62 99 181
62 99 181
61 99 181
61 99 181
61 99 181
61 98 181
62 99 181
61 99 180
61 98 181
61 99 179
61 98 181
61 99 181
61 98 181
62 99 181
62 99 181
61 99 181
61 98 181
62 99 181
62 99 180
62 99 181
61 99 181
61 99 181
62 99 181
62 99 181
61 99 181
61 98 181
61 99 181
62 99 179
62 99 180
62 99 181
61 99 180
62 99 181
62 99 180
62 99 181
61 98 177
62 99 181
61 98 180
62 99 180
62 99 181
62 99 181
61 99 181
62 99 180
62 99 179
62 99 180
62 99 180
62 99 181
62 99 179
62 99 178
62 99 179
61 98 177
62 99 178
62 98 177
61 98 174
60 97 174
61 98 178
61 97 176
62 99 177
63 99 179
62 99 178
62 98 174
61 98 174
61 98 176
62 98 177
69 102 167
94 122 149
122 143 117
138 157 97
139 155 91
158 173 42
156 170 35
155 168 38
153 163 47
153 160 51
141 148 45
142 143 61
150 150 72
143 143 68
142 140 72
131 128 67
144 139 78
134 130 77
132 128 73
134 130 78
145 141 84
131 128 82
134 131 79
138 135 83
132 130 85
134 131 85
130 128 85
132 130 85
140 138 92
118 117 77
144 140 92
129 127 85
135 133 92
137 136 92
137 137 93
141 139 93
136 134 90
128 127 87
144 142 96
143 143 97
144 142 94
144 142 96
136 135 92
152 149 100
137 136 93
152 149 101
146 144 97
156 154 105
149 148 100
143 141 97
154 152 102
158 156 105
151 150 101
158 155 105
149 146 99
145 144 99
163 160 106
150 147 100
158 155 105
162 159 106
154 152 102
157 155 104
161 159 107
158 156 106
155 153 103
162 159 107
159 156 105
158 156 105
161 158 105
165 161 106
165 163 108
164 161 107
167 163 109
171 167 111
169 166 109
167 164 108
169 166 110
166 163 106
170 167 109
170 166 109
167 164 108
171 168 111
170 167 110
173 169 111
169 166 107
168 165 108
172 167 108
174 170 113
176 171 111
170 166 108
173 169 109
171 168 110
172 168 109
176 172 111
172 169 109
175 170 109
174 169 108
172 167 107
169 165 108
172 168 110
172 169 110
172 169 109
168 164 105
175 170 108
170 166 108
170 167 107
171 167 107
171 166 105
169 165 106
172 168 107
172 168 110
170 166 106
172 166 106
171 166 106
174 170 108
168 163 103
166 161 103
173 168 107
175 170 110
172 168 109
170 165 106
166 163 103
170 164 101
164 160 101
164 160 98
169 163 104
168 163 103
175 169 106
171 165 103
166 161 101
169 163 101
163 159 97
165 160 101
166 161 102
163 159 95
158 152 92
166 161 99
167 162 101
172 166 103
160 156 95
161 155 92
166 160 95
161 155 92
153 147 89
161 154 95
161 155 94
168 161 97
147 141 80
153 147 84
151 146 83
155 150 86
150 144 82
150 144 82
148 142 83
150 143 77
148 142 80
153 148 82
148 143 77
143 141 68
146 142 76
139 140 65
149 152 66
148 156 49
153 161 53
148 156 47
161 177 39
164 181 32
169 189 25
173 193 19
171 192 16
171 194 11
173 196 0
174 198 0
173 196 0
175 198 0
175 198 0
173 197 0
173 197 0
174 197 0
172 195 0
174 198 0
172 196 0
174 197 0
175 197 0
175 198 0
174 197 0
175 198 0
174 197 0
175 198 0
173 197 0
173 197 0
174 198 0
174 196 0
172 196 0
173 196 0
173 196 0
174 197 0
177 199 0
173 197 0
175 198 0
174 197 0
175 198 0
174 196 0
174 197 0
174 197 0
174 197 0
173 196 0
174 198 0
173 196 0
173 196 0
174 197 0
176 199 0
174 197 0
173 197 0
173 196 0
174 197 0
172 196 0
172 196 0
172 196 0
174 198 0
173 197 0
172 196 0
173 195 0
175 198 0
171 196 0
173 197 0
172 196 0
176 199 0
173 197 0
171 195 0
170 194 0
174 197 0
171 194 0
175 198 0
173 196 0
171 195 0
173 197 0
173 196 0
172 195 0
171 194 0
174 197 0
174 197 0
175 198 0
170 194 0
172 196 0
173 196 0
172 195 0
172 195 0
171 195 0
172 196 0
170 194 0
173 197 0
172 195 0
171 195 0
174 197 0
173 196 0
173 197 0
172 195 0
172 196 0
170 193 0
174 197 0
174 197 0
173 197 0
173 196 0
173 196 0
171 193 0
174 197 0
175 198 0
171 195 0
174 198 0
172 195 0
175 198 0
171 195 0
173 196 0
171 195 0
174 197 0
169 193 0
169 193 0
171 195 0
170 194 0
171 195 0
170 194 0
170 193 0
174 197 0
169 192 0
169 192 0
170 193 40
154 178 84
123 148 128
87 118 164
74 108 171
62 99 179
62 99 173
62 99 180
62 99 180
62 99 180
62 99 176
62 99 179
62 99 179
61 98 179
62 99 180
62 99 181
62 99 179
61 99 178
62 99 178
62 99 181
61 98 178
61 98 178
62 99 180
61 99 179
62 99 181
62 99 179
62 99 179
62 99 181
62 99 180
62 99 180
61 99 180
62 99 180
61 99 181
62 99 181
62 99 181
61 99 181
62 99 181
61 99 181
62 99 180
62 99 181
62 99 181
61 99 180
61 98 181
62 99 181
61 99 181
61 98 181
61 99 181
62 99 181
61 98 181
62 99 181
61 99 181
62 99 181
61 99 181
62 99 181
62 99 181
62 99 181
62 99 181
62 99 181
61 99 181
61 99 181
61 99 181
61 98 181
61 98 181
62 99 181
62 99 181
61 99 180
61 99 181
62 99 181
61 99 181
62 99 181
62 99 181
62 99 181
61 98 181
61 99 181
62 99 181
61 99 181
62 99 181
62 99 181
61 98 180
61 99 181
61 99 181
61 98 180
62 99 180
62 99 179
62 99 179
61 98 179
61 98 181
61 98 179
62 99 179
62 99 179
61 98 179
61 98 179
62 99 180
61 98 179
62 99 180
62 99 180
61 99 180
62 99 180
61 98 177
61 97 176
62 99 179
62 99 180
62 99 176
62 99 177
62 99 179
62 98 177
62 98 177
62 98 177
62 99 176
62 98 176
62 98 176
61 98 175
61 98 172
61 98 176
61 97 173
67 100 166
94 120 150
114 138 126
129 146 112
141 157 89
159 172 49
154 169 37
147 158 39
147 151 57
140 144 59
135 139 56
136 138 63
150 149 75
144 141 78
125 123 69
129 125 71
134 130 78
132 129 77
128 125 72
135 133 75
136 133 78
137 134 83
129 126 78
127 125 82
135 132 84
142 139 89
137 136 86
132 131 84
130 129 84
141 138 88
133 132 90
143 141 94
139 137 91
137 136 92
134 133 91
136 135 90
142 141 98
141 139 93
135 134 92
135 134 92
130 130 89
138 138 96
146 144 97
139 138 92
143 142 96
144 144 98
150 147 98
143 143 98
145 144 98
157 153 103
153 152 102
152 150 102
152 150 102
156 153 105
158 155 103
160 157 106
159 156 102
153 150 101
157 155 104
156 154 103
162 159 107
161 158 106
158 156 103
161 158 105
162 158 105
161 159 106
168 164 108
164 161 107
161 158 104
159 157 105
164 162 108
169 165 110
165 162 107
169 165 108
170 167 110
171 167 109
172 168 111
170 166 109
167 164 107
168 165 109
166 162 105
168 165 108
175 170 111
170 167 109
167 164 107
171 167 108
173 169 111
175 171 109
166 163 106
172 168 107
176 171 111
173 169 109
173 169 112
175 170 111
173 168 109
172 168 109
171 167 107
171 167 108
172 168 109
175 171 112
176 170 110
174 170 110
176 171 108
172 168 109
173 168 106
171 167 107
173 169 109
175 170 109
172 167 106
170 164 106
168 164 105
174 169 107
167 163 106
169 165 106
171 166 105
173 168 106
173 167 106
170 165 106
169 164 103
170 165 104
167 162 102
172 167 103
162 158 101
165 159 100
165 160 103
171 165 105
170 165 101
170 165 104
167 162 103
170 165 101
166 160 101
161 155 93
166 161 99
161 156 97
163 157 95
166 159 98
167 162 99
168 162 96
159 153 90
160 155 96
158 153 93
163 157 92
154 150 91
157 152 87
164 159 94
162 157 93
162 155 93
159 153 91
158 152 90
157 151 88
147 140 80
149 143 82
145 139 77
146 140 84
146 141 83
153 147 85
150 144 83
140 136 68
149 148 70
146 146 61
147 148 57
151 155 64
160 170 53
160 171 52
158 170 42
158 173 42
168 185 34
170 188 32
171 191 22
173 195 0
171 195 0
173 196 0
174 197 0
174 197 0
172 196 0
173 197 0
172 196 0
174 197 0
173 196 0
173 197 0
173 196 0
171 195 0
173 197 0
174 197 0
172 196 0
172 196 0
174 197 0
174 197 0
173 196 0
172 196 0
170 194 0
170 194 0
175 197 0
175 198 0
172 197 0
175 198 0
172 195 0
173 197 0
171 195 0
173 196 0
173 197 0
174 198 0
173 196 0
172 196 0
172 195 0
174 197 0
171 195 0
173 197 0
172 196 0
175 198 0
173 196 0
172 195 0
171 195 0
172 196 0
172 195 0
172 196 0
174 198 0
171 195 0
171 195 0
171 195 0
173 196 0
175 198 0
173 196 0
174 197 0
173 197 0
172 196 0
174 197 0
171 196 0
173 196 0
174 196 0
172 196 0
173 197 0
175 198 0
173 197 0
175 197 0
173 196 0
174 197 0
174 197 0
171 195 0
172 195 0
172 195 0
173 197 0
173 197 0
174 197 0
173 196 0
172 195 0
173 197 0
173 196 0
170 193 0
170 194 0
171 195 0
175 198 0
170 193 0
173 196 0
173 196 0
175 198 0
173 196 0
174 197 0
170 194 0
172 195 0
170 194 0
171 195 0
172 196 0
173 196 0
171 195 0
169 193 0
172 195 0
173 196 0
173 197 0
173 196 0
174 197 0
172 196 0
170 194 0
174 197 0
175 197 0
172 196 0
172 195 0
168 191 0
174 198 0
172 196 0
171 195 0
172 195 0
171 193 0
170 193 31
169 191 51
146 171 92
128 153 128
82 114 167
64 101 176
62 99 176
62 99 175
62 99 174
62 99 176
62 99 178
61 98 175
62 99 180
62 99 178
62 99 181
62 99 178
62 99 177
62 99 179
62 99 178
62 99 180
62 99 180
61 98 178
62 99 179
61 98 177
62 99 181
62 99 180
62 99 180
62 99 180
62 99 180
61 99 181
62 99 181
61 99 181
61 99 180
62 99 179
61 99 181
62 99 181
61 99 181
62 99 181
62 99 181
62 99 180
61 99 181
62 99 181
61 99 181
61 99 181
62 99 181
62 99 180
62 99 181
62 99 181
61 99 181
61 98 181
61 99 181
62 99 181
62 99 181
62 99 180
62 99 181
62 99 181
62 99 181
61 99 181
62 99 181
61 98 181
62 99 181
62 99 181
62 99 181
62 99 181
61 99 181
61 99 181
61 99 180
61 98 181
62 99 181
62 99 181
61 99 181
62 99 181
61 99 181
62 99 180
62 99 180
62 99 180
62 99 181
61 98 180
62 99 181
61 99 180
62 99 181
62 99 180
61 99 181
61 99 181
61 99 180
62 99 181
61 99 180
62 99 180
62 99 181
61 98 178
62 99 181
61 99 179
62 99 181
62 99 180
61 98 179
62 99 180
62 98 177
62 99 179
62 99 179
62 99 180
61 98 178
61 98 178
62 99 177
62 99 179
62 99 178
61 98 180
61 98 178
63 99 178
62 98 176
62 98 174
62 98 177
62 98 175
61 97 171
62 97 172
62 99 177
61 97 175
62 99 176
61 96 173
63 99 173
79 108 160
111 129 124
125 139 120
132 146 91
147 156 63
141 147 50
150 156 63
137 143 55
146 146 67
141 143 64
129 129 66
129 127 67
131 128 74
135 131 73
112 110 63
129 126 77
132 129 78
138 135 83
128 126 76
134 132 81
148 144 91
133 130 83
123 123 81
141 138 88
132 130 83
139 136 87
138 135 88
136 135 90
133 132 90
113 114 79
135 134 91
130 129 85
136 135 91
140 138 91
138 136 91
136 135 94
152 149 98
128 129 88
136 135 91
144 141 96
139 138 93
144 143 98
148 145 98
141 140 95
152 150 102
148 147 100
145 144 98
150 148 101
149 148 99
139 139 93
156 153 101
153 151 101
156 153 103
145 144 100
156 153 102
151 150 102
154 151 101
156 154 103
157 155 104
157 155 104
155 154 103
155 153 103
163 160 106
160 158 105
161 157 104
158 156 104
161 158 105
167 164 110
160 158 105
165 162 107
160 159 107
163 160 105
169 165 108
171 167 108
168 165 108
166 164 107
174 170 112
172 168 109
170 167 109
173 170 110
173 168 110
172 168 109
170 167 108
170 166 108
170 166 109
172 168 109
173 169 109
173 169 110
174 169 110
172 168 110
174 169 109
177 172 113
171 166 105
175 170 112
173 168 107
177 172 110
175 170 110
172 167 108
171 166 110
175 170 110
172 168 110
176 170 110
173 168 109
172 167 105
167 163 104
173 169 109
172 168 108
178 172 110
174 169 109
177 171 110
169 165 104
172 167 106
166 161 99
166 162 103
170 165 104
165 161 101
171 166 104
168 163 103
169 164 104
168 162 99
168 164 104
168 163 102
167 163 102
165 160 97
168 162 101
173 165 102
168 163 103
168 162 104
166 162 99
161 157 96
157 153 95
158 153 95
161 156 93
164 159 99
164 159 96
170 166 102
163 158 99
153 148 87
155 150 85
162 156 90
160 154 93
162 156 91
154 149 89
158 153 90
160 154 90
155 149 84
155 149 89
155 149 85
157 151 86
150 144 80
146 140 80
149 143 79
148 142 80
143 138 77
145 138 81
147 141 79
147 145 65
141 143 52
146 150 56
153 157 59
160 170 59
154 167 41
153 167 39
154 169 37
166 185 25
163 181 19
171 192 19
171 193 11
173 197 0
174 197 0
173 197 0
174 197 0
175 198 0
174 197 0
175 198 0
175 198 0
173 196 0
173 196 0
174 197 0
173 197 0
175 198 0
174 197 0
172 196 0
173 196 0
174 198 0
171 195 0
169 193 0
172 196 0
174 196 0
176 199 0
173 196 0
170 194 0
173 196 0
170 194 0
174 197 0
174 197 0
173 197 0
172 195 0
174 197 0
173 196 0
174 198 0
174 198 0
174 197 0
174 197 0
172 196 0
172 196 0
173 197 0
176 198 0
173 196 0
172 195 0
171 195 0
175 198 0
174 197 0
172 196 0
174 197 0
173 196 0
170 194 0
173 196 0
172 195 0
174 197 0
173 196 0
172 196 0
175 198 0
174 197 0
170 194 0
173 196 0
173 197 0
169 193 0
173 197 0
172 195 0
173 197 0
172 196 0
173 197 0
176 198 0
172 196 0
173 197 0
172 195 0
174 197 0
171 194 0
170 192 0
171 194 0
173 195 0
172 195 0
173 197 0
171 195 0
171 194 0
172 194 0
173 196 0
174 197 0
174 197 0
171 194 0
173 197 0
173 197 0
171 195 0
171 195 0
173 196 0
173 196 0
172 196 0
174 198 0
172 195 0
174 197 0
173 197 0
171 194 0
173 196 0
171 196 0
174 197 0
174 197 0
170 193 0
169 192 0
170 194 0
172 195 0
174 197 0
173 197 0
172 196 0
171 195 0
172 195 0
173 196 0
173 196 0
172 195 0
172 196 0
171 195 18
167 189 44
151 175 84
119 146 135
80 112 164
62 99 176
62 99 175
62 99 177
62 99 177
62 99 179
63 100 178
62 99 177
62 99 175
61 98 176
62 99 179
61 98 174
62 99 179
61 98 178
62 99 180
61 98 178
62 99 181
62 99 178
62 99 180
61 98 178
62 99 181
62 99 181
62 99 179
62 99 180
61 98 180
61 99 181
62 99 180
61 98 178
61 99 180
62 99 180
62 99 181
62 99 180
62 99 181
62 99 181
62 99 181
62 99 181
62 99 181
62 99 181
62 99 181
61 98 181
61 98 181
61 99 180
61 99 181
62 99 181
62 99 181
61 99 181
62 99 181
62 99 181
62 99 181
62 99 181
61 99 181
61 98 181
62 99 181
62 99 181
62 99 181
62 99 181
61 98 181
61 99 180
62 99 181
62 99 180
62 99 180
61 99 181
62 99 181
61 99 181
62 99 181
62 99 181
61 99 181
61 99 180
62 99 180
62 99 180
62 99 181
62 99 181
62 99 180
62 99 181
62 99 180
61 99 181
62 99 180
61 99 181
61 99 180
62 99 181
61 98 181
61 99 181
61 99 181
62 99 181
62 99 181
62 99 179
62 99 178
62 99 180
62 99 181
62 99 179
62 99 180
61 99 179
61 98 179
62 99 180
61 98 179
61 99 179
62 99 180
62 99 179
62 99 177
62 99 180
61 98 180
62 99 179
62 98 177
62 99 178
61 98 176
62 99 176
61 98 176
62 99 178
62 98 176
61 98 174
61 98 175
61 98 175
61 98 177
61 96 167
61 96 170
61 97 173
60 96 171
75 105 162
102 122 146
114 130 118
133 144 93
139 151 69
145 152 50
136 142 48
127 129 58
135 133 66
144 140 75
145 141 74
139 134 77
144 140 84
136 132 74
129 125 74
132 129 77
119 119 75
130 127 76
136 132 76
120 118 75
129 126 76
126 125 81
121 121 82
133 131 86
125 124 83
130 128 84
131 131 87
138 136 90
132 130 85
132 132 87
134 132 90
140 138 93
139 137 91
139 138 94
139 138 93
138 138 94
138 137 94
137 136 94
135 135 91
139 138 94
142 141 97
147 145 98
142 141 96
141 140 95
138 137 93
151 149 102
152 151 101
146 145 99
141 140 96
142 142 96
149 148 100
155 153 103
150 148 101
148 146 100
157 155 104
158 155 105
162 160 107
149 147 100
150 150 102
157 155 104
161 159 106
157 156 106
160 157 105
159 157 104
169 165 110
167 162 105
166 163 107
168 164 108
163 160 106
172 167 107
169 165 108
167 163 107
167 164 108
168 165 107
172 168 110
166 163 107
168 165 107
170 166 109
169 166 107
173 169 110
173 168 106
174 169 108
175 170 110
172 168 108
174 169 108
173 169 110
174 170 110
176 171 112
175 170 110
171 168 111
174 169 109
176 171 109
173 168 108
175 170 108
176 171 110
175 170 109
173 167 108
174 170 110
174 169 108
173 169 108
174 170 110
173 169 107
176 171 110
173 167 105
176 171 110
168 164 104
174 169 108
174 168 108
173 168 107
173 168 106
170 165 104
169 163 104
172 167 106
172 168 106
169 164 106
169 165 104
169 164 104
164 159 98
167 163 97
172 166 103
167 163 103
168 163 103
174 168 104
171 166 105
168 162 103
166 161 99
165 160 99
169 164 102
168 162 99
167 162 99
169 163 100
163 157 97
163 158 95
169 163 100
166 160 99
162 157 96
161 155 91
159 153 87
164 158 96
159 153 88
158 152 92
159 154 93
152 147 86
167 161 97
156 151 89
154 148 87
156 150 91
152 147 84
148 142 77
154 147 87
148 142 82
156 150 86
142 136 75
140 135 71
145 140 75
148 146 70
152 152 69
155 157 69
153 156 64
152 162 51
159 167 57
160 172 45
162 178 36
170 186 42
167 187 25
169 189 22
170 192 11
174 197 0
173 197 0
173 197 0
174 197 0
171 195 0
172 196 0
174 197 0
172 196 0
173 197 0
174 198 0
174 197 0
173 196 0
174 196 0
175 198 0
173 196 0
172 196 0
174 198 0
173 196 0
172 195 0
172 196 0
174 197 0
175 198 0
174 198 0
174 197 0
174 198 0
175 198 0
173 196 0
172 195 0
170 194 0
173 197 0
170 194 0
172 196 0
174 198 0
173 197 0
173 196 0
174 197 0
175 198 0
172 195 0
173 196 0
173 196 0
174 197 0
173 197 0
175 198 0
172 195 0
171 195 0
174 198 0
175 198 0
174 197 0
173 197 0
173 196 0
173 196 0
170 193 0
172 196 0
174 197 0
173 197 0
170 194 0
174 197 0
173 196 0
171 195 0
174 197 0
172 195 0
172 196 0
173 197 0
174 197 0
172 196 0
174 197 0
170 194 0
174 197 0
170 193 0
171 194 0
173 196 0
174 197 0
172 195 0
174 197 0
171 194 0
172 195 0
172 195 0
170 194 0
171 194 0
171 196 0
170 193 0
170 193 0
172 195 0
172 195 0
174 197 0
175 198 0
173 197 0
175 198 0
169 192 0
172 196 0
170 195 0
172 195 0
172 196 0
173 197 0
174 197 0
174 198 0
173 196 0
173 196 0
172 195 0
173 196 0
172 195 0
174 196 0
172 196 0
174 197 0
172 194 0
173 196 0
170 193 0
170 194 0
173 195 0
174 197 0
172 195 0
171 194 0
166 190 57
149 172 99
109 137 143
76 109 165
62 99 176
62 99 174
62 99 177
63 99 178
62 99 177
62 99 178
62 99 174
62 99 181
62 99 177
62 99 179
62 99 178
61 99 179
62 99 181
62 99 179
62 99 178
62 99 181
62 99 180
62 99 181
62 99 180
61 99 179
62 99 179
62 99 179
62 99 181
61 99 180
62 99 179
61 99 181
62 99 181
61 99 181
61 99 181
62 99 181
61 99 181
62 99 181
61 99 180
62 99 181
62 99 178
62 99 181
61 99 181
62 99 181
62 99 180
62 99 181
61 99 181
61 99 180
62 99 181
61 98 181
62 99 181
62 99 181
62 99 181
61 99 181
62 99 181
62 99 181
61 99 181
61 99 181
62 99 181
62 99 181
62 99 181
62 99 181
61 99 181
62 99 181
61 99 181
62 99 181
62 99 181
62 99 181
62 99 180
62 99 181
61 99 181
62 99 181
62 99 181
62 99 181
61 98 180
62 99 181
62 99 181
61 98 181
61 99 181
61 99 181
61 99 181
62 99 180
61 99 181
61 98 179
61 99 180
61 98 180
62 99 181
62 99 181
61 99 181
62 99 181
62 99 180
61 99 181
62 99 179
61 99 179
61 99 180
62 99 180
61 98 181
62 99 178
62 99 179
61 98 179
62 99 179
62 99 180
61 98 179
62 99 179
62 99 180
63 100 180
62 99 176
62 99 178
62 99 176
61 98 178
61 99 179
61 99 178
61 98 177
61 98 178
62 99 178
61 98 175
61 98 174
60 96 173
60 96 172
62 98 174
62 97 173
62 98 172
61 97 169
60 95 166
77 105 163
101 120 140
119 131 132
133 142 78
133 137 79
139 144 59
133 137 55
134 135 68
145 142 75
137 132 74
131 127 69
115 112 66
135 132 77
125 123 74
131 127 79
132 129 79
125 123 73
132 131 83
134 130 82
124 123 79
128 127 83
129 128 84
123 122 80
133 132 89
126 125 82
122 122 84
123 123 88
122 121 82
126 126 86
137 135 92
142 140 95
132 131 91
130 130 90
130 132 93
132 131 89
132 133 92
139 138 94
143 142 96
142 139 92
142 141 96
147 145 99
143 142 98
151 148 99
137 137 93
148 146 98
149 147 98
145 144 97
139 139 96
154 152 102
144 143 98
157 154 103
152 151 104
149 147 100
163 160 108
161 159 106
158 155 103
156 154 104
161 158 103
156 154 103
157 155 104
160 157 105
155 154 103
164 160 103
166 163 108
166 163 107
162 159 107
165 161 106
164 161 105
167 164 106
162 160 106
166 163 107
170 167 109
169 165 109
169 166 108
169 165 109
171 167 108
167 164 108
173 169 110
176 171 110
173 168 107
168 164 109
169 165 107
175 170 112
172 168 110
171 166 108
171 167 109
173 169 110
177 172 111
173 169 108
178 172 110
175 171 111
174 169 109
177 172 112
178 172 110
176 171 111
178 172 109
174 169 111
174 169 109
177 171 108
171 167 107
175 170 109
176 170 109
173 167 106
171 166 106
171 167 106
174 169 105
172 167 106
172 167 103
174 169 106
172 166 104
167 162 103
172 167 105
174 169 104
173 168 107
173 168 104
173 167 106
168 164 103
166 162 103
167 163 102
173 167 103
171 165 105
171 165 102
167 162 101
165 160 99
169 164 103
168 162 95
165 160 96
166 161 97
168 162 97
160 156 95
166 159 96
162 157 89
164 159 97
160 154 90
163 158 96
158 153 91
155 149 90
153 148 87
159 153 90
162 156 95
166 160 93
154 149 93
163 157 95
161 155 88
151 146 83
154 148 79
155 149 87
154 148 82
147 141 80
150 144 84
148 142 84
153 146 80
138 133 71
140 135 70
137 134 70
139 137 62
152 153 67
147 149 61
149 158 49
154 168 39
152 164 41
160 174 36
158 175 32
169 189 19
171 192 19
170 192 0
174 195 16
173 196 0
174 198 0
174 197 0
172 196 0
174 198 0
173 196 0
172 195 0
173 196 0
175 198 0
172 196 0
173 196 0
170 194 0
173 197 0
173 196 0
170 193 0
174 198 0
172 195 0
174 198 0
171 195 0
173 197 0
173 197 0
174 197 0
174 197 0
174 198 0
174 197 0
172 196 0
171 195 0
173 196 0
173 196 0
172 196 0
172 196 0
172 196 0
172 196 0
173 196 0
173 197 0
173 196 0
175 198 0
173 196 0
173 197 0
172 196 0
172 195 0
174 197 0
175 198 0
171 195 0
173 197 0
174 197 0
172 195 0
172 195 0
173 197 0
171 194 0
172 195 0
172 195 0
172 195 0
171 196 0
170 193 0
172 195 0
174 197 0
171 195 0
172 196 0
172 196 0
173 196 0
172 196 0
172 196 0
172 196 0
171 194 0
174 198 0
172 195 0
173 196 0
172 196 0
172 195 0
172 195 0
172 196 0
172 196 0
172 195 0
170 194 0
171 194 0
170 194 0
174 197 0
172 195 0
173 195 0
171 195 0
172 196 0
172 196 0
172 195 0
174 197 0
174 197 0
172 194 0
173 197 0
172 195 0
173 197 0
173 197 0
172 196 0
175 197 0
173 197 0
173 196 0
170 193 0
171 194 0
172 195 0
171 194 0
170 193 0
171 194 0
174 197 0
171 195 0
173 197 0
174 197 0
175 198 0
171 195 0
172 195 0
174 198 0
171 194 18
163 186 54
147 171 99
112 140 140
71 106 173
62 99 174
62 99 176
62 99 173
63 99 177
63 100 179
62 99 179
62 99 177
61 98 175
62 99 175
62 99 181
61 99 179
61 99 180
62 99 180
62 99 180
62 99 180
62 99 181
62 99 180
62 99 176
62 99 180
62 99 180
62 99 179
63 100 180
62 99 180
62 99 180
62 99 180
62 99 181
62 99 179
62 99 181
62 99 179
61 99 179
62 99 180
61 99 181
62 99 181
61 98 181
61 99 180
61 99 180
62 99 181
62 99 181
62 99 181
62 99 181
62 100 181
62 99 181
61 99 181
62 99 180
61 99 181
61 99 181
61 99 181
61 99 181
62 99 180
62 99 181
61 99 181
62 99 181
62 99 179
62 99 181
62 99 181
61 99 181
62 99 181
61 99 181
62 99 181
62 99 181
62 99 181
62 99 181
61 99 181
62 99 181
61 99 181
61 99 181
62 99 181
61 98 181
62 99 180
62 99 180
62 99 181
62 99 181
62 99 181
61 99 181
61 98 180
62 99 181
62 99 181
61 98 181
61 99 181
62 99 181
62 99 181
61 99 181
62 99 178
61 98 179
62 99 180
62 99 180
62 99 180
62 99 179
61 98 180
62 99 179
62 99 181
61 99 181
62 99 179
62 99 177
62 99 177
61 98 177
62 99 180
62 98 177
61 99 180
62 98 175
62 99 179
61 97 175
62 99 179
62 99 180
62 99 177
62 99 180
62 99 179
61 97 176
62 98 175
62 98 179
62 98 176
62 98 172
61 98 178
61 98 176
62 97 169
61 96 172
61 97 170
62 98 173
62 97 172
61 96 167
68 97 161
90 110 140
112 125 122
131 136 100
132 136 72
144 142 71
137 137 64
133 132 70
133 129 75
118 115 67
141 135 77
130 126 71
128 125 75
125 121 70
126 123 77
127 124 83
132 130 81
127 125 77
123 121 77
126 124 77
116 114 75
129 127 84
132 131 88
126 125 83
131 129 83
115 115 79
128 127 87
124 123 83
126 127 89
139 137 93
127 127 87
128 128 88
132 132 90
142 140 94
138 137 93
137 135 93
134 134 93
134 135 93
141 138 94
144 142 97
142 141 97
148 145 98
139 138 93
137 136 93
151 149 102
150 148 100
156 153 102
145 144 98
149 147 99
145 145 98
154 151 101
149 148 101
157 155 104
160 157 106
157 155 104
160 158 107
158 155 104
152 150 100
164 161 107
159 156 105
161 159 106
162 159 104
157 155 103
166 162 107
166 163 106
165 161 107
168 164 106
164 161 105
167 164 107
164 161 107
165 162 105
169 165 107
173 169 109
171 167 109
169 166 108
171 167 107
164 161 107
169 166 108
168 165 108
172 168 110
173 168 108
174 169 110
171 167 108
174 169 109
175 171 112
174 170 110
174 170 109
174 169 110
175 170 107
174 169 110
174 169 108
175 170 108
175 170 110
171 168 108
171 167 106
172 167 106
177 172 111
177 172 109
171 166 105
177 171 108
177 171 109
173 169 109
174 170 109
174 168 109
172 167 108
175 170 108
174 169 106
172 166 104
175 170 109
173 169 109
173 167 106
170 165 104
174 169 106
168 163 103
170 165 104
168 164 103
173 168 108
169 164 100
164 160 100
171 166 104
162 157 99
173 167 106
167 162 100
169 164 103
161 158 99
165 160 101
166 159 99
166 160 94
166 160 95
165 160 100
164 158 93
168 161 101
157 152 93
164 158 93
155 149 88
163 157 95
167 161 95
163 157 93
162 156 95
158 152 92
158 153 89
154 147 87
161 155 87
157 151 87
151 146 83
161 155 93
159 152 88
151 145 81
158 152 87
154 147 80
144 138 75
139 134 75
147 141 80
150 147 73
145 143 66
138 140 58
156 160 66
148 156 52
154 165 48
150 159 48
164 181 37
166 185 25
167 186 30
166 185 19
172 195 11
173 197 0
174 198 0
172 195 0
174 198 0
172 196 0
175 198 0
173 197 0
174 197 0
172 196 0
173 197 0
171 194 0
174 197 0
173 197 0
173 196 0
173 197 0
171 195 0
171 195 0
175 198 0
174 197 0
173 196 0
174 197 0
171 194 0
174 197 0
172 196 0
172 196 0
173 197 0
174 198 0
173 195 0
174 197 0
171 195 0
173 196 0
174 197 0
173 197 0
172 195 0
172 195 0
175 198 0
172 195 0
173 196 0
172 195 0
174 197 0
172 195 0
173 196 0
172 195 0
172 195 0
171 195 0
173 197 0
174 197 0
173 196 0
172 196 0
174 197 0
172 195 0
173 197 0
175 198 0
172 195 0
173 196 0
174 197 0
172 195 0
173 197 0
169 192 0
172 196 0
175 198 0
170 195 0
174 197 0
174 197 0
174 198 0
172 196 0
173 196 0
172 195 0
173 196 0
173 197 0
172 196 0
173 197 0
174 197 0
173 196 0
172 195 0
172 195 0
170 193 0
172 196 0
173 196 0
174 196 0
170 193 0
171 195 0
172 195 0
175 198 0
171 195 0
173 196 0
173 196 0
173 197 0
169 192 0
172 196 0
172 196 0
170 193 0
173 197 0
173 197 0
170 194 0
174 197 0
171 194 0
173 197 0
173 196 0
174 197 0
172 196 0
171 194 0
172 195 0
174 197 0
172 195 0
173 196 0
170 194 0
171 195 0
173 196 0
171 194 18
161 185 60
144 169 100
119 145 131
76 109 170
62 99 177
61 98 175
62 99 175
62 99 172
62 99 178
62 99 175
62 99 177
62 99 175
62 99 179
62 99 180
62 99 177
61 98 177
62 99 175
62 99 180
62 99 179
62 99 180
62 99 178
62 99 180
62 99 179
62 99 180
62 99 180
62 99 180
61 99 178
62 99 179
62 99 181
61 98 181
62 99 180
62 99 180
62 99 180
61 99 180
61 99 180
62 99 180
61 99 180
62 99 181
62 99 181
62 99 180
62 99 180
61 99 181
61 99 180
61 99 181
62 99 181
61 99 180
62 99 181
62 99 181
62 99 181
62 99 181
62 99 180
62 99 181
62 99 181
62 99 181
62 99 181
62 99 181
61 98 181
61 99 181
61 99 181
61 99 181
62 99 180
62 99 181
62 99 181
62 99 180
62 99 181
62 99 181
62 99 181
61 98 179
62 99 181
62 99 181
61 99 180
61 99 180
61 99 180
61 99 181
62 99 180
61 99 181
62 99 180
62 99 180
62 99 181
62 99 181
62 99 181
62 99 181
62 99 181
61 99 181
62 99 181
61 98 178
62 99 180
62 99 181
61 99 179
62 99 179
62 99 180
61 99 181
61 99 180
61 98 179
62 99 180
61 99 178
62 99 181
62 100 181
62 99 179
61 98 180
62 99 179
62 99 179
61 99 179
62 99 176
62 99 179
62 98 176
62 99 178
62 99 179
62 99 178
62 99 177
61 98 174
61 98 177
62 99 177
61 98 176
61 98 176
62 99 178
62 99 177
61 97 175
61 97 169
61 98 175
61 97 173
60 96 172
62 99 177
61 97 173
61 96 170
61 96 169
68 100 169
87 108 148
99 113 122
121 129 101
130 132 76
126 128 65
140 137 72
138 134 72
131 127 75
136 132 77
118 116 69
127 124 74
127 124 72
121 119 73
126 124 78
134 130 82
132 129 81
136 134 84
138 136 86
132 129 84
129 129 86
128 127 83
139 135 88
136 134 85
122 121 82
138 136 90
126 125 87
131 130 87
121 122 86
120 120 83
128 129 88
135 134 91
138 137 90
121 121 85
128 128 90
144 142 97
133 133 92
133 133 94
145 143 99
137 136 93
145 143 98
140 139 96
145 143 98
142 142 96
149 147 99
145 143 99
150 149 102
148 146 98
150 148 100
144 144 99
157 155 104
157 155 104
152 150 102
155 153 101
156 154 102
153 150 100
154 151 103
156 154 103
155 153 101
159 156 103
153 152 98
163 159 104
170 166 108
168 165 109
161 158 103
164 161 105
165 161 105
169 165 108
161 159 106
171 167 107
164 161 105
165 162 108
170 166 106
167 164 106
172 167 109
171 167 107
170 166 108
169 166 107
171 167 107
174 170 110
173 169 109
174 169 108
175 171 109
176 171 108
173 168 106
172 168 108
175 170 107
174 169 107
172 168 107
174 169 107
175 170 108
169 165 104
174 170 111
175 170 108
173 169 108
176 170 108
172 167 106
173 169 108
177 171 108
172 167 104
169 164 101
176 171 110
172 167 106
176 170 110
174 170 109
176 171 110
168 164 103
174 168 106
175 169 106
173 167 105
171 166 104
172 166 105
171 166 104
170 164 102
174 169 108
169 164 103
169 164 103
167 162 101
173 166 102
169 162 101
162 157 98
165 160 98
169 163 102
167 162 100
164 159 95
172 166 103
167 161 96
163 157 94
169 163 101
163 158 92
165 158 97
164 159 93
167 160 97
157 153 87
158 152 90
162 156 93
159 154 90
169 162 95
154 149 88
164 158 92
168 161 94
159 153 87
157 150 86
150 144 78
158 152 87
154 148 85
155 149 84
152 145 81
156 149 84
152 146 81
148 142 75
139 133 73
133 129 68
150 148 72
150 151 65
144 148 54
154 162 53
149 159 45
156 166 49
159 174 37
163 177 41
167 186 19
155 175 11
169 190 16
172 194 0
175 198 0
174 197 0
173 196 0
171 194 0
171 195 0
174 198 0
172 196 0
175 198 0
172 195 0
174 197 0
172 195 0
171 195 0
171 195 0
172 195 0
170 195 0
175 198 0
173 196 0
173 196 0
173 196 0
173 197 0
171 196 0
172 195 0
172 195 0
174 198 0
173 196 0
172 196 0
173 197 0
172 195 0
171 194 0
173 196 0
171 195 0
171 194 0
174 197 0
172 196 0
174 198 0
174 197 0
172 196 0
170 193 0
172 195 0
174 197 0
173 196 0
173 196 0
174 197 0
172 196 0
172 196 0
172 196 0
173 196 0
172 196 0
173 196 0
171 195 0
176 199 0
172 196 0
172 195 0
175 198 0
173 197 0
172 195 0
173 197 0
171 195 0
172 195 0
176 198 0
172 195 0
173 196 0
173 197 0
167 191 0
172 196 0
173 197 0
172 196 0
172 196 0
171 195 0
172 196 0
173 196 0
174 198 0
174 197 0
173 196 0
172 195 0
171 194 0
171 194 0
174 197 0
172 195 0
173 196 0
171 194 0
172 195 0
173 196 0
174 197 0
172 196 0
173 196 0
174 198 0
174 198 0
172 195 0
174 197 0
175 198 0
172 195 0
172 195 0
172 195 0
169 193 0
171 194 0
170 193 0
173 196 0
173 197 0
170 192 0
172 195 0
173 197 0
172 195 0
171 195 0
172 196 0
172 195 0
171 193 0
171 195 18
166 189 51
153 177 84
114 141 135
74 107 171
63 100 178
62 98 172
63 99 177
62 99 173
62 99 176
63 99 176
61 99 179
62 99 179
62 99 179
62 99 179
62 99 175
62 99 178
62 99 177
62 99 178
62 99 178
62 99 181
62 99 179
62 99 179
62 99 180
61 99 179
62 99 179
62 99 179
62 99 179
61 99 180
62 99 180
61 99 180
62 99 181
62 99 181
61 98 179
62 99 181
62 99 181
62 99 181
62 99 181
61 99 180
62 99 181
63 100 181
62 99 181
62 99 181
61 99 181
61 99 180
61 98 180
62 99 181
61 99 181
61 99 181
62 99 180
62 99 181
62 99 181
62 99 181
62 99 181
62 99 181
61 99 181
62 99 181
62 99 181
62 99 181
61 99 181
62 99 181
62 99 181
61 98 181
62 99 180
62 99 181
61 99 181
62 99 181
61 99 181
61 99 181
62 99 181
61 99 181
61 99 179
62 99 181
61 99 179
62 99 181
61 98 180
62 99 180
62 99 181
62 99 181
61 99 178
62 99 181
61 98 180
62 99 181
62 99 180
61 99 181
63 100 179
62 99 180
62 99 179
61 99 181
62 99 181
62 99 181
62 99 179
62 99 180
62 99 179
62 99 181
62 99 181
62 99 179
62 99 180
62 99 181
62 99 179
61 98 180
61 99 178
61 99 180
62 99 176
62 99 180
62 99 179
62 99 178
61 98 175
62 99 177
62 99 181
62 99 179
62 99 176
62 99 179
62 99 179
61 98 175
62 99 176
62 99 177
61 98 175
62 99 178
62 98 175
61 98 176
62 99 177
62 99 178
61 98 174
61 98 175
61 97 174
61 96 167
61 98 174
61 97 173
66 97 164
80 101 148
113 119 115
111 119 109
125 126 76
116 114 69
137 133 75
133 129 76
128 126 79
126 123 74
131 128 79
126 122 76
119 118 76
119 116 73
115 114 71
119 117 75
123 121 79
124 124 83
135 133 88
124 123 82
131 129 85
126 124 81
126 124 80
123 122 85
115 117 82
128 128 89
122 122 82
135 134 92
122 123 86
133 133 92
140 139 95
137 136 94
140 138 93
131 131 90
127 128 90
137 136 94
138 137 94
143 141 96
143 142 98
140 139 96
143 142 97
143 140 94
143 141 98
146 145 97
151 148 101
154 151 102
151 149 102
153 150 99
152 151 102
147 145 99
149 147 99
156 154 105
161 159 104
160 157 103
154 152 104
161 158 105
159 156 104
158 156 102
161 158 106
160 157 104
161 158 104
164 162 106
163 159 104
165 162 106
165 162 106
166 162 107
167 163 104
161 158 105
169 165 108
168 165 108
170 166 106
165 161 103
173 168 110
174 169 107
172 167 109
170 166 107
173 169 108
171 167 105
173 168 109
173 168 108
173 168 108
177 171 110
174 170 111
173 168 107
174 169 108
173 169 109
175 170 108
173 169 108
173 167 106
176 171 107
171 167 107
177 171 109
175 170 110
173 168 105
176 170 109
173 169 108
175 170 109
174 169 106
175 169 108
175 170 106
177 171 109
174 169 107
176 170 110
177 171 108
173 169 106
171 167 102
175 168 104
170 165 104
171 166 106
175 169 108
173 168 104
169 163 101
167 163 102
174 168 105
169 163 101
169 164 99
169 163 102
170 165 105
175 169 105
174 168 106
173 166 104
167 162 100
167 162 99
167 162 99
160 155 92
167 161 97
161 154 93
163 157 94
155 150 93
168 161 96
164 158 94
158 152 89
156 150 90
164 158 89
166 160 93
162 157 91
161 156 90
164 159 93
161 154 93
161 154 91
158 151 88
167 159 94
148 142 77
152 146 87
151 146 79
159 152 87
148 142 77
152 147 80
160 153 87
153 147 82
141 136 72
144 140 73
138 137 65
150 154 63
147 150 56
145 151 54
159 167 56
156 164 51
163 178 39
156 175 11
165 183 32
168 188 19
167 187 25
169 192 11
175 198 0
172 196 0
174 197 0
173 196 0
173 197 0
174 197 0
173 197 0
171 195 0
173 196 0
173 196 0
173 196 0
173 197 0
172 195 0
171 195 0
174 197 0
171 194 0
174 197 0
175 198 0
172 196 0
171 195 0
173 196 0
169 193 0
171 195 0
172 196 0
174 197 0
174 197 0
172 196 0
172 195 0
174 197 0
172 195 0
177 199 0
173 196 0
174 197 0
173 197 0
171 194 0
172 196 0
173 196 0
173 197 0
173 197 0
173 196 0
172 196 0
169 193 0
173 197 0
173 196 0
172 195 0
173 197 0
173 197 0
174 196 0
170 193 0
171 195 0
173 197 0
173 197 0
172 196 0
172 196 0
173 197 0
174 197 0
175 198 0
171 195 0
172 195 0
172 195 0
174 198 0
174 197 0
168 192 0
172 196 0
173 196 0
173 197 0
172 195 0
169 192 0
174 198 0
171 194 0
170 194 0
170 194 0
171 194 0
172 195 0
174 196 0
172 195 0
171 195 0
171 195 0
172 196 0
173 196 0
171 194 0
174 196 0
171 195 0
169 193 0
176 198 0
172 196 0
173 195 0
171 194 0
172 196 0
175 198 0
170 194 0
173 196 0
172 196 0
170 193 0
171 195 0
173 196 0
174 197 0
171 194 0
171 195 0
172 195 0
173 196 0
169 193 0
172 195 0
171 194 0
175 197 0
170 193 0
166 189 0
164 188 57
149 172 95
118 144 139
73 107 171
62 98 171
63 99 173
62 99 175
62 99 177
62 99 174
63 100 177
63 100 178
62 99 176
62 99 175
62 99 176
62 99 177
62 99 180
62 99 179
62 99 180
62 99 179
62 99 181
62 99 179
62 99 178
61 99 178
61 98 179
62 99 179
62 99 180
62 99 179
62 99 180
61 99 179
62 99 181
61 99 180
62 99 179
62 99 180
62 99 180
62 99 181
61 99 181
62 99 179
62 99 181
62 99 180
62 99 181
62 99 181
62 99 181
62 99 181
62 99 181
62 99 181
62 99 181
62 99 181
61 98 181
62 99 181
62 99 181
62 99 181
61 99 180
62 99 181
62 99 181
61 98 180
61 99 181
62 99 180
61 99 180
62 99 181
62 99 181
62 99 181
61 98 179
62 99 181
62 99 179
62 99 181
62 99 181
62 99 181
62 99 181
62 99 181
61 99 180
62 99 181
62 99 181
61 99 181
61 98 180
61 98 181
62 99 181
62 99 181
62 99 181
62 99 180
62 99 179
62 99 180
62 99 181
62 99 179
61 99 181
62 99 181
62 99 179
61 99 181
62 99 181
62 99 181
62 99 181
62 99 181
62 99 180
62 99 180
62 99 181
62 99 180
62 99 179
61 99 181
62 99 178
62 99 179
62 99 180
62 99 179
62 99 179
62 99 179
62 99 178
62 99 180
62 99 177
62 99 180
62 99 177
61 99 178
61 98 177
61 98 173
62 99 181
62 99 177
61 98 175
62 98 174
62 98 177
62 99 175
62 99 175
61 98 174
61 99 177
61 97 176
62 99 177
61 97 173
62 98 176
60 96 173
61 97 173
60 96 168
62 98 170
61 98 173
61 97 170
68 98 159
89 106 143
109 114 113
98 106 110
128 127 83
125 121 67
127 123 75
125 123 70
127 123 74
130 128 77
119 118 75
132 130 83
122 120 75
126 124 80
120 118 78
123 121 81
127 126 79
123 121 83
116 117 79
116 116 79
127 127 85
126 126 85
115 115 79
122 122 85
133 131 88
118 119 83
125 125 83
131 130 90
126 127 87
129 129 89
129 129 90
138 137 95
136 135 92
133 133 92
126 127 90
135 134 92
130 130 90
137 136 92
141 141 96
133 134 93
136 135 94
131 131 91
143 141 95
159 157 106
151 149 100
144 142 95
144 143 97
146 145 98
145 143 95
149 148 102
153 151 101
148 147 99
158 155 103
151 149 100
160 157 103
154 153 102
157 155 103
166 162 105
160 157 104
163 160 104
164 160 105
160 157 102
161 159 104
160 158 105
170 166 107
163 161 105
168 165 107
168 164 107
167 164 108
157 155 100
174 169 110
166 162 104
171 167 107
166 162 104
169 165 105
175 170 110
169 165 105
173 169 111
175 170 107
173 169 109
173 168 108
168 164 105
173 168 104
172 168 109
175 170 109
178 172 109
174 169 106
175 170 109
173 170 109
175 171 109
174 169 106
176 170 106
177 172 110
178 172 108
175 170 110
176 171 109
174 169 108
173 168 108
175 170 107
169 165 104
176 170 109
171 166 101
171 166 105
174 168 106
173 168 106
171 166 104
170 164 103
172 166 105
173 168 105
170 165 104
173 168 104
166 162 99
173 168 103
171 166 98
170 165 99
169 163 101
171 165 95
167 161 101
172 166 104
167 161 98
170 164 101
169 164 99
164 159 96
166 161 100
164 159 97
166 159 95
166 160 94
163 156 94
161 155 94
161 156 93
171 164 101
162 156 97
154 149 87
163 157 93
164 158 95
156 150 85
155 150 89
154 148 90
150 145 84
156 149 87
152 146 80
153 147 86
153 148 81
147 141 79
152 147 84
156 151 80
149 142 75
150 144 78
146 140 78
152 146 83
141 137 70
145 143 71
146 146 64
141 143 57
155 160 60
152 163 42
154 165 45
163 178 42
158 175 30
158 176 28
169 188 28
171 192 16
172 194 19
172 194 0
175 198 0
172 196 0
172 196 0
171 195 0
173 197 0
173 195 0
171 195 0
174 198 0
173 196 0
173 196 0
171 195 0
172 195 0
170 194 0
174 197 0
172 196 0
172 195 0
171 194 0
171 195 0
173 196 0
173 197 0
173 197 0
172 196 0
174 198 0
171 195 0
171 195 0
171 195 0
174 197 0
175 198 0
169 192 0
173 196 0
173 197 0
172 195 0
173 196 0
174 197 0
173 196 0
170 193 0
174 197 0
173 197 0
172 196 0
174 198 0
173 197 0
172 196 0
172 195 0
174 197 0
174 197 0
172 195 0
173 196 0
172 196 0
173 197 0
171 195 0
173 197 0
169 192 0
174 197 0
173 197 0
173 195 0
174 197 0
170 194 0
169 193 0
175 197 0
173 196 0
174 196 0
173 197 0
171 194 0
175 198 0
170 193 0
174 196 0
170 194 0
174 197 0
171 195 0
171 195 0
171 194 0
171 194 0
171 194 0
173 196 0
170 193 0
173 196 0
170 195 0
171 195 0
172 195 0
170 194 0
172 195 0
172 196 0
174 197 0
172 195 0
172 194 0
168 193 0
173 197 0
168 191 0
174 197 0
168 192 0
174 196 0
172 195 0
170 193 0
173 196 0
173 196 0
172 196 0
172 195 0
172 196 0
171 195 0
173 196 0
169 193 0
172 195 0
170 194 0
172 195 0
171 194 0
169 191 44
149 173 94
123 148 130
74 108 168
62 99 175
62 99 172
62 98 172
62 99 173
62 99 178
62 99 175
62 99 177
62 99 178
62 99 178
61 98 173
62 99 178
62 99 176
62 99 176
62 99 177
63 100 181
62 99 180
62 99 173
62 99 180
62 99 179
62 99 179
62 99 179
61 99 180
61 99 180
62 99 181
62 99 179
61 98 178
62 99 181
62 99 180
63 100 181
62 99 179
63 100 181
62 99 179
61 98 179
62 99 181
62 99 181
62 99 180
62 99 181
62 99 181
62 99 180
61 99 180
61 98 179
61 98 180
62 99 181
61 99 179
62 99 180
62 99 180
62 99 181
62 99 181
62 99 181
62 99 180
61 99 180
63 100 181
62 99 181
61 99 179
62 99 181
62 99 181
62 99 180
62 99 181
61 98 181
62 99 180
61 99 180
62 99 179
62 99 181
62 99 180
61 99 180
62 99 181
62 99 181
61 99 181
62 99 181
62 99 181
61 99 181
62 99 179
61 98 181
61 98 176
62 99 180
62 99 181
61 99 180
62 99 180
62 99 180
62 99 181
61 99 180
62 99 180
62 99 180
62 99 181
61 99 181
62 99 179
62 99 180
62 99 180
62 99 179
62 99 175
62 99 179
62 99 181
62 99 181
62 99 180
62 99 178
62 99 178
61 99 179
62 99 176
62 99 178
62 99 178
61 99 179
62 99 180
62 99 176
62 99 178
62 99 180
62 99 180
61 98 176
62 98 176
62 99 177
62 99 178
61 98 177
62 99 178
61 98 175
61 98 176
62 98 174
62 98 175
61 98 175
63 99 177
61 98 171
62 98 174
62 98 174
61 97 173
61 97 172
62 98 175
61 97 170
62 97 171
61 96 170
61 96 167
69 99 164
77 101 152
90 103 128
115 116 97
127 125 83
127 124 72
116 115 60
129 127 76
123 119 74
131 127 76
114 114 76
123 121 78
122 121 79
120 119 76
112 112 75
126 126 81
120 120 81
135 133 88
112 112 78
124 124 83
125 125 84
120 121 85
125 125 83
127 126 86
121 121 83
128 128 89
132 131 90
121 122 84
127 127 88
133 133 91
123 123 84
144 143 97
126 125 87
135 135 93
139 139 96
122 123 86
140 138 93
139 138 94
143 141 96
144 142 94
148 146 98
149 147 99
153 151 102
147 146 98
158 155 102
151 149 99
139 140 96
155 154 103
147 146 98
158 156 104
146 146 101
155 152 101
152 151 101
156 153 98
158 155 104
160 157 105
158 155 102
164 160 103
158 156 101
165 161 105
157 154 100
164 160 105
164 161 105
169 165 104
170 165 105
171 166 108
164 161 104
172 167 107
170 166 106
166 163 105
170 165 104
169 165 107
165 161 104
170 166 108
170 166 108
171 167 108
170 166 106
173 169 108
176 171 111
169 165 106
173 169 107
173 169 109
176 170 107
174 169 105
174 169 108
175 170 109
174 169 109
174 169 107
173 168 106
171 167 103
170 166 104
175 171 108
175 170 108
173 168 108
175 170 108
173 168 106
176 170 108
174 168 104
174 168 104
172 168 108
170 166 103
175 170 106
170 165 103
174 170 108
172 166 104
168 163 102
173 167 104
168 163 103
173 167 103
168 163 103
173 167 102
173 167 105
174 168 104
170 164 99
171 165 102
170 164 101
170 165 101
169 164 99
162 158 96
160 154 94
167 160 99
172 165 101
168 162 98
171 165 100
168 161 97
161 156 92
161 156 93
170 164 95
168 161 97
159 154 87
164 157 92
158 152 93
163 158 87
159 153 84
163 157 90
154 149 84
160 153 86
154 149 88
158 153 83
155 149 87
159 154 89
148 142 84
156 150 87
157 151 82
150 144 80
146 142 72
145 139 82
140 134 74
150 143 78
149 143 80
148 145 70
142 141 66
150 154 58
151 156 52
150 157 54
156 168 42
164 179 42
158 173 36
168 186 36
165 183 32
171 192 25
173 196 16
173 197 0
172 196 0
173 196 0
174 197 0
173 196 0
174 198 0
175 198 0
173 196 0
170 194 0
172 195 0
173 197 0
173 195 0
173 197 0
175 198 0
173 197 0
173 197 0
172 196 0
174 197 0
174 197 0
172 195 0
175 197 0
173 197 0
174 197 0
173 197 0
172 196 0
173 197 0
173 196 0
175 198 0
174 197 0
173 197 0
172 196 0
172 196 0
171 195 0
173 197 0
172 196 0
174 197 0
172 196 0
174 197 0
171 194 0
172 196 0
172 195 0
170 194 0
173 196 0
173 197 0
174 197 0
173 196 0
173 197 0
174 197 0
171 194 0
174 197 0
172 195 0
171 195 0
171 195 0
173 197 0
172 195 0
173 197 0
172 195 0
173 197 0
173 195 0
170 194 0
174 198 0
171 194 0
169 193 0
172 195 0
173 197 0
170 194 0
174 198 0
172 196 0
173 196 0
172 195 0
170 194 0
172 195 0
172 196 0
174 197 0
173 197 0
170 195 0
173 195 0
172 194 0
172 195 0
173 197 0
172 195 0
170 193 0
174 197 0
171 194 0
171 195 0
172 196 0
174 197 0
169 194 0
168 192 0
173 196 0
172 195 0
171 195 0
173 196 0
171 194 0
172 195 0
172 195 0
172 195 0
171 194 0
173 195 0
169 192 0
172 196 0
172 195 0
172 195 0
171 195 0
176 198 0
168 192 36
143 168 105
112 138 135
75 108 164
63 99 171
63 99 176
62 99 176
62 99 178
62 99 172
61 98 171
62 99 179
62 99 178
62 99 174
62 99 174
61 98 177
62 99 176
62 99 175
62 99 179
62 99 179
62 99 178
62 99 177
62 99 177
62 99 178
62 99 180
62 99 179
62 99 177
62 99 179
61 98 178
62 99 179
62 99 179
62 99 180
62 99 180
62 99 179
62 99 181
62 99 181
62 99 179
62 99 181
62 99 181
62 99 181
62 99 181
62 99 181
62 99 180
62 99 181
62 99 181
62 99 179
62 99 181
61 99 180
62 99 180
62 99 181
61 98 180
62 99 181
61 98 178
62 99 181
62 99 179
62 99 181
62 99 181
62 99 180
62 99 181
61 99 181
62 99 181
62 99 181
62 99 181
61 99 181
62 99 181
62 99 181
61 98 181
62 99 179
62 99 181
61 99 181
61 98 179
62 99 180
62 99 180
61 99 181
62 99 181
62 99 180
62 99 179
61 99 180
61 98 179
61 99 179
61 99 180
62 99 181
62 99 180
61 98 179
62 99 180
61 99 180
62 99 178
62 99 179
62 99 181
61 98 179
61 98 180
62 99 179
61 99 180
62 99 179
62 99 180
62 99 178
61 99 178
62 99 179
62 99 179
62 99 181
62 99 180
62 99 177
62 99 178
61 99 180
62 99 177
62 99 180
62 99 178
62 99 178
63 99 179
61 98 177
62 99 178
62 99 177
62 99 180
62 99 180
62 99 176
62 99 176
61 98 177
62 98 175
62 99 176
61 98 175
60 97 176
62 99 177
62 98 174
62 98 176
61 98 173
61 98 173
62 99 175
61 98 174
62 99 175
61 98 174
61 97 174
61 97 175
61 97 169
61 96 167
61 97 170
71 99 159
86 106 148
113 118 121
123 124 98
123 121 74
124 119 70
124 122 73
125 123 74
109 108 64
122 121 71
110 109 68
114 114 72
118 117 79
120 120 78
124 123 81
117 115 78
110 110 75
112 113 77
112 114 77
117 117 80
123 122 85
123 123 84
127 127 88
114 116 81
128 128 89
119 121 84
126 126 87
133 133 91
128 129 89
126 126 87
127 127 90
133 132 91
138 137 95
133 134 93
135 135 92
138 138 95
129 129 88
146 144 99
139 138 94
136 135 93
136 135 93
140 140 95
144 143 98
147 145 96
143 142 95
147 145 98
156 153 102
143 142 95
150 148 99
157 154 103
145 145 98
161 157 102
161 158 104
151 149 101
163 160 107
154 152 101
161 158 106
161 158 102
161 158 104
162 159 105
162 159 103
158 155 101
162 160 105
166 162 104
168 164 107
170 167 109
163 159 104
166 162 102
166 162 105
166 163 106
167 163 103
173 169 107
171 166 105
167 163 108
175 171 110
173 168 108
172 168 105
174 169 106
167 164 105
174 169 108
173 169 110
171 166 104
171 167 106
172 168 107
172 168 110
175 170 108
172 167 107
176 170 108
173 169 107
174 168 104
175 170 107
174 170 106
174 169 106
177 171 110
173 168 106
176 170 109
174 169 107
171 166 101
176 170 105
172 167 105
173 167 104
168 164 99
174 169 104
170 165 101
171 166 103
172 166 101
170 164 104
173 168 106
174 168 105
170 165 103
171 166 99
169 164 101
168 163 102
173 166 101
172 167 104
169 163 99
168 163 100
176 170 104
168 162 96
172 166 100
164 158 95
165 160 96
166 159 95
166 160 93
162 158 95
168 161 95
161 156 91
163 157 93
160 154 89
159 154 87
163 157 92
163 157 90
159 153 91
163 156 90
158 153 87
164 158 91
160 155 90
156 151 88
151 146 82
161 155 87
159 152 87
151 146 80
149 144 79
153 148 81
153 147 80
148 143 76
144 137 73
139 134 70
142 139 69
141 138 68
145 145 64
140 143 54
151 154 57
148 156 54
156 166 47
157 169 36
158 173 34
164 183 25
170 189 30
168 186 25
169 191 19
175 198 0
173 196 0
173 197 0
172 196 0
174 197 0
173 197 0
174 197 0
172 194 0
173 197 0
174 198 0
172 196 0
171 195 0
174 198 0
173 196 0
173 197 0
173 196 0
171 194 0
173 196 0
172 195 0
174 197 0
172 196 0
175 197 0
174 197 0
173 196 0
173 197 0
172 195 0
173 196 0
172 196 0
175 198 0
172 196 0
174 197 0
173 197 0
171 196 0
172 195 0
171 195 0
173 196 0
171 195 0
171 195 0
174 197 0
172 195 0
173 196 0
172 196 0
172 195 0
174 197 0
175 197 0
176 199 0
172 195 0
173 197 0
171 194 0
173 196 0
173 196 0
170 194 0
172 196 0
171 196 0
173 197 0
174 197 0
172 196 0
173 196 0
171 193 0
169 193 0
174 197 0
171 195 0
173 197 0
173 197 0
171 195 0
172 195 0
172 195 0
172 195 0
169 192 0
172 196 0
171 195 0
173 195 0
171 195 0
174 197 0
172 196 0
173 196 0
172 195 0
172 196 0
168 192 0
173 197 0
173 196 0
172 195 0
172 196 0
173 196 0
174 197 0
173 196 0
171 194 0
169 192 0
170 194 0
171 195 0
172 195 0
172 195 0
172 195 0
174 197 0
172 195 0
174 197 0
173 197 0
171 194 0
173 197 0
173 196 0
169 193 0
174 196 0
170 194 0
172 196 0
164 187 57
148 172 95
122 147 129
78 110 166
62 98 170
62 98 171
62 99 176
61 98 169
62 99 175
62 99 174
62 99 176
62 99 177
63 99 177
62 99 178
61 98 177
62 99 175
62 99 174
62 99 177
62 99 177
62 99 178
62 99 179
62 99 179
62 99 178
62 99 178
62 99 180
61 98 177
62 99 180
62 99 181
62 99 179
61 98 177
62 99 179
61 99 180
62 99 180
62 99 180
62 99 178
62 99 180
62 99 180
62 99 181
62 99 180
62 99 180
62 99 180
62 99 181
61 99 181
62 99 181
62 99 181
61 98 181
62 99 181
62 99 181
62 99 180
61 99 181
62 99 181
61 99 180
62 99 180
62 99 181
62 99 181
61 99 181
61 99 179
62 99 180
61 98 180
62 99 180
62 99 180
62 99 181
62 99 180
62 99 181
62 99 180
61 99 179
62 99 181
62 99 180
62 99 181
61 98 180
62 99 181
62 99 180
62 99 180
61 99 178
62 99 181
62 99 180
61 99 181
61 99 181
62 99 181
62 99 180
62 99 180
62 99 181
61 98 177
62 99 178
62 99 180
61 99 179
62 99 179
61 99 180
61 98 179
62 99 181
62 99 181
62 99 180
62 99 180
62 99 180
61 99 179
62 99 179
62 99 180
62 99 178
61 98 178
62 99 181
62 99 177
62 99 180
63 100 180
62 99 179
61 98 179
61 98 178
61 98 178
62 99 180
62 99 179
62 98 175
62 99 176
62 99 178
62 99 177
61 98 178
62 99 175
63 99 178
62 99 176
62 99 175
62 99 175
61 98 176
61 97 172
61 98 174
61 98 176
62 99 178
62 99 174
62 98 174
63 99 176
63 99 175
62 98 173
60 96 172
61 97 174
61 97 170
61 97 170
60 95 170
62 98 175
63 97 165
72 101 165
87 104 142
91 103 123
119 121 103
107 108 77
119 117 70
129 126 75
116 115 68
120 116 66
111 111 74
111 111 73
111 111 71
122 121 75
116 115 77
103 105 70
121 120 78
105 106 71
116 116 81
119 119 81
123 122 81
121 120 81
117 117 78
113 114 77
118 118 82
124 124 86
115 117 82
122 123 87
127 127 88
134 134 92
125 127 89
126 127 86
135 136 95
130 130 92
134 134 93
145 143 97
136 135 93
148 146 99
136 135 93
141 140 97
137 137 94
137 137 92
143 142 96
140 139 93
142 141 95
149 148 97
153 151 101
147 146 99
156 154 102
147 145 97
158 155 104
156 154 103
153 151 102
158 155 102
154 152 101
154 152 101
156 154 104
151 150 99
166 162 105
168 164 109
162 159 105
162 158 104
163 160 106
156 153 100
167 163 104
166 163 105
170 166 107
165 162 104
169 165 104
171 166 105
162 158 102
169 164 105
169 165 106
164 160 103
170 166 104
171 166 107
170 166 104
176 171 111
169 165 104
175 170 109
175 170 110
173 168 107
173 168 109
177 171 110
172 168 105
175 170 107
169 165 103
172 167 107
174 169 108
173 168 104
173 167 101
173 169 107
175 170 107
175 170 107
173 168 104
178 172 108
174 168 104
176 170 108
176 170 108
170 165 100
173 168 106
176 170 106
170 165 103
173 168 103
170 165 103
173 166 101
173 168 104
174 169 105
164 160 100
174 168 104
175 169 100
170 165 100
164 159 99
169 163 97
163 158 94
171 164 103
167 160 97
167 161 97
170 164 100
172 165 100
163 158 91
167 162 95
162 157 97
166 160 94
166 160 97
166 159 97
167 161 97
161 155 92
166 160 100
162 156 92
162 156 93
159 153 91
162 156 86
164 158 92
164 157 94
161 154 90
161 155 91
154 148 80
153 147 87
153 147 84
154 149 80
152 146 81
149 143 78
152 147 77
153 146 76
139 133 72
153 147 80
144 139 75
148 143 78
142 139 64
148 147 65
153 155 65
145 150 51
152 159 53
162 171 54
152 166 41
158 171 45
165 183 34
163 182 19
170 191 19
171 193 11
174 198 0
174 197 0
172 195 0
170 194 0
173 197 0
174 198 0
174 197 0
174 198 0
170 194 0
170 194 0
174 198 0
172 195 0
174 197 0
171 194 0
174 197 0
171 194 0
172 195 0
172 196 0
174 197 0
174 197 0
172 197 0
172 195 0
173 195 0
172 196 0
171 195 0
174 197 0
174 198 0
173 197 0
173 196 0
173 197 0
172 195 0
172 195 0
174 197 0
172 195 0
172 196 0
175 197 0
171 195 0
171 193 0
173 197 0
175 198 0
172 195 0
173 197 0
172 196 0
172 196 0
173 196 0
173 195 0
170 194 0
172 196 0
173 197 0
173 197 0
174 197 0
173 196 0
173 197 0
171 194 0
173 196 0
173 196 0
173 196 0
173 196 0
172 195 0
171 195 0
174 197 0
174 197 0
172 196 0
174 198 0
173 196 0
172 195 0
173 196 0
174 197 0
174 196 0
174 198 0
174 196 0
174 197 0
172 195 0
173 196 0
173 197 0
172 196 0
173 197 0
173 196 0
169 192 0
175 197 0
173 196 0
170 194 0
170 193 0
171 195 0
172 195 0
171 194 0
173 196 0
170 194 0
173 195 0
172 196 0
174 196 0
174 196 0
170 194 0
171 194 0
174 196 0
172 196 0
170 194 0
173 197 0
170 194 0
172 195 0
173 196 0
168 192 0
171 194 0
168 192 25
158 182 70
137 162 117
88 119 157
62 99 171
62 99 173
61 98 171
63 99 171
62 99 173
61 98 168
62 99 172
62 99 174
61 99 176
62 99 178
61 98 171
62 99 177
62 99 175
62 99 178
63 99 178
62 99 178
62 99 176
62 99 177
62 99 175
62 99 179
62 99 180
62 99 178
61 98 177
62 99 180
62 99 179
61 98 178
62 99 179
62 99 179
62 99 181
62 99 180
62 99 181
62 99 179
62 99 178
62 99 179
62 99 181
62 99 181
62 99 179
62 99 181
62 99 181
62 99 181
62 99 181
62 99 181
62 99 181
62 99 179
62 99 181
61 98 180
62 99 181
62 99 181
62 99 181
62 99 180
61 99 181
62 99 180
62 99 179
62 99 177
61 99 180
62 99 181
62 99 181
62 99 180
61 99 181
61 99 181
62 99 181
62 99 181
62 99 179
62 99 181
62 99 180
62 99 179
61 99 181
62 99 180
62 99 179
61 98 177
62 99 181
61 99 181
62 99 178
62 99 181
61 99 180
62 99 181
62 99 180
62 99 180
62 99 181
62 99 179
62 99 180
62 99 180
61 99 179
62 99 180
62 99 181
62 99 180
62 99 180
62 99 180
62 99 180
62 99 180
62 99 180
62 99 179
61 98 180
62 99 179
62 99 178
62 99 179
62 99 179
62 99 179
61 98 178
62 99 178
62 99 180
62 99 178
62 99 180
62 99 178
62 99 180
61 98 177
61 98 179
62 99 175
62 99 181
61 98 177
62 99 178
62 99 178
61 98 177
61 98 176
62 99 179
62 99 176
62 99 177
62 99 175
62 98 175
62 98 174
61 98 177
62 99 176
61 97 172
62 97 170
61 98 174
61 98 173
62 98 172
62 98 172
62 98 172
61 98 172
60 96 169
62 97 170
62 98 175
61 96 170
59 94 161
96 110 135
110 117 114
119 120 97
118 117 75
115 113 63
115 114 68
129 127 83
125 123 75
119 116 74
119 117 76
122 118 75
102 102 66
112 112 74
111 110 74
110 111 75
112 113 77
116 116 78
109 111 79
114 114 77
115 116 81
122 122 85
121 122 85
124 124 83
123 122 84
114 116 83
129 129 90
125 125 86
130 130 90
129 130 91
134 133 90
122 123 85
130 128 87
142 140 95
143 142 96
137 136 95
137 137 94
141 141 95
142 141 96
145 144 98
138 138 94
148 146 96
148 146 97
153 151 99
154 152 101
148 145 96
147 145 97
152 150 98
154 152 102
152 150 99
154 152 100
159 157 104
161 159 104
160 157 105
166 162 105
160 157 98
159 156 100
164 160 104
152 151 100
162 159 104
162 160 104
169 164 105
170 165 105
170 166 109
170 165 106
171 167 108
164 160 102
170 166 107
168 164 106
172 167 104
171 166 107
165 162 104
169 165 106
165 162 105
173 168 108
172 168 108
171 167 105
170 166 104
171 167 107
177 171 107
173 168 106
176 170 105
176 171 110
169 165 100
175 170 106
174 169 109
174 170 106
179 173 109
177 171 106
171 167 106
171 167 105
176 170 106
177 171 107
178 172 107
174 169 108
176 171 106
176 170 103
169 164 102
176 170 108
168 163 95
172 166 104
169 165 101
170 165 101
169 164 101
173 167 104
173 168 104
168 163 100
169 163 100
172 166 103
174 167 103
175 169 106
171 165 101
169 162 96
171 166 103
172 165 99
169 164 99
170 164 100
164 159 91
159 154 91
166 161 97
160 155 95
167 161 97
168 161 93
167 161 92
166 160 92
168 162 97
162 155 90
157 152 90
161 155 87
156 150 90
156 150 86
168 160 88
152 147 84
156 150 84
162 155 84
157 152 86
153 147 84
158 152 83
153 148 81
157 151 87
142 137 70
148 142 78
155 148 80
141 136 73
149 143 75
147 141 76
154 147 80
141 137 69
154 151 73
149 153 59
154 159 56
149 157 42
159 169 49
159 174 36
164 180 42
163 180 34
162 181 22
165 183 19
175 198 0
173 196 0
173 196 0
172 196 0
171 195 0
172 196 0
172 195 0
174 197 0
173 197 0
172 196 0
173 196 0
175 198 0
173 195 0
174 197 0
175 197 0
170 193 0
173 196 0
174 197 0
172 195 0
170 193 0
172 196 0
172 196 0
172 196 0
174 197 0
174 197 0
173 196 0
174 197 0
174 198 0
171 194 0
171 193 0
174 198 0
174 198 0
172 195 0
172 195 0
171 195 0
173 195 0
172 196 0
171 195 0
170 193 0
173 197 0
174 197 0
174 197 0
173 197 0
173 196 0
173 197 0
171 195 0
173 196 0
172 195 0
173 197 0
173 197 0
169 193 0
174 197 0
174 197 0
173 196 0
173 196 0
172 195 0
173 196 0
172 196 0
172 195 0
172 195 0
169 193 0
172 195 0
173 197 0
171 194 0
171 194 0
172 195 0
173 197 0
171 194 0
172 195 0
175 198 0
170 194 0
168 192 0
174 197 0
172 195 0
168 192 0
176 199 0
173 196 0
169 193 0
172 195 0
171 195 0
173 196 0
172 195 0
173 195 0
172 196 0
174 197 0
174 197 0
174 197 0
171 195 0
169 192 0
172 195 0
171 195 0
171 194 0
173 197 0
173 196 0
169 192 0
169 193 0
170 193 0
171 195 0
171 195 0
171 195 0
171 194 0
170 194 0
169 192 0
172 194 25
157 180 67
143 168 97
90 120 159
62 99 172
62 99 170
62 99 176
61 98 174
62 99 176
62 99 175
63 99 175
62 99 173
63 99 175
62 99 176
62 99 175
62 99 177
62 99 178
62 99 176
62 99 176
62 99 177
62 99 177
63 100 179
62 99 177
62 99 179
62 99 181
62 99 177
62 99 178
62 99 177
62 99 179
62 99 179
62 99 178
62 99 179
62 99 180
62 99 181
62 99 180
62 99 181
62 99 180
62 99 181
62 99 179
62 99 180
62 99 179
62 99 181
61 99 181
62 99 180
61 98 178
62 99 178
62 99 181
62 99 177
62 99 181
62 99 181
62 99 178
62 99 179
62 99 181
62 99 181
62 99 178
62 99 181
61 98 179
62 99 181
61 99 181
62 99 180
61 99 180
62 99 180
61 99 181
61 98 178
61 98 180
62 99 181
62 99 179
61 99 181
62 99 181
61 99 179
62 99 179
62 99 181
61 99 181
62 99 180
62 99 179
62 99 180
62 99 181
62 99 180
62 99 181
62 99 181
62 99 180
62 99 180
62 99 178
62 99 177
62 99 179
62 99 181
62 99 180
62 99 180
62 99 181
62 99 178
61 99 180
62 99 180
62 99 180
62 99 179
62 99 179
62 99 180
62 99 180
62 99 180
62 99 179
62 99 181
61 98 179
61 99 180
62 99 180
62 99 178
62 99 179
62 99 178
62 99 180
62 99 177
61 98 176
61 98 178
62 99 179
62 99 178
62 99 179
62 98 178
62 99 178
62 99 176
62 99 178
62 98 177
61 98 179
62 99 175
62 99 175
62 99 175
61 98 172
61 98 171
62 99 178
61 98 174
61 98 175
62 99 173
62 98 174
62 98 172
62 98 174
62 98 176
62 98 169
62 98 171
61 96 169
62 98 172
61 97 168
61 96 166
60 95 164
60 95 165
74 99 150
84 103 140
99 108 115
118 118 90
115 113 71
112 111 66
123 120 74
108 108 70
110 110 74
109 109 70
98 101 68
124 123 78
105 105 71
120 118 75
104 104 69
102 103 72
119 120 82
115 116 82
117 117 78
112 113 77
111 112 78
120 122 85
114 116 82
116 116 78
115 116 82
120 120 82
128 127 85
122 123 85
133 133 94
143 142 96
130 130 91
134 134 93
134 133 92
132 132 92
146 144 95
143 142 97
140 139 93
136 136 93
138 136 93
134 134 91
136 135 94
135 135 92
143 141 93
143 143 99
151 149 97
149 148 98
148 147 97
140 140 94
158 155 102
156 153 102
150 150 97
158 155 102
159 156 104
158 155 97
163 159 103
157 153 100
160 158 102
157 155 103
162 159 103
170 165 108
170 165 107
154 153 103
170 165 106
167 163 103
167 164 105
167 164 102
167 163 106
169 165 105
171 167 105
172 168 108
167 163 105
172 167 105
170 165 109
177 171 109
170 164 104
172 168 107
173 167 106
176 170 106
174 169 104
176 171 110
174 169 106
175 170 107
171 167 104
175 169 107
173 169 105
175 170 107
174 169 107
172 167 103
175 169 104
172 167 103
175 169 103
174 169 106
175 169 103
175 170 108
176 170 105
176 170 106
174 168 103
175 168 105
173 168 101
172 167 103
172 168 104
173 168 104
174 168 103
173 168 100
171 166 104
173 167 103
170 165 101
172 166 99
169 163 98
173 167 102
172 165 100
169 162 95
165 159 93
163 158 96
168 162 96
164 159 97
172 166 98
170 164 99
166 161 98
165 159 92
168 163 98
164 158 93
167 159 97
164 157 93
165 159 95
160 155 92
165 158 91
161 155 90
158 154 84
158 152 89
155 149 85
159 153 82
156 151 83
161 155 87
159 153 87
152 146 84
155 150 79
153 147 79
147 142 80
160 154 86
153 147 83
151 145 81
145 139 75
147 141 75
150 143 81
149 144 72
144 141 61
138 137 60
147 150 57
153 157 59
146 149 57
157 168 49
155 169 39
159 174 32
163 180 36
169 188 32
167 188 11
171 192 19
172 195 0
174 197 0
173 196 0
174 197 0
174 197 0
174 197 0
175 198 0
173 197 0
172 195 0
173 196 0
173 196 0
172 196 0
174 197 0
175 198 0
174 197 0
173 195 0
173 196 0
174 197 0
173 196 0
173 197 0
173 197 0
173 196 0
173 196 0
172 196 0
173 196 0
175 197 0
172 196 0
175 197 0
173 196 0
171 195 0
175 198 0
170 193 0
172 195 0
174 198 0
172 196 0
173 197 0
172 195 0
173 196 0
172 195 0
170 194 0
171 194 0
174 197 0
172 195 0
173 196 0
171 195 0
174 197 0
173 196 0
173 197 0
172 196 0
170 193 0
172 195 0
173 196 0
171 195 0
174 197 0
174 197 0
173 196 0
173 197 0
172 196 0
173 196 0
174 197 0
174 196 0
171 195 0
173 197 0
171 195 0
172 195 0
175 198 0
175 197 0
173 196 0
174 197 0
174 197 0
171 195 0
173 196 0
173 197 0
172 194 0
174 197 0
169 193 0
172 195 0
174 197 0
170 194 0
172 196 0
168 192 0
173 196 0
172 195 0
172 196 0
173 196 0
171 195 0
173 196 0
170 193 0
173 196 0
172 195 0
174 197 0
171 195 0
172 196 0
173 197 0
168 192 0
174 197 0
171 196 0
170 193 0
169 193 0
172 194 0
169 193 0
171 194 0
164 188 54
143 167 110
112 140 137
70 105 170
62 99 170
63 99 175
62 99 172
62 99 173
62 99 175
61 98 175
62 99 179
63 99 175
62 99 175
63 99 179
62 99 176
62 99 175
62 99 178
61 98 176
62 99 175
62 99 177
62 99 180
62 99 177
63 100 178
61 98 174
62 99 178
62 99 179
62 99 180
61 98 176
62 99 179
62 99 180
61 98 179
62 99 180
62 99 180
62 99 181
61 99 179
62 99 180
62 99 178
62 99 179
62 99 180
62 99 179
61 98 180
62 99 180
63 99 180
61 99 180
62 99 180
62 99 180
62 99 180
61 99 180
62 99 181
62 99 179
62 99 180
62 99 180
61 98 179
62 99 177
62 99 180
62 99 181
62 99 181
62 99 179
62 99 180
62 99 180
62 99 181
62 99 181
61 98 177
62 99 181
62 99 181
62 99 181
62 99 181
62 99 181
63 100 179
62 99 180
62 99 180
62 99 180
62 99 180
62 99 180
62 99 181
62 99 180
62 99 179
62 99 180
62 99 180
61 99 180
62 99 180
63 100 179
61 99 181
61 98 178
62 99 179
61 99 181
62 99 180
62 99 178
62 99 181
62 99 179
62 99 181
61 98 176
62 99 181
62 99 179
62 99 178
61 99 179
63 99 176
61 98 180
62 99 179
62 99 178
61 99 179
62 99 179
62 99 178
62 99 178
61 99 179
62 99 178
61 98 175
61 98 178
62 100 181
61 98 175
62 99 177
61 98 179
62 99 178
62 99 176
62 99 178
62 99 177
61 98 174
62 98 175
62 99 178
62 99 174
61 98 175
63 100 178
62 99 174
62 99 174
62 98 176
62 99 173
61 98 175
61 97 173
62 98 172
61 98 171
63 99 174
61 97 173
62 98 175
61 97 172
62 99 177
60 94 165
61 97 172
61 98 172
61 97 170
61 97 167
63 97 169
73 100 153
83 97 122
101 105 94
131 130 96
124 122 80
117 115 74
99 100 65
112 110 72
115 115 75
110 110 74
94 95 65
112 113 73
108 109 75
115 115 81
111 111 74
108 109 73
105 107 76
107 109 76
108 111 79
98 102 75
122 122 82
113 114 79
108 111 80
118 119 82
113 115 81
126 126 86
129 129 90
124 125 88
135 134 91
125 126 87
131 132 91
125 126 86
136 134 90
141 140 95
134 134 94
140 139 94
142 141 98
136 136 93
151 149 100
146 145 96
148 146 97
138 138 93
154 151 98
152 150 97
154 151 98
147 145 96
144 142 94
158 155 101
156 154 103
153 151 99
155 152 99
164 160 102
161 158 105
160 157 102
163 160 101
158 156 102
156 154 100
159 157 98
168 163 104
159 156 101
166 163 104
173 168 106
161 158 102
165 161 101
168 164 104
169 166 108
166 163 107
168 164 104
166 163 104
170 166 104
167 163 103
173 168 104
173 168 103
172 166 103
175 168 107
173 169 110
172 168 106
172 168 103
174 169 103
172 167 108
171 166 102
176 170 108
177 170 106
171 166 100
174 169 105
172 166 98
173 168 103
175 170 104
173 168 102
173 168 105
175 168 102
170 165 100
175 169 105
172 166 100
174 169 103
174 167 103
175 169 104
173 167 101
174 168 99
170 165 101
173 167 101
175 170 104
176 169 105
168 163 96
170 164 98
172 165 102
167 162 95
172 166 102
168 163 99
170 165 101
168 163 98
166 159 97
165 159 93
169 163 98
169 163 94
172 165 99
164 159 93
167 160 95
169 163 97
166 160 90
162 156 93
160 155 85
161 155 89
163 157 92
159 153 87
163 157 93
162 157 88
163 157 92
151 146 83
163 156 91
153 148 83
151 145 79
156 150 86
159 152 86
153 147 81
166 159 90
167 160 93
157 151 77
152 147 80
146 141 72
142 137 73
144 139 73
156 149 80
145 140 69
136 131 68
141 137 71
148 147 63
145 147 58
147 152 49
151 156 58
152 164 37
158 169 47
163 178 37
165 180 30
166 183 30
172 191 25
169 191 0
173 197 0
175 198 0
174 197 0
174 197 0
172 195 0
174 198 0
174 197 0
173 196 0
172 195 0
174 198 0
175 198 0
170 194 0
175 198 0
172 196 0
174 198 0
172 195 0
171 195 0
173 197 0
174 197 0
172 195 0
172 196 0
173 196 0
173 197 0
172 195 0
174 198 0
171 194 0
171 195 0
172 196 0
174 197 0
171 194 0
173 197 0
174 197 0
175 197 0
174 197 0
174 197 0
173 196 0
172 195 0
171 194 0
172 195 0
172 196 0
173 197 0
174 197 0
171 194 0
173 197 0
172 195 0
172 195 0
173 196 0
173 196 0
174 197 0
173 196 0
173 197 0
172 195 0
171 195 0
170 195 0
173 196 0
172 196 0
174 197 0
172 195 0
170 193 0
170 194 0
172 196 0
171 194 0
173 196 0
172 195 0
174 197 0
174 197 0
172 196 0
168 191 0
173 197 0
174 196 0
171 195 0
171 194 0
168 191 0
171 195 0
169 192 0
170 194 0
171 195 0
171 195 0
173 196 0
173 197 0
171 193 0
174 197 0
171 194 0
174 198 0
171 194 0
172 196 0
171 194 0
171 194 0
172 195 0
172 196 0
170 194 0
171 194 0
173 195 0
170 193 0
169 193 0
174 196 0
173 197 0
172 195 0
172 196 0
173 195 0
173 196 0
166 189 51
138 163 113
123 150 125
74 107 169
63 99 170
62 99 177
61 98 171
62 99 178
62 99 177
62 99 175
63 99 171
61 98 173
62 99 177
61 98 177
61 98 172
62 99 178
62 99 175
63 100 179
62 99 174
62 99 180
63 100 178
63 99 178
62 99 178
61 98 177
62 99 180
62 99 180
62 99 178
63 100 180
62 99 178
62 99 180
62 99 180
63 99 178
62 99 178
61 99 180
61 99 178
62 99 179
62 99 179
62 99 179
62 99 179
62 99 177
62 99 179
62 99 177
62 99 180
62 99 180
61 99 180
61 99 180
61 99 179
62 99 180
62 99 181
62 99 180
61 99 180
61 99 181
62 99 180
62 99 181
62 99 181
62 99 180
62 99 179
62 99 181
62 99 179
62 99 178
63 100 181
62 99 178
62 99 181
61 99 181
62 99 180
62 99 180
61 98 178
62 99 181
62 99 180
63 100 180
62 99 180
62 99 181
62 99 180
63 100 181
62 99 179
62 99 179
62 99 179
61 99 181
62 99 179
62 99 180
61 99 179
61 99 179
62 99 179
62 99 179
61 98 179
62 99 181
62 99 181
62 99 180
62 99 179
62 99 180
62 99 178
62 99 177
62 99 181
62 99 181
62 99 178
62 99 180
61 98 178
62 99 180
62 99 180
62 99 178
62 99 178
62 99 180
62 99 178
62 99 179
62 99 180
62 99 180
62 99 179
63 100 179
61 98 175
62 99 176
62 99 178
62 99 177
62 98 179
62 99 174
62 99 178
62 99 177
62 99 181
61 98 176
62 99 177
62 99 178
62 98 175
62 98 176
61 98 177
61 97 171
61 98 177
62 99 178
62 99 177
61 97 172
62 99 175
61 97 172
62 99 174
61 98 174
62 99 175
62 99 174
62 98 172
61 98 173
60 96 170
61 96 169
62 98 173
62 98 174
62 98 172
60 96 167
65 96 157
80 100 147
92 100 112
104 108 89
118 119 83
108 107 70
101 103 67
117 115 73
113 113 77
110 108 70
97 99 68
110 110 73
113 113 75
103 105 72
110 109 73
111 111 77
106 107 74
111 112 77
96 98 70
112 114 82
116 117 81
113 114 78
114 115 81
112 114 79
115 116 80
115 116 82
117 118 81
123 124 88
120 122 85
125 125 88
128 129 90
123 125 89
132 132 89
139 139 95
136 136 93
132 133 90
135 134 92
135 135 93
140 140 95
150 147 98
138 138 95
146 144 91
138 138 91
142 141 93
145 143 98
152 150 99
152 149 96
149 147 100
151 149 98
149 147 98
151 149 100
155 152 99
158 154 100
159 156 99
162 157 102
161 158 102
167 163 105
163 159 102
160 157 100
166 162 103
162 160 101
169 164 104
170 164 103
160 158 104
166 162 104
168 164 106
170 165 98
169 165 105
173 169 106
169 164 104
173 168 104
169 165 105
171 166 106
164 161 101
170 166 104
170 166 103
168 164 103
174 169 107
172 167 107
168 164 102
174 169 107
169 164 98
173 168 103
173 168 104
174 168 105
171 167 103
173 167 104
175 170 106
170 164 97
173 168 102
176 170 105
170 166 99
171 167 103
173 168 103
174 168 103
173 167 101
170 164 101
170 165 102
171 165 97
173 167 101
175 169 101
171 165 101
173 166 100
175 169 100
169 165 100
171 165 102
170 165 104
170 164 100
175 169 106
172 167 99
171 165 99
171 166 101
166 161 92
172 165 101
168 162 98
164 159 94
163 158 94
164 159 93
162 156 93
163 156 89
168 163 95
166 161 97
167 160 95
155 151 85
165 159 94
169 161 95
161 155 90
158 152 88
160 154 89
146 140 80
157 151 80
158 152 84
159 152 85
155 149 86
161 154 89
152 145 84
160 154 82
150 145 75
148 141 76
150 143 81
147 141 76
157 150 86
145 138 67
145 140 71
143 137 70
133 130 64
142 140 62
150 152 61
149 152 58
157 162 57
155 164 47
154 165 44
162 179 32
165 182 32
168 186 32
165 185 22
170 190 19
174 198 0
173 197 0
173 197 0
175 198 0
170 194 0
172 195 0
174 198 0
174 197 0
171 195 0
174 197 0
173 196 0
173 197 0
172 196 0
174 197 0
169 193 0
171 195 0
173 196 0
173 196 0
172 195 0
173 196 0
173 196 0
175 198 0
171 195 0
174 198 0
172 196 0
175 198 0
174 197 0
175 197 0
174 197 0
172 196 0
173 196 0
173 195 0
173 196 0
173 197 0
173 196 0
171 195 0
176 199 0
172 195 0
173 196 0
172 194 0
173 195 0
174 197 0
172 195 0
170 194 0
172 195 0
172 195 0
171 193 0
175 198 0
173 197 0
174 197 0
173 196 0
173 196 0
172 196 0
171 195 0
173 196 0
173 196 0
172 196 0
174 197 0
170 195 0
171 194 0
172 196 0
169 193 0
171 194 0
172 196 0
173 197 0
173 196 0
174 197 0
172 196 0
173 196 0
172 195 0
172 196 0
173 196 0
172 195 0
170 194 0
173 196 0
170 193 0
169 192 0
169 192 0
174 197 0
171 195 0
171 195 0
171 195 0
173 195 0
174 197 0
172 196 0
172 195 0
171 195 0
171 194 0
172 196 0
171 195 0
173 196 0
172 193 0
170 193 0
175 198 0
171 194 0
173 196 0
172 195 0
170 193 0
174 196 0
173 197 0
167 191 31
151 175 90
113 140 143
73 107 163
62 98 168
62 98 172
62 98 169
62 98 171
63 99 175
63 99 176
62 99 175
62 99 177
62 99 179
62 99 180
62 99 176
61 98 175
62 99 180
62 99 175
62 99 173
62 99 179
62 99 178
62 99 175
63 100 179
62 99 176
62 99 180
62 99 177
62 99 180
61 99 178
62 99 180
62 99 177
62 99 181
62 99 179
62 99 176
62 99 176
62 99 177
62 99 178
62 99 178
61 99 180
62 99 180
62 99 180
62 99 179
62 99 179
62 99 179
62 99 179
62 99 181
62 99 179
62 99 178
61 98 180
62 99 180
61 99 181
62 99 180
62 99 180
62 99 180
62 99 178
62 99 180
62 99 181
62 99 180
62 99 180
62 99 180
62 99 181
61 98 175
61 98 178
62 99 181
62 99 179
62 99 181
62 99 180
62 99 180
62 99 179
62 99 180
62 99 179
62 99 180
62 99 180
62 99 179
61 99 180
62 99 178
62 99 178
61 99 181
62 99 179
62 99 179
62 99 180
62 99 179
62 99 177
62 99 179
63 99 178
62 99 180
62 99 181
62 99 180
61 99 179
62 99 180
62 99 181
62 99 178
62 99 178
62 99 181
62 99 177
62 99 179
62 99 179
62 99 178
62 99 176
62 99 180
61 99 180
62 99 181
62 99 180
62 98 173
62 99 179
62 99 181
61 98 176
62 99 180
62 99 179
62 99 179
62 99 179
62 99 179
62 99 179
61 98 174
62 98 173
62 99 178
62 99 177
62 99 178
62 99 176
62 99 177
62 99 173
62 98 173
62 99 178
61 98 174
62 98 175
61 98 176
61 98 174
61 98 173
62 99 176
61 98 174
62 99 174
62 99 179
62 98 176
62 97 171
62 99 175
61 97 171
62 99 172
62 98 175
62 98 174
63 99 175
62 98 173
61 96 168
60 96 171
61 96 165
60 96 167
67 96 157
91 105 123
102 111 124
111 115 103
107 107 81
111 112 70
114 112 71
115 113 77
112 112 73
111 110 72
108 109 76
94 96 67
101 102 72
101 103 73
108 108 71
113 115 81
114 115 80
106 108 79
104 107 77
107 109 78
110 112 77
112 113 78
120 121 84
108 110 80
122 122 83
119 121 84
125 126 88
129 130 87
119 119 82
131 131 90
140 139 94
119 121 86
135 135 91
135 134 91
141 139 94
136 136 94
147 145 98
145 143 96
147 145 96
150 148 98
146 143 96
137 137 90
148 146 98
141 140 92
138 137 90
148 146 96
139 139 92
141 140 94
143 142 97
156 153 101
157 154 100
158 154 99
155 152 97
158 155 102
168 162 104
164 160 104
159 157 99
160 158 102
163 159 97
162 159 101
164 160 100
163 160 100
164 160 101
157 154 99
170 165 105
165 161 99
163 160 100
166 162 102
169 165 105
172 167 107
171 166 104
171 166 106
172 167 103
172 167 102
172 167 106
167 163 101
175 170 109
175 169 106
174 169 106
174 168 105
172 166 103
174 170 108
177 171 104
175 169 102
175 169 105
177 170 104
168 164 98
170 164 102
174 169 104
171 166 104
174 167 102
175 169 104
178 172 106
175 168 105
173 167 100
172 166 100
174 169 104
172 166 100
173 167 104
174 168 101
169 164 100
168 163 94
170 164 98
171 166 101
175 169 104
174 168 98
168 163 97
173 168 101
167 162 95
168 162 97
173 166 101
165 160 93
161 155 88
166 160 96
170 163 98
171 164 99
162 156 87
172 166 97
166 159 95
164 159 94
167 161 95
161 155 87
164 158 89
156 151 86
164 157 88
167 161 90
161 155 93
161 155 86
160 154 84
162 156 90
165 159 87
159 154 87
153 147 81
162 154 88
154 148 84
157 151 81
152 146 80
156 151 80
152 146 84
145 140 74
151 145 75
147 141 69
135 130 60
142 137 67
139 135 67
135 134 59
150 151 64
152 155 54
160 168 59
155 165 44
157 171 42
158 171 36
164 180 32
166 186 25
164 184 16
173 192 25
173 197 0
173 197 0
174 197 0
173 197 0
175 198 0
173 196 0
173 196 0
173 197 0
173 197 0
172 196 0
173 196 0
172 196 0
172 195 0
175 198 0
174 198 0
173 196 0
173 196 0
172 196 0
175 198 0
173 196 0
173 197 0
172 196 0
173 197 0
171 193 0
174 197 0
174 198 0
172 195 0
171 194 0
172 196 0
172 196 0
172 195 0
172 196 0
173 196 0
172 196 0
173 196 0
172 196 0
174 197 0
174 197 0
169 193 0
173 196 0
173 196 0
174 197 0
174 197 0
171 196 0
172 195 0
172 196 0
170 194 0
173 196 0
173 197 0
172 196 0
171 195 0
172 196 0
174 196 0
170 194 0
173 197 0
171 195 0
173 196 0
173 197 0
174 197 0
173 196 0
175 198 0
171 195 0
172 196 0
172 196 0
173 196 0
173 197 0
169 194 0
170 194 0
172 195 0
173 197 0
172 195 0
172 195 0
173 197 0
176 199 0
172 195 0
173 196 0
171 194 0
173 196 0
170 193 0
171 194 0
174 197 0
171 196 0
173 195 0
173 197 0
172 195 0
169 192 0
171 195 0
174 197 0
172 195 0
173 195 0
173 197 0
170 194 0
170 193 0
170 194 0
172 195 0
169 192 0
171 196 0
171 194 0
173 196 0
173 196 25
158 181 67
134 159 110
90 120 157
62 99 167
62 99 171
62 99 172
63 100 176
62 99 173
62 99 176
62 99 175
63 99 174
62 98 171
62 99 176
63 100 177
63 100 179
62 99 177
62 99 177
62 99 179
62 99 180
63 100 177
63 100 179
62 99 179
62 99 177
62 99 180
62 99 175
62 99 175
62 99 179
62 99 178
62 99 177
61 98 177
63 100 181
63 99 179
62 99 179
62 99 181
62 99 179
62 99 181
62 99 180
63 99 177
63 99 177
62 99 180
63 99 179
62 99 180
62 99 180
62 99 180
62 99 180
61 98 178
61 98 179
62 99 180
62 99 181
62 99 180
62 99 178
62 99 180
62 99 180
62 99 178
62 99 179
62 99 179
62 99 180
62 99 179
62 99 181
62 99 179
62 99 180
62 99 180
62 99 181
62 99 180
62 99 181
63 99 180
62 99 181
61 99 180
62 99 179
61 99 180
62 99 180
62 99 181
62 99 179
61 98 180
62 99 180
62 99 180
62 99 179
62 99 180
62 99 180
62 99 180
62 99 181
61 99 179
61 98 179
62 99 180
61 98 180
62 99 178
62 99 181
62 99 181
62 99 180
62 99 181
61 99 179
62 99 180
61 99 178
62 99 178
62 99 180
62 99 179
60 98 178
62 99 181
62 99 180
62 99 179
61 99 181
62 99 180
62 99 180
62 99 179
62 99 179
61 98 177
62 99 175
61 98 174
62 99 175
63 99 178
62 99 177
62 99 178
62 99 180
62 99 176
62 99 176
61 98 174
62 99 179
62 99 178
62 99 176
62 98 173
62 99 177
62 99 176
61 98 176
62 99 177
62 99 176
62 99 176
61 98 172
62 99 176
61 97 174
62 98 174
61 97 168
62 98 175
63 99 175
62 99 177
62 99 174
61 97 173
61 97 166
61 97 164
62 97 167
61 97 168
60 95 167
59 95 167
62 97 172
61 96 165
62 97 165
70 99 161
72 95 146
86 96 104
79 86 82
108 108 68
102 100 66
111 110 70
98 99 63
112 111 70
107 108 71
112 112 77
99 101 72
103 104 73
113 113 76
103 105 75
84 88 64
106 107 74
115 116 82
112 113 79
111 113 79
114 116 81
106 109 80
104 108 76
117 118 84
120 121 85
114 117 82
122 123 86
119 120 83
132 131 87
136 135 94
129 129 88
128 127 86
138 137 92
137 136 93
137 135 90
125 126 86
139 137 92
135 135 90
145 145 95
129 130 84
138 138 92
144 143 96
148 146 95
139 138 92
139 138 95
150 148 100
148 147 98
155 153 99
152 150 100
152 150 96
154 153 99
148 146 96
155 153 99
159 157 100
157 154 97
161 157 100
160 156 100
170 165 106
160 156 98
168 164 104
164 159 100
170 165 105
167 163 105
166 162 103
166 162 104
173 168 106
170 164 101
172 167 106
170 165 104
170 166 105
171 166 104
170 166 104
169 164 101
168 163 99
173 168 105
171 167 101
171 166 102
175 169 104
174 168 105
177 171 106
175 170 106
173 168 103
173 168 102
175 169 102
175 169 103
177 171 105
174 168 101
171 166 99
173 168 103
173 168 103
175 170 107
174 169 101
174 168 101
172 167 101
176 170 103
171 165 101
169 164 99
168 163 97
172 166 102
171 165 101
171 165 102
176 169 97
171 165 99
169 163 97
169 164 99
165 159 93
169 163 99
175 169 103
171 166 99
172 166 99
169 164 101
170 163 97
169 163 99
166 159 96
166 160 97
167 162 97
161 155 87
163 157 90
161 155 92
166 160 90
168 162 95
160 154 86
162 155 90
170 163 93
165 159 93
161 155 87
158 152 81
162 156 86
162 156 89
162 155 87
152 147 80
158 153 80
155 148 79
149 143 81
150 145 80
150 144 80
156 150 85
147 141 75
144 138 70
150 144 79
145 139 75
143 137 75
139 133 70
149 145 75
146 144 61
153 156 67
147 152 59
148 157 48
158 164 56
154 168 32
159 172 41
161 177 37
163 179 30
169 187 25
170 190 25
175 198 0
175 198 0
173 196 0
173 196 0
174 198 0
174 198 0
174 196 0
172 196 0
172 195 0
170 192 0
173 197 0
171 195 0
174 198 0
174 197 0
170 194 0
173 196 0
174 198 0
173 196 0
173 197 0
174 197 0
174 197 0
173 196 0
173 197 0
172 196 0
173 197 0
172 196 0
172 196 0
173 196 0
172 195 0
172 195 0
170 194 0
172 195 0
169 191 0
172 195 0
174 197 0
174 197 0
169 193 0
172 195 0
171 194 0
172 195 0
174 197 0
171 194 0
172 196 0
170 194 0
173 196 0
173 196 0
173 197 0
172 196 0
174 197 0
174 197 0
173 196 0
172 196 0
172 196 0
171 194 0
171 195 0
172 195 0
174 197 0
173 196 0
174 198 0
170 193 0
173 197 0
171 194 0
172 195 0
172 195 0
173 196 0
173 196 0
171 194 0
174 197 0
174 197 0
173 197 0
172 195 0
173 196 0
172 194 0
171 194 0
173 196 0
174 197 0
168 191 0
169 193 0
171 194 0
171 195 0
174 196 0
172 195 0
172 195 0
173 197 0
174 197 0
170 193 0
171 194 0
172 196 0
171 195 0
171 194 0
172 194 0
168 191 0
172 195 0
172 195 0
171 195 0
172 195 0
174 197 0
171 194 0
169 192 0
160 184 62
139 163 103
92 122 157
62 98 166
62 98 169
62 98 170
62 99 170
62 99 174
62 99 172
62 99 173
62 99 175
61 99 176
61 98 170
62 99 176
62 99 176
62 99 177
63 100 178
62 99 178
62 98 172
62 99 180
62 99 177
62 99 177
62 99 179
62 99 175
62 99 177
62 99 180
62 99 180
62 99 177
62 99 177
62 99 175
62 99 180
62 99 179
62 99 180
62 99 179
62 99 177
62 99 177
61 99 178
63 100 181
63 100 180
61 99 178
62 99 179
61 98 178
62 99 179
62 99 179
62 99 181
62 99 179
62 99 180
62 99 180
61 99 179
62 99 180
62 99 180
62 99 180
62 99 181
62 99 180
62 99 181
62 99 181
62 99 179
62 99 179
62 99 180
62 99 180
62 99 180
62 99 179
62 99 180
62 99 181
62 99 181
62 99 181
62 99 179
61 98 179
62 99 179
62 99 180
61 99 181
62 99 181
62 99 179
62 99 181
61 98 177
62 99 180
61 99 180
62 99 178
62 99 181
63 100 180
61 99 179
62 99 181
61 98 178
62 99 180
61 98 178
62 99 181
62 99 178
62 99 179
62 99 178
62 99 180
63 99 180
61 99 180
61 99 180
63 100 180
62 99 178
62 99 175
62 99 179
62 99 180
62 99 180
62 99 180
61 98 176
62 99 179
62 99 179
61 99 179
62 99 178
61 99 177
62 99 176
62 99 179
62 99 179
62 99 179
61 98 175
62 99 179
63 100 181
62 99 176
62 99 180
61 98 175
63 100 180
62 99 176
62 99 179
61 98 177
61 98 174
62 99 179
62 99 177
62 98 172
62 99 175
62 99 175
62 99 176
62 98 172
61 98 172
62 99 178
62 99 175
62 98 175
61 98 174
62 98 172
61 97 170
62 98 172
61 97 169
62 98 172
62 98 172
62 98 174
61 98 175
61 97 168
61 97 168
61 97 168
60 96 168
60 95 160
61 94 161
66 96 154
96 108 127
94 101 102
100 103 78
95 96 66
87 90 60
98 99 69
97 98 64
101 102 68
107 107 69
91 93 61
99 100 69
104 106 74
94 96 69
100 102 74
103 105 75
104 107 77
109 111 79
101 103 75
98 101 72
118 120 83
108 110 77
108 111 82
116 117 81
112 113 78
124 124 85
113 116 81
119 121 84
128 129 89
125 126 87
141 139 93
131 131 90
136 136 94
132 132 90
135 135 93
138 137 92
139 138 93
140 140 96
139 139 92
145 144 97
151 147 96
136 136 93
149 147 95
142 141 92
146 144 91
160 155 98
144 143 94
148 147 97
155 152 99
155 153 101
153 151 101
157 154 101
156 154 99
157 154 98
154 151 95
161 159 100
161 157 100
168 163 104
165 162 104
166 162 102
168 163 105
168 163 103
170 165 109
164 160 99
169 164 105
165 161 101
170 166 104
172 167 104
166 162 100
171 166 100
173 167 106
168 164 103
173 168 102
173 168 106
175 170 105
173 168 105
167 163 98
172 167 102
171 166 98
168 164 100
176 169 99
173 167 95
172 168 101
177 171 106
169 164 100
174 168 105
173 168 102
173 167 97
172 167 106
168 163 99
177 171 107
169 163 98
172 166 99
176 171 104
174 169 103
174 168 100
171 165 97
174 168 101
169 164 100
172 166 101
170 165 100
171 165 101
166 162 97
174 167 103
168 162 97
170 164 94
166 161 98
170 163 99
168 163 99
168 163 99
163 157 93
172 165 100
170 163 95
164 159 93
168 162 95
171 164 98
169 163 94
168 161 92
163 157 92
168 162 99
166 160 91
161 155 87
169 162 94
165 159 95
160 154 88
158 152 87
159 153 87
156 151 80
160 154 87
159 153 85
152 146 77
154 147 77
151 145 76
163 156 83
147 141 69
149 143 75
151 144 77
154 149 75
145 140 69
152 146 75
146 140 71
147 142 68
146 141 69
145 144 60
148 149 59
137 142 47
147 150 58
149 159 41
156 166 47
166 181 36
159 174 30
165 181 25
166 187 22
169 190 11
174 198 0
174 197 0
175 198 0
171 195 0
172 196 0
175 198 0
174 196 0
172 195 0
173 196 0
175 198 0
173 197 0
172 196 0
174 198 0
173 197 0
175 198 0
174 197 0
169 193 0
173 197 0
173 197 0
173 196 0
174 196 0
174 197 0
172 196 0
172 195 0
174 197 0
170 193 0
173 195 0
171 195 0
172 195 0
174 197 0
171 195 0
172 195 0
171 195 0
172 196 0
172 195 0
175 197 0
170 194 0
174 198 0
173 197 0
173 196 0
172 196 0
172 196 0
172 195 0
172 195 0
175 198 0
172 196 0
171 194 0
172 196 0
174 197 0
172 195 0
166 191 0
173 196 0
171 195 0
171 194 0
173 195 0
171 194 0
172 195 0
174 196 0
171 195 0
172 196 0
174 197 0
171 195 0
174 197 0
167 191 0
173 196 0
172 196 0
170 193 0
173 197 0
171 195 0
173 197 0
172 196 0
171 194 0
172 196 0
172 195 0
173 196 0
171 194 0
170 193 0
169 192 0
172 196 0
170 194 0
172 196 0
173 196 0
174 198 0
174 198 0
174 197 0
174 197 0
169 193 0
171 195 0
172 195 0
173 196 0
171 194 0
168 192 0
170 194 0
171 195 0
170 193 0
172 196 0
169 193 0
171 194 0
167 191 36
146 170 100
115 142 128
64 100 164
62 99 168
63 99 172
63 100 175
63 100 175
63 99 170
62 99 172
63 99 178
63 100 180
62 99 171
62 99 180
62 99 175
62 99 170
62 99 175
61 98 172
62 99 179
62 99 174
62 99 176
62 99 178
61 98 173
62 99 177
62 99 179
63 100 179
62 99 177
62 99 181
62 99 178
62 99 176
62 99 179
62 99 176
62 99 178
62 99 181
62 99 179
61 99 177
62 99 179
62 99 180
62 99 177
62 99 177
62 99 180
62 99 180
62 99 178
62 99 179
62 99 181
62 99 180
62 99 178
62 99 178
62 99 179
62 99 178
61 99 180
62 99 181
62 99 180
62 99 179
62 99 180
61 99 180
62 99 180
62 99 181
62 99 178
63 100 181
62 99 179
62 99 180
62 99 180
62 99 179
62 99 181
61 99 177
62 99 181
62 99 181
61 99 179
62 99 178
62 99 181
61 99 181
61 98 177
62 99 179
62 99 180
61 98 179
62 99 180
62 99 179
61 99 180
62 99 177
62 99 179
62 99 180
61 99 181
62 99 181
61 98 175
62 99 181
61 99 178
62 99 181
62 99 179
62 99 177
61 98 175
62 99 179
62 99 180
62 99 178
62 99 178
63 99 179
62 99 179
61 99 178
61 98 179
62 99 176
62 99 180
62 99 176
62 99 178
62 99 181
62 99 179
62 99 177
61 99 180
63 100 181
61 98 177
62 99 178
61 97 171
62 99 179
63 99 178
62 99 178
62 99 177
62 99 177
61 99 177
62 99 176
62 99 178
62 99 177
62 99 179
61 98 176
62 99 176
62 98 176
63 100 179
62 99 176
62 99 176
61 98 176
62 99 175
62 99 178
62 98 175
62 99 175
60 96 170
62 99 175
62 98 172
61 97 168
62 99 175
61 97 169
62 98 172
62 98 173
61 97 171
61 98 170
62 97 168
61 97 168
60 96 166
60 95 163
60 94 163
60 93 155
67 99 164
78 98 138
83 95 107
96 102 102
92 96 71
103 104 68
102 102 70
113 113 76
103 103 71
108 109 74
104 106 73
102 103 70
106 107 75
103 104 72
112 114 80
105 106 75
105 107 77
110 111 79
104 105 75
101 103 70
103 105 75
105 108 78
102 104 73
108 109 78
98 102 74
119 120 85
121 122 86
123 123 85
120 120 85
130 130 90
137 136 94
133 133 91
140 139 91
142 139 93
138 137 93
135 134 89
139 137 91
135 135 91
139 139 94
140 138 91
144 143 95
149 147 97
146 144 94
144 143 94
149 147 96
146 145 97
147 146 92
151 149 97
161 157 102
152 151 100
151 149 98
157 154 101
164 160 102
163 159 100
160 157 98
158 155 95
159 156 98
159 156 100
166 161 99
164 160 103
168 163 102
170 165 105
161 158 98
165 161 103
167 163 97
166 161 102
166 161 100
169 165 102
173 167 105
175 170 107
171 166 104
168 164 101
174 168 104
172 167 99
175 170 105
175 169 102
175 169 105
171 165 96
173 167 104
173 167 101
175 170 105
177 171 104
174 168 103
170 164 99
174 168 102
174 168 103
173 167 99
175 168 99
174 169 103
173 168 100
173 166 101
171 166 100
175 169 101
171 165 99
169 165 95
174 168 99
173 167 101
173 167 103
172 166 101
165 160 90
173 166 99
174 168 103
166 161 95
165 160 96
166 161 92
171 165 98
167 161 95
175 169 104
169 162 95
167 160 93
172 165 96
168 162 95
171 165 96
168 163 96
174 167 95
164 158 90
163 157 91
165 160 92
164 158 90
167 160 95
163 158 93
169 163 93
152 146 81
153 147 87
155 150 79
158 152 85
160 155 84
160 153 86
159 153 84
155 148 80
156 149 80
144 138 75
159 152 82
147 140 71
156 149 81
160 152 83
152 145 81
151 144 75
145 139 68
154 147 78
156 149 77
144 139 72
145 143 64
144 142 61
151 156 49
145 147 59
152 162 42
160 168 57
160 170 53
158 172 34
163 179 28
166 186 22
167 186 22
172 194 16
175 198 0
172 196 0
172 196 0
171 195 0
171 195 0
171 195 0
173 197 0
174 197 0
172 196 0
172 197 0
175 197 0
172 196 0
174 197 0
172 195 0
174 197 0
172 195 0
174 197 0
174 197 0
171 195 0
171 194 0
172 196 0
172 195 0
171 194 0
171 195 0
176 198 0
172 195 0
171 194 0
171 195 0
174 197 0
172 195 0
174 197 0
171 195 0
172 196 0
171 195 0
173 196 0
172 195 0
173 196 0
173 196 0
171 195 0
171 195 0
168 192 0
175 198 0
173 197 0
173 197 0
171 195 0
174 198 0
172 195 0
172 196 0
172 196 0
174 197 0
171 195 0
171 194 0
174 197 0
173 197 0
171 194 0
173 196 0
171 193 0
172 195 0
172 196 0
170 193 0
170 193 0
171 194 0
173 196 0
166 190 0
171 195 0
172 195 0
173 197 0
169 192 0
174 197 0
172 195 0
170 194 0
170 194 0
172 196 0
173 196 0
172 195 0
173 196 0
173 196 0
173 196 0
171 195 0
170 193 0
172 196 0
165 189 0
170 193 0
173 196 0
175 197 0
171 194 0
169 193 0
169 192 0
172 195 0
169 191 0
174 198 0
173 196 0
173 196 0
170 194 0
170 193 0
175 198 0
169 193 0
167 191 31
158 182 72
121 148 122
86 116 155
62 99 171
63 99 177
62 99 173
63 99 174
62 99 174
62 99 175
61 98 168
62 98 173
62 99 171
62 99 174
62 99 173
62 99 175
61 98 173
62 99 174
62 99 180
63 100 180
61 98 176
62 98 173
63 100 177
62 99 177
62 99 177
62 99 180
62 99 177
62 99 178
62 99 179
62 99 175
62 99 179
62 99 180
62 99 180
61 98 176
62 99 178
62 99 176
62 99 180
61 99 179
63 100 181
62 99 180
62 99 178
62 99 181
62 99 180
62 99 179
61 99 180
62 99 179
62 99 179
62 99 178
62 99 179
62 99 180
61 99 180
62 99 181
62 99 181
62 99 181
62 99 179
62 99 180
62 99 180
62 99 180
62 99 176
62 99 179
63 99 179
62 99 177
62 99 180
62 99 181
62 99 181
62 99 179
62 99 181
62 99 179
61 99 179
62 99 179
62 99 180
62 99 180
62 99 179
62 99 179
61 99 179
62 99 180
61 99 181
62 99 181
62 99 179
62 99 179
62 99 179
62 99 178
62 99 178
62 99 180
62 99 181
62 99 177
62 99 179
62 99 181
62 99 179
63 100 180
62 99 178
62 99 178
62 99 179
62 99 178
62 99 177
63 99 175
61 98 177
63 100 180
62 99 179
62 99 181
62 99 179
62 99 180
62 99 179
61 99 178
63 99 178
61 98 176
62 99 179
62 99 179
62 99 180
62 99 178
62 99 176
62 99 177
62 99 176
62 99 175
62 99 179
62 99 177
61 98 176
62 99 177
62 99 179
61 98 178
62 99 175
62 99 175
62 99 174
62 99 175
61 98 174
61 98 171
63 100 176
61 98 174
62 99 176
62 98 172
62 99 171
62 99 176
62 98 174
62 99 173
62 98 174
62 99 174
62 99 175
61 97 173
62 99 174
61 98 173
61 96 163
61 97 168
62 98 171
60 96 168
61 97 170
61 97 170
61 96 166
61 96 166
60 95 164
59 94 163
68 98 154
87 102 126
85 95 106
97 103 96
108 107 74
105 106 68
99 99 68
104 104 72
102 103 69
89 92 65
103 104 72
101 102 71
105 106 73
101 102 70
107 109 74
107 108 76
112 113 78
106 108 76
107 110 79
107 109 77
109 111 79
105 107 77
107 109 76
114 115 81
125 126 86
122 124 83
109 111 78
120 121 83
119 121 86
128 128 88
131 131 90
135 135 91
140 139 94
128 129 87
136 135 86
134 134 89
132 132 89
134 134 90
142 141 91
145 144 92
143 141 91
138 137 89
142 141 93
148 147 96
151 150 98
143 142 92
145 143 92
153 150 96
152 150 98
160 156 98
164 160 101
156 154 96
159 155 98
162 159 101
160 156 103
160 157 98
163 159 101
159 156 99
163 159 99
162 158 98
166 161 102
162 159 101
166 162 101
168 164 98
169 164 103
170 164 100
171 167 103
164 160 99
171 166 104
171 166 101
176 170 108
173 167 99
170 165 101
175 169 101
174 168 102
174 168 105
175 168 104
172 167 101
170 166 98
175 169 103
168 164 99
173 168 100
173 168 100
174 168 100
175 169 103
174 169 103
175 169 104
175 169 105
177 170 106
176 170 102
171 166 95
177 172 108
174 168 103
174 167 101
173 167 100
176 169 103
172 167 101
173 166 94
177 171 108
175 168 100
175 169 100
169 165 99
167 162 97
168 162 95
169 163 99
168 162 96
166 161 94
171 165 97
171 164 96
165 158 87
173 167 98
161 156 88
170 163 95
169 163 93
166 160 93
164 159 93
164 158 91
162 156 90
168 161 94
165 158 90
168 162 93
159 153 85
161 154 85
166 160 89
159 153 84
162 156 83
164 158 87
152 148 81
152 146 82
163 156 85
148 142 74
158 151 87
147 141 74
156 149 83
151 146 73
137 132 70
147 141 77
146 140 75
148 143 73
143 136 72
130 125 61
148 142 70
142 139 65
144 142 65
158 163 59
149 152 54
153 162 49
151 160 45
157 170 37
161 178 30
168 185 32
166 184 22
167 189 11
170 194 0
172 196 0
174 197 0
171 194 0
173 196 0
172 196 0
171 194 0
174 197 0
173 196 0
172 196 0
173 196 0
173 197 0
172 195 0
172 196 0
174 198 0
171 195 0
172 196 0
174 197 0
173 196 0
172 195 0
173 197 0
175 197 0
174 197 0
177 199 0
170 194 0
171 194 0
174 197 0
171 194 0
173 196 0
171 195 0
172 196 0
174 197 0
173 197 0
171 195 0
173 197 0
172 196 0
171 195 0
173 196 0
171 195 0
170 193 0
170 193 0
172 195 0
169 193 0
171 194 0
172 196 0
172 196 0
169 192 0
173 197 0
173 196 0
170 193 0
172 195 0
173 196 0
173 197 0
173 195 0
171 195 0
174 198 0
174 197 0
171 194 0
170 193 0
171 194 0
173 196 0
169 194 0
172 195 0
172 195 0
173 196 0
172 195 0
172 195 0
173 196 0
174 196 0
173 197 0
171 194 0
168 192 0
172 196 0
168 191 0
173 196 0
173 195 0
172 196 0
174 197 0
171 195 0
169 193 0
172 196 0
171 194 0
174 197 0
169 192 0
170 194 0
170 192 0
168 192 0
170 192 0
169 192 0
171 195 0
170 193 0
171 195 0
174 197 0
171 195 0
169 192 0
172 196 0
172 195 0
162 185 40
139 164 102
107 134 147
64 99 160
61 97 163
62 99 173
61 98 167
62 99 175
63 99 171
62 99 176
62 99 175
62 98 166
63 100 174
62 99 178
62 99 177
62 99 173
63 99 177
63 100 177
64 100 176
62 99 176
63 99 179
62 99 175
61 98 175
62 99 177
62 99 176
61 98 175
62 99 178
62 99 176
62 99 178
62 99 177
62 99 177
62 99 179
61 98 177
62 99 180
62 99 180
62 99 180
62 99 179
63 100 179
62 99 179
62 99 180
61 98 178
61 98 177
62 99 180
62 99 178
63 100 180
63 99 180
62 99 177
62 99 177
63 99 178
62 99 179
62 99 178
61 99 178
62 99 180
63 100 180
62 99 181
62 99 179
62 99 180
62 99 179
62 99 176
62 99 180
62 99 179
62 99 180
61 98 178
62 99 178
62 99 181
62 99 179
62 99 178
62 99 180
62 99 178
62 99 180
62 99 180
62 99 181
61 98 177
62 99 181
62 99 179
62 99 177
62 99 180
62 99 178
62 99 181
62 99 179
62 99 179
62 99 178
62 99 179
62 99 178
62 99 178
62 99 181
61 98 178
62 99 179
62 99 181
61 98 176
63 100 180
62 99 180
62 99 177
61 99 179
61 99 179
62 99 180
62 99 177
62 99 179
62 99 174
61 98 179
62 99 179
62 99 177
63 100 178
62 99 180
62 99 179
62 99 178
63 100 180
62 99 176
61 98 175
63 100 178
63 99 176
62 99 179
62 99 179
62 99 176
62 99 177
62 99 175
62 99 178
62 99 178
63 100 180
62 99 174
62 98 175
61 98 173
62 99 179
62 99 174
62 99 174
62 99 176
61 98 174
61 98 173
62 99 178
62 99 174
61 97 170
62 99 174
62 99 175
62 98 176
62 97 165
61 97 166
61 97 170
61 98 172
63 99 176
61 97 170
63 98 166
61 98 173
62 98 169
62 99 173
60 96 165
61 97 166
61 96 172
59 94 163
62 97 164
61 95 163
60 92 152
65 92 147
79 97 129
83 92 96
85 88 70
105 106 73
93 94 66
88 91 64
92 93 63
87 90 63
99 101 72
85 89 65
83 88 65
89 92 67
103 105 75
104 107 75
108 111 79
105 107 75
105 107 75
105 107 77
95 100 72
116 117 81
113 115 81
108 110 77
115 117 84
126 125 86
113 115 82
112 114 78
120 122 84
127 126 83
125 127 86
126 127 87
132 133 89
126 127 85
132 131 85
128 130 87
131 130 86
140 139 93
131 131 90
140 139 91
145 143 94
143 142 93
154 151 99
152 150 95
148 145 92
157 154 98
151 149 97
156 153 96
154 151 95
149 147 95
153 151 97
161 157 99
154 151 97
156 153 92
162 158 100
163 159 101
163 159 101
165 161 103
162 159 96
164 160 104
167 162 103
161 159 95
165 161 99
166 162 99
168 163 102
170 166 105
166 162 101
168 163 101
171 166 103
169 165 103
172 167 101
172 166 98
171 166 104
167 162 98
172 166 101
169 165 99
176 170 102
173 168 102
172 167 101
174 168 105
172 167 101
174 169 103
173 168 103
171 166 98
172 168 104
174 168 101
174 168 100
169 164 94
175 169 106
174 168 100
175 168 100
172 167 101
171 165 97
172 167 99
175 170 104
174 168 101
173 166 102
172 166 99
173 167 103
169 163 93
170 164 99
170 163 92
174 167 99
168 162 92
171 165 95
166 160 94
167 161 95
171 164 98
171 164 92
171 165 96
168 162 93
165 158 93
165 159 92
166 161 93
163 158 90
164 158 89
163 156 87
171 165 95
168 162 97
165 158 85
160 155 87
168 161 89
167 160 93
162 156 85
161 154 87
155 149 80
161 154 80
152 147 80
152 145 81
153 147 83
164 157 89
159 152 86
157 151 82
153 146 82
146 140 73
148 142 75
151 145 78
149 142 75
146 141 70
130 125 62
155 149 75
138 136 56
146 144 64
145 144 63
153 157 56
149 155 53
147 158 37
152 163 41
159 172 39
154 170 32
165 184 19
169 189 16
164 185 11
173 196 0
172 196 0
173 196 0
172 196 0
172 196 0
173 196 0
174 197 0
170 194 0
174 197 0
174 196 0
173 196 0
171 195 0
176 199 0
172 195 0
174 196 0
173 196 0
173 197 0
170 193 0
174 196 0
172 195 0
172 195 0
174 197 0
174 197 0
172 195 0
171 195 0
174 198 0
173 196 0
172 196 0
172 196 0
174 197 0
174 197 0
173 197 0
172 196 0
173 197 0
173 195 0
173 197 0
171 194 0
171 195 0
172 196 0
171 193 0
172 195 0
173 197 0
171 194 0
173 195 0
172 196 0
172 195 0
174 197 0
173 196 0
172 195 0
170 194 0
171 195 0
172 195 0
173 196 0
171 195 0
172 195 0
173 196 0
173 196 0
173 196 0
171 195 0
175 198 0
169 194 0
172 195 0
174 197 0
174 197 0
171 196 0
174 196 0
172 195 0
174 197 0
173 196 0
172 197 0
172 195 0
172 196 0
173 197 0
170 194 0
171 195 0
171 194 0
173 196 0
173 196 0
171 193 0
170 194 0
173 197 0
170 193 0
170 194 0
172 196 0
171 194 0
173 196 0
173 196 0
171 194 0
169 193 0
171 194 0
173 196 0
173 196 0
170 193 0
169 193 0
173 195 0
168 191 0
169 193 31
149 173 90
119 145 128
71 105 163
61 98 163
62 98 167
62 99 174
62 99 172
63 99 170
62 99 171
62 99 176
62 98 171
63 99 175
62 99 173
62 99 172
61 98 173
62 99 175
62 99 174
63 100 176
61 98 172
62 99 177
62 99 175
62 99 177
62 99 176
62 99 175
62 99 178
62 99 177
62 99 179
62 99 179
62 99 177
63 100 179
62 99 178
62 99 180
62 99 177
62 99 176
62 99 180
62 99 180
62 99 176
61 99 177
62 99 179
62 99 180
62 99 179
62 99 177
61 98 179
61 99 179
62 99 181
62 99 179
62 99 178
62 99 179
63 100 181
63 100 180
63 100 180
62 99 180
62 99 179
63 100 179
62 99 177
61 99 180
62 99 180
63 100 179
62 99 180
62 99 180
62 99 181
62 99 179
62 99 179
62 99 180
62 99 181
62 99 181
63 100 181
63 100 180
62 99 179
61 99 180
62 99 178
62 99 180
62 99 181
62 99 178
62 99 180
63 99 179
62 99 178
61 98 179
62 99 180
62 99 180
61 98 176
62 99 180
62 99 179
61 98 176
62 99 180
62 99 178
62 99 179
63 100 180
62 99 179
61 98 176
62 99 177
61 99 178
62 99 179
62 99 178
62 99 179
62 99 177
62 99 175
62 99 180
62 99 177
62 99 181
61 98 172
62 99 175
62 99 179
62 99 181
62 99 177
63 100 180
62 99 178
62 99 177
62 99 178
62 99 179
61 98 176
61 98 180
62 99 175
62 99 176
62 98 174
62 99 175
63 100 178
62 99 177
62 99 176
63 99 179
63 99 176
62 99 178
62 99 179
62 99 174
62 99 179
63 100 178
62 99 177
62 98 176
62 99 175
62 99 175
62 99 175
62 99 178
62 99 176
61 98 172
62 99 173
62 99 177
62 98 175
62 99 175
62 97 169
62 98 169
61 97 165
62 98 170
62 98 170
62 98 172
62 99 174
61 98 169
61 96 163
61 96 169
61 96 164
60 95 163
61 96 166
58 92 156
65 91 142
83 97 116
78 87 90
103 105 82
79 81 55
102 103 73
90 92 63
89 91 65
94 96 65
85 89 66
89 92 64
90 93 67
93 96 67
103 105 73
102 104 76
106 107 75
110 113 82
105 108 76
107 109 76
113 115 79
106 108 75
111 114 82
119 120 80
114 115 79
116 118 83
123 125 87
120 121 83
119 121 84
121 122 81
126 126 83
125 126 86
130 131 89
130 131 88
134 133 91
129 129 90
140 139 92
137 137 88
143 141 94
143 141 89
150 147 93
144 142 94
150 147 97
155 151 96
155 153 98
147 145 91
149 148 97
161 157 98
156 153 97
150 147 93
164 159 100
151 149 90
158 155 94
160 156 99
153 151 94
162 159 101
159 156 99
160 156 98
164 160 103
170 165 96
168 163 101
166 163 100
166 162 96
166 162 100
167 162 100
167 163 100
170 165 103
166 162 100
171 166 103
168 164 101
169 164 99
171 167 98
170 165 99
174 168 102
171 166 98
173 167 100
174 169 104
175 168 99
172 167 101
172 167 100
175 169 100
172 167 101
171 167 100
172 166 99
177 171 104
174 169 103
175 169 101
170 165 96
172 167 101
173 168 103
175 169 104
172 167 99
171 165 95
176 170 104
169 163 93
173 167 98
175 168 101
171 164 95
170 164 94
166 160 91
170 164 99
173 166 99
170 163 97
168 163 95
176 170 101
170 164 97
168 162 91
175 168 103
166 159 91
167 161 90
167 161 93
165 159 87
166 161 93
166 159 91
173 166 96
167 160 92
159 152 83
165 159 90
165 159 92
160 154 84
169 162 89
161 155 89
153 148 84
149 144 71
158 151 84
165 158 86
159 152 83
152 146 80
151 145 80
152 146 76
155 148 80
155 149 80
146 143 70
156 150 78
156 149 80
144 138 74
146 140 74
140 134 69
146 138 75
142 138 69
151 147 67
144 142 59
144 144 58
148 149 54
147 154 52
146 153 39
150 161 41
166 180 41
160 177 28
167 184 30
172 191 22
169 190 16
175 197 0
172 194 0
173 197 0
173 197 0
174 198 0
171 195 0
171 195 0
172 196 0
173 196 0
173 196 0
171 195 0
173 196 0
170 195 0
172 195 0
171 195 0
173 196 0
171 195 0
170 195 0
175 198 0
171 194 0
171 194 0
174 197 0
173 196 0
171 195 0
173 196 0
171 194 0
174 197 0
172 195 0
172 196 0
172 196 0
174 197 0
170 194 0
172 196 0
169 193 0
174 197 0
173 196 0
173 197 0
171 195 0
174 197 0
172 196 0
174 196 0
172 196 0
173 197 0
171 194 0
172 195 0
175 197 0
170 193 0
170 194 0
171 194 0
172 195 0
174 197 0
172 196 0
173 196 0
170 193 0
171 195 0
170 192 0
172 195 0
170 193 0
172 196 0
171 195 0
173 196 0
173 195 0
171 194 0
168 192 0
175 196 0
172 195 0
173 196 0
172 195 0
173 196 0
168 192 0
175 198 0
169 192 0
173 196 0
170 192 0
170 193 0
171 195 0
173 196 0
172 196 0
172 195 0
171 194 0
172 195 0
170 194 0
169 193 0
168 192 0
171 195 0
169 193 0
172 196 0
172 195 0
171 194 0
175 197 0
172 196 0
170 194 0
171 194 0
174 197 0
171 195 0
169 192 25
158 182 72
131 156 117
78 111 160
63 99 168
62 99 175
62 99 172
63 100 175
62 99 174
62 99 171
62 98 168
62 99 174
61 98 170
62 99 172
62 99 170
62 98 175
63 99 177
62 99 174
62 99 179
62 99 178
63 99 174
63 100 178
63 99 179
62 99 179
62 99 175
63 99 177
62 99 180
62 99 177
62 99 175
62 99 176
62 99 180
62 99 178
62 99 175
62 99 181
61 98 177
62 99 175
63 100 180
62 99 178
62 99 179
63 100 180
62 99 177
62 98 178
62 99 178
62 99 178
62 99 179
62 99 180
62 99 181
62 99 178
62 99 177
62 99 179
62 99 179
62 99 180
63 100 180
62 99 177
62 99 180
62 99 178
62 99 178
62 99 179
62 99 179
62 99 180
62 99 180
62 99 180
62 99 180
62 99 178
62 99 180
61 98 178
62 99 179
62 99 181
61 98 177
62 99 177
61 98 176
62 99 181
62 99 180
62 99 179
62 99 180
62 99 180
62 99 179
62 99 179
62 99 179
63 100 180
62 99 179
62 99 181
62 99 177
61 98 177
62 99 180
62 99 179
62 99 181
62 99 177
61 99 180
62 99 180
61 99 180
62 99 180
62 99 180
62 99 179
62 99 180
63 100 180
62 99 179
62 99 181
62 99 180
61 98 174
62 99 176
62 99 180
62 99 177
62 99 177
63 99 179
62 99 177
63 100 176
62 99 176
61 98 176
62 99 178
62 99 178
62 99 177
62 99 178
62 99 176
62 99 179
63 99 179
62 99 173
62 99 178
62 99 176
61 98 174
61 98 176
62 99 172
62 98 174
62 99 179
62 99 178
62 99 177
61 98 174
62 99 172
62 99 175
62 99 180
62 98 168
61 97 173
62 99 172
63 99 174
62 98 172
61 98 172
62 98 172
62 98 171
61 98 175
61 98 174
61 98 173
62 98 168
61 98 170
61 97 168
62 98 173
62 98 170
61 97 168
62 98 173
62 98 167
61 96 168
61 97 168
61 96 166
60 94 161
60 95 162
64 94 152
78 98 133
75 87 101
93 96 83
97 99 70
110 109 73
88 90 64
95 97 67
88 91 66
89 90 62
95 97 66
91 93 66
89 93 69
96 99 71
106 107 75
95 98 69
76 82 62
107 110 76
108 110 77
101 105 76
108 110 77
119 119 82
119 120 82
108 111 81
108 109 76
113 115 80
120 121 84
117 118 79
124 124 82
126 127 84
118 119 79
124 125 84
127 127 87
128 128 85
139 139 95
138 137 91
138 138 88
139 138 90
136 136 90
139 138 91
143 142 93
142 142 91
146 144 90
148 146 95
152 149 97
155 152 93
150 147 92
156 153 98
159 154 98
157 153 97
154 152 98
157 153 93
162 158 102
159 156 96
161 157 92
160 156 95
160 157 98
168 165 101
166 161 95
168 163 100
166 162 99
167 163 101
162 157 90
172 167 101
165 160 102
169 164 101
162 158 96
170 164 96
175 169 102
175 168 106
169 164 102
171 166 101
170 165 102
171 166 98
169 164 98
173 168 101
174 168 98
174 168 104
174 168 102
172 167 101
171 166 98
175 168 101
174 168 100
172 166 102
172 167 96
175 169 103
176 169 103
176 169 101
176 170 103
177 170 102
170 163 95
173 167 97
170 164 95
170 163 97
172 166 95
165 161 94
173 167 97
173 167 99
170 164 91
171 165 99
171 164 92
174 166 97
166 160 93
169 163 93
169 163 95
166 159 93
164 157 89
166 160 92
169 163 94
163 158 89
169 162 95
167 160 92
170 162 90
158 153 86
157 152 78
162 156 83
166 159 93
159 154 89
165 159 89
160 153 89
162 155 87
168 161 87
153 148 78
158 152 84
158 152 80
157 150 80
156 149 85
163 156 84
155 147 80
154 149 79
157 150 82
151 145 74
156 149 78
152 146 77
140 135 66
151 144 74
138 133 61
144 140 62
144 139 63
141 138 61
138 137 59
139 143 53
143 150 45
149 153 56
157 169 42
158 171 36
161 175 36
158 175 32
168 185 34
169 190 16
173 195 22
173 196 0
173 197 0
171 194 0
172 195 0
173 196 0
173 196 0
172 195 0
172 196 0
171 195 0
173 196 0
171 195 0
173 197 0
172 196 0
170 194 0
172 195 0
170 193 0
174 197 0
175 197 0
172 195 0
171 195 0
173 196 0
173 196 0
172 196 0
175 198 0
172 196 0
174 197 0
174 197 0
173 196 0
173 197 0
172 195 0
173 197 0
170 194 0
175 197 0
173 196 0
171 195 0
170 193 0
174 196 0
172 196 0
172 195 0
172 194 0
172 196 0
173 197 0
172 196 0
172 196 0
171 194 0
173 197 0
171 194 0
170 194 0
172 196 0
171 194 0
174 198 0
171 194 0
170 193 0
173 196 0
172 196 0
171 195 0
171 195 0
172 196 0
171 194 0
172 195 0
172 196 0
171 194 0
174 197 0
172 195 0
171 195 0
173 196 0
171 196 0
173 196 0
171 195 0
170 194 0
174 196 0
173 196 0
174 197 0
171 194 0
171 194 0
169 194 0
171 194 0
170 194 0
171 194 0
171 194 0
172 196 0
169 192 0
168 190 0
169 193 0
170 193 0
171 194 0
169 192 0
169 191 0
168 191 0
170 194 0
171 194 0
171 194 0
172 195 0
171 195 0
174 197 0
166 190 47
152 176 86
96 125 147
64 100 169
61 98 168
62 99 165
62 99 172
62 98 169
63 99 171
62 99 175
62 99 178
62 98 174
63 99 175
62 99 173
62 99 177
62 99 172
62 98 174
62 99 179
62 99 178
62 99 176
62 99 177
61 98 174
62 99 175
62 99 175
62 99 177
63 100 179
62 99 175
63 99 177
62 99 177
62 99 176
62 99 175
62 99 177
62 99 179
62 99 180
62 99 178
63 99 177
62 99 180
62 99 179
63 99 179
62 99 181
62 99 180
62 99 179
62 99 174
63 99 178
62 99 181
61 98 178
62 99 179
61 99 179
62 99 179
62 99 176
62 99 179
62 99 180
62 99 178
62 99 180
62 99 179
63 100 180
62 99 177
62 99 178
62 99 179
62 99 180
62 99 179
62 99 179
62 99 177
62 99 179
61 98 177
62 99 178
62 99 179
62 99 176
62 99 178
60 98 181
62 99 179
62 99 178
62 99 181
62 99 180
62 99 178
62 99 181
62 99 179
62 99 178
62 99 177
62 99 180
62 99 181
62 99 181
62 99 180
61 98 177
61 98 179
62 99 178
62 99 177
62 99 179
62 99 180
62 99 180
62 99 178
62 99 181
62 99 175
62 99 176
61 98 175
62 99 178
62 99 175
62 99 176
62 99 178
62 99 179
62 99 178
62 99 180
62 98 174
62 99 179
62 99 176
63 100 178
61 98 173
62 99 177
61 98 173
62 99 178
62 99 178
62 99 174
62 99 178
62 99 176
62 99 177
62 99 179
63 99 176
62 99 179
62 99 176
61 98 173
62 99 174
62 99 175
61 98 176
63 99 175
61 98 174
61 98 178
62 99 176
62 99 175
62 98 174
62 99 173
62 99 175
62 99 173
63 100 177
63 100 177
61 98 170
62 98 167
62 99 175
62 98 170
62 98 171
62 98 171
62 98 172
61 97 170
62 99 171
62 97 167
61 97 169
62 98 173
62 98 176
61 97 168
62 97 168
62 98 172
61 96 163
61 96 169
61 96 163
60 94 160
60 95 162
64 92 148
76 93 121
81 89 86
84 87 69
95 95 60
83 86 61
82 85 60
81 84 59
91 94 68
85 89 64
94 97 69
89 93 66
76 80 59
97 100 71
94 98 70
93 97 72
93 97 71
100 104 77
101 103 73
101 104 72
108 110 78
112 113 76
104 106 73
121 122 83
121 122 83
119 120 82
112 115 80
124 125 85
126 127 85
134 133 87
132 130 81
129 128 85
134 134 92
138 137 89
132 133 85
144 141 91
143 141 89
138 138 84
143 141 91
152 149 91
149 147 96
153 149 93
148 146 95
144 143 94
151 149 95
150 149 97
156 153 97
159 155 96
161 157 99
155 152 95
161 157 102
158 154 98
158 155 98
164 160 100
161 157 99
158 155 96
168 163 95
156 153 96
161 157 97
162 158 97
165 160 93
166 162 103
167 162 101
165 161 99
167 163 97
172 167 98
169 164 101
172 166 98
173 167 97
175 168 99
167 162 96
174 168 101
171 167 100
174 168 97
177 171 103
167 163 96
171 167 100
171 166 98
173 167 101
167 163 97
172 166 97
172 166 100
174 168 103
174 168 98
170 165 100
177 170 105
177 170 101
175 168 99
176 169 97
172 167 99
173 167 101
173 166 94
169 163 93
168 164 97
171 165 97
171 164 95
171 165 95
169 163 95
172 165 94
167 161 97
168 163 89
166 160 93
166 160 92
170 163 92
170 164 93
167 161 97
165 159 92
169 164 93
169 162 93
166 161 90
164 158 91
158 151 85
169 162 90
166 160 88
165 159 89
163 156 87
162 155 86
170 162 94
161 155 80
161 156 86
163 156 84
156 150 83
159 153 83
159 153 86
151 145 76
157 150 75
159 153 82
157 151 83
153 148 78
154 148 76
154 148 82
152 146 74
154 147 82
147 141 75
144 139 71
143 136 71
140 135 65
145 139 71
152 148 67
139 139 59
146 148 63
141 146 56
157 165 52
159 168 47
157 168 37
158 174 30
161 175 36
168 189 19
168 189 22
169 191 11
174 196 0
173 197 0
174 197 0
173 196 0
172 195 0
172 195 0
173 197 0
172 195 0
173 196 0
171 195 0
172 196 0
173 197 0
174 196 0
174 197 0
171 195 0
171 195 0
174 197 0
172 194 0
171 194 0
173 196 0
174 197 0
169 193 0
173 197 0
174 197 0
175 198 0
172 194 0
174 197 0
171 194 0
172 195 0
173 196 0
172 195 0
171 194 0
170 194 0
172 195 0
172 195 0
173 196 0
174 197 0
174 197 0
173 196 0
172 196 0
171 194 0
172 196 0
173 197 0
174 197 0
169 193 0
171 195 0
172 196 0
174 197 0
174 197 0
169 193 0
169 194 0
174 196 0
170 194 0
174 197 0
170 193 0
172 195 0
172 196 0
170 194 0
172 195 0
172 195 0
169 193 0
172 195 0
170 193 0
172 195 0
172 196 0
172 196 0
173 196 0
171 194 0
171 195 0
171 195 0
175 198 0
172 196 0
169 192 0
169 192 0
171 194 0
173 197 0
172 195 0
168 190 0
170 193 0
170 194 0
167 191 0
174 197 0
172 196 0
171 194 0
171 195 0
169 192 0
172 196 0
169 192 0
171 193 0
171 193 0
170 194 0
172 195 0
171 194 0
169 192 0
169 193 18
152 177 76
124 150 122
77 110 160
62 99 167
62 99 172
62 99 170
62 99 169
62 99 174
62 99 175
62 99 172
62 99 174
62 98 169
62 99 171
62 99 171
62 99 174
62 99 178
62 99 171
63 99 178
61 98 174
61 98 172
62 99 177
63 100 179
62 99 176
62 99 176
62 99 175
62 99 179
62 99 177
62 99 177
62 99 176
62 99 177
62 99 175
62 99 177
62 99 177
62 99 180
62 99 177
62 99 179
62 99 178
62 99 178
62 99 180
63 100 181
62 99 180
62 99 179
61 98 176
62 99 176
62 99 178
62 99 181
62 99 180
62 99 179
62 99 180
63 100 179
62 99 180
61 98 177
62 99 177
62 99 180
61 99 178
62 99 180
63 100 179
62 99 178
62 99 180
62 99 178
63 99 178
62 99 181
62 99 178
63 99 176
62 99 177
62 99 177
62 99 179
62 99 178
62 99 179
62 99 178
62 99 180
62 99 180
62 99 180
62 99 181
62 99 180
62 99 180
62 99 179
62 99 180
61 98 172
62 99 178
62 99 178
63 100 180
62 99 179
62 99 179
63 99 178
62 99 181
62 99 178
62 99 179
62 99 179
62 99 178
62 99 179
62 99 178
62 99 180
62 99 176
62 99 177
61 98 175
62 99 180
62 99 176
62 99 178
62 99 180
63 100 180
62 99 176
62 99 177
61 98 175
62 99 178
62 99 176
62 98 174
61 98 177
62 98 174
62 99 179
62 99 176
62 99 177
62 99 180
62 99 174
62 99 177
62 99 177
62 99 177
62 99 179
62 99 177
62 99 174
62 99 178
61 98 171
61 99 177
62 99 176
63 99 176
62 98 170
63 99 178
62 99 175
63 99 177
63 99 175
62 99 175
63 100 176
62 99 178
62 99 174
62 98 166
62 98 172
62 98 173
62 98 173
61 98 172
62 99 170
62 98 172
61 97 167
62 99 175
62 98 169
62 99 174
61 96 163
61 98 170
61 97 166
62 98 169
61 97 171
61 96 167
61 97 167
62 98 172
59 94 159
60 94 159
62 95 158
73 96 139
76 87 100
81 87 80
76 79 59
74 77 54
70 73 53
85 88 62
80 83 60
86 89 65
87 89 61
94 96 67
85 89 62
95 97 68
95 98 71
85 88 65
106 108 76
90 93 67
101 104 74
94 99 68
109 112 77
111 114 80
120 120 80
119 119 81
113 115 79
123 123 83
111 113 80
129 127 84
127 128 87
125 125 83
134 134 90
133 132 85
133 132 88
134 133 83
142 140 90
138 137 90
134 134 91
143 142 91
136 136 90
140 139 90
137 136 86
143 141 91
144 141 92
151 148 89
144 142 93
159 154 97
148 146 92
153 150 93
154 151 95
165 161 98
152 149 95
159 155 94
158 154 95
160 157 100
159 155 96
159 156 94
163 159 97
162 158 99
167 161 101
168 163 101
168 162 97
166 162 99
167 163 103
166 161 98
166 161 95
173 167 100
167 162 97
171 165 95
168 164 100
168 163 98
175 169 103
171 166 100
172 166 104
170 165 100
171 166 97
173 167 99
173 167 101
171 165 92
177 170 101
173 168 101
174 168 100
169 164 97
174 168 99
173 168 102
177 170 101
173 167 97
175 169 99
170 165 97
176 169 99
175 168 100
171 165 93
178 170 101
170 164 89
168 162 90
172 165 97
171 164 95
175 168 101
171 165 96
178 170 100
172 166 97
171 165 96
165 159 95
164 158 87
168 161 91
170 163 93
165 160 88
169 163 90
172 164 95
165 160 87
163 158 91
169 162 95
168 161 94
166 161 93
164 159 91
168 162 93
164 157 84
163 157 88
166 159 89
164 157 87
159 152 83
164 156 84
150 145 76
162 155 86
159 152 85
159 154 85
155 149 77
162 157 86
154 148 75
158 151 76
148 141 77
149 144 74
155 149 78
138 133 66
147 140 67
150 143 75
149 143 69
148 142 69
142 137 64
147 143 69
145 144 53
145 149 56
143 146 49
157 165 56
152 163 42
153 164 34
159 174 22
168 186 30
159 176 22
169 188 28
169 189 11
172 196 0
172 196 0
173 196 0
172 195 0
174 197 0
173 195 0
173 196 0
172 195 0
172 195 0
171 194 0
172 196 0
171 195 0
171 195 0
172 196 0
173 196 0
172 195 0
172 195 0
173 197 0
171 194 0
173 196 0
173 196 0
174 197 0
172 195 0
172 196 0
172 195 0
171 194 0
172 195 0
174 197 0
172 196 0
173 196 0
171 194 0
172 196 0
173 197 0
174 197 0
171 194 0
173 195 0
169 193 0
170 194 0
174 197 0
173 197 0
169 193 0
173 196 0
172 194 0
173 196 0
172 195 0
169 192 0
173 196 0
169 193 0
175 198 0
172 195 0
172 196 0
171 194 0
172 196 0
172 195 0
173 195 0
170 194 0
169 193 0
172 196 0
172 196 0
171 195 0
172 196 0
173 197 0
170 193 0
174 197 0
168 192 0
174 197 0
171 195 0
172 195 0
169 192 0
171 195 0
171 194 0
172 196 0
173 197 0
169 193 0
168 192 0
166 190 0
172 195 0
170 193 0
171 194 0
174 197 0
174 197 0
172 196 0
169 192 0
171 195 0
173 197 0
171 195 0
171 194 0
170 193 0
171 195 0
172 195 0
170 193 0
169 193 0
172 196 0
170 193 0
165 189 51
143 168 94
83 114 151
62 98 161
63 99 173
62 99 171
62 99 171
62 98 172
62 99 170
63 99 168
62 98 172
62 99 178
61 98 174
62 98 170
62 98 171
62 99 173
63 100 180
62 99 178
62 99 173
62 99 173
63 99 175
62 99 178
63 100 178
62 99 172
63 100 178
62 99 175
62 99 176
63 99 173
62 99 180
63 99 175
61 98 175
63 99 175
61 98 177
63 99 176
62 98 173
62 98 174
62 99 173
62 99 175
62 99 177
62 99 178
62 99 179
62 99 180
63 99 179
62 99 176
62 99 178
62 99 181
63 100 179
63 100 181
62 99 179
62 99 180
62 98 174
61 99 177
62 99 179
62 99 177
62 99 181
62 99 180
62 99 178
62 99 178
62 99 180
62 99 177
63 99 177
62 99 181
62 99 180
62 99 180
63 100 181
62 99 178
62 99 177
63 100 178
63 100 179
62 99 180
62 99 177
62 99 179
62 99 180
62 99 179
63 100 179
62 99 178
61 98 176
62 99 177
62 99 178
63 100 180
62 99 178
63 100 179
62 99 180
62 99 177
62 99 177
62 99 180
63 99 179
62 99 179
62 99 178
62 99 178
62 99 177
61 98 177
62 99 176
62 99 180
63 99 174
62 99 177
62 99 177
62 99 179
62 99 179
62 99 177
62 99 177
62 99 181
62 99 181
63 100 181
62 99 178
62 99 177
62 99 176
62 99 174
62 99 175
62 99 177
62 99 178
62 99 180
63 100 180
63 100 179
62 99 177
62 99 174
62 98 174
62 99 178
62 98 175
62 99 174
61 98 173
62 99 172
61 98 174
62 99 177
62 99 177
62 98 171
62 99 176
62 99 176
63 100 179
62 99 173
62 99 177
62 98 171
62 98 174
62 98 173
63 99 176
62 98 173
61 98 170
61 97 165
61 98 172
62 98 173
61 97 169
62 98 168
62 98 170
62 99 170
61 97 166
61 97 167
63 99 173
62 98 172
61 97 168
62 99 170
62 98 167
61 97 165
61 97 168
61 97 168
60 96 166
60 95 164
60 95 160
68 95 145
68 89 126
81 90 96
89 93 75
79 81 55
79 81 58
71 73 52
76 79 59
80 85 64
81 85 62
85 89 63
89 91 67
92 95 70
90 94 68
93 97 69
106 108 76
107 109 76
105 106 73
108 110 77
96 99 71
101 104 75
109 111 78
107 109 78
115 117 81
119 120 80
121 122 83
129 129 87
118 120 81
119 120 82
129 129 85
129 129 82
130 132 87
130 130 87
126 125 83
142 141 91
142 141 88
140 138 89
143 143 92
141 139 88
145 143 92
145 143 93
152 149 92
148 145 94
158 154 97
153 150 96
147 145 93
155 152 94
153 151 94
158 155 94
158 155 98
157 152 93
158 154 97
155 152 93
157 154 93
156 152 93
161 156 96
165 160 97
163 159 98
161 158 97
162 158 98
165 160 97
163 159 96
164 160 94
166 162 98
168 163 99
171 165 101
167 163 96
172 166 100
165 161 94
169 164 95
172 167 101
169 165 98
170 165 98
172 166 97
174 168 101
172 166 101
173 166 96
173 167 101
172 166 99
172 166 97
168 163 93
171 165 97
174 168 96
174 168 98
171 165 99
174 168 99
173 166 101
171 165 95
173 168 102
172 166 101
171 165 93
172 165 96
167 161 93
171 166 96
174 168 97
169 163 94
171 164 96
171 165 97
169 163 95
173 167 95
168 162 93
164 158 86
171 164 90
169 163 97
167 161 92
167 160 87
167 161 94
165 159 90
164 156 90
160 155 86
165 158 90
169 162 93
166 160 88
163 156 89
163 157 82
164 158 87
165 159 89
160 154 88
156 149 81
158 152 82
159 153 83
152 146 79
156 150 77
157 151 80
149 144 78
153 147 70
152 146 77
156 149 80
159 152 84
150 145 67
154 147 79
143 137 67
143 138 70
146 141 74
146 140 69
137 131 66
143 137 60
140 138 57
150 149 61
146 146 61
144 149 48
155 161 52
149 161 34
150 164 30
162 176 32
162 178 30
170 189 22
165 186 19
170 191 16
173 197 0
172 196 0
174 198 0
174 197 0
174 197 0
174 197 0
174 198 0
174 197 0
173 196 0
173 196 0
169 194 0
174 197 0
173 196 0
172 195 0
173 196 0
173 197 0
173 196 0
175 198 0
175 198 0
175 197 0
173 196 0
169 192 0
172 195 0
174 198 0
172 196 0
172 196 0
172 196 0
172 196 0
174 197 0
171 194 0
172 195 0
172 196 0
174 197 0
173 196 0
171 195 0
173 196 0
174 197 0
175 198 0
167 191 0
173 196 0
172 196 0
170 193 0
171 195 0
170 193 0
172 196 0
169 192 0
170 193 0
171 194 0
173 196 0
170 194 0
175 198 0
172 196 0
173 196 0
171 194 0
172 196 0
173 196 0
169 192 0
170 194 0
173 196 0
172 195 0
171 194 0
172 195 0
172 195 0
175 198 0
173 197 0
172 195 0
173 196 0
173 196 0
167 191 0
172 196 0
172 195 0
171 194 0
171 195 0
170 194 0
171 194 0
172 195 0
170 192 0
170 194 0
172 195 0
173 196 0
173 196 0
171 194 0
172 195 0
172 196 0
165 189 0
171 195 0
172 195 0
169 192 0
172 196 0
170 194 0
172 196 0
172 195 0
172 194 0
170 194 0
147 170 86
124 149 122
63 99 166
61 97 157
62 98 168
62 98 167
62 99 169
62 99 174
62 99 171
62 99 172
61 98 170
62 99 176
62 99 176
61 98 172
63 99 176
63 100 177
62 98 174
62 99 175
63 99 174
62 99 174
62 99 176
63 99 177
62 99 173
62 99 176
62 99 180
62 98 173
62 99 178
61 98 173
62 99 178
62 99 176
62 99 180
63 99 174
63 100 181
62 99 180
62 99 173
62 99 177
62 99 178
62 99 177
62 99 177
62 99 178
63 100 179
62 99 180
62 99 177
62 99 176
63 99 177
62 99 178
62 99 175
62 99 180
62 99 178
62 99 179
62 99 180
62 99 179
61 99 177
62 99 177
62 99 178
61 98 179
62 99 180
62 99 177
61 98 175
62 99 180
63 100 180
62 99 178
62 99 179
62 99 181
62 99 177
62 99 179
62 99 179
62 99 176
62 99 178
62 99 179
62 99 178
62 99 180
62 99 179
62 99 177
63 100 179
61 99 179
62 99 177
62 99 180
62 99 177
62 99 180
62 99 180
62 99 179
62 99 180
62 99 180
62 99 180
62 99 172
62 99 177
61 98 175
62 99 175
62 99 180
62 99 181
62 99 181
61 98 175
61 99 179
62 99 176
62 99 179
62 99 178
62 99 178
62 99 177
63 100 179
62 99 177
61 98 178
62 99 179
62 99 177
62 99 178
62 99 178
61 98 176
62 98 173
62 99 178
62 99 177
62 99 178
62 99 180
61 99 178
62 99 173
62 99 175
62 99 173
62 99 173
62 99 176
62 99 176
62 99 176
62 99 179
62 99 176
62 99 175
62 99 172
62 99 176
62 99 175
61 98 174
62 99 176
62 99 178
62 99 178
62 99 175
61 98 170
62 99 177
62 98 171
61 98 169
63 99 174
62 99 177
62 99 176
61 97 170
63 99 179
61 98 165
62 98 170
62 99 176
61 97 172
62 98 169
61 97 167
62 98 169
61 97 163
62 98 171
61 97 164
62 98 170
61 96 162
60 95 162
61 96 160
61 97 168
61 96 164
60 95 160
60 91 149
65 89 135
73 91 121
66 73 67
76 78 55
78 82 54
74 77 55
73 77 57
65 70 51
83 87 64
84 87 63
93 97 68
88 92 64
100 102 72
97 100 71
102 104 72
89 93 66
89 94 69
90 92 65
99 102 74
98 100 69
112 114 77
98 102 71
111 114 79
121 122 85
112 114 74
117 119 84
123 124 83
127 128 86
129 128 84
135 134 86
136 135 88
127 126 85
128 128 85
127 126 82
146 144 93
131 131 86
144 142 93
141 140 89
140 138 92
144 142 90
149 146 92
154 151 96
150 147 88
148 146 92
152 149 95
150 147 90
150 147 91
161 157 95
151 148 91
158 153 92
155 152 93
157 153 92
155 151 92
158 155 93
158 155 94
158 155 93
157 154 90
162 157 89
162 158 91
164 159 96
164 160 97
166 162 99
168 163 97
168 163 92
168 163 96
172 166 103
171 166 97
167 163 97
171 165 99
171 165 103
171 165 97
169 164 98
172 166 100
168 163 95
169 163 94
172 166 99
177 170 104
173 167 99
173 167 100
170 165 96
171 165 97
173 168 100
169 164 93
175 168 98
174 168 101
175 170 101
170 165 97
174 168 95
170 163 91
170 164 97
171 166 96
171 165 96
168 163 95
174 167 97
168 162 90
169 163 94
168 162 89
173 165 94
173 166 99
173 167 99
163 158 85
167 161 89
165 160 90
171 165 90
164 157 87
166 161 85
163 156 85
171 164 95
168 161 92
164 159 85
171 164 90
160 154 83
167 160 88
166 160 93
158 153 80
157 152 82
158 152 77
154 147 74
164 156 86
161 155 85
162 156 85
160 153 81
154 148 77
156 150 76
155 149 80
157 150 79
153 147 80
153 146 75
144 138 70
154 148 75
156 150 73
149 143 72
140 134 66
145 138 69
147 141 65
148 142 71
151 146 72
133 134 49
145 146 56
151 156 52
154 162 44
156 167 37
154 166 36
153 165 34
157 173 32
164 183 28
170 191 16
172 193 16
172 196 0
172 196 0
171 194 0
172 195 0
175 198 0
175 197 0
174 198 0
172 195 0
173 197 0
173 197 0
171 196 0
174 197 0
173 196 0
173 196 0
172 194 0
172 195 0
175 198 0
173 196 0
175 198 0
173 197 0
172 195 0
174 196 0
173 195 0
174 197 0
175 198 0
171 194 0
172 196 0
171 195 0
173 197 0
174 197 0
172 195 0
172 196 0
170 193 0
174 198 0
173 197 0
170 193 0
171 194 0
172 194 0
171 194 0
171 194 0
171 195 0
172 195 0
171 194 0
172 196 0
171 194 0
174 197 0
174 197 0
171 195 0
173 195 0
169 193 0
175 197 0
175 198 0
172 196 0
173 197 0
173 196 0
173 196 0
173 196 0
170 193 0
172 195 0
172 195 0
172 195 0
173 196 0
171 194 0
171 195 0
170 193 0
173 196 0
172 196 0
170 194 0
173 196 0
173 195 0
171 194 0
172 195 0
171 195 0
170 193 0
172 196 0
170 193 0
172 195 0
168 191 0
172 196 0
171 194 0
170 193 0
171 195 0
170 194 0
171 194 0
172 195 0
170 193 0
170 194 0
173 196 0
171 195 0
172 195 0
173 196 0
169 192 0
170 193 0
166 188 47
136 162 102
92 122 153
63 99 166
62 99 168
61 98 165
62 99 170
62 99 172
62 99 171
62 99 173
62 99 167
62 98 173
62 99 174
62 98 169
62 99 175
62 98 168
63 100 177
62 99 176
62 99 175
62 98 170
62 99 173
63 99 177
63 99 175
62 99 177
62 98 171
62 99 175
62 98 171
62 99 178
63 99 175
63 100 179
62 99 174
63 99 175
62 99 174
62 99 174
63 100 173
62 99 176
61 98 176
62 99 179
62 99 177
63 99 178
63 99 178
61 98 176
62 99 178
62 99 180
63 100 179
62 99 179
62 99 180
62 99 180
62 99 178
62 99 178
62 99 178
62 99 180
62 99 179
62 99 178
62 99 179
62 99 178
62 99 177
62 99 179
62 99 176
62 99 179
62 99 178
62 99 181
62 99 180
62 99 177
62 99 178
62 99 179
62 99 180
62 99 178
62 99 178
62 99 180
62 99 180
62 99 177
62 99 175
62 99 175
62 99 176
62 99 178
62 99 177
61 98 177
62 99 179
62 99 178
62 99 176
62 99 177
62 99 179
61 98 174
62 99 178
62 99 179
62 99 180
62 99 178
62 99 177
62 99 179
62 99 179
62 99 177
63 99 176
62 99 179
62 99 176
62 99 179
62 99 177
62 99 179
62 99 178
62 99 178
62 99 178
62 99 175
62 99 177
62 99 177
62 99 180
62 99 177
62 99 176
62 99 173
62 99 176
61 98 175
62 99 178
62 99 176
62 99 178
62 99 177
62 99 181
62 99 179
62 99 173
62 99 173
62 99 176
61 98 178
62 99 178
62 99 177
62 98 174
62 99 174
61 98 171
62 98 172
63 100 179
62 99 176
62 99 172
62 98 170
61 98 170
62 99 172
61 98 169
62 99 174
62 99 178
62 98 172
62 99 170
62 99 173
62 98 174
63 99 171
62 99 174
62 98 171
62 98 171
62 98 172
62 97 170
61 98 169
61 96 166
61 98 166
62 98 169
60 96 169
62 98 168
61 97 167
60 95 166
61 97 167
62 98 170
60 95 163
59 93 151
61 95 162
60 94 161
66 95 149
70 90 126
65 77 89
72 79 77
75 79 54
75 77 53
73 78 54
65 72 54
81 85 59
81 84 59
84 87 63
84 88 65
80 84 60
85 89 65
94 97 70
92 96 67
89 93 64
95 100 73
97 102 73
108 109 72
113 114 78
107 109 79
105 107 72
107 111 77
111 113 78
127 127 85
110 113 80
124 124 83
122 123 82
129 128 84
136 134 88
136 135 85
136 135 90
132 132 85
135 134 85
140 139 89
139 137 87
137 135 84
139 137 86
144 141 86
143 141 85
137 136 84
145 143 92
156 153 93
141 140 89
150 146 96
154 151 95
155 151 92
149 146 91
149 146 91
152 150 91
155 152 93
151 149 93
155 152 90
167 162 98
160 156 93
157 154 94
168 162 96
174 168 104
161 157 89
166 161 98
167 162 95
161 157 90
170 164 101
166 161 96
170 164 100
168 163 95
168 164 94
170 165 100
175 168 99
174 166 96
165 160 89
171 166 100
173 167 100
170 164 99
171 166 98
170 165 96
174 168 100
170 164 95
171 165 94
167 162 95
175 168 101
169 163 94
174 167 94
167 162 89
171 165 95
169 163 92
172 166 96
167 161 89
174 167 94
170 164 94
169 162 94
171 165 96
170 164 95
167 161 95
168 163 91
170 164 94
171 164 95
172 164 96
168 161 87
170 164 93
166 160 87
172 165 95
165 159 90
169 163 91
171 164 93
172 164 96
168 162 91
166 160 87
165 158 87
160 154 79
166 160 90
165 158 86
156 151 82
167 161 86
163 156 88
162 156 80
159 152 87
165 158 85
156 151 80
154 148 77
161 154 80
156 150 79
152 147 71
149 143 70
160 153 77
153 148 73
150 143 73
150 143 75
149 143 71
141 135 64
153 147 75
142 136 75
137 132 66
143 138 65
145 141 62
136 135 62
148 148 59
150 154 48
145 150 52
150 157 45
153 163 34
156 169 32
162 177 25
164 182 22
163 184 16
169 191 0
167 187 0
172 195 0
172 195 0
175 198 0
172 195 0
173 196 0
172 195 0
172 196 0
174 196 0
171 195 0
173 196 0
170 193 0
174 197 0
171 194 0
173 196 0
172 196 0
173 197 0
168 192 0
170 194 0
172 196 0
172 195 0
173 196 0
172 196 0
172 195 0
170 194 0
174 198 0
174 197 0
172 195 0
171 196 0
170 193 0
172 196 0
174 197 0
173 196 0
174 197 0
171 195 0
171 194 0
171 195 0
173 196 0
174 197 0
172 196 0
170 193 0
171 195 0
172 194 0
172 196 0
173 196 0
172 195 0
174 197 0
173 196 0
173 196 0
171 194 0
171 194 0
169 193 0
169 191 0
171 195 0
172 195 0
172 195 0
170 193 0
172 196 0
173 196 0
171 195 0
172 196 0
173 196 0
171 194 0
175 197 0
172 195 0
169 193 0
169 192 0
171 194 0
173 196 0
172 195 0
169 193 0
173 195 0
170 194 0
171 194 0
168 191 0
169 192 0
170 193 0
174 197 0
170 193 0
171 195 0
172 196 0
172 195 0
171 194 0
170 193 0
171 194 0
172 196 0
171 194 0
169 192 0
168 192 0
171 195 0
171 194 0
173 197 0
168 191 0
164 185 31
148 172 86
121 147 121
66 101 165
62 99 173
62 98 168
62 98 163
63 99 175
62 98 169
62 99 169
62 99 172
62 98 167
62 99 171
63 100 175
62 98 167
62 99 172
62 98 170
62 99 173
62 99 175
62 99 172
61 98 175
61 98 169
62 99 172
62 98 172
63 99 175
62 99 175
63 99 176
62 98 175
62 99 178
62 99 176
62 99 176
61 98 173
62 99 176
62 99 177
63 99 177
61 99 179
61 98 173
61 98 176
62 99 178
62 99 179
62 99 176
62 99 176
63 100 181
62 99 179
62 99 177
63 100 179
62 99 176
62 99 176
61 98 177
62 99 176
62 99 179
62 99 178
62 99 175
63 99 178
62 99 175
61 98 179
62 99 178
62 99 179
62 99 180
62 99 178
61 98 179
62 99 177
62 98 176
61 99 176
62 99 179
62 99 181
62 99 179
62 99 180
61 98 177
61 99 178
62 99 178
62 99 180
62 99 178
62 99 176
62 99 178
61 99 178
62 99 179
62 99 178
62 99 175
62 99 179
62 99 178
63 100 178
62 99 179
61 98 174
62 99 176
62 99 179
62 99 180
62 99 177
62 99 177
62 99 176
62 99 177
61 98 176
62 99 178
63 100 178
61 98 177
61 98 174
62 99 177
61 98 171
62 99 175
62 99 180
62 99 178
62 99 179
61 98 174
62 99 176
62 99 176
62 99 176
61 98 170
62 99 176
62 99 179
63 100 179
62 99 179
63 100 180
62 99 174
62 99 179
62 99 173
62 99 174
62 99 177
61 98 172
62 99 176
62 99 177
62 99 176
63 100 177
62 99 177
62 98 174
62 99 177
62 98 174
62 99 172
62 99 174
62 99 174
62 98 173
62 99 170
62 98 170
63 99 174
63 99 173
62 98 170
62 98 171
62 99 173
62 99 176
61 97 164
63 99 177
61 98 170
62 99 172
62 98 167
61 97 169
62 98 170
61 97 161
62 98 170
63 99 173
61 96 165
63 99 174
62 98 171
61 97 165
61 97 168
61 97 170
61 96 163
59 94 159
59 95 160
60 94 158
61 96 162
59 93 155
62 95 160
68 94 141
64 84 115
73 80 81
84 88 69
69 73 54
86 88 59
82 84 60
81 85 62
80 84 62
74 79 57
74 80 60
71 76 56
88 93 68
96 99 71
92 96 70
99 102 74
84 89 67
96 100 72
86 89 62
90 94 68
101 103 67
110 111 73
105 107 71
111 113 77
119 119 76
107 110 73
126 126 83
124 124 80
122 123 80
124 125 84
129 129 84
127 127 80
131 131 83
128 128 85
140 138 89
132 132 88
143 142 92
133 131 81
141 139 87
146 144 90
157 153 99
151 148 87
143 141 86
142 140 84
150 146 88
151 148 90
147 144 88
158 154 94
158 155 95
153 151 91
158 154 91
158 154 95
156 153 94
157 153 90
163 159 96
162 158 95
166 161 97
160 156 93
160 156 95
167 162 97
171 164 99
165 161 95
169 163 96
169 164 98
167 162 100
168 163 93
171 166 99
166 161 96
169 164 99
170 165 96
169 164 93
171 166 98
172 165 96
169 163 91
174 167 94
167 163 97
171 165 94
170 163 93
172 166 93
174 168 97
169 163 93
171 165 97
170 164 91
175 168 95
174 168 98
174 168 98
164 158 85
173 166 99
173 167 96
174 167 95
173 166 94
170 163 86
173 167 97
169 162 93
168 162 91
170 163 93
166 159 87
168 162 93
170 163 91
168 162 88
165 159 88
165 158 90
168 162 90
171 164 89
172 164 93
161 155 92
168 161 90
165 159 88
167 160 89
168 161 85
162 156 87
165 158 85
167 160 87
165 158 89
163 156 87
155 149 74
159 153 89
158 153 77
154 149 75
157 151 81
146 141 75
159 153 80
156 149 78
158 151 78
150 144 75
153 147 78
156 150 79
146 141 70
151 144 72
147 140 69
155 148 79
159 153 77
148 143 61
148 141 73
145 141 63
147 145 59
149 149 54
145 146 54
150 153 52
145 152 42
162 174 39
162 175 36
156 168 41
163 182 0
165 183 11
166 187 16
171 193 0
172 196 0
171 195 0
170 194 0
174 197 0
171 195 0
171 195 0
172 195 0
171 195 0
173 196 0
174 198 0
173 196 0
172 195 0
171 194 0
173 196 0
175 198 0
172 195 0
173 197 0
173 197 0
172 195 0
171 195 0
175 197 0
174 197 0
171 195 0
172 196 0
171 195 0
171 194 0
171 195 0
171 195 0
172 194 0
172 195 0
175 197 0
171 194 0
173 196 0
172 196 0
173 196 0
169 192 0
172 195 0
172 195 0
174 196 0
173 197 0
172 196 0
171 195 0
172 196 0
169 192 0
175 197 0
171 194 0
172 196 0
171 194 0
170 194 0
171 194 0
170 193 0
171 193 0
172 196 0
166 190 0
174 197 0
170 194 0
170 194 0
173 197 0
170 192 0
168 192 0
174 197 0
171 194 0
170 194 0
170 193 0
172 195 0
172 194 0
169 193 0
171 194 0
170 194 0
173 197 0
171 194 0
172 195 0
168 190 0
171 195 0
171 195 0
172 195 0
173 196 0
175 198 0
173 196 0
170 193 0
171 195 0
171 194 0
167 190 0
169 193 0
171 194 0
171 194 0
172 195 0
168 192 0
173 197 0
170 193 0
173 196 0
170 194 18
160 184 57
130 155 117
74 107 162
61 98 164
62 98 165
62 98 166
62 98 165
62 98 168
62 98 172
62 98 169
62 98 167
62 98 167
62 99 171
62 98 172
62 99 175
61 99 177
62 98 170
61 98 172
62 99 169
62 99 173
62 99 172
63 99 175
62 99 171
62 99 176
63 99 176
61 98 172
63 99 174
61 98 178
62 99 177
61 98 172
62 99 175
62 99 176
63 100 177
62 99 177
62 99 179
62 99 174
62 99 178
63 99 178
63 99 177
63 100 180
62 98 177
62 99 179
62 99 178
63 99 178
62 99 175
61 98 175
62 99 179
61 99 180
62 99 179
62 99 176
62 99 178
62 99 179
62 99 177
61 99 177
62 99 180
62 99 171
62 99 180
62 99 181
63 100 181
62 99 179
62 99 177
62 99 180
62 99 174
62 99 176
62 99 179
62 99 177
62 99 176
62 99 179
62 99 177
62 99 180
62 99 176
62 99 179
62 99 179
62 99 177
62 99 177
62 99 179
61 99 179
61 98 175
62 99 177
62 99 178
62 99 178
62 99 178
62 99 178
62 99 176
62 99 179
62 99 179
62 99 176
63 99 176
62 99 177
62 99 181
62 99 177
62 99 177
62 99 179
61 98 175
62 99 181
62 99 178
61 98 174
62 99 175
62 99 175
62 99 178
62 99 177
62 99 179
62 99 178
62 99 176
62 99 175
61 98 176
62 99 176
62 99 177
63 99 178
62 99 175
62 99 172
62 99 176
62 99 175
62 99 176
62 99 178
62 99 178
62 99 178
62 99 175
62 99 175
62 99 180
62 99 175
63 100 178
62 99 173
62 99 178
63 100 178
62 99 173
62 99 175
62 98 172
62 98 172
62 99 172
61 98 173
62 99 176
61 98 171
62 98 169
63 99 175
63 99 173
63 99 173
62 98 173
61 98 166
62 98 170
62 99 174
63 99 174
61 98 170
63 100 175
62 98 171
62 98 168
62 99 171
61 97 168
62 98 171
61 97 164
62 98 165
61 97 167
61 97 165
61 97 168
61 97 165
61 96 163
62 97 168
61 96 165
60 96 166
62 97 165
60 95 163
58 90 152
76 94 126
76 86 89
74 81 76
65 70 51
64 68 49
69 74 51
79 83 58
62 69 53
77 82 56
72 75 50
72 78 59
88 91 66
78 85 64
84 88 59
95 99 69
94 97 65
99 103 73
103 106 73
107 110 74
108 109 73
110 112 72
113 116 80
105 107 71
115 117 71
119 121 78
120 120 78
118 119 77
130 130 82
123 124 79
132 131 85
126 127 82
130 130 85
132 132 82
117 119 79
131 131 85
137 135 87
144 141 91
136 134 81
140 139 88
144 142 87
138 137 84
150 147 90
155 151 94
151 149 92
151 148 92
150 147 87
159 154 91
157 153 90
157 154 94
162 158 93
162 158 93
156 153 89
151 148 88
154 151 92
163 158 95
165 160 96
166 160 96
162 158 95
165 161 95
161 157 90
167 161 99
164 160 95
171 166 100
167 161 94
166 161 92
169 164 98
172 165 95
174 167 98
168 162 93
168 163 93
172 165 96
171 165 95
171 164 96
173 167 97
169 163 92
175 168 94
173 168 101
167 161 94
176 168 101
174 167 96
174 167 100
172 165 95
171 165 93
175 168 95
171 165 93
171 166 90
168 162 93
168 163 86
168 162 93
169 163 90
166 160 87
171 164 88
170 163 93
165 159 90
172 166 91
168 162 94
175 167 92
171 164 97
166 160 92
161 155 87
171 164 94
161 155 85
164 158 90
172 164 95
162 156 83
169 162 94
163 156 87
165 159 89
162 156 83
158 153 84
166 160 90
165 159 86
163 156 82
160 154 81
166 159 84
163 156 87
155 149 75
162 155 79
149 143 73
152 146 78
157 151 80
156 150 76
153 147 70
154 148 81
156 150 80
147 141 69
153 148 75
155 148 76
143 139 65
147 142 71
134 129 60
138 133 63
138 132 62
146 142 60
137 138 48
153 154 62
144 147 51
149 156 51
154 165 37
160 172 42
162 177 37
162 179 16
165 182 30
165 182 28
171 194 0
170 191 0
174 197 0
175 197 0
173 197 0
170 194 0
173 196 0
171 195 0
175 198 0
172 196 0
173 197 0
174 196 0
175 197 0
174 197 0
172 196 0
175 198 0
173 196 0
173 196 0
170 194 0
171 195 0
169 193 0
172 196 0
172 195 0
171 195 0
171 195 0
173 196 0
172 196 0
174 197 0
169 192 0
173 196 0
174 197 0
171 195 0
171 194 0
171 195 0
170 193 0
170 194 0
171 194 0
170 194 0
171 195 0
171 195 0
172 195 0
175 198 0
173 196 0
169 192 0
173 196 0
172 196 0
171 194 0
172 195 0
169 193 0
171 195 0
172 195 0
170 193 0
169 193 0
173 197 0
170 193 0
171 195 0
172 195 0
174 197 0
172 195 0
172 195 0
172 194 0
172 196 0
172 196 0
172 196 0
170 193 0
170 194 0
170 193 0
172 195 0
169 193 0
172 195 0
168 191 0
168 192 0
172 195 0
171 194 0
170 194 0
170 194 0
171 194 0
175 197 0
169 192 0
170 194 0
168 191 0
172 196 0
169 192 0
171 194 0
168 191 0
170 194 0
168 192 0
168 191 0
173 195 0
172 196 0
171 194 0
172 195 0
168 192 0
165 188 51
146 170 94
112 139 131
69 103 162
62 98 165
63 99 172
62 98 166
62 98 162
63 99 169
61 98 166
62 99 174
63 99 171
63 99 175
62 99 172
62 98 174
63 99 170
62 99 175
63 99 176
62 99 172
62 99 174
62 99 174
61 98 175
62 99 174
62 99 171
62 99 175
61 98 170
62 99 177
63 100 178
61 98 172
63 100 178
62 99 174
62 99 177
62 99 174
63 99 176
62 99 176
62 98 167
64 100 179
62 99 176
62 99 178
62 99 178
63 99 179
63 99 179
62 99 177
62 99 176
62 99 174
62 99 175
62 99 176
62 99 177
62 99 179
63 99 179
62 99 180
62 99 180
62 99 177
62 99 176
62 99 177
62 99 176
62 99 180
62 99 179
62 99 177
62 99 177
62 99 175
62 99 180
62 99 177
62 99 179
62 99 179
63 100 179
62 99 179
63 100 181
62 99 177
62 99 179
62 99 177
62 99 176
62 99 175
62 99 181
62 99 177
62 99 175
62 99 177
62 99 179
62 99 181
62 99 176
62 99 178
63 99 178
62 99 177
62 99 178
62 99 175
62 99 178
62 99 177
61 98 177
62 99 177
62 98 175
62 99 177
62 99 177
63 99 177
62 99 177
62 99 176
63 100 179
62 99 173
61 98 173
62 99 179
62 99 175
62 99 179
62 99 176
63 99 178
62 99 173
62 99 177
62 99 180
62 99 175
62 99 175
63 99 176
62 99 174
62 98 176
61 99 178
62 99 173
62 99 175
61 98 174
62 99 176
61 98 170
63 99 178
61 98 175
62 99 176
62 99 175
63 99 173
62 98 173
62 99 176
62 99 175
62 99 176
63 99 177
63 99 177
62 98 170
63 99 176
62 99 176
61 98 172
62 99 174
62 99 176
62 98 170
62 99 173
61 98 169
63 100 174
63 99 174
62 99 176
61 98 171
61 97 164
62 98 167
61 98 168
62 98 171
61 98 172
61 97 163
62 98 165
62 98 170
61 97 163
61 97 166
63 99 169
62 98 170
60 96 156
62 98 173
61 96 164
61 96 165
60 96 161
61 96 165
60 95 154
60 94 152
61 96 159
58 91 152
57 86 140
72 87 114
65 75 75
62 67 55
64 69 52
76 79 55
75 79 56
77 81 61
81 85 62
69 74 52
87 89 61
85 89 60
92 96 66
74 81 59
87 91 63
99 100 67
100 103 68
106 107 71
121 122 83
104 106 68
95 99 64
96 101 68
116 117 77
118 119 80
116 116 76
119 120 76
126 126 82
125 125 81
122 124 82
132 132 85
115 117 78
137 136 84
138 138 86
136 134 78
126 127 80
142 140 84
138 137 83
140 138 88
143 141 88
144 142 91
154 150 92
146 145 89
150 147 92
151 148 91
148 145 89
152 148 86
151 148 88
152 150 90
158 154 90
154 150 90
155 151 91
158 153 88
160 156 90
162 158 94
157 153 93
156 152 87
163 158 91
166 161 96
169 163 91
172 166 101
169 164 93
165 160 89
172 165 99
167 162 92
162 157 94
169 163 97
170 164 96
171 165 92
170 164 92
169 163 91
176 169 102
168 163 88
169 163 94
173 167 96
170 164 96
173 167 97
173 166 92
173 166 91
171 164 99
174 168 99
170 164 94
170 164 91
168 163 93
171 165 91
170 164 93
172 165 97
173 166 95
168 162 87
167 161 88
174 167 95
170 163 89
171 164 93
170 164 94
169 163 91
172 166 96
168 162 90
170 163 89
169 163 92
170 163 93
170 163 93
167 160 90
168 162 85
166 159 87
164 158 84
169 162 90
166 159 86
162 155 88
164 158 81
167 160 92
158 152 79
166 159 86
163 156 81
164 157 84
162 156 81
157 150 82
157 150 75
159 153 80
148 142 72
159 153 81
152 145 79
152 146 74
157 151 73
151 146 69
153 147 73
160 154 76
154 148 77
142 137 65
146 140 68
146 141 68
149 142 73
148 141 68
147 141 65
134 127 64
139 135 58
144 144 52
150 149 58
153 158 56
153 161 44
155 164 47
146 155 32
160 173 36
163 180 25
161 179 19
168 186 19
171 192 11
169 189 16
170 194 0
173 196 0
171 195 0
173 196 0
173 196 0
169 193 0
172 195 0
174 197 0
172 195 0
171 194 0
170 194 0
172 195 0
171 195 0
173 196 0
173 197 0
173 197 0
172 195 0
169 193 0
174 197 0
169 192 0
171 194 0
173 196 0
171 195 0
171 195 0
171 195 0
173 196 0
171 195 0
172 195 0
175 197 0
172 196 0
172 195 0
174 198 0
170 193 0
173 195 0
174 197 0
173 196 0
172 196 0
173 197 0
172 196 0
172 195 0
172 195 0
171 195 0
173 196 0
172 195 0
172 195 0
173 196 0
172 195 0
171 195 0
171 194 0
171 194 0
172 195 0
173 196 0
169 192 0
171 194 0
171 194 0
173 196 0
170 193 0
173 196 0
172 195 0
171 194 0
172 196 0
174 197 0
169 192 0
174 198 0
171 195 0
170 193 0
172 196 0
171 194 0
171 195 0
173 196 0
170 194 0
173 196 0
166 190 0
170 193 0
170 194 0
173 196 0
169 193 0
172 195 0
173 196 0
171 194 0
172 196 0
170 193 0
173 195 0
172 195 0
172 194 0
170 194 0
169 193 0
169 192 0
171 194 0
170 192 0
172 195 0
156 180 70
122 148 113
85 116 152
63 99 163
61 97 162
62 99 167
63 99 172
62 99 170
63 99 172
61 97 163
62 99 175
62 99 169
62 98 167
62 98 167
61 98 169
62 99 174
63 99 175
62 99 176
62 99 173
62 99 171
63 99 173
63 100 177
61 98 169
62 99 173
63 99 175
62 99 173
62 99 177
62 99 175
63 99 175
63 99 178
62 99 177
62 99 177
62 99 176
62 99 174
62 99 177
61 98 175
63 99 179
62 99 176
62 99 178
62 99 175
62 99 174
61 98 175
62 99 179
61 99 179
62 99 180
62 99 178
61 98 171
62 99 177
62 99 178
63 100 179
62 99 175
62 99 179
62 99 178
61 98 176
63 100 180
63 100 179
62 99 177
62 99 177
62 99 178
62 99 175
62 99 176
62 99 180
62 99 178
62 99 179
62 99 177
62 99 174
62 99 179
62 99 178
61 98 177
61 98 173
62 99 178
62 99 179
62 99 179
62 99 177
62 99 178
62 99 180
62 99 179
62 99 176
61 98 176
61 98 173
62 99 179
62 99 176
62 99 177
62 99 176
61 98 174
62 99 178
62 99 175
62 99 174
62 99 178
62 99 176
62 99 176
61 98 178
62 99 176
62 99 177
62 99 177
62 99 176
62 99 176
62 99 178
63 100 179
62 99 177
62 99 179
62 99 176
62 99 173
62 98 175
62 99 175
62 99 181
62 99 175
62 99 178
61 98 173
62 99 177
63 100 178
62 99 178
62 99 176
62 99 175
61 98 175
62 99 176
61 97 172
62 99 175
62 99 178
61 98 173
63 99 175
62 99 176
62 99 177
62 98 172
62 99 173
62 98 173
62 98 173
61 98 173
62 99 174
63 99 177
63 99 175
62 98 170
62 99 172
62 99 177
61 98 171
62 99 175
62 98 172
62 99 173
62 99 170
63 100 177
62 99 172
62 98 172
62 99 173
62 98 170
62 97 165
62 98 168
62 98 174
62 99 174
62 98 171
62 98 168
62 98 168
62 98 169
62 98 170
61 96 163
62 99 171
61 97 167
62 98 172
60 95 161
61 97 168
62 98 170
60 96 164
60 96 162
59 94 158
61 92 148
61 82 115
54 70 85
66 71 68
67 72 51
66 72 54
69 73 53
51 58 44
77 81 55
72 76 53
82 86 59
77 82 61
81 86 61
84 88 62
85 90 62
96 99 69
91 95 67
103 105 69
107 108 73
95 99 68
108 110 74
118 120 76
104 105 69
108 109 73
105 106 67
124 123 80
108 109 69
118 119 78
125 125 78
122 122 73
132 132 81
126 125 80
129 129 83
130 130 79
138 136 81
138 137 84
136 135 81
139 137 83
149 146 89
151 148 90
144 141 89
142 140 81
154 150 88
155 151 89
150 147 86
148 145 90
153 149 85
152 148 91
155 150 90
160 155 94
160 156 92
165 161 95
161 157 95
154 151 89
162 157 93
161 156 91
162 158 92
169 163 99
168 162 94
163 158 92
161 157 93
163 158 89
169 165 96
167 163 94
169 164 94
162 158 94
167 161 89
166 161 93
167 162 93
171 165 94
167 161 87
171 164 100
168 162 91
172 165 93
173 166 96
171 164 95
170 163 91
172 166 94
169 163 95
170 163 94
174 167 96
171 165 94
171 164 92
170 163 90
170 163 93
174 167 95
165 159 80
167 162 89
172 165 94
173 166 97
167 161 88
167 161 93
170 164 93
170 163 92
168 162 92
169 163 93
164 158 87
170 164 89
168 162 93
166 161 87
164 159 85
172 165 93
162 155 87
167 161 89
169 162 85
165 159 84
162 155 83
167 161 81
165 158 83
156 151 81
162 156 80
164 158 80
161 155 84
158 151 81
158 152 79
160 154 83
156 150 82
161 154 84
160 154 82
149 145 73
152 146 74
157 151 76
150 144 77
158 152 79
153 147 73
152 146 74
145 140 69
153 148 74
148 143 73
143 137 65
144 138 65
135 129 60
142 138 60
148 146 66
140 139 60
148 148 54
146 149 52
140 145 42
157 167 45
160 171 41
161 173 44
163 181 30
166 183 32
166 187 16
167 187 11
171 195 0
172 195 0
173 196 0
171 195 0
169 193 0
173 196 0
170 194 0
173 196 0
171 195 0
170 194 0
173 196 0
172 196 0
171 195 0
170 195 0
171 195 0
172 196 0
174 197 0
173 196 0
172 196 0
173 196 0
172 194 0
171 194 0
172 195 0
172 195 0
174 197 0
171 195 0
172 195 0
173 195 0
173 197 0
173 197 0
170 193 0
174 196 0
172 195 0
174 197 0
172 196 0
171 195 0
172 195 0
171 195 0
171 193 0
173 196 0
172 195 0
170 194 0
172 195 0
172 196 0
172 195 0
172 195 0
174 196 0
171 195 0
171 194 0
175 197 0
171 194 0
172 195 0
174 196 0
168 191 0
172 195 0
169 192 0
172 196 0
170 194 0
173 196 0
174 197 0
173 197 0
169 192 0
168 191 0
169 193 0
172 195 0
170 193 0
171 194 0
174 196 0
172 194 0
170 194 0
170 194 0
170 193 0
171 194 0
170 193 0
172 196 0
169 193 0
171 194 0
169 193 0
172 196 0
174 197 0
172 194 0
172 196 0
170 194 0
169 192 0
170 192 0
171 195 0
169 192 0
170 193 0
170 193 0
172 194 0
169 192 0
163 186 31
150 174 80
117 145 129
68 102 158
62 98 165
62 99 169
62 99 165
61 98 170
62 99 168
62 98 173
61 98 164
62 99 173
63 99 173
62 98 171
62 99 173
62 99 175
61 98 174
62 98 171
62 98 167
63 99 175
62 99 175
61 98 175
63 99 177
62 99 175
62 98 171
63 99 172
62 99 176
62 98 173
62 99 174
61 98 173
63 99 176
63 99 179
62 98 173
62 99 173
62 98 173
62 99 177
62 99 180
62 99 178
62 99 176
62 98 175
62 99 174
62 99 174
63 100 180
62 99 179
62 99 175
62 98 172
62 99 179
62 98 175
62 99 177
62 99 178
62 99 180
62 99 175
62 99 178
63 100 178
62 99 178
62 99 180
62 99 175
63 99 176
62 99 179
62 99 178
62 99 179
62 98 175
61 98 176
62 99 178
62 99 181
62 99 178
62 99 179
63 99 176
63 100 180
62 99 179
63 100 179
62 99 178
63 99 179
62 99 177
62 98 171
62 99 180
62 99 176
62 99 176
63 100 177
62 99 180
62 99 177
62 99 178
62 99 179
62 99 175
62 99 177
62 99 176
61 99 179
61 99 177
62 99 177
62 98 173
62 99 172
61 98 173
62 99 176
62 99 177
62 99 176
62 99 176
62 99 179
61 98 176
62 99 176
62 99 177
63 100 180
62 99 173
62 99 177
63 99 175
62 99 180
62 99 175
62 99 173
62 99 178
62 99 177
62 99 174
62 99 179
62 99 177
62 99 173
62 99 174
62 99 177
62 99 175
62 99 174
62 99 174
63 99 178
62 99 178
63 99 174
62 99 174
63 99 175
63 99 171
63 99 177
61 98 172
62 99 177
61 98 171
62 99 174
63 99 176
62 99 176
63 100 178
62 99 176
62 99 173
62 99 172
63 99 176
62 99 172
62 99 175
61 98 169
62 98 174
62 98 169
62 98 171
62 99 172
62 98 173
61 98 170
62 98 171
61 98 165
62 98 169
62 98 165
62 98 168
62 99 169
62 98 170
62 98 168
62 98 171
61 97 170
62 98 165
61 97 166
61 97 159
61 97 166
61 96 166
60 95 162
62 97 165
60 94 159
59 92 152
59 94 159
52 80 131
64 81 108
61 70 70
63 69 56
60 63 44
66 71 50
81 84 60
85 88 63
73 78 54
77 82 56
76 81 57
72 78 57
91 94 61
80 85 57
96 99 68
91 94 64
93 97 67
97 99 66
87 90 57
105 107 73
97 100 65
109 111 74
122 122 81
104 106 74
111 113 74
129 127 78
123 123 81
129 129 79
135 134 86
124 124 79
131 130 80
128 128 80
133 133 81
136 135 85
134 133 82
149 146 89
141 139 86
143 140 83
151 148 87
144 141 84
147 144 86
146 144 89
148 146 82
155 151 89
152 147 90
146 144 87
159 154 92
154 151 90
158 154 89
158 154 93
159 155 94
162 157 94
160 156 92
161 157 96
163 158 97
162 157 92
170 164 92
162 157 90
161 157 88
163 159 91
171 165 93
163 158 88
170 164 94
169 162 93
172 166 92
168 163 91
169 164 94
175 168 101
166 160 86
170 165 94
167 162 94
171 164 94
173 167 99
173 167 95
169 163 96
171 165 97
170 164 87
174 167 97
171 166 92
171 164 97
173 165 95
173 167 93
169 164 95
171 164 90
173 166 95
168 162 86
172 165 94
171 165 90
166 160 89
170 163 90
172 165 93
168 162 87
166 160 84
163 158 89
165 159 84
173 165 92
169 162 93
162 157 84
166 159 87
169 162 87
160 155 80
164 158 87
166 159 90
166 159 86
160 154 77
165 158 85
163 156 84
153 148 70
158 153 80
164 158 84
162 156 76
164 158 84
159 153 80
160 154 81
161 155 74
156 150 75
156 151 75
151 145 75
156 149 80
156 150 76
154 147 81
153 147 80
153 146 77
151 145 76
152 145 77
158 151 79
142 137 69
147 141 69
146 140 68
141 134 68
138 133 61
144 140 66
145 141 62
145 143 62
142 148 41
148 152 52
154 161 49
157 164 34
165 178 44
156 172 22
163 180 32
162 180 25
165 185 19
171 192 11
170 193 0
174 197 0
172 196 0
172 196 0
170 194 0
171 194 0
173 196 0
172 196 0
172 196 0
172 196 0
172 196 0
173 197 0
171 195 0
173 196 0
175 197 0
174 197 0
173 196 0
172 195 0
173 197 0
171 195 0
174 198 0
174 197 0
171 195 0
172 195 0
172 196 0
174 196 0
173 197 0
172 196 0
172 196 0
172 196 0
171 195 0
172 195 0
171 195 0
169 193 0
173 197 0
174 197 0
172 195 0
172 196 0
166 190 0
166 190 0
171 194 0
172 196 0
172 195 0
172 196 0
172 196 0
172 195 0
172 195 0
169 192 0
172 196 0
172 195 0
173 197 0
173 195 0
172 194 0
171 194 0
169 192 0
172 196 0
172 195 0
172 196 0
170 193 0
171 193 0
169 191 0
172 195 0
168 192 0
170 193 0
171 195 0
170 193 0
170 192 0
173 195 0
171 194 0
171 194 0
173 195 0
168 191 0
171 195 0
168 192 0
171 194 0
168 191 0
171 195 0
172 195 0
170 193 0
171 194 0
170 194 0
164 187 0
172 195 0
168 191 0
170 192 0
170 193 0
171 194 0
170 194 0
171 195 0
172 195 0
170 194 0
162 184 40
136 161 102
89 119 148
61 98 166
63 99 170
62 99 169
62 99 172
62 99 168
62 98 170
61 98 160
63 99 169
62 99 170
62 98 165
62 98 167
63 99 174
62 99 171
62 99 174
63 99 174
63 99 173
62 99 175
62 99 173
63 99 175
62 98 168
62 99 171
62 99 173
62 99 176
61 98 172
61 98 176
62 99 175
62 99 173
62 99 175
62 99 174
62 99 172
62 99 176
63 99 177
61 98 174
62 98 171
62 99 178
62 98 173
62 99 178
62 99 178
63 100 177
62 99 176
62 99 177
62 99 176
62 99 176
63 100 179
62 99 178
62 99 176
62 99 176
62 99 180
62 98 175
62 99 179
63 100 179
62 99 181
62 99 176
62 99 177
62 99 179
62 98 176
63 100 178
62 99 175
63 100 179
62 99 175
63 99 176
61 98 176
63 100 177
62 99 174
62 99 176
63 100 180
62 99 178
62 99 176
62 99 177
62 99 177
62 99 177
62 99 176
62 99 177
62 99 180
62 99 177
62 99 177
63 99 176
62 99 175
63 99 176
62 99 178
62 99 173
62 99 176
62 99 177
63 99 176
62 99 180
62 99 175
62 99 177
62 99 176
62 99 177
61 99 179
62 99 178
63 99 174
62 99 179
62 99 176
62 99 179
62 99 175
62 98 175
62 99 177
63 99 178
62 99 178
63 100 180
62 99 174
62 99 178
62 99 175
62 99 176
62 98 173
62 98 175
62 99 178
62 99 174
62 99 175
62 99 176
61 98 175
62 99 177
63 100 179
62 99 175
62 99 174
63 100 176
62 99 176
62 99 172
61 98 172
62 98 171
62 99 176
62 98 174
62 99 175
62 99 176
62 99 175
62 99 173
63 99 171
63 99 177
62 99 176
62 99 170
62 99 175
61 98 170
62 99 173
63 99 176
62 99 175
62 98 169
62 99 176
62 99 175
62 98 172
62 99 170
62 99 172
61 97 170
62 98 172
62 99 170
62 98 169
62 98 173
62 98 165
61 97 170
61 97 170
62 98 168
61 97 169
60 96 162
62 98 167
60 95 158
60 95 160
61 95 161
60 95 161
61 97 164
61 95 160
60 94 159
61 96 163
58 88 143
60 80 105
60 72 87
62 70 68
68 72 45
67 71 50
73 77 55
56 63 49
67 71 51
67 75 58
85 87 59
71 76 54
77 83 58
88 91 61
92 96 66
79 85 60
100 102 70
96 99 65
100 102 66
92 96 66
98 100 67
108 110 70
118 119 77
104 107 75
113 112 69
117 118 76
138 135 86
118 119 79
128 127 75
127 128 77
123 123 80
136 135 82
127 127 80
135 133 86
128 128 78
145 143 89
138 136 85
136 135 85
141 139 83
154 150 92
148 146 88
148 144 88
141 139 83
149 146 85
147 145 85
145 143 82
157 154 90
152 148 88
155 150 85
153 149 88
154 151 86
163 158 88
160 155 89
157 153 87
160 157 95
163 158 93
164 159 92
166 161 93
160 156 89
156 153 84
165 161 88
164 159 89
166 160 91
164 159 89
166 161 95
171 165 95
169 164 91
167 161 89
164 159 89
167 162 92
166 161 89
168 162 95
170 164 89
170 164 95
171 165 90
168 162 85
169 164 95
169 163 93
175 168 96
172 166 96
172 165 95
173 167 94
170 164 91
167 161 85
174 168 95
168 162 80
170 164 90
166 160 88
169 162 89
168 162 90
169 162 91
168 161 91
172 165 93
169 162 87
166 159 88
170 164 84
165 159 84
170 163 87
167 161 87
164 157 80
169 163 93
165 159 87
159 152 86
168 161 92
164 158 84
166 159 90
163 156 83
164 157 82
164 158 83
160 154 87
162 155 83
158 152 77
156 150 77
161 154 80
157 152 76
160 154 84
156 150 79
158 152 78
161 154 79
150 144 73
148 142 71
155 148 66
152 145 70
147 140 66
143 139 60
147 141 67
140 134 64
152 145 72
147 141 62
152 145 71
145 140 68
140 137 62
133 130 51
138 136 53
147 151 52
149 153 56
147 156 48
146 157 41
156 167 30
159 175 22
165 183 19
162 181 19
171 191 16
169 189 16
172 195 0
174 197 0
172 196 0
173 196 0
172 195 0
171 195 0
170 194 0
174 197 0
172 196 0
173 197 0
174 197 0
173 196 0
172 196 0
170 193 0
172 195 0
173 196 0
172 195 0
171 195 0
174 197 0
171 195 0
172 196 0
174 196 0
169 193 0
171 194 0
170 194 0
170 193 0
172 195 0
169 194 0
174 197 0
170 194 0
171 195 0
172 196 0
171 194 0
174 197 0
172 196 0
173 197 0
172 195 0
172 194 0
175 197 0
173 196 0
169 193 0
173 196 0
169 193 0
173 197 0
172 196 0
171 196 0
171 195 0
168 192 0
171 194 0
174 197 0
173 196 0
173 196 0
172 196 0
171 195 0
172 195 0
172 196 0
170 194 0
168 191 0
170 193 0
174 197 0
174 196 0
173 196 0
171 195 0
171 194 0
169 193 0
172 196 0
170 193 0
171 195 0
169 193 0
173 196 0
170 193 0
169 192 0
173 195 0
171 194 0
168 192 0
171 194 0
172 195 0
172 196 0
169 192 0
169 192 0
167 190 0
172 195 0
170 194 0
167 191 0
171 195 0
173 197 0
169 192 0
169 193 0
172 195 0
172 195 0
173 196 18
158 182 70
113 140 131
72 106 160
62 98 161
63 99 167
63 99 167
61 97 162
62 98 169
62 99 168
61 98 167
63 99 174
61 98 173
62 99 172
62 98 167
62 99 174
62 99 172
62 98 167
63 99 172
63 99 174
63 99 173
62 99 173
62 98 171
62 99 173
62 98 171
62 99 176
63 99 175
62 99 179
62 98 171
63 100 180
62 99 173
63 99 175
62 99 175
62 99 174
62 99 173
62 99 174
62 99 174
62 99 176
62 99 178
64 100 179
63 100 175
62 99 176
62 99 175
62 99 174
62 99 177
63 100 178
61 98 175
62 99 176
61 98 177
62 99 176
62 99 179
62 99 177
63 100 180
62 99 178
61 98 174
62 99 176
62 99 174
63 100 181
62 99 177
63 99 176
62 99 178
62 99 179
62 99 174
62 99 176
63 99 176
62 99 178
61 98 177
62 99 179
62 99 176
62 99 176
62 98 172
63 99 176
62 99 180
62 99 178
61 98 177
62 99 177
62 99 179
62 99 178
62 99 177
62 99 178
62 99 176
62 99 174
63 100 176
62 99 177
63 99 175
62 99 178
62 99 173
62 99 178
62 99 177
61 98 178
63 100 178
62 99 179
62 99 179
63 99 175
62 99 178
62 99 175
63 99 176
62 99 177
61 98 175
62 99 178
61 98 176
62 99 174
62 99 178
62 99 174
62 99 178
61 98 173
62 99 177
62 99 175
62 99 175
62 99 179
62 99 173
63 100 178
63 99 177
62 98 174
62 99 174
62 99 175
62 99 175
62 99 177
62 99 175
62 99 172
62 99 173
62 99 176
61 98 174
62 99 175
62 99 176
63 99 174
63 99 178
62 99 176
62 99 173
61 98 174
62 99 173
61 98 170
62 99 173
62 99 171
62 99 171
62 98 172
61 98 172
62 99 175
62 99 174
62 99 174
62 98 175
60 97 164
61 98 172
63 99 173
62 99 171
62 98 170
63 99 170
61 98 169
62 99 170
61 97 166
62 99 170
62 98 166
61 97 168
62 98 169
61 97 165
62 98 170
61 97 165
61 97 166
61 97 164
62 97 164
60 95 158
62 98 169
60 95 164
61 97 168
59 93 154
61 95 153
59 92 154
60 87 138
61 78 107
66 74 75
66 71 46
66 71 49
70 73 49
75 77 54
70 76 51
64 70 50
67 71 43
71 77 54
78 83 59
85 90 60
86 89 61
86 91 64
90 94 62
102 105 68
93 96 65
115 115 76
106 108 67
103 106 68
100 103 68
126 126 79
107 109 74
119 119 78
126 126 82
122 123 77
122 122 76
128 128 78
126 127 78
125 125 76
128 127 74
137 136 84
132 130 80
142 140 81
134 133 78
137 135 84
136 134 79
138 138 89
130 130 75
145 142 85
151 147 86
150 146 88
149 146 87
153 149 86
158 154 93
151 147 85
158 154 93
156 152 92
157 152 88
156 153 88
160 156 93
159 154 94
158 154 86
161 157 89
170 164 94
167 162 97
156 152 86
161 157 88
171 165 96
164 159 89
163 158 88
161 157 89
168 162 90
169 163 95
167 161 89
173 167 100
165 159 85
168 162 90
169 164 92
171 165 95
169 164 91
172 165 90
163 158 91
162 157 81
168 163 87
173 166 90
168 162 90
172 165 94
168 162 87
165 159 91
174 166 94
175 168 98
167 161 85
171 165 91
169 163 88
167 160 85
165 160 86
173 166 92
164 159 86
169 162 93
167 160 90
165 157 86
165 159 87
167 160 93
160 154 80
169 163 90
165 159 89
159 154 82
162 156 80
165 158 84
164 157 84
161 155 78
163 157 80
168 161 87
164 157 84
165 159 80
162 155 79
155 149 79
157 151 81
161 154 78
161 154 82
158 151 81
158 152 77
148 143 66
143 137 71
145 140 66
160 154 79
158 152 75
159 152 76
154 148 71
145 139 68
145 139 59
147 140 67
146 140 68
153 146 69
142 136 68
138 133 59
129 123 54
133 128 61
143 140 56
143 140 58
138 141 52
144 150 47
149 154 48
152 162 44
154 164 39
161 172 39
165 181 32
161 179 19
162 180 19
169 189 11
172 193 11
169 191 0
172 195 0
172 196 0
171 195 0
174 197 0
174 197 0
172 196 0
173 195 0
174 197 0
172 196 0
170 194 0
171 194 0
171 194 0
173 197 0
170 193 0
171 195 0
172 196 0
172 196 0
172 196 0
171 195 0
171 195 0
172 195 0
169 193 0
170 193 0
171 195 0
171 195 0
172 195 0
172 195 0
169 194 0
168 192 0
172 195 0
172 195 0
174 197 0
172 196 0
171 195 0
173 196 0
169 192 0
170 193 0
171 195 0
172 195 0
169 193 0
171 195 0
168 192 0
171 195 0
169 193 0
170 193 0
174 197 0
168 192 0
171 195 0
172 196 0
171 194 0
173 196 0
173 196 0
173 196 0
172 195 0
171 193 0
170 193 0
171 194 0
174 197 0
173 196 0
174 197 0
172 195 0
173 196 0
171 195 0
171 194 0
172 195 0
170 194 0
170 194 0
170 194 0
172 195 0
168 191 0
171 194 0
170 193 0
168 191 0
167 191 0
170 194 0
171 193 0
170 193 0
171 194 0
171 194 0
168 191 0
171 194 0
172 195 0
170 193 0
169 193 0
169 192 0
166 188 0
172 195 0
169 192 0
166 189 0
170 193 25
150 174 82
87 117 149
61 97 154
63 99 170
61 97 164
62 98 167
62 98 167
62 99 172
62 98 164
62 98 163
62 98 166
62 99 173
61 97 161
62 98 166
62 99 173
61 98 167
63 99 174
63 99 173
62 99 171
62 99 171
62 99 172
62 99 175
62 99 174
63 99 173
62 99 177
63 99 173
62 99 171
62 99 179
63 99 175
62 99 173
62 99 173
62 99 175
62 99 175
61 98 171
62 99 177
63 100 176
62 99 176
62 99 174
62 99 176
62 99 175
62 99 177
61 99 179
62 99 174
62 99 177
62 99 178
61 98 173
62 99 175
62 99 175
62 99 179
62 99 175
62 99 179
62 99 180
62 99 178
62 99 175
63 99 177
62 99 178
62 99 177
62 99 177
62 99 178
62 99 179
61 98 176
63 100 179
62 99 175
62 99 176
62 99 177
62 99 175
62 99 178
63 100 176
63 99 178
62 99 174
62 98 175
62 99 180
62 99 174
63 99 177
62 99 175
62 99 177
62 99 178
62 99 177
63 100 177
61 98 174
62 99 177
62 99 175
62 99 173
62 99 177
62 99 178
62 99 176
62 98 174
62 99 179
62 99 175
62 99 176
62 99 176
62 99 174
62 99 174
63 99 174
62 99 171
63 99 174
63 99 175
61 98 174
63 100 181
62 99 176
62 99 173
62 99 177
62 99 174
62 99 179
62 99 173
62 99 179
62 99 172
61 98 176
62 99 174
61 98 172
62 99 178
62 99 177
63 99 172
63 99 176
62 99 175
62 99 176
62 99 175
63 99 174
61 98 175
63 99 175
62 99 171
62 99 172
62 98 169
62 98 171
62 98 174
62 99 176
62 99 176
63 99 176
62 99 173
62 99 175
62 99 171
61 97 165
62 98 170
61 98 169
62 98 170
62 99 173
61 97 168
62 98 172
62 99 173
63 99 171
62 99 171
61 98 165
61 97 166
62 98 170
62 99 168
62 98 173
62 98 167
62 99 172
61 98 170
61 97 166
62 97 165
61 97 168
62 99 172
61 98 167
62 98 168
62 97 167
61 97 164
62 98 166
59 94 153
61 96 162
62 98 169
62 97 167
60 95 163
60 94 160
60 94 157
58 91 145
58 85 126
56 77 111
57 70 76
55 63 54
60 66 45
72 76 51
72 77 52
66 72 53
57 64 45
73 78 55
87 90 59
76 81 57
65 72 54
87 90 62
82 86 59
89 93 57
92 95 63
105 107 68
106 108 71
103 104 64
99 103 68
111 111 67
90 94 60
119 120 71
122 122 77
110 112 73
133 133 79
137 135 84
121 121 75
130 128 78
131 130 78
138 137 84
131 130 78
138 137 83
133 132 81
125 125 79
140 138 85
145 143 83
137 135 84
145 141 83
146 143 84
155 150 92
143 141 85
147 144 85
144 141 79
156 152 91
146 143 88
143 141 80
156 152 91
154 151 79
157 152 89
163 158 90
153 150 89
161 156 89
162 157 95
159 154 85
162 158 89
161 156 93
162 157 88
164 158 88
170 164 96
167 162 94
166 160 90
164 159 82
166 160 91
167 162 89
170 165 92
166 161 93
172 166 96
169 163 92
170 163 88
166 160 89
174 167 96
170 164 93
171 165 90
168 162 90
171 163 92
169 163 90
168 162 92
172 165 88
174 167 93
170 165 93
172 165 90
175 168 97
170 163 91
169 163 87
169 162 86
171 164 87
172 166 88
167 161 84
166 160 84
170 163 90
165 159 78
169 163 93
169 162 88
166 159 86
170 163 84
162 157 80
166 160 88
160 154 82
161 155 88
167 161 79
163 156 78
164 156 87
163 156 83
164 158 84
163 157 82
153 148 72
153 148 74
164 157 82
159 153 80
156 151 70
157 150 72
152 146 74
156 149 81
155 148 75
155 150 76
144 138 66
156 150 76
147 141 72
155 148 75
152 146 77
146 139 72
151 145 71
143 137 69
142 136 60
141 136 66
138 133 61
143 137 70
144 139 62
150 145 68
146 147 59
145 147 51
143 147 47
151 157 44
143 152 36
162 175 36
156 171 34
166 181 32
162 180 22
163 180 19
167 186 22
171 192 11
173 194 0
172 196 0
174 197 0
174 197 0
173 195 0
172 195 0
168 192 0
171 195 0
170 194 0
171 196 0
172 196 0
170 194 0
172 195 0
171 194 0
171 194 0
172 195 0
172 195 0
172 195 0
172 196 0
174 197 0
173 197 0
172 196 0
173 196 0
172 196 0
172 195 0
173 197 0
172 196 0
171 195 0
172 195 0
173 195 0
172 197 0
170 193 0
173 196 0
172 195 0
169 192 0
173 197 0
173 196 0
171 194 0
175 198 0
170 193 0
169 193 0
170 194 0
172 195 0
171 195 0
169 192 0
172 195 0
170 193 0
172 196 0
169 193 0
171 194 0
172 195 0
171 195 0
173 197 0
171 195 0
171 194 0
171 195 0
170 194 0
173 197 0
167 191 0
171 194 0
170 194 0
166 190 0
170 193 0
174 197 0
168 192 0
169 193 0
168 191 0
173 196 0
170 192 0
166 190 0
169 193 0
169 193 0
169 192 0
170 193 0
173 195 0
173 197 0
170 194 0
168 191 0
171 195 0
172 195 0
170 193 0
169 192 0
167 190 0
170 193 0
171 194 0
171 193 0
168 191 0
170 193 0
170 193 0
170 193 0
158 183 62
128 154 110
79 111 157
62 98 164
62 99 166
61 97 159
62 98 164
62 98 160
61 98 162
62 99 170
62 98 170
62 99 174
62 99 169
63 99 170
62 99 172
62 99 174
62 98 165
62 99 173
62 99 172
62 99 173
62 99 174
62 99 172
62 99 176
62 99 173
63 99 174
62 99 173
63 99 175
63 99 174
63 100 177
62 99 175
62 99 176
62 99 174
62 99 173
61 98 169
62 99 173
62 98 171
62 99 174
61 98 174
61 98 169
63 100 177
62 99 176
62 99 176
63 99 173
62 99 173
62 99 175
62 99 172
62 99 179
62 99 173
63 99 177
62 99 172
62 99 175
62 99 179
62 99 175
63 99 177
62 99 177
61 98 174
62 99 176
62 99 176
62 99 173
62 99 177
62 99 178
62 99 177
63 100 180
61 98 173
62 99 176
62 99 175
62 99 178
62 99 175
62 99 178
63 100 177
62 99 175
62 99 178
62 99 171
61 98 175
63 99 178
61 98 175
62 99 176
62 99 180
62 99 174
62 99 176
62 99 177
62 99 176
63 99 176
63 99 176
62 99 178
62 99 178
62 99 178
62 99 176
63 100 181
62 99 178
62 99 175
62 99 176
61 98 174
62 99 175
62 99 179
62 99 174
62 99 170
62 99 177
62 99 176
62 99 177
62 99 179
63 99 179
62 99 174
62 99 175
62 99 172
62 99 175
62 99 174
62 99 175
63 100 177
62 98 171
62 99 175
62 99 174
62 99 178
61 98 174
62 99 176
62 99 173
61 98 174
63 99 171
61 98 171
62 99 178
62 99 176
62 99 172
62 99 173
61 98 172
62 99 173
62 99 175
63 99 175
62 98 172
62 99 176
62 99 174
63 99 176
62 99 175
62 98 167
62 99 174
62 99 172
63 99 175
62 98 166
61 98 168
62 99 172
62 99 171
62 98 169
62 99 172
61 97 167
63 99 170
62 98 166
62 98 165
62 98 166
62 98 165
62 99 170
62 98 171
62 99 173
62 99 172
63 99 173
62 98 169
62 98 166
61 97 164
60 95 157
61 97 161
61 97 160
62 98 171
61 97 166
62 98 170
61 96 159
60 95 159
61 95 154
60 94 155
61 95 153
58 90 145
55 80 122
54 70 94
51 61 58
45 53 38
59 63 43
64 69 47
57 62 43
76 80 54
60 65 47
69 74 53
82 87 55
85 88 57
80 84 57
87 89 59
86 89 60
91 94 66
95 97 60
106 108 71
97 101 66
107 108 68
103 105 66
116 118 76
113 114 71
114 114 72
118 119 77
122 121 70
114 115 72
121 122 75
125 125 79
123 122 78
135 134 80
139 137 81
138 136 85
122 122 72
125 125 80
141 138 87
140 138 80
143 141 79
147 144 83
139 137 81
142 139 82
139 137 79
154 150 84
156 152 86
150 147 83
149 146 83
156 152 90
154 150 88
150 146 77
153 149 82
156 152 84
154 150 84
157 153 87
161 156 89
165 160 93
168 162 90
158 154 86
164 159 89
167 161 86
163 158 87
166 160 90
167 162 95
168 161 91
167 162 85
169 162 89
166 160 87
164 158 84
160 156 82
168 162 90
170 164 90
167 161 91
174 167 92
171 164 95
168 162 84
173 166 91
171 165 89
169 163 88
167 162 84
169 163 86
167 161 82
171 164 90
169 162 84
167 160 88
168 162 90
171 164 89
164 158 84
169 163 91
173 166 95
164 159 84
165 159 84
164 158 84
166 160 83
162 156 83
166 159 84
173 165 87
159 153 85
169 163 89
169 162 85
159 153 78
167 160 89
164 157 80
163 157 80
164 158 81
167 160 84
166 159 90
156 150 78
155 149 71
168 161 84
153 146 77
153 149 75
157 151 78
157 151 79
150 145 67
149 143 71
156 150 79
152 146 72
156 149 77
155 149 80
148 142 67
146 140 67
145 140 65
151 145 68
144 138 64
153 147 64
154 147 69
131 127 57
145 140 65
133 129 53
141 137 62
141 138 58
133 133 53
145 148 41
131 134 37
144 154 37
156 165 45
157 168 39
159 175 32
159 176 28
166 185 25
164 182 19
168 188 25
168 190 0
173 195 0
170 193 0
175 198 0
173 196 0
171 195 0
171 195 0
172 196 0
173 197 0
174 198 0
171 194 0
172 196 0
173 197 0
173 196 0
169 192 0
172 195 0
171 195 0
171 195 0
170 193 0
171 194 0
174 197 0
173 196 0
172 196 0
173 196 0
171 195 0
171 195 0
167 190 0
172 195 0
173 196 0
172 195 0
174 196 0
175 198 0
171 194 0
173 197 0
170 194 0
172 195 0
171 195 0
172 196 0
169 193 0
174 197 0
172 195 0
174 197 0
167 191 0
171 195 0
171 194 0
167 191 0
170 194 0
173 196 0
170 194 0
173 197 0
170 195 0
170 194 0
172 195 0
169 193 0
170 193 0
172 194 0
171 194 0
170 194 0
171 194 0
169 193 0
174 196 0
170 194 0
171 194 0
170 194 0
172 196 0
172 197 0
170 193 0
172 195 0
174 197 0
171 195 0
171 194 0
173 196 0
171 194 0
172 196 0
167 190 0
172 196 0
171 193 0
170 193 0
169 194 0
171 194 0
170 194 0
169 192 0
171 194 0
171 195 0
171 194 0
169 192 0
168 191 0
170 193 0
169 192 0
172 195 0
170 193 18
139 164 94
124 149 121
64 99 160
62 99 165
62 99 166
62 98 165
62 98 162
62 99 169
62 98 162
62 99 170
62 99 169
62 99 170
62 99 172
62 98 170
63 99 170
63 100 174
62 98 167
63 99 175
61 98 171
62 99 169
62 98 166
62 98 171
62 98 168
62 99 175
62 99 170
62 99 173
62 98 171
62 98 170
62 99 173
62 99 176
62 98 168
62 99 177
62 99 172
62 98 172
62 99 177
63 100 176
62 99 172
62 99 172
62 99 173
61 98 174
61 98 175
62 99 175
62 99 178
63 100 181
62 99 175
62 99 174
62 99 179
62 99 176
62 98 169
62 99 176
63 100 177
62 98 172
62 99 174
62 99 172
62 99 173
61 98 172
62 99 175
62 99 175
62 99 175
62 99 178
62 99 172
62 98 170
62 99 176
62 99 176
62 99 178
63 99 179
62 99 174
62 99 180
62 99 180
63 100 179
62 99 177
62 99 175
62 99 174
63 99 176
61 98 173
62 99 175
62 99 176
62 99 174
62 99 175
62 99 176
62 99 176
64 100 179
62 99 177
62 99 180
61 98 174
63 100 180
62 98 172
62 99 180
61 98 175
62 99 172
63 99 178
62 99 176
62 99 178
62 99 178
62 99 176
62 99 176
62 99 174
61 98 174
62 98 174
62 99 177
62 99 176
62 99 175
62 99 180
61 98 172
62 99 173
63 100 179
62 99 175
62 99 178
62 99 176
62 99 176
63 99 176
62 99 175
62 99 177
62 99 172
62 99 177
61 97 169
62 99 175
63 99 172
61 98 173
62 99 173
61 98 172
62 99 174
62 99 174
62 99 174
62 99 176
62 99 175
63 100 179
62 99 175
62 99 176
62 99 170
62 98 170
62 99 173
62 98 173
61 98 172
62 99 177
62 99 175
62 99 170
61 97 164
62 99 174
62 99 171
62 99 171
62 99 171
63 99 176
62 99 170
62 99 175
62 98 170
63 99 169
61 97 166
62 98 168
61 97 166
61 97 164
61 98 170
62 98 163
62 98 171
60 95 166
61 97 165
62 98 168
61 96 164
61 96 161
61 97 162
60 95 155
62 98 161
61 96 159
59 94 155
61 97 164
60 94 154
59 94 157
59 93 154
54 83 132
56 78 111
53 68 81
56 64 58
58 62 45
68 72 47
60 65 47
75 78 53
67 73 53
83 86 60
78 82 57
73 78 51
73 77 51
95 97 60
89 92 58
80 84 56
96 99 63
102 104 64
92 94 59
100 104 70
105 108 66
101 104 62
103 104 64
106 108 65
106 108 68
117 117 71
106 108 65
111 112 68
123 122 75
125 124 75
129 129 75
134 133 81
127 127 80
129 129 77
143 140 82
135 133 76
144 141 83
134 133 79
148 145 79
153 149 86
140 137 82
139 137 78
148 144 81
150 147 85
149 146 84
160 156 85
159 155 87
153 149 86
162 156 89
151 147 82
158 154 85
156 152 89
158 153 86
164 158 86
156 151 89
163 158 88
160 155 83
169 163 88
166 160 94
162 158 89
166 160 92
168 162 93
170 163 93
163 157 86
166 160 94
169 162 90
164 158 83
168 162 83
169 163 93
169 164 91
169 163 87
172 165 91
165 159 85
163 157 88
165 159 82
167 161 92
165 159 85
170 163 91
172 165 93
169 162 84
168 162 89
163 157 83
165 160 82
170 164 91
171 164 88
168 161 82
166 160 85
166 160 84
165 159 79
167 161 84
168 160 83
171 164 92
164 158 87
165 159 86
169 162 90
170 163 87
166 159 85
163 157 81
160 154 80
163 156 83
159 151 80
160 154 80
165 159 81
163 157 82
165 158 80
161 155 79
155 148 73
159 152 80
159 153 75
149 143 72
156 149 73
152 147 68
156 151 70
157 151 73
156 148 73
155 149 71
152 146 71
157 150 75
151 144 76
146 140 69
153 146 72
141 136 64
155 148 75
153 146 71
140 133 73
143 138 64
148 142 71
136 130 60
133 130 54
157 153 72
146 147 54
139 143 44
151 157 48
146 154 42
149 158 39
161 172 47
159 172 22
157 176 11
164 183 16
166 184 22
171 191 0
171 193 0
172 194 0
170 193 0
173 196 0
172 195 0
170 193 0
170 194 0
175 198 0
173 197 0
174 197 0
172 195 0
170 193 0
173 196 0
173 196 0
174 197 0
172 196 0
170 193 0
173 196 0
169 192 0
172 195 0
170 193 0
173 196 0
172 194 0
172 195 0
170 193 0
171 194 0
172 195 0
171 194 0
171 195 0
169 194 0
172 196 0
174 197 0
170 194 0
169 192 0
171 194 0
172 195 0
172 195 0
174 198 0
172 195 0
170 194 0
170 193 0
174 196 0
171 194 0
172 195 0
171 194 0
173 196 0
168 190 0
171 193 0
173 196 0
170 193 0
170 194 0
173 196 0
171 194 0
174 197 0
168 191 0
169 193 0
172 195 0
172 196 0
172 196 0
172 195 0
172 195 0
171 194 0
174 197 0
171 194 0
169 193 0
168 191 0
172 196 0
167 190 0
171 194 0
170 193 0
171 193 0
172 195 0
167 190 0
166 190 0
171 194 0
170 193 0
171 195 0
173 196 0
171 195 0
172 195 0
169 192 0
170 193 0
169 192 0
172 196 0
168 192 0
169 193 0
169 193 0
167 190 0
168 191 0
172 195 0
166 190 47
148 172 86
91 120 142
61 97 156
62 98 163
63 99 168
61 97 165
62 98 159
62 98 161
62 98 167
62 98 170
61 97 162
62 99 166
62 98 169
63 99 169
62 99 168
63 99 172
62 99 171
63 99 170
61 98 170
61 97 167
62 98 168
62 99 176
62 98 169
61 98 171
62 99 176
63 100 179
61 98 172
61 98 168
62 98 173
62 99 172
62 99 175
61 98 173
62 99 173
62 99 174
63 99 174
62 99 172
62 99 177
62 99 176
62 99 177
62 99 176
62 99 173
62 99 178
62 99 177
62 99 175
63 99 176
62 98 173
62 99 175
62 98 173
62 99 177
62 99 178
62 99 177
62 99 176
62 99 180
62 99 170
62 99 174
63 100 180
62 99 177
62 99 174
62 99 175
62 99 175
62 99 174
63 99 174
62 99 176
62 99 179
62 99 177
62 99 178
62 99 177
63 100 179
62 99 178
63 99 176
62 99 177
62 99 176
62 99 177
62 99 175
62 99 178
61 98 175
62 99 179
61 98 174
62 99 177
62 99 175
62 99 175
62 99 175
62 99 177
62 99 172
62 99 171
62 99 175
62 99 177
62 99 177
61 98 173
63 100 178
62 99 176
62 99 179
62 99 175
63 100 179
62 99 174
62 99 176
62 99 176
62 99 178
62 99 175
62 99 174
62 99 176
63 99 175
62 99 180
63 99 178
62 99 175
62 99 175
62 99 175
62 99 175
62 99 178
63 99 175
62 98 174
63 100 178
62 99 178
62 99 171
62 99 177
63 99 172
61 98 167
62 98 173
62 99 173
62 99 171
62 98 167
62 99 177
62 99 176
62 99 172
62 98 174
62 99 172
61 98 169
62 99 172
62 98 169
63 100 177
62 99 176
62 99 174
62 98 169
62 98 169
62 99 175
61 97 166
62 98 170
62 98 168
62 99 172
62 99 172
61 98 164
62 99 168
62 99 168
62 98 166
63 99 168
61 98 168
62 98 166
62 98 171
62 98 167
62 98 166
62 99 175
62 98 168
62 98 164
61 97 157
61 97 165
62 98 164
62 99 169
62 97 166
61 97 164
60 96 154
61 96 164
60 95 158
60 95 159
60 95 157
60 94 150
61 96 160
60 94 158
59 92 148
60 91 148
54 78 116
55 68 74
52 61 62
40 47 36
58 64 45
62 67 43
59 65 43
61 67 42
72 76 53
68 74 53
75 80 56
76 83 61
77 82 56
80 85 52
79 85 59
91 95 62
94 96 54
88 91 56
112 112 66
104 106 66
99 103 65
105 106 64
112 114 70
108 109 68
123 123 74
114 115 69
126 125 74
119 119 75
105 107 64
129 128 76
129 129 80
121 122 77
127 126 69
135 134 75
145 141 83
146 143 86
142 141 82
148 145 85
142 140 86
143 141 84
150 148 80
146 143 80
147 145 81
149 146 81
155 151 80
153 149 89
150 147 85
151 148 81
157 152 87
154 151 85
153 150 81
155 151 88
160 155 88
162 157 89
164 159 90
162 157 85
166 161 93
160 156 83
164 158 85
159 155 85
166 161 87
161 156 87
162 157 79
164 158 84
169 162 89
170 164 90
168 161 85
166 161 86
163 158 85
172 165 94
166 160 86
167 161 91
167 161 84
171 165 91
172 166 97
166 160 81
168 162 87
167 161 87
166 159 84
168 162 89
171 165 89
171 164 90
169 162 88
170 163 87
171 163 88
168 161 87
167 161 90
168 161 86
163 158 80
168 161 84
165 159 88
166 159 90
160 154 75
162 156 84
167 160 86
165 158 80
166 160 80
166 159 84
165 159 84
156 151 76
165 157 84
163 158 77
165 159 84
166 159 83
162 155 79
157 152 76
158 152 81
165 158 85
155 149 76
161 154 73
163 155 80
154 147 70
155 149 74
159 152 79
147 141 66
151 145 68
153 146 75
156 149 74
149 144 66
149 144 70
145 139 66
146 140 68
147 142 63
140 134 63
144 137 62
141 134 63
136 131 56
139 133 61
146 146 58
135 137 51
153 156 57
153 158 49
149 158 36
155 165 37
157 171 37
160 176 25
164 180 25
163 182 11
167 189 0
167 187 16
171 194 0
170 193 0
175 198 0
171 195 0
170 194 0
173 196 0
172 196 0
171 195 0
173 197 0
171 195 0
170 194 0
174 197 0
171 195 0
172 196 0
172 196 0
171 194 0
171 195 0
168 192 0
171 194 0
173 197 0
172 195 0
174 197 0
172 195 0
172 196 0
172 196 0
171 195 0
171 194 0
170 193 0
172 196 0
174 197 0
171 195 0
172 195 0
171 194 0
172 196 0
172 195 0
173 196 0
173 196 0
171 195 0
173 196 0
172 195 0
172 194 0
171 194 0
168 192 0
171 194 0
172 196 0
170 193 0
168 191 0
172 195 0
168 191 0
171 194 0
172 195 0
170 193 0
172 195 0
169 192 0
167 190 0
171 195 0
169 193 0
174 197 0
170 193 0
166 190 0
171 194 0
169 191 0
168 192 0
172 196 0
171 195 0
169 193 0
169 192 0
171 194 0
171 194 0
171 194 0
171 194 0
172 195 0
168 190 0
171 194 0
172 195 0
171 195 0
167 191 0
168 192 0
170 193 0
167 190 0
171 194 0
171 194 0
171 194 0
170 193 0
172 196 0
169 192 0
171 194 0
173 196 0
169 192 0
172 195 0
151 175 72
125 151 120
71 104 159
61 97 154
62 98 166
62 98 158
62 98 163
62 98 163
63 99 171
61 97 161
62 98 169
62 99 171
62 99 173
62 99 174
62 99 170
63 99 175
61 98 165
62 98 168
62 98 167
62 99 174
62 98 166
62 98 171
63 99 173
62 98 172
63 99 174
62 99 174
62 98 171
62 98 171
62 99 166
62 99 174
62 99 173
63 99 170
62 99 174
61 98 177
62 99 175
63 99 173
62 99 178
63 100 177
62 99 173
62 99 176
62 99 174
62 98 174
62 99 173
62 99 170
62 98 173
63 100 179
62 98 176
62 99 177
62 99 176
62 99 175
61 98 176
62 98 172
61 98 177
62 99 174
62 99 177
61 98 171
61 98 170
62 99 178
63 100 178
63 100 176
62 99 176
62 99 172
62 99 175
62 99 175
62 99 175
62 99 178
63 100 177
62 99 178
62 99 176
62 99 175
62 99 178
62 99 175
62 99 173
62 99 176
62 99 177
63 99 178
62 99 176
62 99 176
62 99 173
62 99 174
62 99 173
62 99 175
62 99 176
62 99 175
62 99 177
62 99 177
62 99 175
62 99 176
62 99 180
62 99 176
62 99 178
62 99 177
62 98 175
63 99 178
62 99 177
62 99 174
62 99 174
62 99 176
63 99 177
62 99 175
62 99 175
62 99 175
62 99 176
62 98 172
62 99 175
62 99 177
61 98 176
62 99 174
62 98 169
62 99 171
62 98 173
62 99 176
61 98 169
62 99 180
63 99 177
62 99 174
62 99 174
62 99 176
62 99 175
63 99 174
63 100 177
63 99 175
62 99 172
62 99 175
62 99 172
62 98 170
62 99 172
62 98 175
62 98 167
62 99 172
63 99 172
62 98 169
61 98 169
62 98 170
62 99 172
62 99 171
63 100 178
62 98 167
62 99 171
63 99 173
62 99 172
63 100 176
63 99 174
62 99 167
62 99 173
62 98 171
61 98 164
62 99 173
62 98 167
61 98 165
62 99 168
62 99 172
61 97 166
61 97 163
62 98 169
61 97 165
62 97 162
61 96 163
61 97 166
61 96 158
61 96 158
61 97 166
62 97 161
61 95 158
61 96 164
61 96 156
61 96 158
61 97 160
58 92 150
60 91 144
54 82 123
58 78 109
43 57 71
58 63 48
48 57 38
63 69 48
52 57 38
63 70 49
61 66 44
77 81 53
78 83 53
75 79 51
74 79 58
89 93 61
94 96 63
93 94 62
100 103 68
90 94 60
91 95 59
100 101 60
113 114 66
111 112 68
105 107 68
126 125 74
125 124 71
127 127 79
116 116 71
119 118 69
119 120 72
127 125 77
127 126 75
130 130 73
124 124 76
140 138 78
143 141 84
147 143 83
136 134 74
137 136 72
151 146 81
153 148 85
152 148 89
146 144 79
149 145 83
150 146 79
151 147 86
155 150 88
153 148 79
148 145 76
154 150 86
153 149 83
160 155 87
154 150 84
158 153 90
160 155 88
161 157 95
161 156 85
167 161 95
166 160 88
163 157 86
162 157 82
164 158 86
168 162 93
170 164 94
162 157 84
171 164 91
164 158 80
162 156 83
165 159 84
166 161 83
162 156 82
165 159 86
170 164 90
168 162 90
167 160 85
163 157 83
166 160 84
172 164 89
169 163 84
171 164 89
164 159 82
171 164 94
172 166 85
160 153 79
167 160 90
169 163 87
168 161 83
164 158 83
169 162 85
167 160 87
170 164 93
167 160 82
168 161 89
167 160 87
167 161 84
164 158 83
159 154 77
163 156 83
153 148 73
164 157 86
165 159 80
164 157 85
157 151 75
166 160 82
160 154 80
162 155 80
160 154 78
159 153 78
159 152 69
159 153 79
157 151 70
154 149 76
151 145 72
154 148 75
155 149 69
157 151 69
151 145 74
159 153 73
149 143 67
155 148 67
152 146 71
138 132 54
147 142 67
144 138 67
142 136 60
143 138 60
139 133 60
141 136 63
148 145 65
150 147 66
143 145 53
143 149 47
151 160 44
152 160 47
162 172 44
155 169 25
160 175 22
166 183 19
162 182 16
167 188 11
171 193 11
171 192 0
168 191 0
171 195 0
173 196 0
173 197 0
173 196 0
171 195 0
173 196 0
175 198 0
172 196 0
172 195 0
173 197 0
171 195 0
170 194 0
174 197 0
173 196 0
173 195 0
172 196 0
170 193 0
172 195 0
173 197 0
171 194 0
169 193 0
169 193 0
173 196 0
172 196 0
174 197 0
172 196 0
169 193 0
170 193 0
170 193 0
173 196 0
170 193 0
169 193 0
172 195 0
172 195 0
173 197 0
170 194 0
172 194 0
170 194 0
173 195 0
169 192 0
171 195 0
169 193 0
171 195 0
167 190 0
171 194 0
172 196 0
171 195 0
172 196 0
171 194 0
173 195 0
169 192 0
169 193 0
169 192 0
168 192 0
170 195 0
169 193 0
169 193 0
170 193 0
171 195 0
169 193 0
172 195 0
169 192 0
172 195 0
173 195 0
172 194 0
172 194 0
166 190 0
169 192 0
170 193 0
167 191 0
165 190 0
171 194 0
170 194 0
172 195 0
170 193 0
172 194 0
168 192 0
166 188 0
171 195 0
172 195 0
172 195 0
168 193 0
169 192 0
168 192 0
171 194 0
171 194 0
170 194 0
169 192 25
141 166 94
96 124 143
63 99 161
62 99 164
63 99 168
62 99 167
62 98 161
63 99 166
61 98 171
62 99 165
62 98 170
62 98 169
62 98 167
62 99 170
62 98 171
62 98 169
62 99 171
62 98 170
62 98 169
62 99 172
62 99 174
63 99 172
62 99 172
62 98 169
62 98 167
62 99 176
61 98 171
62 98 169
62 98 169
63 99 179
62 98 168
63 99 175
61 98 169
62 99 176
62 99 175
62 99 174
62 99 171
63 99 173
63 99 175
62 99 173
61 98 172
62 99 178
61 98 171
62 99 175
63 100 177
63 100 175
62 99 175
63 99 177
62 99 176
62 99 176
61 98 173
63 100 179
62 99 175
62 99 176
62 99 177
62 99 175
61 98 177
63 99 177
62 98 173
62 98 172
61 98 173
61 98 174
63 100 180
62 99 175
61 98 176
62 99 178
62 99 176
62 99 178
62 99 174
62 99 178
62 98 172
61 98 173
63 100 178
62 99 172
62 99 177
62 99 173
62 98 173
62 99 178
62 99 180
62 99 179
62 99 180
62 99 175
62 98 172
62 99 175
63 99 173
62 99 179
62 99 175
62 98 173
63 99 176
61 98 170
62 99 172
62 99 175
63 100 178
61 98 173
62 98 167
62 99 174
62 99 173
62 99 176
62 98 170
62 99 175
62 99 172
62 98 166
61 98 173
63 99 175
62 98 171
62 99 173
61 98 167
62 98 170
62 99 177
62 99 173
63 100 176
62 99 171
63 99 171
62 99 170
62 99 174
62 99 174
62 98 173
62 99 175
63 100 178
62 99 176
63 99 176
63 99 174
62 99 175
62 98 169
62 99 174
62 99 174
62 99 175
62 98 172
63 99 173
62 98 165
62 99 177
63 99 168
62 98 165
62 98 169
62 99 171
63 99 171
62 98 168
62 98 165
62 98 172
62 99 171
62 98 170
62 98 171
62 98 167
62 99 172
62 99 172
63 99 174
62 98 167
63 99 171
61 97 163
62 98 166
62 98 168
62 98 162
61 97 165
63 99 170
61 97 166
62 98 166
61 97 162
63 99 172
61 97 164
61 96 159
62 97 164
62 98 167
62 98 164
61 97 159
61 97 165
61 96 161
60 95 157
61 95 153
59 93 155
61 95 155
56 87 142
51 75 106
54 69 78
50 59 61
60 65 43
60 65 48
66 70 44
62 65 36
69 72 44
80 84 53
83 86 59
84 87 55
83 86 59
89 92 58
68 75 54
93 97 62
82 86 57
84 87 52
97 99 63
103 105 60
111 111 63
97 99 57
101 104 67
113 114 69
100 103 59
112 112 61
124 123 65
120 121 72
115 116 70
117 118 69
126 125 73
126 124 71
127 127 77
128 128 76
136 134 79
130 128 72
133 131 78
138 136 73
136 135 77
147 143 79
147 144 75
150 146 83
144 143 77
148 145 80
148 144 84
152 148 84
153 149 79
154 149 79
153 149 85
160 156 90
153 149 83
158 153 81
163 158 81
163 158 89
165 160 83
160 155 86
156 153 86
159 154 85
162 157 85
170 163 93
165 158 89
168 161 89
166 160 83
159 155 85
164 159 89
167 161 86
170 164 85
165 159 81
167 160 83
164 158 87
172 165 87
169 163 86
168 162 89
171 164 91
168 161 92
170 163 89
166 160 85
171 164 89
169 162 85
166 160 84
168 162 89
167 161 80
166 160 84
173 166 91
170 162 85
169 162 83
163 158 80
166 160 82
169 162 81
160 155 75
162 156 78
170 163 84
158 152 78
167 161 87
161 155 77
165 158 84
161 155 83
164 156 77
159 152 82
157 151 77
159 153 85
159 152 77
164 158 81
166 159 80
158 151 75
156 150 75
158 153 76
153 148 69
156 149 78
154 148 75
156 149 67
152 146 68
158 151 71
155 149 73
156 150 70
143 139 58
160 154 77
146 141 62
154 148 73
150 144 65
147 140 66
151 144 66
140 135 57
142 136 64
138 133 61
144 138 63
138 134 54
135 134 52
147 148 53
137 144 41
148 153 47
149 158 41
151 161 32
148 158 25
155 168 28
161 177 28
161 179 16
162 182 16
166 185 0
171 193 11
167 189 0
173 197 0
173 196 0
171 194 0
173 196 0
171 194 0
172 196 0
170 194 0
171 195 0
172 195 0
173 197 0
171 194 0
173 196 0
172 195 0
172 195 0
173 195 0
172 195 0
172 195 0
170 194 0
172 196 0
169 193 0
172 196 0
174 197 0
171 195 0
172 195 0
171 195 0
169 193 0
170 193 0
171 195 0
169 194 0
172 196 0
172 195 0
173 195 0
171 194 0
168 191 0
169 193 0
167 190 0
173 197 0
172 196 0
170 194 0
172 196 0
170 194 0
173 195 0
172 195 0
171 193 0
170 194 0
172 196 0
170 193 0
171 194 0
173 196 0
171 193 0
172 195 0
173 196 0
173 196 0
172 196 0
171 195 0
172 196 0
173 197 0
169 193 0
172 195 0
173 196 0
171 194 0
171 195 0
171 194 0
169 192 0
168 191 0
170 194 0
173 196 0
169 192 0
169 192 0
171 194 0
170 194 0
170 193 0
168 192 0
171 194 0
166 190 0
170 193 0
169 192 0
167 190 0
170 193 0
167 189 0
168 191 0
170 193 0
167 190 0
172 195 0
171 194 0
170 192 0
169 191 0
170 193 0
168 190 44
130 155 108
80 111 151
61 97 162
63 99 164
62 98 162
62 98 163
61 97 159
62 99 169
61 98 163
62 99 168
62 98 163
62 98 162
63 99 170
61 98 169
62 98 163
61 98 166
62 98 169
61 98 164
62 98 170
62 98 168
62 98 169
62 99 172
62 99 171
62 99 173
62 99 172
63 99 174
62 99 175
62 99 172
63 100 176
62 99 175
62 98 169
62 99 171
62 99 173
62 98 170
62 98 166
62 99 180
62 99 178
62 99 175
62 99 174
61 98 173
62 99 177
62 99 176
62 99 174
63 99 175
63 100 175
62 99 175
62 99 173
63 100 175
61 98 177
62 99 176
63 99 176
62 99 180
63 99 176
62 99 177
62 99 177
62 99 175
62 99 178
61 98 172
62 99 175
62 99 178
62 99 176
62 99 175
63 100 177
62 99 179
61 98 173
62 99 177
62 99 176
62 99 175
62 99 174
63 99 175
62 99 179
62 99 174
62 99 170
62 99 177
62 99 177
63 100 176
62 99 175
62 99 178
62 99 174
62 99 174
62 99 176
62 99 177
62 99 175
62 99 174
62 99 171
62 99 174
62 99 177
62 99 174
62 99 172
63 99 174
62 99 173
62 99 171
61 98 172
62 99 170
61 98 175
63 99 176
62 99 171
62 99 176
62 99 174
62 99 174
62 98 172
63 99 177
62 99 172
63 99 175
63 100 177
62 99 177
62 99 173
62 99 174
62 99 174
62 99 174
63 99 174
63 99 174
63 99 172
62 99 174
63 100 176
62 99 172
62 99 175
63 99 171
62 98 167
62 99 176
62 98 170
62 98 172
63 100 177
62 99 172
62 99 170
63 99 175
62 98 166
62 98 169
62 99 173
62 98 170
62 99 175
62 98 169
62 98 174
62 98 170
62 98 167
63 99 172
61 98 165
63 99 170
63 99 174
62 98 167
62 99 170
62 98 165
62 99 170
62 98 169
63 99 172
62 98 170
62 99 171
62 98 167
63 99 170
63 99 173
62 98 167
63 99 169
61 97 165
63 99 170
62 98 167
61 98 162
63 98 165
62 98 169
61 97 167
62 98 165
61 97 163
60 95 156
62 97 165
59 94 155
61 96 161
60 95 157
61 96 160
61 95 157
61 95 151
60 93 151
62 94 151
57 82 125
51 65 70
56 64 66
66 68 42
62 68 43
51 55 37
57 63 42
74 78 45
68 71 43
70 76 49
75 81 51
84 87 54
80 84 49
89 92 55
86 89 58
89 93 59
91 93 55
106 109 66
96 97 62
102 103 66
94 97 64
101 102 63
112 114 69
117 116 73
115 114 60
130 128 77
118 118 67
123 122 68
125 125 73
133 131 77
129 128 77
135 133 76
131 129 73
135 133 72
126 126 71
141 139 79
141 139 74
134 133 74
139 136 75
149 145 79
148 145 84
151 148 82
151 146 76
148 144 75
143 140 78
141 139 76
149 146 76
144 142 72
150 147 80
150 145 82
162 157 89
152 148 76
155 151 80
162 157 88
159 154 86
162 157 82
153 149 81
156 152 78
158 154 77
162 155 82
166 160 81
163 157 90
162 157 80
168 162 89
166 161 88
158 153 80
170 163 85
166 159 82
169 162 86
171 164 87
161 156 81
163 157 81
161 156 75
165 160 86
168 162 83
172 165 84
166 160 86
170 163 87
163 157 79
166 159 83
164 158 79
169 162 82
165 159 84
167 160 87
171 165 90
167 161 86
163 158 80
161 155 79
167 160 83
162 156 80
165 158 81
164 158 84
167 159 81
161 155 74
164 158 78
167 160 83
160 154 68
166 159 86
160 154 75
158 152 74
162 156 77
164 157 84
156 150 75
164 158 79
149 145 66
164 157 81
160 154 74
153 148 74
156 148 70
156 150 75
160 153 73
145 139 59
150 144 74
148 143 65
150 144 67
158 152 71
154 148 69
154 147 74
150 144 75
147 142 64
149 142 64
146 140 62
142 136 58
140 136 59
137 133 49
142 139 59
149 148 54
142 146 41
144 147 45
147 153 42
149 157 44
150 160 42
151 164 32
161 176 30
161 175 39
162 181 19
168 188 16
170 189 11
172 193 0
170 191 0
174 195 0
172 196 0
173 196 0
173 196 0
172 196 0
169 192 0
173 196 0
173 197 0
173 196 0
171 195 0
170 194 0
170 194 0
173 197 0
171 194 0
174 197 0
172 195 0
172 195 0
174 197 0
171 195 0
174 196 0
173 196 0
173 195 0
171 194 0
167 191 0
174 197 0
173 195 0
169 192 0
172 195 0
170 194 0
168 191 0
168 192 0
170 194 0
171 195 0
170 194 0
169 194 0
172 196 0
172 196 0
169 192 0
171 195 0
168 192 0
169 193 0
167 191 0
170 194 0
171 194 0
170 194 0
172 195 0
172 196 0
174 197 0
170 194 0
168 191 0
173 197 0
169 192 0
168 192 0
169 192 0
168 191 0
172 195 0
169 192 0
167 191 0
170 193 0
170 193 0
169 192 0
169 192 0
169 191 0
169 193 0
172 194 0
170 193 0
170 193 0
170 192 0
170 192 0
168 190 0
172 194 0
167 191 0
171 195 0
170 193 0
171 194 0
168 191 0
172 195 0
171 194 0
168 192 0
169 193 0
170 194 0
169 193 0
169 193 0
169 192 0
171 195 0
169 192 0
166 189 0
169 193 18
159 183 57
120 146 122
73 106 157
62 98 164
61 97 162
62 99 166
62 98 160
63 99 168
62 98 166
63 98 162
62 98 169
61 97 160
61 97 165
62 98 168
62 99 170
62 98 168
62 98 169
63 99 173
61 97 162
62 98 170
63 99 168
61 98 167
62 99 172
62 99 172
62 98 169
63 99 171
62 98 168
62 98 168
61 98 170
63 100 177
62 99 170
61 98 168
62 99 174
62 99 173
63 100 178
62 99 175
62 99 178
61 98 170
62 99 174
62 99 176
62 99 176
62 99 175
62 99 172
62 99 178
62 99 170
62 99 177
62 99 174
63 99 174
62 99 175
61 98 175
61 98 168
62 99 177
62 99 171
62 99 176
63 99 174
62 99 178
62 99 174
62 99 176
62 98 172
63 99 177
62 99 177
62 99 175
63 99 173
62 99 173
62 99 173
62 99 172
62 99 171
63 100 177
62 99 176
61 98 176
62 99 175
62 99 175
61 98 170
63 100 178
62 99 176
62 99 173
62 99 176
62 99 179
62 99 177
62 99 172
61 98 175
62 99 177
61 98 175
63 99 174
62 99 175
62 99 177
62 99 174
62 99 176
62 99 175
62 99 177
62 99 172
62 99 175
62 99 169
62 99 176
62 99 175
62 99 176
62 99 176
62 99 176
62 99 178
62 98 173
62 98 173
62 99 175
62 99 173
62 98 172
62 99 171
62 99 176
62 99 178
62 98 173
62 99 174
61 98 174
62 99 173
63 99 174
62 99 172
63 100 174
62 99 178
62 99 170
62 99 171
62 99 172
63 99 176
62 99 174
62 99 172
62 99 178
63 99 175
62 99 176
62 99 177
62 98 166
62 99 173
62 99 169
62 99 172
61 98 172
63 99 175
62 98 168
62 99 172
62 99 170
62 98 168
62 98 169
63 99 169
62 98 164
63 99 174
62 99 172
61 98 168
61 97 164
63 99 168
62 98 170
62 98 165
62 98 166
62 99 170
62 98 170
62 98 167
63 99 171
62 99 174
62 98 166
61 97 159
63 99 173
61 97 164
61 98 166
63 99 172
62 98 170
61 96 157
62 97 164
62 98 168
61 96 160
60 95 161
61 96 158
61 96 159
61 96 158
60 95 157
59 93 151
60 96 159
60 94 150
61 94 155
58 92 152
56 84 126
58 76 95
58 71 72
52 57 39
51 56 36
43 49 38
64 70 44
69 73 43
75 79 49
68 74 50
71 75 48
76 79 47
83 89 58
101 102 62
78 84 58
85 89 58
92 94 61
106 107 64
104 106 61
101 104 60
111 112 63
112 113 65
110 110 56
101 103 62
107 108 61
118 117 70
120 119 68
123 123 73
125 124 75
127 126 70
130 128 72
132 131 75
141 139 84
131 130 71
139 137 81
136 134 74
140 137 74
141 138 82
135 133 80
146 143 79
148 144 76
152 148 83
149 145 83
155 151 85
140 139 79
145 142 79
146 142 81
153 150 81
153 148 81
157 153 86
155 151 78
158 151 81
156 152 83
159 154 81
154 149 84
165 159 82
161 156 87
159 155 82
158 152 82
159 154 84
166 161 91
163 159 81
162 157 76
168 162 89
166 160 83
165 160 87
165 159 79
165 159 84
168 161 88
166 159 84
161 155 80
164 159 78
164 158 80
165 159 83
164 159 81
162 156 78
169 163 85
168 161 87
168 161 85
168 161 85
169 162 84
166 160 80
162 156 81
164 157 80
163 157 76
169 163 85
160 154 76
163 157 79
161 155 74
163 157 75
165 158 82
168 161 87
160 154 78
166 159 86
161 155 82
162 156 80
157 151 72
164 158 82
160 154 78
157 151 70
166 159 80
165 159 82
156 151 73
148 143 66
161 155 75
159 152 76
156 149 75
154 148 65
157 151 68
150 144 70
157 152 78
153 146 66
152 146 70
147 141 66
154 148 70
146 140 64
148 143 60
144 139 66
138 132 57
144 139 60
146 141 64
143 138 61
137 131 63
142 136 61
134 130 57
142 140 54
142 142 51
140 138 57
147 155 42
147 158 28
149 156 41
157 171 30
163 177 37
161 175 30
164 183 16
159 176 28
166 186 25
165 186 11
170 191 0
172 193 0
168 188 0
173 196 0
171 195 0
173 196 0
173 196 0
172 194 0
172 195 0
174 197 0
171 195 0
174 197 0
170 194 0
172 196 0
171 194 0
173 195 0
169 192 0
168 192 0
172 195 0
171 194 0
171 195 0
172 196 0
170 194 0
172 195 0
171 195 0
172 195 0
173 196 0
173 196 0
171 193 0
175 197 0
174 196 0
170 195 0
171 195 0
171 194 0
171 194 0
174 197 0
173 197 0
171 195 0
171 193 0
171 194 0
171 195 0
171 194 0
172 195 0
172 196 0
173 196 0
169 192 0
171 194 0
168 192 0
170 194 0
170 194 0
171 194 0
173 196 0
172 196 0
169 193 0
168 192 0
171 195 0
169 193 0
172 195 0
169 193 0
173 196 0
172 196 0
170 193 0
169 192 0
173 197 0
171 194 0
169 192 0
169 192 0
172 195 0
169 192 0
168 192 0
174 197 0
170 193 0
171 193 0
171 194 0
169 192 0
167 190 0
172 195 0
171 194 0
168 191 0
169 191 0
172 194 0
170 193 0
169 193 0
169 192 0
166 190 0
172 195 0
171 193 0
170 192 0
168 192 0
169 192 25
150 174 80
105 132 134
64 99 160
62 98 163
62 97 164
62 98 160
62 98 163
62 98 160
62 98 166
61 98 164
62 98 160
61 97 162
62 98 166
62 98 170
62 99 170
62 98 168
61 98 165
62 98 169
61 97 167
61 98 168
63 99 173
62 98 166
61 98 170
61 98 167
62 99 171
62 99 172
62 99 170
62 99 173
62 99 170
62 98 168
61 98 170
61 98 172
62 99 178
63 99 171
62 99 173
63 99 173
63 99 174
62 99 174
63 99 173
62 99 176
62 99 178
62 99 175
62 99 176
62 99 176
62 99 171
61 98 168
62 99 172
63 100 177
62 99 175
62 99 179
62 98 171
62 99 173
62 99 175
62 98 172
61 98 174
62 98 171
62 99 176
63 99 175
62 99 176
62 99 175
62 99 176
61 98 167
62 99 176
62 98 172
62 98 168
62 98 171
62 99 174
62 99 173
62 99 174
63 99 175
62 99 175
63 99 174
62 99 176
62 99 177
62 99 173
62 99 177
62 99 180
62 99 175
62 98 174
63 99 176
62 99 173
62 99 174
62 99 174
62 99 174
62 98 172
62 98 173
62 99 178
62 98 168
61 98 170
62 99 170
63 99 174
62 99 176
62 99 175
62 98 172
62 99 172
63 100 178
62 99 173
63 99 176
62 98 176
62 99 172
62 99 178
62 99 177
62 99 175
62 99 171
63 99 176
61 98 174
62 99 174
62 99 175
61 98 172
62 99 173
63 99 172
62 99 177
62 99 172
62 99 171
62 99 175
62 99 168
62 99 168
62 98 169
63 99 173
62 99 170
62 99 173
62 98 171
62 99 177
62 98 170
62 99 167
62 98 171
62 98 170
62 98 170
61 98 164
62 99 174
62 99 173
62 99 166
61 98 170
62 99 170
62 99 167
62 99 169
62 98 169
63 99 173
62 99 167
62 98 171
63 99 170
61 98 163
62 98 169
62 99 168
61 98 163
63 99 168
63 99 171
62 98 167
62 98 167
62 98 167
62 98 170
62 99 170
62 98 166
62 98 165
62 98 172
62 98 169
62 99 170
62 98 168
61 97 164
62 97 163
61 97 163
61 97 163
61 96 159
61 96 157
60 95 158
61 96 156
61 96 161
60 95 160
59 93 153
61 95 154
59 92 145
60 95 150
58 88 143
61 79 100
47 61 68
51 58 46
51 56 33
40 48 37
70 74 43
70 73 47
69 74 46
70 74 48
80 84 53
80 83 47
80 83 51
76 81 51
82 84 48
85 89 55
81 85 50
90 94 55
107 108 61
100 102 58
110 111 65
103 104 58
109 110 66
112 111 66
122 121 68
112 113 64
119 119 62
123 122 66
123 122 70
129 126 70
133 131 66
130 128 65
132 130 75
135 134 76
131 129 73
138 135 75
142 138 79
131 129 73
133 132 70
135 133 77
139 137 72
145 142 79
150 146 89
155 150 82
144 141 74
153 149 80
154 150 79
150 147 83
157 152 85
159 153 82
158 152 80
157 153 80
156 151 84
156 151 85
160 155 82
159 154 85
160 154 80
156 151 79
162 157 82
158 152 75
164 159 79
166 160 86
171 164 88
161 155 83
167 161 87
167 160 85
164 159 82
168 162 90
158 152 79
157 152 74
165 158 79
169 162 85
169 162 84
162 157 78
169 162 82
164 158 75
169 161 90
168 162 84
163 157 81
167 161 84
171 164 84
165 159 81
168 161 84
167 161 81
165 159 83
164 158 81
170 163 80
171 164 90
159 154 78
164 157 77
162 156 76
163 156 80
162 155 75
159 152 74
166 159 84
161 155 76
163 157 75
158 153 75
162 156 82
159 153 78
160 154 78
160 155 75
156 151 70
157 151 74
157 150 76
158 151 72
149 144 63
153 147 69
157 151 71
147 141 65
153 148 67
150 144 64
147 141 60
154 148 68
157 150 72
148 142 71
158 150 74
147 142 62
137 131 60
143 138 63
137 131 56
149 142 69
140 133 61
138 134 56
144 140 62
137 136 53
145 147 45
144 147 53
154 159 45
154 164 34
151 163 25
165 176 41
159 173 28
157 174 28
165 182 19
162 179 19
169 191 0
168 188 11
170 192 0
172 195 0
169 190 0
171 196 0
173 196 0
173 196 0
173 196 0
173 196 0
170 192 0
173 197 0
171 195 0
174 197 0
173 196 0
172 196 0
172 195 0
172 195 0
171 195 0
175 198 0
171 194 0
170 193 0
172 195 0
171 194 0
171 194 0
169 193 0
171 194 0
170 194 0
174 197 0
171 195 0
168 192 0
170 194 0
172 194 0
172 195 0
170 194 0
170 194 0
170 193 0
169 193 0
168 193 0
172 195 0
172 196 0
169 192 0
172 195 0
171 195 0
170 194 0
169 193 0
170 193 0
173 195 0
170 193 0
171 195 0
173 196 0
171 195 0
171 195 0
168 191 0
171 195 0
171 194 0
168 191 0
170 194 0
171 195 0
172 195 0
170 193 0
169 193 0
170 193 0
171 195 0
172 195 0
170 193 0
169 193 0
169 192 0
169 192 0
166 190 0
170 193 0
172 195 0
168 192 0
167 191 0
170 193 0
170 194 0
168 192 0
169 192 0
169 193 0
167 189 0
170 193 0
168 192 0
170 193 0
170 192 0
173 196 0
169 193 0
166 188 0
170 193 0
168 191 0
169 192 0
167 189 0
166 190 36
134 159 100
100 128 142
62 98 163
62 98 157
62 99 168
61 97 155
62 98 161
62 98 165
62 98 169
61 97 160
62 98 166
62 98 165
62 99 170
61 97 168
62 99 168
61 98 167
63 99 172
62 98 166
62 98 169
61 98 166
61 98 170
62 99 174
62 99 173
63 100 178
63 99 179
62 99 175
62 98 175
63 99 170
62 98 163
62 98 169
63 100 175
62 99 175
61 98 172
62 99 171
62 99 172
62 98 172
62 98 172
62 99 174
63 99 175
62 99 175
62 99 174
62 98 174
62 99 175
62 99 175
62 98 172
62 98 170
62 99 174
62 99 175
63 99 179
62 98 171
62 99 175
62 98 173
62 99 178
62 99 174
62 99 179
62 99 173
62 99 172
62 99 176
62 99 173
62 99 175
62 99 175
62 99 176
61 98 171
62 99 174
63 99 172
62 99 176
62 99 174
62 99 178
63 99 174
63 100 177
62 99 175
62 99 174
62 99 175
61 98 170
62 99 178
62 99 175
62 98 171
62 99 174
63 99 176
63 100 178
62 99 170
62 99 173
62 99 170
62 99 175
63 100 175
62 99 174
62 99 176
62 99 174
62 99 171
62 99 173
62 99 175
63 100 176
62 99 177
63 100 176
63 99 174
62 99 175
62 98 170
62 99 175
62 99 178
61 98 167
62 98 174
62 99 172
62 99 174
62 98 171
62 98 169
62 99 171
63 99 173
62 99 174
62 98 172
62 99 174
62 99 174
61 98 171
63 100 176
62 99 172
62 99 174
62 99 173
62 98 170
62 98 169
62 98 169
62 98 171
61 98 171
62 99 173
62 98 171
61 98 172
63 99 172
63 100 176
62 98 167
62 99 173
62 99 171
61 98 169
62 99 169
62 99 171
62 98 171
62 98 170
62 99 173
62 98 167
62 99 174
62 99 171
62 99 170
62 99 172
62 98 168
62 99 168
61 98 172
63 99 169
62 99 170
63 99 170
62 98 169
62 99 172
62 98 168
63 99 167
62 99 168
61 97 162
61 97 165
63 99 164
62 98 165
61 97 162
62 97 161
62 98 167
62 98 168
62 98 163
62 98 165
62 97 159
62 98 166
61 97 161
61 96 161
60 96 159
61 95 158
61 96 162
61 96 160
60 95 156
59 93 151
60 94 153
58 90 143
49 75 119
51 66 70
61 69 51
54 59 37
53 59 33
68 71 39
61 67 44
60 65 40
56 61 40
70 75 46
76 81 50
83 85 47
81 86 56
95 97 63
81 85 47
87 90 52
88 92 55
93 95 51
114 113 60
105 106 66
110 109 62
108 109 61
106 108 60
115 115 67
106 108 58
121 121 66
132 129 77
118 118 69
128 126 71
124 123 64
115 116 68
136 134 77
144 141 77
132 130 68
138 134 74
144 140 79
144 141 74
138 135 66
153 149 86
139 136 80
145 143 78
146 144 77
148 144 74
144 140 79
152 147 75
148 144 78
157 152 78
147 144 79
148 144 78
161 156 80
151 147 80
159 154 82
154 149 82
161 156 81
161 154 83
162 157 86
169 162 92
160 154 77
160 154 78
157 152 82
164 158 84
168 163 87
164 158 81
164 157 86
166 160 86
162 156 83
163 157 80
168 162 86
170 164 88
157 153 77
169 161 90
172 165 87
168 161 84
170 163 90
160 154 74
167 160 83
168 162 83
169 162 83
166 160 80
166 160 78
164 159 86
166 159 84
171 163 84
160 155 79
165 159 80
163 158 74
161 155 80
157 152 71
163 156 76
163 156 81
157 151 75
162 155 75
163 156 80
161 154 79
164 157 80
158 152 77
158 151 73
162 156 79
159 153 77
158 152 74
157 151 75
160 154 80
149 144 67
156 149 75
159 152 77
160 154 80
157 153 75
154 148 70
155 148 66
151 144 70
152 146 63
148 143 67
153 146 72
144 138 63
153 146 71
146 139 65
143 137 64
147 142 61
148 142 68
137 131 59
144 139 66
151 144 60
145 138 64
139 136 58
140 141 44
137 138 48
153 154 60
139 143 42
157 165 42
155 164 47
156 169 36
165 179 28
162 179 25
164 181 19
163 181 22
166 186 0
172 194 0
172 193 0
172 191 0
171 192 0
174 197 0
169 193 0
173 196 0
172 195 0
172 195 0
170 194 0
174 197 0
174 197 0
172 195 0
171 194 0
171 194 0
170 193 0
171 195 0
170 193 0
172 195 0
174 197 0
171 195 0
171 195 0
171 195 0
171 194 0
172 195 0
172 196 0
169 194 0
168 191 0
169 192 0
167 191 0
171 194 0
175 197 0
169 192 0
170 193 0
169 191 0
173 197 0
171 194 0
170 193 0
171 195 0
168 192 0
169 193 0
170 194 0
168 192 0
172 195 0
169 193 0
170 193 0
170 193 0
170 193 0
171 194 0
172 195 0
173 195 0
168 192 0
170 194 0
168 191 0
172 195 0
172 194 0
172 194 0
168 191 0
171 195 0
169 192 0
171 194 0
170 193 0
171 194 0
169 193 0
173 196 0
170 194 0
166 190 0
170 193 0
169 193 0
171 194 0
171 195 0
171 194 0
171 194 0
171 194 0
165 188 0
171 194 0
172 195 0
170 193 0
170 193 0
170 194 0
167 190 0
170 193 0
170 193 0
172 196 0
168 190 0
169 191 0
169 192 0
166 189 0
167 190 0
165 187 25
152 177 72
125 150 115
82 113 144
62 98 157
61 97 155
62 98 157
62 98 164
62 99 165
62 98 163
61 98 164
62 98 167
62 99 167
63 100 171
62 98 162
61 98 166
62 98 172
63 99 167
62 99 171
62 98 167
62 99 168
62 99 171
61 98 170
62 99 170
63 99 173
62 99 166
62 98 168
62 99 173
62 98 170
62 99 171
62 99 174
62 99 171
62 99 169
62 99 174
62 99 173
62 99 175
62 99 177
62 99 172
63 99 170
63 99 171
62 99 172
64 100 178
63 99 175
62 99 173
62 99 177
62 99 172
62 99 173
61 98 174
62 98 174
61 98 168
62 98 173
61 98 173
62 99 176
63 100 180
63 99 174
62 99 176
62 99 174
62 99 176
62 99 175
62 99 176
62 99 174
62 98 173
62 98 170
62 98 173
62 99 174
62 99 173
62 99 176
62 99 173
62 98 172
63 99 173
62 99 174
62 99 173
62 99 174
62 99 176
62 99 169
62 99 171
62 99 174
62 99 178
62 99 176
62 99 179
62 99 176
63 99 172
62 99 178
61 98 172
62 98 169
62 99 174
62 99 174
62 99 173
62 99 176
62 98 172
62 99 172
62 99 175
63 99 175
63 99 176
62 98 170
62 99 177
62 99 174
62 98 168
62 99 175
62 99 175
62 99 175
63 99 176
62 99 169
63 99 175
62 99 175
61 98 173
62 99 176
62 99 172
62 99 171
63 99 172
63 100 174
62 99 170
63 99 170
63 99 173
62 99 175
62 99 173
62 99 171
62 99 173
62 99 172
62 99 173
63 99 172
62 99 174
62 99 171
62 99 174
62 99 171
62 98 170
62 98 168
62 99 171
63 99 169
62 99 169
62 99 172
62 99 168
62 99 169
62 98 170
62 99 167
62 99 175
62 99 173
62 99 172
63 99 174
62 98 166
62 98 166
62 99 171
62 99 167
63 99 170
62 98 168
62 99 167
62 99 171
63 99 172
63 99 168
62 99 173
62 98 166
62 98 165
62 99 168
62 98 168
62 98 167
61 98 166
62 98 166
62 98 165
61 96 160
61 97 168
61 97 157
61 97 162
63 99 168
61 96 161
62 98 164
60 96 161
61 97 160
60 96 161
60 95 153
61 95 159
60 95 155
60 95 149
61 95 158
60 95 155
58 90 140
57 84 128
62 79 96
44 56 55
51 58 42
59 65 38
71 74 38
57 63 42
57 65 42
72 76 42
74 79 47
78 82 48
85 87 50
87 90 53
93 95 55
86 87 44
87 90 52
90 94 56
109 110 62
99 101 57
105 106 60
97 100 63
98 100 63
101 103 54
119 119 66
117 117 55
116 117 70
122 120 68
125 125 67
124 123 72
135 132 75
130 129 72
121 121 67
135 133 71
121 121 67
133 132 72
144 140 78
139 137 77
140 136 72
140 137 71
145 142 77
140 137 69
144 140 74
147 143 77
141 137 71
152 147 80
149 145 78
150 146 80
149 145 76
155 149 81
157 151 77
153 148 79
155 150 80
158 153 77
160 155 70
156 151 73
157 152 78
158 152 75
164 158 85
159 154 76
160 155 83
156 152 78
165 159 84
154 149 74
164 158 89
170 163 84
162 156 78
156 152 77
161 154 73
160 154 80
163 157 79
162 157 80
167 161 83
168 162 85
168 162 84
158 152 81
165 158 78
166 159 82
168 162 90
168 161 82
161 155 70
160 154 76
169 162 84
162 157 77
168 161 78
164 158 79
161 155 75
162 155 79
167 160 80
166 159 82
167 159 80
164 158 72
163 156 74
161 154 79
166 159 82
168 161 83
163 156 77
164 157 78
162 155 75
156 150 73
159 153 75
151 145 66
162 155 75
161 154 76
156 150 67
159 151 79
160 153 75
156 149 72
153 146 65
147 142 64
152 146 65
151 144 67
148 143 57
150 143 67
149 143 61
150 143 65
149 143 65
149 142 67
144 138 61
152 146 67
134 130 54
137 131 57
148 142 56
135 130 61
142 139 58
144 140 61
142 144 52
142 146 44
147 155 37
154 162 34
154 163 30
157 170 25
157 173 11
161 177 22
165 185 11
161 179 0
167 188 11
168 190 0
170 189 0
171 192 0
171 192 0
172 195 0
172 195 0
173 197 0
170 194 0
172 196 0
175 198 0
173 196 0
173 196 0
174 197 0
170 194 0
173 197 0
173 197 0
174 197 0
170 194 0
173 195 0
169 193 0
171 195 0
174 197 0
171 195 0
171 195 0
172 196 0
170 194 0
173 196 0
169 192 0
174 197 0
173 195 0
173 196 0
172 195 0
173 196 0
173 197 0
172 196 0
172 195 0
172 195 0
172 196 0
171 195 0
172 196 0
175 197 0
172 196 0
169 193 0
174 196 0
169 193 0
171 193 0
172 196 0
164 189 0
173 195 0
172 196 0
169 192 0
171 194 0
170 194 0
171 194 0
173 196 0
172 195 0
171 194 0
171 195 0
172 196 0
169 193 0
171 194 0
170 193 0
169 193 0
168 191 0
169 193 0
167 190 0
170 194 0
168 192 0
172 195 0
171 195 0
169 193 0
170 193 0
171 194 0
169 191 0
164 188 0
171 194 0
171 195 0
171 195 0
169 191 0
170 193 0
167 191 0
172 195 0
168 191 0
170 193 0
171 194 0
170 193 0
168 192 0
171 193 0
170 192 0
163 187 31
157 181 62
113 139 135
64 99 157
62 98 161
61 97 160
62 97 158
62 98 161
62 99 164
63 99 164
62 98 165
62 98 159
62 99 170
62 98 167
61 98 162
62 99 168
63 99 167
63 99 171
63 99 170
61 97 164
61 98 165
61 97 163
62 99 172
63 99 177
62 98 167
62 99 172
62 98 169
62 99 177
62 98 173
62 99 175
62 98 171
62 98 168
62 99 176
62 99 171
62 99 176
61 98 169
63 99 172
63 99 175
62 99 173
62 99 174
62 99 175
62 99 174
62 99 171
62 99 172
63 99 172
62 99 174
62 99 175
61 98 170
62 99 169
62 99 176
62 98 173
62 99 179
63 100 176
61 98 169
62 99 175
62 99 174
61 98 168
61 98 173
61 98 168
61 98 172
63 100 179
62 99 178
62 99 178
63 100 178
62 99 172
62 99 174
62 99 176
62 99 174
62 99 173
62 99 170
62 98 172
61 98 176
62 99 173
62 99 173
62 99 174
62 98 169
62 99 176
62 99 179
63 100 179
63 100 179
62 99 173
62 99 175
62 99 173
62 99 175
62 98 167
62 99 175
62 99 177
62 98 172
62 99 175
62 99 173
62 98 172
62 99 177
62 99 173
62 99 173
61 98 175
62 99 171
62 99 171
62 99 174
62 99 175
62 99 172
62 98 173
62 99 174
62 99 177
62 98 168
62 99 171
63 99 174
62 99 173
62 99 170
62 99 173
62 99 177
61 98 172
61 98 173
62 99 173
62 99 174
62 98 174
62 98 169
61 98 169
62 99 175
62 99 171
63 99 175
62 98 169
62 99 169
63 99 170
62 99 171
62 99 173
62 99 168
63 99 170
63 100 178
63 99 175
62 98 168
63 99 167
62 99 170
62 98 171
62 98 171
62 98 170
62 98 167
62 98 164
62 99 173
62 98 167
62 98 165
61 98 167
63 99 173
61 98 163
61 98 163
61 98 166
62 98 166
62 98 170
62 99 173
61 97 162
62 98 169
62 98 169
61 97 164
63 99 170
61 98 167
62 98 170
61 98 166
62 98 169
62 98 169
62 97 163
62 98 164
61 97 161
62 98 162
61 96 164
61 97 170
62 98 169
61 96 161
61 96 154
62 97 160
61 96 159
61 96 159
62 98 163
61 96 160
60 94 153
60 94 150
61 94 154
63 88 135
50 66 85
60 69 65
70 73 45
62 69 39
62 65 34
58 61 30
61 67 37
76 78 41
71 73 41
77 80 47
87 89 43
76 80 55
80 84 47
86 89 44
97 99 52
82 86 48
92 95 52
112 111 63
106 108 60
110 111 61
112 112 64
109 110 62
107 109 59
116 116 57
120 119 64
116 116 63
123 122 64
122 120 68
136 134 75
127 125 68
136 134 79
131 130 70
136 132 75
138 135 74
131 128 67
144 141 73
137 135 71
150 145 77
137 134 69
147 144 76
155 150 76
141 138 76
143 139 77
156 150 81
148 144 76
146 142 71
154 151 79
159 153 79
151 147 74
156 151 84
152 148 75
162 155 82
154 150 75
159 154 83
162 157 84
162 155 81
161 156 81
162 156 80
159 154 80
161 155 78
154 150 75
159 154 73
164 159 87
160 154 78
163 157 79
164 158 75
162 157 77
163 157 82
168 162 85
166 160 86
168 161 82
168 161 84
164 158 76
166 159 86
164 158 80
170 162 86
168 160 82
163 157 84
165 159 84
158 153 78
157 152 71
164 158 76
169 161 83
165 158 84
163 157 79
157 151 69
161 155 71
167 159 80
166 159 81
167 160 80
162 155 75
165 158 77
164 157 72
162 155 83
162 156 83
166 159 80
159 154 78
159 153 72
153 147 67
161 154 73
150 144 66
158 151 70
155 149 72
140 135 59
152 145 67
150 144 63
156 150 69
157 151 71
150 144 65
148 142 63
154 148 66
146 140 68
142 137 63
147 140 67
145 139 62
149 143 61
145 138 64
143 137 66
137 131 61
136 130 48
134 129 52
131 129 45
149 149 59
136 136 45
143 147 44
142 144 47
150 160 37
156 163 51
163 175 32
158 174 25
160 175 19
162 179 22
168 185 28
168 188 11
170 191 11
168 188 0
171 192 0
170 191 0
167 187 0
172 194 0
171 195 0
171 195 0
174 197 0
169 193 0
173 197 0
172 196 0
173 196 0
170 194 0
174 196 0
173 197 0
172 195 0
169 192 0
165 188 0
172 195 0
172 195 0
171 195 0
173 197 0
174 197 0
173 196 0
171 195 0
172 195 0
171 195 0
172 195 0
172 194 0
172 195 0
172 196 0
174 196 0
171 194 0
170 193 0
174 197 0
169 193 0
171 194 0
173 196 0
170 194 0
170 194 0
167 190 0
171 194 0
168 191 0
172 195 0
172 196 0
172 195 0
167 191 0
169 192 0
172 196 0
169 193 0
170 193 0
171 194 0
170 193 0
171 195 0
167 190 0
169 192 0
173 196 0
167 190 0
171 194 0
171 194 0
170 194 0
172 196 0
167 190 0
173 196 0
165 188 0
168 192 0
168 192 0
171 194 0
171 194 0
171 193 0
170 194 0
172 195 0
166 190 0
169 192 0
172 194 0
168 191 0
168 190 0
169 193 0
171 195 0
171 194 0
162 186 0
167 190 0
166 190 0
164 186 0
171 194 0
169 193 0
171 195 0
166 190 0
168 190 0
162 185 40
144 168 92
100 128 136
61 97 152
62 98 162
61 97 151
62 99 163
61 98 163
62 98 163
62 99 170
62 98 167
62 99 170
62 98 163
63 99 169
63 99 173
62 98 169
62 98 170
62 98 168
62 98 168
61 98 167
62 98 167
62 99 169
62 98 170
62 98 168
62 99 170
61 98 164
62 99 172
62 99 170
63 100 177
62 99 174
62 98 169
62 98 172
62 98 169
61 97 166
62 99 170
62 98 169
62 99 173
62 99 174
63 99 176
62 99 172
62 99 172
62 98 169
62 99 171
62 99 171
63 99 176
62 99 178
62 99 172
62 99 175
61 98 170
63 100 178
62 99 171
62 99 174
62 99 176
62 99 175
63 99 175
61 98 173
62 99 174
62 98 172
62 99 171
63 100 175
62 99 178
62 99 171
62 99 177
63 99 174
62 99 177
61 98 171
63 100 178
62 99 176
62 98 174
62 99 175
62 99 170
62 99 174
63 100 178
62 99 176
62 99 175
62 99 175
62 98 171
62 99 172
61 98 172
62 99 174
62 99 172
62 99 170
62 99 176
62 98 171
62 99 170
62 99 179
62 99 174
63 99 176
62 99 171
62 99 170
62 99 174
63 99 174
62 99 174
62 99 173
62 99 176
62 99 175
62 99 168
61 98 175
62 99 177
62 99 174
61 98 169
62 99 171
62 98 173
62 99 173
62 98 168
63 99 172
63 99 176
62 99 175
62 99 171
62 99 170
62 98 170
63 99 174
62 99 171
62 99 174
62 98 169
62 99 174
62 99 173
62 98 166
63 100 177
62 99 172
61 98 172
61 98 170
62 99 167
62 99 174
62 98 169
61 98 166
63 100 175
62 99 171
62 99 173
62 99 176
62 99 171
62 98 167
62 98 166
63 100 175
63 100 174
63 99 173
63 99 168
62 98 172
63 99 172
63 99 168
62 98 168
61 98 166
63 99 173
62 98 168
62 99 168
63 99 168
62 98 164
62 99 169
62 98 167
62 99 167
62 98 167
62 98 168
62 99 172
62 98 170
61 97 160
61 97 164
62 98 163
61 98 165
62 98 168
62 98 166
61 98 169
61 96 164
61 97 162
60 95 155
62 98 168
61 96 156
62 97 161
61 96 154
61 96 159
60 95 158
61 96 152
60 93 155
61 95 158
60 94 158
59 93 148
59 88 138
58 78 105
68 79 72
58 63 48
68 72 42
60 63 32
66 71 41
68 71 35
72 74 42
85 85 51
78 81 43
74 79 46
57 65 39
84 87 49
78 82 46
89 92 48
105 106 52
101 102 57
92 93 44
108 109 58
101 101 56
92 95 54
105 105 60
116 115 62
112 112 64
123 121 60
114 115 63
134 131 75
126 126 66
127 125 65
131 129 72
129 127 65
121 121 65
131 128 61
143 139 79
138 135 67
139 136 62
144 140 79
140 136 68
142 139 65
146 143 71
148 144 81
136 133 73
154 149 83
142 138 74
138 135 65
146 141 76
149 145 82
150 146 73
153 148 76
158 152 84
150 145 76
159 153 85
156 151 78
152 147 74
158 153 81
164 158 88
159 154 79
160 154 86
159 153 74
166 159 85
154 149 74
164 159 82
164 159 85
170 163 89
163 156 77
163 157 76
164 158 82
166 160 78
166 160 82
167 161 83
156 152 67
158 151 75
160 154 73
167 161 80
166 159 81
166 159 83
163 158 78
168 160 85
162 156 77
164 158 80
168 161 81
165 158 83
161 156 70
158 152 73
165 159 75
152 148 64
166 159 78
156 151 72
156 151 71
161 154 74
159 153 73
163 156 76
164 157 76
163 157 76
161 155 73
157 151 73
154 148 71
160 154 74
159 152 75
160 154 66
156 151 70
160 153 75
154 148 73
154 148 71
151 145 71
144 138 61
156 150 72
150 145 63
152 146 67
155 148 70
144 140 57
144 138 64
147 141 67
146 141 56
150 143 65
144 139 59
145 139 63
140 134 51
140 135 49
135 130 49
131 126 52
135 135 48
137 139 45
139 140 44
139 141 47
150 156 49
147 155 36
147 158 25
161 173 39
158 173 32
159 175 22
163 180 22
164 181 22
165 185 11
170 192 0
173 194 0
171 193 0
170 191 0
170 192 0
172 196 0
172 195 0
176 199 0
172 196 0
172 195 0
171 194 0
172 194 0
173 196 0
168 192 0
172 195 0
171 194 0
172 195 0
172 195 0
171 195 0
172 196 0
169 194 0
172 195 0
173 197 0
170 194 0
174 197 0
172 195 0
174 197 0
172 195 0
171 195 0
170 194 0
168 193 0
172 195 0
168 192 0
175 198 0
173 196 0
168 192 0
173 196 0
173 196 0
173 196 0
172 195 0
172 196 0
170 193 0
171 194 0
172 195 0
172 196 0
173 196 0
171 195 0
165 189 0
170 193 0
171 194 0
169 193 0
169 193 0
171 194 0
168 192 0
172 195 0
171 194 0
170 193 0
168 191 0
166 189 0
168 191 0
172 195 0
167 190 0
172 195 0
171 195 0
170 193 0
170 192 0
164 188 0
171 194 0
169 192 0
169 192 0
170 194 0
173 197 0
170 192 0
170 193 0
166 190 0
169 192 0
169 193 0
166 189 0
169 192 0
170 193 0
165 189 0
168 192 0
168 192 0
167 191 0
166 189 0
168 192 0
167 190 0
168 191 0
170 193 0
164 186 0
161 185 44
138 163 88
88 119 154
62 98 160
61 97 159
62 98 162
62 98 161
63 99 163
62 98 163
62 98 164
62 98 165
61 97 158
62 98 163
62 99 165
63 99 166
61 98 160
62 98 168
62 99 170
62 99 167
62 98 164
62 99 170
62 98 166
62 98 168
62 98 165
62 99 172
61 98 165
61 98 166
61 98 168
63 99 172
63 99 176
62 98 168
62 98 171
61 98 172
62 99 170
62 99 173
62 99 175
62 99 176
62 98 171
62 98 172
63 99 174
62 99 174
62 99 173
62 98 172
62 98 172
61 98 172
63 99 177
61 98 173
62 99 173
62 99 175
62 99 175
63 99 176
61 98 172
62 99 170
63 99 173
63 99 176
61 98 172
62 99 175
63 100 174
62 99 177
62 99 175
62 98 172
62 98 173
63 99 171
62 99 173
63 99 174
61 98 171
62 98 172
62 99 174
62 98 171
62 99 175
63 99 175
62 99 177
61 98 171
62 99 173
63 100 176
62 99 175
62 99 175
63 99 178
62 99 173
62 99 170
62 99 175
62 99 170
62 99 176
62 99 167
61 98 172
62 99 175
63 99 171
62 99 175
62 99 179
61 97 168
62 99 173
62 98 171
63 99 176
62 99 172
62 99 171
62 99 175
62 99 171
61 98 169
62 99 173
63 99 174
63 99 176
63 99 173
62 98 170
63 99 174
62 98 169
62 99 168
62 99 176
62 99 170
62 99 175
62 99 172
62 99 170
61 98 164
62 99 172
62 99 170
62 98 164
62 99 172
62 98 170
62 99 172
63 99 173
62 99 173
63 100 174
63 99 170
62 99 175
62 99 172
62 98 165
62 98 166
62 98 168
63 99 169
62 99 173
63 99 175
62 99 169
62 99 175
63 99 172
63 99 173
62 99 170
61 98 169
61 97 166
62 99 167
62 98 166
62 98 163
62 98 164
62 99 168
62 99 170
61 97 163
62 98 162
61 97 159
63 99 166
62 98 170
62 99 167
62 98 167
62 98 162
62 98 164
62 98 166
61 98 169
62 98 167
60 97 161
62 98 159
62 98 160
61 97 165
62 98 164
62 98 160
62 98 166
61 97 165
62 97 159
61 97 162
62 97 165
61 97 162
62 98 165
60 95 154
60 95 155
60 94 151
60 93 147
60 94 152
58 91 146
60 94 154
58 90 144
66 87 120
53 70 87
53 59 47
54 59 30
69 73 34
61 65 37
52 57 30
67 71 42
75 79 48
80 83 42
85 88 50
76 79 44
81 84 47
89 89 42
107 108 61
94 94 51
102 102 47
97 98 52
101 101 53
97 99 53
104 106 61
104 105 55
118 118 61
117 116 65
125 124 68
122 121 59
126 124 65
118 117 65
126 124 66
132 130 67
140 136 76
129 127 68
125 124 64
141 138 76
124 123 60
138 134 65
143 140 73
136 134 68
151 146 75
144 141 77
141 138 72
142 139 69
148 144 78
153 147 77
143 140 67
146 141 76
149 144 75
159 154 75
153 148 74
152 148 75
154 149 77
154 149 76
163 157 87
163 157 83
152 147 78
155 151 77
163 156 76
158 153 79
157 153 71
160 155 79
162 156 78
164 159 79
166 161 82
163 156 83
165 157 82
168 161 85
162 156 76
162 155 75
161 155 79
162 156 80
169 162 78
160 154 75
161 156 77
164 157 82
161 155 76
168 160 87
163 156 75
163 157 75
171 163 80
164 157 75
166 159 84
158 153 72
160 154 75
159 154 72
161 155 74
167 160 79
159 153 75
158 152 72
160 153 78
160 154 64
166 158 80
158 152 74
159 152 71
160 154 70
158 152 67
159 154 71
161 155 70
149 143 72
156 150 63
161 154 66
163 155 76
151 145 63
152 145 73
153 147 61
147 141 71
156 151 71
156 150 65
150 144 69
151 145 61
148 142 68
147 142 61
141 135 61
146 141 58
152 147 61
135 130 56
141 135 58
145 140 62
141 136 60
134 128 58
138 132 59
133 129 51
145 143 54
142 143 41
145 149 37
149 152 51
146 150 44
148 155 36
147 159 32
154 166 25
152 168 22
157 172 22
168 184 19
163 180 19
166 185 11
167 188 0
167 189 0
167 189 0
170 191 0
170 192 0
173 197 0
174 197 0
169 193 0
172 196 0
173 196 0
172 195 0
172 195 0
171 195 0
171 194 0
172 196 0
172 196 0
171 194 0
173 196 0
172 195 0
171 195 0
174 197 0
171 194 0
173 196 0
173 197 0
173 196 0
171 195 0
173 197 0
172 194 0
171 194 0
171 195 0
171 195 0
170 194 0
173 196 0
169 192 0
173 197 0
169 192 0
172 196 0
171 195 0
167 190 0
173 196 0
171 194 0
173 196 0
169 193 0
166 190 0
168 191 0
168 191 0
171 194 0
169 192 0
169 193 0
172 195 0
171 195 0
168 191 0
172 195 0
169 193 0
171 193 0
172 195 0
171 194 0
172 195 0
170 194 0
170 195 0
171 194 0
169 193 0
170 194 0
172 195 0
169 191 0
171 194 0
170 193 0
170 194 0
172 194 0
167 190 0
169 192 0
169 192 0
168 190 0
172 195 0
173 196 0
167 190 0
173 196 0
167 190 0
172 195 0
170 194 0
170 193 0
170 193 0
168 192 0
171 193 0
164 187 0
170 193 0
169 192 0
173 196 0
170 193 0
166 189 0
156 180 67
125 150 114
77 109 145
61 97 155
62 97 157
61 97 155
61 97 160
62 98 162
60 96 155
61 97 156
62 99 170
61 98 167
61 98 163
62 98 167
62 98 166
62 98 169
62 98 164
63 99 169
61 98 164
62 99 170
62 98 165
62 99 176
61 98 163
62 99 168
62 98 169
61 97 165
62 99 174
62 99 173
62 99 171
62 98 174
62 99 175
62 99 173
61 98 167
62 99 172
62 98 170
61 98 165
62 99 173
62 99 172
61 98 169
62 99 171
62 99 173
62 99 177
62 99 169
62 98 171
61 98 172
63 99 176
62 99 173
63 99 174
61 98 169
62 99 176
62 99 176
62 99 171
62 99 179
62 99 172
62 99 177
62 99 173
62 98 174
62 99 176
62 98 172
62 98 174
62 98 170
62 99 175
62 98 170
62 98 171
62 99 175
61 98 174
62 99 173
62 99 172
62 99 174
62 99 177
62 99 173
62 99 179
62 99 174
62 98 171
62 99 173
63 99 172
62 99 173
62 99 172
62 99 176
61 98 169
62 99 172
62 99 173
62 99 171
62 99 176
62 98 167
62 98 171
62 99 174
62 99 175
63 99 172
61 98 169
63 99 174
62 99 172
62 99 175
62 98 172
63 100 180
62 99 176
62 99 172
62 98 172
62 99 177
62 99 175
63 99 168
62 99 171
61 98 169
62 98 171
62 99 174
62 99 171
62 98 167
63 99 169
61 98 172
62 99 176
62 99 172
61 98 171
62 98 167
62 99 171
62 99 170
62 99 166
62 99 176
63 99 174
62 99 172
62 98 166
62 98 168
62 98 172
62 99 171
62 98 165
62 98 169
62 99 170
63 99 170
62 99 171
62 98 168
62 99 176
63 100 175
62 98 165
62 98 169
62 99 171
61 97 161
62 99 173
61 98 173
63 99 170
62 98 170
62 99 174
63 99 169
62 98 160
63 99 167
62 98 164
62 98 167
62 98 166
62 98 161
62 98 168
62 98 164
61 98 165
62 98 165
61 98 168
62 99 169
61 97 161
62 98 166
62 98 166
62 97 158
61 97 162
62 98 165
63 99 166
63 99 169
62 98 164
62 97 165
61 97 164
61 96 156
61 97 160
62 97 158
60 95 158
61 96 154
62 97 161
62 97 157
62 97 167
61 96 154
60 95 154
59 94 153
57 90 142
58 81 117
60 77 97
53 60 42
68 71 35
58 63 37
50 55 30
64 68 36
58 62 33
68 72 38
80 83 40
71 75 42
87 88 44
65 72 40
93 95 54
86 88 44
97 97 50
101 102 58
88 92 46
98 99 52
101 102 54
112 111 57
103 103 52
108 109 55
112 112 56
121 120 67
119 119 63
118 118 67
127 124 67
124 122 64
120 121 62
127 126 66
127 125 64
132 131 66
135 131 66
139 136 72
135 133 65
135 132 65
135 133 67
141 139 68
147 143 68
134 132 66
148 143 69
145 141 73
151 147 78
144 141 71
146 142 72
155 149 76
155 150 80
153 149 72
146 142 71
149 145 68
157 152 77
159 153 78
162 156 77
153 148 75
160 154 76
153 149 75
151 148 72
162 156 72
158 152 80
165 159 86
163 158 77
164 158 80
163 157 81
163 156 78
159 154 76
158 152 79
165 158 82
162 156 74
164 158 76
162 155 78
170 162 81
162 156 71
164 157 79
166 160 80
162 156 77
163 158 79
163 156 76
167 160 78
166 160 76
159 153 75
164 158 75
169 162 83
159 154 71
165 158 75
159 154 71
161 155 75
161 155 73
154 148 70
160 153 72
159 153 78
160 153 73
157 152 70
159 153 72
158 152 71
157 150 70
160 153 74
148 144 63
157 151 72
156 150 68
156 150 62
149 143 61
154 149 65
155 148 68
149 143 62
155 148 74
148 143 63
151 145 61
147 141 66
150 143 68
139 135 56
144 137 62
155 148 66
137 132 53
139 134 58
144 139 57
144 139 58
136 131 56
133 127 56
132 127 41
137 137 51
136 134 51
140 138 47
145 149 45
144 147 45
156 167 36
150 160 30
150 162 30
157 170 37
154 170 16
162 179 11
169 188 16
166 187 0
170 192 11
168 188 0
170 191 0
169 190 0
167 186 0
169 189 0
172 195 0
170 193 0
170 193 0
173 195 0
172 195 0
173 196 0
172 196 0
172 196 0
169 193 0
173 196 0
170 194 0
169 192 0
169 192 0
174 197 0
169 193 0
170 193 0
169 193 0
172 195 0
172 195 0
173 197 0
171 194 0
169 192 0
171 194 0
174 197 0
171 194 0
173 196 0
172 194 0
172 194 0
174 197 0
168 192 0
168 192 0
171 194 0
174 197 0
171 194 0
171 195 0
173 195 0
168 191 0
168 191 0
172 195 0
170 194 0
172 195 0
168 191 0
172 194 0
172 195 0
170 193 0
171 195 0
171 193 0
173 196 0
170 193 0
172 196 0
168 192 0
172 195 0
170 193 0
166 189 0
170 193 0
168 189 0
170 193 0
169 193 0
170 193 0
172 196 0
172 194 0
174 198 0
171 194 0
169 193 0
171 195 0
170 192 0
173 195 0
173 196 0
168 191 0
169 192 0
172 195 0
169 193 0
172 195 0
166 189 0
165 189 0
166 190 0
166 190 0
167 190 0
167 190 0
170 193 0
167 191 0
167 190 0
164 187 0
168 190 0
164 188 18
157 181 72
110 137 128
67 101 153
61 97 152
62 98 160
60 96 149
63 99 162
62 98 165
62 98 164
61 97 159
62 99 170
62 98 162
62 98 160
62 98 167
60 96 162
61 97 158
63 99 173
62 98 168
62 99 171
61 98 169
62 98 166
63 99 174
62 98 167
61 98 166
62 99 172
62 99 171
62 99 172
62 99 175
61 98 171
63 99 171
62 99 173
62 98 167
61 98 165
62 98 170
62 99 173
62 99 170
62 99 173
62 99 168
62 99 173
63 99 175
62 99 171
62 98 172
62 99 174
61 98 168
62 99 170
61 98 169
62 99 174
62 99 175
62 99 175
62 99 173
62 99 172
62 98 169
62 99 173
63 99 175
62 99 174
62 99 173
63 99 175
62 98 166
62 99 175
63 100 180
62 99 174
62 98 172
62 99 174
62 98 173
62 99 176
62 99 176
62 99 177
62 99 173
62 99 174
61 98 172
63 99 174
61 98 174
62 99 174
62 99 175
62 98 172
62 98 171
62 99 176
62 99 170
62 99 174
62 99 175
62 99 173
63 99 175
62 99 173
63 99 171
62 98 169
61 98 171
62 99 174
62 99 172
63 99 169
63 99 171
63 99 172
62 99 174
62 99 170
61 98 168
63 99 174
62 99 171
62 98 173
62 98 168
62 98 171
62 99 168
62 99 170
62 99 168
62 99 174
62 99 169
62 99 172
62 99 172
62 98 167
61 98 170
62 99 173
62 99 171
63 99 174
62 98 169
62 99 168
62 99 170
62 99 172
62 98 167
62 99 172
62 99 176
62 98 172
62 99 170
62 98 170
62 98 164
62 98 163
63 99 166
62 99 172
63 99 173
61 98 169
62 99 175
62 98 169
62 99 169
62 98 166
62 99 165
62 99 172
62 98 164
61 98 166
63 99 170
62 99 172
62 99 174
62 98 168
62 99 168
62 99 174
62 98 167
62 98 164
61 97 162
61 98 166
62 98 166
63 99 171
62 98 167
61 98 163
62 98 167
63 99 173
62 98 163
62 98 170
62 98 166
61 97 160
61 98 169
61 97 164
61 98 165
62 98 165
61 97 160
62 98 164
61 97 164
61 96 155
60 96 160
60 96 158
62 98 162
61 96 155
62 97 165
61 97 162
60 95 154
60 95 155
60 95 157
59 93 151
60 95 153
61 96 159
59 93 150
56 83 128
56 72 85
55 67 65
69 72 38
72 75 32
66 70 31
59 66 42
63 65 33
57 64 32
71 76 38
82 83 39
78 82 43
86 87 48
82 83 39
82 85 41
103 103 52
98 100 55
109 109 61
97 99 59
109 109 53
109 108 62
95 98 54
101 102 54
108 108 55
109 109 60
120 120 58
123 121 57
120 119 60
127 125 63
119 118 56
142 139 75
119 119 61
142 139 71
135 132 69
135 132 65
133 130 67
138 135 70
130 128 67
138 134 64
150 145 73
147 143 76
147 143 72
150 145 73
141 139 70
141 138 72
151 146 75
143 138 72
153 149 75
148 144 73
142 139 70
156 151 81
152 148 79
158 153 81
156 151 74
160 155 78
158 152 78
149 144 74
155 150 76
160 154 82
158 153 76
163 157 74
160 154 76
160 153 78
159 154 76
159 153 76
161 155 77
167 160 80
162 156 66
161 155 74
171 163 85
163 157 78
159 153 69
155 149 72
163 157 80
165 159 80
168 160 84
167 160 75
161 156 75
168 161 76
161 155 75
163 156 79
164 157 78
160 154 75
158 152 75
162 156 75
159 153 73
154 149 65
159 152 73
155 149 71
159 153 74
154 149 68
154 147 66
153 147 68
155 149 62
157 150 73
162 155 77
156 150 70
159 153 67
155 149 68
149 143 60
151 145 66
147 142 58
148 142 67
152 147 62
147 141 69
158 151 69
152 145 70
155 150 68
150 144 67
151 145 61
152 147 59
146 139 60
147 142 61
140 134 59
143 137 60
143 137 59
137 132 53
137 131 47
139 134 56
146 140 56
136 135 48
141 141 52
146 149 41
145 149 47
148 152 51
145 151 32
149 161 30
151 166 30
161 176 22
164 179 25
161 179 16
169 189 11
169 190 11
169 188 0
170 192 0
170 192 0
173 195 0
168 188 0
168 190 0
173 195 0
171 196 0
173 197 0
173 196 0
170 194 0
173 196 0
173 196 0
170 194 0
171 195 0
173 197 0
170 194 0
170 194 0
174 198 0
172 196 0
172 195 0
175 198 0
169 193 0
171 194 0
170 194 0
168 191 0
169 192 0
170 193 0
170 195 0
171 195 0
170 193 0
172 195 0
171 194 0
174 197 0
173 196 0
170 194 0
169 192 0
169 193 0
170 193 0
167 190 0
172 195 0
172 195 0
172 195 0
173 196 0
172 195 0
169 192 0
171 194 0
168 191 0
166 190 0
172 195 0
167 190 0
170 193 0
171 194 0
169 192 0
170 193 0
169 191 0
171 194 0
171 194 0
168 192 0
168 192 0
170 193 0
166 190 0
169 192 0
169 192 0
173 196 0
171 194 0
168 192 0
167 190 0
171 195 0
170 192 0
172 195 0
168 191 0
165 188 0
168 191 0
173 196 0
171 195 0
172 195 0
168 192 0
169 192 0
172 195 0
167 190 0
170 193 0
172 194 0
170 193 0
172 196 0
170 193 0
167 189 0
166 189 0
168 192 0
167 190 0
169 192 0
141 164 80
103 130 121
64 99 149
62 99 163
61 97 155
61 98 162
62 97 163
61 96 155
62 98 163
63 99 167
62 98 163
62 98 168
62 98 166
62 98 161
62 98 159
62 98 167
62 98 163
62 98 166
61 97 169
61 98 161
63 99 175
61 98 167
62 98 169
63 99 173
63 99 170
62 98 171
62 98 172
62 98 171
62 99 173
62 98 170
62 99 171
62 99 171
62 99 174
62 99 173
62 99 174
61 98 171
62 99 173
61 98 170
62 99 168
61 98 169
62 99 175
62 98 174
61 98 166
62 98 172
61 98 171
62 98 172
62 98 171
63 99 174
61 98 166
62 99 174
61 98 174
63 100 178
61 98 170
62 99 178
62 99 172
63 100 179
62 99 168
61 98 166
63 99 174
61 98 174
62 98 173
61 98 171
63 99 173
61 98 172
62 99 175
62 99 174
62 99 174
63 99 174
62 99 174
62 99 170
62 99 178
62 99 173
62 99 172
62 99 176
62 99 174
63 99 172
62 98 170
63 99 176
62 99 173
62 99 176
62 99 174
61 98 173
62 99 176
62 98 170
63 100 175
63 99 176
62 98 171
62 98 171
62 99 174
63 99 170
61 97 169
62 99 172
62 99 173
62 98 169
62 99 174
62 99 173
62 99 176
63 99 173
62 99 172
63 99 170
63 99 173
63 100 177
62 98 170
62 99 174
63 100 178
61 98 168
62 99 171
63 100 174
62 99 174
62 99 170
62 99 173
62 98 166
62 99 173
63 99 172
62 98 172
62 99 170
63 100 176
63 99 170
61 98 169
62 98 170
62 99 175
62 99 172
62 98 165
62 99 171
61 98 165
62 98 172
62 98 171
62 99 171
62 99 174
63 99 168
62 98 167
62 98 167
62 98 167
63 99 170
62 98 166
62 98 170
62 99 168
62 98 169
62 99 169
62 98 168
62 99 169
62 98 164
62 99 170
61 98 165
62 98 161
63 99 171
62 98 167
63 99 172
61 98 168
61 98 169
62 98 166
61 97 158
61 98 164
62 98 164
62 98 156
62 98 162
61 96 152
61 97 161
62 98 160
62 98 162
61 97 162
60 95 157
61 97 162
60 95 153
60 95 152
61 97 160
61 97 157
61 95 154
61 96 154
61 96 160
60 95 146
59 93 145
60 94 148
60 94 149
59 94 150
60 93 148
59 86 125
59 80 108
50 64 73
60 66 38
59 65 31
57 63 31
62 65 32
57 61 29
63 68 36
65 70 42
75 78 39
78 81 40
85 88 44
73 76 40
91 92 43
97 96 49
89 90 47
105 105 52
99 100 52
109 109 54
91 92 46
102 103 51
115 113 56
114 114 63
114 113 59
111 111 56
114 114 61
121 120 58
122 119 55
133 129 65
126 123 64
127 125 64
130 128 66
139 136 69
130 128 57
130 128 61
134 131 68
139 136 68
144 139 65
136 133 69
140 136 74
132 129 65
145 141 74
137 134 68
153 149 74
144 141 72
150 146 75
146 142 71
153 148 75
155 150 77
151 148 72
146 142 71
147 143 68
152 147 75
158 153 80
158 153 78
152 147 70
159 153 77
155 150 73
158 152 79
162 156 73
160 155 82
152 148 71
150 146 73
166 158 80
150 145 64
163 157 82
159 154 75
156 151 69
165 159 80
162 156 75
164 158 80
162 156 75
163 156 78
159 153 71
158 153 68
163 157 80
164 157 77
161 155 72
167 160 75
162 155 77
163 156 72
155 149 68
164 157 75
160 152 75
159 153 74
161 155 76
157 151 68
164 157 76
155 149 72
155 149 66
159 153 72
157 151 71
161 154 67
153 148 64
155 148 68
154 148 64
156 150 68
156 150 67
149 143 64
151 145 68
155 148 65
155 150 62
154 147 62
151 146 62
156 150 68
157 150 67
147 142 60
134 130 54
147 141 63
147 141 62
145 140 51
147 141 54
137 131 54
134 130 47
136 132 57
145 139 59
139 134 51
129 127 36
135 133 52
133 130 45
140 143 39
143 147 42
145 148 47
155 164 42
145 155 25
155 166 32
158 172 25
154 169 28
161 176 25
164 181 19
166 186 0
168 187 11
168 187 11
170 189 0
171 192 0
169 191 0
169 189 0
173 194 0
171 195 0
170 194 0
171 194 0
171 195 0
172 196 0
174 198 0
169 193 0
173 196 0
170 192 0
173 196 0
176 198 0
171 194 0
171 195 0
170 194 0
170 193 0
171 194 0
173 196 0
171 195 0
171 194 0
169 193 0
170 193 0
173 196 0
168 192 0
171 195 0
170 194 0
173 197 0
172 195 0
172 196 0
172 194 0
170 194 0
169 193 0
172 196 0
170 193 0
170 193 0
168 191 0
169 193 0
171 195 0
166 190 0
172 195 0
168 192 0
168 192 0
170 193 0
171 194 0
172 195 0
171 195 0
171 194 0
171 194 0
169 193 0
169 192 0
172 195 0
169 192 0
166 190 0
168 190 0
169 193 0
170 194 0
172 195 0
170 193 0
164 188 0
172 194 0
170 193 0
169 193 0
171 194 0
168 191 0
169 193 0
167 191 0
167 191 0
172 196 0
171 195 0
172 195 0
166 190 0
166 189 0
170 193 0
163 186 0
165 188 0
173 196 0
169 192 0
168 192 0
164 187 0
171 194 0
167 190 0
168 191 0
170 193 0
170 194 0
166 190 0
167 191 36
144 168 88
88 118 134
62 98 158
60 95 150
63 99 163
62 98 164
61 97 159
62 98 164
62 98 162
62 98 163
62 99 170
61 97 160
62 99 170
63 99 169
62 99 169
61 98 159
62 98 163
60 96 160
61 98 165
62 98 168
62 98 162
63 99 172
62 98 169
61 98 162
62 98 168
62 99 170
62 98 169
62 98 169
62 98 168
61 97 162
62 99 173
61 98 171
62 98 171
62 98 168
63 99 173
62 99 169
62 99 173
63 99 172
62 99 172
62 99 171
62 99 174
62 99 175
62 99 172
62 99 170
62 98 170
62 99 171
62 99 177
62 99 174
61 98 172
62 99 176
62 99 176
62 98 166
62 99 175
62 99 176
62 98 173
62 98 170
61 98 169
63 99 176
62 98 172
62 99 171
62 98 172
61 98 173
62 99 175
62 99 170
62 98 172
62 98 172
61 98 171
62 98 174
62 99 172
62 99 175
62 99 173
62 98 169
62 99 177
62 99 171
62 98 166
62 99 173
61 98 166
62 98 169
62 98 168
63 99 177
62 99 173
62 98 169
63 100 177
62 99 176
63 99 176
63 99 175
63 99 172
62 99 167
62 99 172
62 99 172
62 99 172
62 98 168
62 99 172
61 98 165
63 99 179
62 99 170
62 98 167
62 99 175
62 99 176
62 99 176
63 99 174
62 99 170
63 99 171
62 98 169
62 99 176
63 100 174
61 98 167
62 98 168
61 98 171
62 99 172
62 98 166
62 99 173
61 98 165
62 99 169
63 99 168
62 99 171
62 99 172
61 98 169
61 98 166
62 99 172
63 100 175
62 99 170
63 99 168
62 99 169
62 99 172
62 98 169
62 99 174
62 99 171
62 99 173
62 98 167
62 98 166
62 98 166
62 98 168
62 98 172
62 98 166
62 99 165
62 98 166
62 99 173
62 98 171
62 98 167
61 98 168
62 99 167
62 98 161
61 98 168
62 98 166
62 98 164
63 99 172
63 99 168
62 98 171
61 97 162
61 98 163
62 98 166
63 100 173
62 98 163
62 98 167
62 97 165
62 98 165
62 98 169
62 98 165
61 97 163
61 97 156
62 97 154
62 98 161
61 97 162
62 98 162
61 97 161
61 96 149
61 96 154
60 95 153
60 95 153
60 95 150
62 96 157
61 95 154
60 94 155
60 95 151
58 92 147
60 89 133
55 80 114
57 69 72
69 74 42
57 61 28
61 65 33
73 76 35
74 76 33
64 68 36
66 70 34
87 88 44
81 83 40
76 79 36
72 76 34
88 90 42
85 87 50
87 90 48
85 87 51
104 105 55
96 98 50
104 104 52
110 109 49
101 102 43
101 102 54
124 121 63
110 110 51
124 122 61
114 113 58
128 126 65
123 121 63
129 126 60
134 133 65
136 133 66
128 128 63
134 132 66
141 138 71
142 139 64
145 141 69
132 130 64
149 145 74
141 137 64
140 136 66
146 142 68
145 140 74
147 143 67
155 150 76
151 147 74
153 148 68
147 143 66
139 135 67
152 148 70
154 148 78
157 152 78
160 154 77
151 146 68
161 155 76
152 147 76
155 149 73
160 154 80
156 151 71
154 148 71
157 152 72
165 158 82
164 157 79
162 156 72
158 153 69
163 157 74
155 149 67
161 154 69
156 150 74
165 158 81
160 154 77
159 155 74
157 150 71
160 154 74
159 153 66
157 151 67
161 156 73
163 157 70
157 152 65
163 157 78
159 154 72
160 153 74
161 155 69
159 153 66
163 156 72
163 156 72
153 148 68
156 150 73
168 160 78
158 152 69
161 154 73
168 160 77
160 154 71
162 154 71
155 149 69
160 154 71
151 145 64
155 148 63
154 148 56
153 148 69
146 141 56
155 148 65
147 141 66
148 142 54
139 134 57
143 137 62
147 141 64
150 145 58
134 129 49
140 135 52
140 134 58
141 136 56
146 141 57
144 139 57
135 130 56
142 137 56
139 135 54
138 135 44
126 125 42
138 138 42
132 136 41
156 161 49
151 159 44
152 160 37
160 169 36
158 170 39
159 174 22
159 173 25
160 178 19
167 186 11
166 186 0
167 187 0
168 189 0
172 194 0
171 192 0
169 190 0
172 193 0
171 192 0
171 194 0
173 196 0
171 194 0
169 193 0
174 198 0
170 193 0
172 195 0
169 193 0
173 197 0
173 197 0
173 196 0
174 197 0
171 194 0
171 195 0
171 194 0
172 195 0
168 191 0
171 194 0
171 194 0
173 196 0
173 196 0
171 194 0
170 194 0
169 193 0
172 196 0
168 191 0
169 192 0
172 195 0
171 194 0
170 193 0
173 195 0
171 194 0
169 193 0
170 194 0
173 196 0
173 196 0
171 194 0
168 192 0
169 192 0
173 196 0
170 193 0
167 192 0
173 196 0
171 194 0
168 192 0
174 195 0
169 191 0
170 194 0
168 191 0
172 195 0
172 195 0
170 193 0
171 195 0
169 193 0
170 194 0
168 191 0
172 195 0
173 195 0
171 194 0
171 194 0
171 195 0
172 196 0
172 196 0
170 193 0
168 192 0
168 192 0
167 190 0
170 193 0
171 195 0
169 192 0
169 192 0
171 195 0
169 192 0
170 193 0
168 190 0
168 191 0
169 193 0
170 194 0
170 193 0
165 188 0
164 189 0
166 191 0
165 189 0
168 190 0
162 186 57
126 151 107
78 110 145
62 98 162
61 97 159
62 98 164
62 98 161
63 99 167
62 98 160
62 97 156
62 98 153
62 98 160
62 99 167
62 98 158
61 97 162
62 98 163
62 98 167
62 98 168
62 98 168
63 99 170
62 98 163
61 98 166
62 98 168
62 98 166
61 98 167
61 98 171
62 98 163
63 99 170
61 98 168
62 98 170
63 99 170
63 99 171
62 99 173
62 98 169
61 98 167
62 99 175
62 99 173
62 99 172
62 99 172
62 99 172
62 99 171
63 99 173
62 98 168
61 98 172
62 99 175
62 99 171
62 98 170
62 99 175
62 99 171
61 98 168
62 99 172
61 98 171
62 98 171
62 98 168
62 99 176
63 99 172
62 99 172
62 99 170
62 99 172
63 99 169
62 98 170
62 99 174
62 99 173
62 99 171
63 99 175
62 99 174
62 99 178
63 99 174
62 99 173
62 99 173
62 99 174
62 99 173
62 98 172
62 99 171
61 98 169
62 99 173
62 99 173
63 99 168
61 98 169
62 99 175
63 99 173
62 99 169
63 100 178
63 100 174
62 98 167
63 99 171
62 99 173
62 99 170
62 98 175
62 98 169
62 99 174
62 98 171
62 99 175
61 98 166
62 98 164
62 99 168
63 99 176
62 98 167
62 99 172
62 98 173
61 98 169
62 99 175
63 99 171
62 99 175
63 99 170
62 99 168
62 99 168
62 99 171
62 98 167
62 98 166
62 99 172
63 99 173
62 99 173
62 99 169
63 99 175
62 98 165
62 99 175
62 99 165
63 100 178
62 98 167
61 98 169
63 99 168
63 99 172
61 98 164
62 98 163
62 98 165
62 99 168
62 99 170
63 99 171
62 98 168
62 98 165
62 98 166
62 99 168
62 98 166
62 98 167
61 98 160
62 99 169
61 98 168
62 98 166
62 98 169
62 98 166
61 98 165
62 98 163
62 99 172
62 98 166
62 98 166
62 98 163
61 98 163
62 98 169
63 99 168
61 97 158
62 98 162
62 98 163
62 98 164
61 98 166
62 99 168
61 97 159
63 99 166
61 98 159
62 98 166
62 97 158
61 97 161
60 95 150
61 96 156
62 98 163
60 95 154
61 97 161
61 97 159
62 97 157
60 95 150
60 94 154
62 97 162
61 97 160
60 95 149
61 96 155
59 94 148
59 93 151
58 90 130
57 80 110
59 72 75
60 66 44
58 64 28
70 74 30
58 63 24
63 65 19
67 70 35
72 75 31
81 81 41
80 82 36
79 82 39
84 85 42
89 91 47
98 100 44
94 93 46
94 96 54
85 89 54
107 107 55
96 98 57
108 107 57
111 110 53
112 111 54
111 110 58
116 115 58
118 116 56
120 118 49
126 124 60
123 121 60
131 128 65
131 128 62
134 131 61
137 133 68
135 132 67
133 130 63
139 135 65
151 147 71
131 130 54
148 144 76
147 143 71
143 140 68
146 141 66
143 139 62
147 143 68
148 142 70
150 145 72
142 139 68
150 145 65
161 155 80
152 147 70
147 142 72
154 149 69
158 151 71
156 150 72
157 151 72
161 155 77
159 153 75
161 155 75
160 153 79
162 156 80
162 157 75
157 152 67
163 156 78
157 152 68
158 153 69
158 153 72
152 147 69
156 150 63
163 156 78
156 150 67
165 158 76
161 154 71
164 157 75
158 153 66
162 156 72
160 154 62
161 155 71
165 159 73
161 154 79
156 150 67
157 151 68
159 152 70
160 155 72
159 153 74
155 149 71
159 153 74
156 150 69
157 151 68
164 157 75
153 147 67
157 150 73
144 140 57
158 152 64
148 143 61
156 149 67
158 151 73
148 142 57
152 147 67
149 142 57
156 150 70
152 146 66
148 142 62
149 143 63
150 145 61
151 144 67
147 141 68
156 150 76
138 132 52
144 138 60
149 143 62
151 146 63
142 137 58
136 132 52
129 124 51
138 133 53
132 127 52
135 131 51
137 132 54
147 147 45
147 149 44
145 144 48
139 146 32
142 149 37
154 162 39
156 168 30
151 162 25
158 170 30
162 178 28
164 181 22
168 188 16
167 186 11
166 187 0
169 189 0
169 188 0
168 189 0
168 190 0
171 191 0
172 194 0
170 194 0
170 194 0
171 195 0
172 196 0
174 197 0
169 192 0
173 196 0
172 195 0
172 195 0
173 197 0
172 195 0
168 192 0
173 196 0
169 192 0
172 195 0
172 195 0
175 198 0
166 191 0
170 193 0
167 190 0
174 197 0
172 195 0
168 192 0
172 195 0
168 191 0
170 194 0
172 195 0
173 197 0
170 193 0
165 189 0
170 194 0
171 195 0
172 195 0
171 194 0
170 193 0
167 191 0
167 191 0
171 195 0
169 192 0
171 194 0
171 194 0
172 195 0
171 194 0
171 194 0
168 191 0
172 195 0
166 189 0
168 191 0
171 194 0
169 193 0
168 192 0
168 191 0
170 193 0
171 195 0
171 194 0
168 191 0
171 194 0
171 194 0
168 192 0
172 196 0
168 192 0
167 191 0
168 191 0
171 194 0
169 192 0
168 191 0
168 192 0
168 192 0
166 189 0
170 194 0
165 189 0
168 191 0
171 195 0
171 194 0
170 194 0
172 195 0
165 187 0
166 189 0
168 191 0
170 193 0
168 191 0
171 194 0
167 190 0
170 193 0
161 185 44
135 158 99
76 108 141
62 98 164
61 97 155
62 98 161
62 98 158
61 97 154
61 97 160
60 96 154
62 97 162
62 98 164
61 97 162
62 98 168
62 98 164
61 98 165
62 99 173
62 98 167
61 98 168
61 98 164
61 97 163
62 99 166
62 98 168
62 99 170
62 99 170
62 98 165
62 98 173
61 98 161
62 99 171
62 99 170
63 99 172
61 98 168
61 97 168
61 98 168
62 98 168
62 99 174
61 98 170
63 99 175
62 98 169
62 98 173
62 99 173
61 98 173
62 98 171
62 98 173
62 99 172
62 98 170
62 99 170
62 99 173
62 98 172
62 99 172
61 98 169
62 98 171
61 98 171
62 99 175
62 99 174
62 98 169
62 99 176
62 99 171
62 99 174
62 98 168
62 98 170
62 98 174
62 98 172
62 98 167
62 99 173
62 99 172
62 99 172
62 99 164
62 99 172
62 99 175
62 98 170
62 98 169
62 99 172
63 100 176
62 99 170
62 99 174
61 98 167
62 99 175
62 99 173
62 99 172
62 99 177
62 99 175
62 99 173
62 99 175
62 99 173
62 99 173
63 99 173
62 98 173
62 99 175
62 98 171
62 99 171
62 98 169
62 98 165
61 98 169
62 99 173
62 98 168
62 98 169
62 99 171
62 98 172
63 99 173
62 99 171
62 99 172
63 99 175
62 99 170
62 98 167
62 98 171
62 98 167
62 99 174
62 98 170
63 99 166
62 98 172
61 98 170
62 98 169
63 99 171
62 99 171
62 99 171
62 99 172
62 98 166
62 99 174
62 99 170
62 98 169
62 98 169
62 98 166
63 99 170
62 98 164
62 98 171
63 99 170
62 99 169
62 98 164
62 99 171
62 99 172
62 99 168
63 99 171
62 99 168
62 98 166
62 98 166
62 99 167
62 99 169
62 98 163
62 99 168
62 98 170
62 98 166
61 97 162
62 98 163
61 97 159
61 97 162
63 99 169
62 98 166
61 97 165
62 98 159
62 97 163
63 99 171
61 98 163
62 99 169
62 98 158
62 99 167
63 99 165
62 98 165
62 98 163
62 98 161
62 98 164
61 97 159
62 98 160
61 96 151
61 97 161
62 97 159
62 98 165
61 97 159
62 98 166
62 97 159
61 97 157
60 95 152
62 97 161
60 95 152
62 97 156
60 94 156
59 93 144
59 91 139
55 82 114
62 73 65
51 62 54
50 53 17
63 66 29
66 70 29
74 77 35
64 68 33
73 75 35
83 84 36
81 84 39
72 76 40
85 88 31
88 89 40
90 91 45
100 100 46
92 95 49
104 105 51
106 106 49
94 96 52
98 100 49
108 107 53
107 108 41
114 113 52
111 110 55
121 120 57
115 115 66
123 121 56
125 123 58
119 117 55
117 115 53
138 135 59
122 120 55
139 135 65
146 142 69
136 132 65
129 128 59
137 134 67
143 138 68
136 133 68
145 140 69
145 141 72
143 139 68
147 142 61
147 142 66
150 144 69
147 143 71
142 139 68
148 144 63
144 140 70
148 143 70
148 144 68
154 149 71
155 150 79
150 145 63
164 157 73
159 153 76
157 151 75
153 146 70
156 150 74
156 151 70
160 154 75
156 150 70
164 158 69
160 155 73
162 155 73
158 152 73
158 152 71
155 151 71
159 153 71
160 153 71
159 153 73
162 156 74
156 151 73
162 156 74
164 157 76
161 154 69
152 145 61
159 153 70
160 153 65
159 153 67
162 155 78
164 156 80
159 152 69
158 151 71
157 152 67
163 156 71
158 152 66
158 152 73
161 155 63
161 154 78
150 145 61
154 150 61
145 139 59
148 143 60
151 145 64
155 149 71
155 149 66
145 140 59
148 143 54
148 143 57
143 138 52
148 143 56
153 146 66
151 146 63
141 135 60
154 147 63
140 135 44
147 141 53
142 135 59
134 129 53
138 132 54
152 145 59
134 129 48
138 133 49
142 137 52
136 132 51
152 148 58
141 141 45
140 141 39
147 151 37
147 153 39
152 160 30
148 158 25
152 164 30
157 170 22
159 175 25
163 182 11
161 177 16
166 186 0
168 187 11
172 193 0
170 189 0
169 190 0
167 188 0
169 190 0
170 193 0
169 190 0
169 193 0
173 196 0
172 196 0
171 194 0
168 192 0
175 198 0
172 196 0
171 195 0
169 193 0
170 195 0
172 195 0
172 195 0
171 195 0
170 194 0
171 195 0
168 192 0
170 193 0
169 193 0
172 195 0
171 194 0
170 193 0
172 195 0
169 192 0
171 194 0
174 197 0
170 194 0
172 195 0
169 193 0
173 197 0
172 195 0
170 193 0
170 193 0
171 194 0
168 192 0
170 194 0
174 197 0
174 197 0
172 195 25
173 195 44
173 196 0
170 194 0
170 192 0
172 195 0
169 193 0
170 193 0
170 194 0
167 190 0
173 195 0
171 195 0
173 196 0
169 193 0
170 193 0
168 191 0
165 189 0
173 196 0
170 194 0
169 193 0
169 193 0
168 190 0
170 193 0
169 192 0
168 191 0
167 191 0
171 193 0
173 196 0
170 193 0
169 192 0
171 194 0
170 193 0
166 189 0
169 193 0
171 194 0
166 189 0
165 188 0
163 187 0
169 192 0
167 191 0
169 193 0
167 191 0
166 189 0
167 191 0
161 185 0
162 185 0
166 190 18
152 175 60
120 146 118
72 104 147
61 98 164
62 98 153
62 97 156
61 97 162
61 97 163
61 97 158
62 99 166
61 97 155
63 99 169
62 98 161
61 97 157
62 98 164
62 98 162
63 99 169
62 98 164
61 97 164
63 99 170
62 98 164
63 99 170
62 98 162
61 97 162
62 99 168
62 99 170
62 99 171
62 98 170
62 99 173
61 98 166
62 98 167
62 99 172
62 98 167
62 99 169
62 99 170
62 99 172
62 99 174
62 99 175
62 99 170
62 98 171
62 99 173
61 98 167
62 99 171
63 99 172
61 97 170
62 99 171
61 97 172
62 98 171
62 99 169
61 98 170
62 99 174
63 99 175
62 99 175
62 99 175
62 99 172
62 99 175
61 98 165
62 99 173
62 98 170
63 99 175
61 98 165
62 99 173
61 98 168
63 99 174
61 98 173
62 99 174
61 98 171
62 98 172
62 99 172
62 99 169
62 99 171
62 99 171
62 98 167
62 99 172
62 98 173
61 98 166
61 98 174
62 99 173
62 99 177
62 99 175
62 99 170
62 98 170
62 99 170
63 99 173
61 98 169
61 98 171
62 98 168
62 98 170
62 99 174
62 99 174
62 99 176
63 99 173
62 98 168
61 98 166
62 99 168
63 100 175
62 98 169
62 99 171
62 99 172
63 100 174
62 99 169
62 99 170
63 99 173
62 99 172
62 99 171
63 99 169
62 98 171
62 99 171
62 99 171
63 99 171
63 99 171
62 99 170
63 99 170
62 99 169
62 98 170
62 98 168
62 99 170
63 99 175
62 99 170
62 99 170
63 99 170
63 99 174
63 99 172
62 99 173
62 98 164
61 98 165
62 99 168
62 98 165
62 98 164
62 98 160
63 99 171
61 97 165
63 99 171
63 99 171
62 99 173
62 99 167
62 99 172
62 98 165
61 98 162
62 98 163
62 99 168
62 98 169
62 98 161
61 98 163
61 98 162
61 98 170
62 98 163
61 97 160
62 98 164
62 99 168
62 98 164
61 98 158
61 97 156
62 98 169
61 98 166
62 98 166
62 97 157
62 98 164
63 99 162
62 98 164
62 98 164
62 98 165
60 95 145
62 98 164
62 97 162
62 98 156
60 95 157
61 97 160
61 97 159
60 96 152
61 96 160
61 95 154
61 96 161
59 93 143
59 94 153
59 93 143
57 90 137
58 90 146
64 87 113
71 83 82
64 70 59
58 63 32
73 74 25
68 71 36
77 78 34
70 73 30
68 71 29
76 78 34
86 86 41
86 88 39
80 83 37
83 85 35
84 86 42
94 95 44
93 93 43
102 103 49
103 102 49
112 110 52
106 108 50
100 100 55
111 110 56
109 109 55
121 120 60
112 112 47
120 119 58
120 119 51
126 125 59
113 113 60
119 119 58
126 125 64
132 129 55
136 133 59
129 127 66
132 129 60
132 130 65
129 127 63
133 130 65
140 136 65
131 129 55
141 136 66
149 145 70
145 140 71
142 139 71
153 147 73
142 138 66
154 149 61
151 146 71
149 144 76
150 145 71
158 153 75
153 147 74
150 144 68
150 145 68
161 155 74
161 155 75
157 152 69
152 146 69
161 155 74
148 143 65
159 152 74
156 151 68
154 148 65
156 150 70
154 149 67
166 160 75
160 153 74
153 148 61
159 152 71
163 157 78
163 157 71
152 146 65
162 156 69
162 155 69
159 153 68
154 147 75
158 152 69
158 153 68
164 156 76
152 147 66
156 150 70
152 146 67
153 146 67
158 152 74
154 147 69
155 149 67
158 152 67
155 149 63
160 154 66
150 144 65
154 148 69
143 138 56
154 148 70
155 149 68
151 145 64
159 153 64
156 150 67
154 148 66
146 141 62
162 156 70
155 149 61
148 141 61
138 133 51
143 137 52
151 146 64
149 143 58
142 136 54
145 138 51
156 150 68
144 138 63
135 131 51
139 134 47
139 133 53
131 126 45
132 129 48
132 129 42
128 129 44
150 150 49
134 141 25
141 142 47
149 157 37
146 153 36
152 163 28
159 172 30
158 174 19
160 177 16
161 180 16
168 187 0
172 193 0
168 188 0
167 187 0
171 191 0
167 187 0
167 185 0
169 190 0
167 188 0
170 191 0
173 197 0
172 195 0
173 197 0
170 193 0
169 193 0
170 194 0
172 195 0
171 195 0
169 193 0
171 195 0
171 195 0
173 196 0
172 196 0
170 194 0
171 195 0
175 198 0
172 195 0
170 195 0
174 196 0
167 190 0
172 195 0
169 193 0
173 195 0
172 196 25
169 192 0
171 194 0
173 195 0
170 194 0
173 196 25
173 196 0
169 193 0
172 195 0
169 193 36
168 191 0
170 193 25
172 196 0
172 196 44
170 194 0
172 195 25
172 195 25
172 196 25
170 194 0
170 194 0
172 195 0
172 195 36
168 192 36
166 190 0
167 191 0
169 191 0
170 194 0
171 193 0
170 193 25
167 190 25
171 194 25
170 194 0
168 191 0
168 191 0
168 192 0
168 191 0
169 192 0
171 194 0
167 190 0
171 195 0
167 190 0
170 193 0
168 192 0
165 189 0
168 191 0
170 193 0
168 191 0
168 190 0
165 188 0
166 189 0
168 192 0
168 192 0
168 190 0
166 189 0
170 193 0
169 192 0
166 190 0
170 193 0
168 191 0
173 197 0
167 190 0
147 172 86
113 138 124
64 99 156
60 95 145
61 96 153
61 97 156
62 98 160
62 98 165
61 97 159
62 98 164
61 96 154
61 96 155
61 98 160
62 98 165
62 99 168
61 97 163
62 98 167
61 97 162
62 99 167
63 99 170
62 98 167
62 98 167
63 99 169
62 98 167
62 98 167
62 98 166
62 99 173
62 99 171
61 98 167
62 98 168
61 98 170
61 97 167
62 98 165
63 99 171
62 98 170
62 98 170
62 99 174
62 99 170
63 99 169
63 100 176
62 98 167
63 100 175
62 99 173
63 99 175
62 98 167
62 99 171
62 99 174
62 98 168
62 98 169
62 98 170
62 99 174
62 98 171
62 99 170
62 99 175
62 98 172
61 97 167
62 98 169
62 98 170
61 98 173
61 98 168
62 98 168
61 98 172
62 99 173
63 99 177
62 99 171
62 99 171
62 99 174
62 99 169
62 98 168
62 98 169
62 98 171
62 98 173
62 99 173
63 99 172
62 99 174
62 98 171
62 99 172
62 98 171
62 99 175
62 99 172
62 99 172
62 98 169
61 98 166
61 98 168
62 98 168
63 99 177
62 99 170
62 99 175
62 98 172
62 99 173
63 99 175
62 99 173
62 99 175
62 98 169
62 98 168
63 99 172
62 99 173
62 99 170
62 99 170
63 99 173
62 99 170
62 99 175
62 98 163
62 99 174
63 99 170
62 98 167
62 99 169
63 99 173
62 99 166
62 98 171
62 98 168
61 98 165
62 99 172
62 99 170
63 99 171
62 99 169
61 98 166
61 98 168
62 98 169
62 99 173
62 98 168
62 99 172
61 98 166
62 99 169
62 98 167
62 99 167
63 99 170
62 99 172
62 98 167
62 99 172
62 99 173
63 100 171
62 98 167
62 98 165
63 99 171
61 98 168
63 99 168
63 99 167
62 98 167
61 98 167
62 98 162
61 97 163
62 98 165
63 99 166
63 100 173
63 99 168
62 98 162
62 98 164
62 99 167
63 99 167
62 98 164
62 98 162
61 97 158
62 98 166
61 98 167
62 98 165
62 98 164
61 97 156
62 98 162
63 99 168
61 96 153
61 97 162
62 99 167
62 98 161
61 96 151
62 97 157
61 97 161
62 97 156
61 96 159
60 95 157
61 96 154
61 97 160
62 97 157
61 95 155
61 95 154
60 94 146
60 94 149
59 92 145
66 92 126
66 83 112
71 77 56
87 89 43
67 68 20
71 73 20
79 80 34
66 69 32
70 75 32
82 84 32
77 78 35
76 78 24
76 78 27
89 90 38
96 97 45
93 94 46
93 94 45
101 103 45
103 104 50
96 97 43
98 99 40
118 118 49
95 98 40
100 100 43
111 112 49
106 106 50
111 111 50
119 118 60
120 120 54
124 122 55
126 124 53
127 125 63
129 127 55
126 125 59
123 120 60
131 128 59
134 132 53
137 133 60
145 142 61
133 130 63
138 135 60
144 140 60
135 132 59
141 137 66
140 136 60
155 149 74
138 133 62
143 139 61
143 141 61
151 146 65
147 143 62
160 154 73
157 151 71
152 146 66
151 146 68
159 153 67
146 142 67
153 147 64
158 151 75
156 150 65
159 153 75
151 146 65
155 150 71
158 152 69
154 148 68
156 150 66
162 155 78
160 153 69
159 154 71
153 148 62
163 156 74
154 148 67
157 151 62
154 148 69
160 153 75
167 159 77
156 150 64
161 154 69
162 156 72
160 154 73
160 154 63
165 157 77
157 151 61
150 145 61
156 150 64
152 146 63
159 153 70
159 152 75
153 147 65
158 151 63
156 149 68
157 150 70
149 144 61
158 152 71
150 145 57
149 144 63
157 151 69
152 146 60
144 138 59
143 137 60
153 147 65
145 139 53
142 137 56
144 138 57
150 144 61
147 141 62
143 138 58
141 135 49
139 134 37
135 130 52
135 130 48
147 142 63
147 141 60
145 139 57
141 134 54
132 129 45
145 140 54
141 141 42
147 149 45
142 144 39
142 148 30
144 152 28
152 163 34
156 168 28
163 177 22
165 179 22
165 181 16
163 181 11
165 182 11
168 187 0
170 190 0
173 194 0
171 191 0
169 189 0
171 191 0
170 192 0
173 193 0
171 192 0
170 194 0
172 195 0
172 195 0
171 194 0
171 194 0
173 197 0
172 195 0
171 194 0
173 197 0
170 194 0
172 195 0
169 193 0
169 193 0
172 196 0
172 197 0
170 194 0
172 196 25
174 196 0
172 194 0
169 192 0
168 191 25
170 194 25
174 198 0
166 190 25
165 189 0
170 194 25
170 193 25
169 193 0
171 193 25
171 195 0
171 194 25
170 193 25
172 196 36
169 191 36
171 195 25
171 194 25
173 197 25
170 193 36
174 196 51
170 193 36
170 193 51
171 194 57
166 190 25
172 196 25
168 191 44
164 187 0
174 197 25
167 190 44
173 195 36
173 196 44
170 193 36
173 195 51
171 194 36
167 190 25
170 193 25
173 196 25
170 193 25
172 195 36
172 194 25
172 195 25
171 194 0
170 194 25
169 193 0
168 191 0
168 191 0
169 193 0
167 190 0
172 195 0
170 193 0
168 191 0
171 194 0
168 192 0
167 190 0
165 188 0
171 194 0
170 193 0
169 191 0
168 191 0
165 189 0
169 192 0
164 186 0
167 190 0
168 191 0
163 186 36
142 165 76
101 129 126
62 97 159
61 96 151
62 98 158
61 97 160
61 97 155
61 97 155
62 98 158
61 97 157
62 98 165
61 97 157
63 99 173
61 98 166
62 98 161
61 97 161
62 98 160
63 99 164
61 97 161
62 98 168
61 98 163
62 98 165
61 97 161
62 98 165
62 98 168
62 99 172
61 98 173
62 98 165
61 97 161
62 98 169
63 99 174
62 99 170
62 98 168
62 99 171
62 98 169
62 98 171
62 98 171
62 99 174
62 98 171
62 99 171
62 98 173
63 99 171
62 98 165
61 98 168
61 98 171
63 99 170
62 99 175
62 98 171
62 98 166
62 98 169
62 99 171
62 98 171
61 97 163
62 98 170
61 98 171
62 99 171
62 98 168
63 99 174
61 98 175
62 99 170
62 98 169
62 99 174
62 98 170
61 98 167
63 99 174
62 99 173
62 99 173
62 98 172
61 98 170
62 99 174
62 98 169
62 99 171
62 98 170
62 98 164
62 98 170
62 99 171
62 99 172
61 98 167
61 97 163
62 98 169
62 99 171
63 99 169
62 99 172
62 99 173
63 99 172
62 99 170
62 98 167
62 99 171
62 98 169
62 98 168
62 99 172
63 99 176
62 99 173
61 98 168
62 99 170
63 99 171
63 100 175
62 99 172
61 98 164
62 99 169
61 98 166
62 99 172
62 99 169
63 99 173
63 99 169
62 98 168
63 99 175
62 99 175
62 98 167
62 98 168
63 99 164
63 99 172
62 99 171
63 99 170
62 98 169
62 98 166
63 99 174
62 99 168
62 98 164
62 98 163
62 99 175
62 99 174
62 98 168
62 98 165
62 98 165
62 98 167
62 99 169
62 99 169
63 99 168
62 98 168
61 97 157
62 98 161
61 98 162
62 98 162
62 99 171
63 99 170
62 98 167
62 98 169
62 99 171
62 98 166
62 98 166
61 98 162
62 98 164
62 98 163
62 99 170
62 98 164
62 99 173
61 98 161
62 98 165
63 99 166
62 98 165
62 98 166
62 98 162
62 98 161
62 98 161
61 97 162
62 99 169
62 98 166
61 97 163
62 98 163
61 97 159
61 96 154
63 99 167
61 97 160
61 96 154
61 97 157
62 98 161
61 97 159
61 96 156
61 96 156
62 97 162
62 97 156
62 97 154
61 95 154
59 94 144
59 93 146
60 94 142
61 96 151
58 85 126
68 83 95
64 74 70
71 73 44
80 81 22
69 71 32
79 81 29
83 86 34
75 77 38
85 86 32
93 93 39
93 92 39
78 79 29
88 89 36
84 85 45
101 101 41
96 96 41
100 101 41
107 107 51
98 98 42
94 94 40
116 114 46
103 104 49
113 113 45
118 117 54
110 110 54
99 100 41
113 112 50
126 125 51
125 124 58
122 121 49
121 119 49
119 118 52
126 124 55
137 132 58
125 123 57
128 125 53
141 137 62
149 145 74
142 138 66
145 141 62
140 137 62
136 133 62
134 131 62
145 140 63
139 136 64
142 138 58
138 135 58
146 142 63
146 140 65
153 148 67
155 149 67
147 143 61
148 144 65
148 142 60
155 150 61
151 145 68
159 154 75
149 144 64
151 146 62
158 151 74
159 152 70
164 157 77
156 149 74
161 155 69
146 142 58
160 154 65
160 154 76
149 144 57
160 153 73
157 151 72
160 154 69
158 152 71
152 147 64
159 153 71
158 152 64
157 150 71
157 152 64
153 146 68
155 149 68
154 149 60
148 143 56
157 151 63
157 150 58
149 144 63
160 153 68
159 152 71
152 147 63
160 154 63
156 150 67
153 147 62
148 143 68
158 152 67
152 147 64
160 153 68
157 150 71
154 148 67
153 147 63
148 141 56
148 142 59
146 140 58
148 142 61
134 129 44
143 138 54
149 143 54
148 142 61
142 135 51
133 129 51
142 137 54
139 135 59
131 126 41
138 131 58
137 131 49
135 130 47
147 142 56
140 138 49
134 135 37
138 139 41
142 149 39
147 152 39
147 153 30
158 167 37
156 165 36
157 170 19
159 171 25
157 172 19
160 176 16
168 186 0
165 182 0
165 186 0
167 187 0
168 189 0
171 191 0
167 186 0
170 192 0
170 190 0
173 193 0
171 190 0
172 196 0
171 195 0
173 196 0
170 194 0
173 196 0
170 194 0
171 194 0
170 193 0
172 195 0
172 195 0
171 194 25
170 193 36
172 196 0
168 191 0
173 196 25
171 193 25
169 193 0
169 193 0
174 197 36
170 193 25
168 192 36
172 195 0
173 197 25
172 195 36
170 194 36
174 197 25
172 195 36
173 196 0
172 196 0
172 194 44
172 195 62
172 195 36
169 193 25
167 191 57
173 196 44
171 195 44
171 194 36
170 192 25
171 194 36
171 194 44
173 196 51
173 196 51
171 194 51
171 195 0
169 193 36
172 195 25
173 196 51
169 192 25
174 197 36
172 196 36
171 194 36
172 195 36
166 189 0
171 194 36
170 194 0
166 188 0
168 191 0
173 196 0
172 196 51
167 191 36
174 196 25
170 193 36
169 192 0
168 192 0
165 189 0
169 192 0
167 190 0
167 190 0
173 195 0
169 193 0
169 192 0
171 194 0
171 194 0
169 194 0
167 190 0
172 196 0
168 191 0
167 189 0
170 193 0
167 190 0
169 193 0
169 193 0
167 190 0
165 189 44
142 167 88
97 126 145
62 98 158
62 98 158
61 96 155
61 96 152
61 97 161
61 97 156
61 97 158
62 98 159
61 98 165
62 98 163
62 98 165
61 97 161
60 96 160
61 97 162
62 99 167
61 97 162
62 98 162
62 98 163
62 98 161
61 97 161
62 98 167
62 99 169
62 99 167
62 99 170
62 99 173
62 98 169
62 98 171
62 98 167
62 98 166
62 98 167
62 98 168
62 99 171
62 98 169
62 98 169
62 98 171
62 98 169
62 99 165
62 99 169
63 99 172
62 99 172
62 98 171
63 99 172
62 99 173
61 98 166
62 98 171
62 99 174
62 98 167
63 99 173
62 99 173
63 99 168
61 98 165
62 99 171
62 98 175
62 98 169
62 98 166
63 99 171
62 99 173
63 99 169
62 99 172
61 98 171
62 98 169
63 99 170
62 99 169
62 98 168
63 99 171
62 99 170
61 98 169
62 99 170
63 99 172
62 99 175
62 98 172
62 98 169
62 99 172
62 99 172
62 99 174
62 98 172
62 98 165
61 98 171
62 98 172
62 99 171
63 99 174
62 98 167
62 98 166
61 98 172
62 99 173
62 98 170
62 98 170
62 99 172
63 99 171
62 98 170
62 98 168
62 98 167
62 98 171
63 99 173
62 99 172
62 99 172
63 99 172
62 99 172
62 98 166
62 99 175
62 98 172
61 98 169
62 98 169
62 98 168
62 99 172
63 99 170
62 98 167
62 98 167
63 99 176
62 98 163
62 99 167
62 99 175
61 98 167
62 99 175
62 98 169
62 99 172
63 99 170
61 98 167
63 99 171
62 98 167
62 98 168
62 98 174
63 100 175
62 98 165
63 99 172
61 97 161
63 99 168
61 98 165
63 99 169
61 97 163
62 98 166
61 97 162
62 99 170
61 98 168
62 99 165
62 98 167
62 98 169
61 98 168
62 99 171
62 98 165
63 99 168
62 98 167
62 98 167
62 98 160
62 98 161
62 98 160
63 99 161
62 98 162
61 97 161
62 98 164
62 98 161
62 99 168
61 97 157
63 98 163
62 98 168
62 98 164
61 96 152
62 98 162
62 98 160
62 98 167
62 99 167
61 96 157
62 97 159
61 97 156
61 96 155
61 97 158
61 96 153
61 96 152
60 95 150
59 93 146
60 95 155
61 96 155
61 96 158
60 96 153
60 94 146
60 94 145
55 85 126
64 84 100
63 75 76
65 69 33
74 75 23
70 73 24
71 74 31
78 80 25
73 75 29
79 80 32
69 70 33
85 86 35
83 87 37
91 92 36
90 90 34
92 93 38
98 98 47
99 98 46
106 106 51
106 106 51
100 101 46
91 92 27
106 106 42
107 107 59
108 108 50
119 116 51
111 111 50
118 116 59
125 123 60
130 128 60
124 122 49
127 125 54
128 124 65
116 116 47
132 129 57
141 137 60
142 138 64
129 127 56
130 127 55
134 131 58
148 143 68
134 131 63
144 140 65
134 131 59
139 137 59
148 143 67
148 141 65
144 139 66
157 151 74
145 140 64
143 138 65
154 148 71
152 146 73
154 147 69
149 144 66
148 143 61
159 153 67
151 145 71
154 149 71
160 153 72
151 145 69
151 146 63
146 141 63
156 151 64
149 144 63
154 147 64
156 151 63
158 151 68
151 145 62
159 153 70
157 151 63
153 147 62
158 152 67
159 152 71
157 151 70
156 150 61
158 152 67
159 152 71
158 153 66
157 151 62
152 147 62
147 142 61
159 153 66
156 150 65
150 144 67
155 149 67
157 150 67
154 148 62
159 153 70
149 143 59
153 147 61
145 138 61
141 136 49
147 141 58
150 144 63
151 144 61
143 138 53
148 142 60
150 144 51
148 143 57
138 134 52
138 132 58
143 137 58
144 139 56
138 133 47
143 137 49
144 138 57
147 141 57
132 127 52
148 142 57
134 130 54
139 133 59
133 126 52
140 136 56
135 132 49
140 138 49
135 135 47
136 140 30
145 152 30
147 156 32
148 155 36
151 160 32
159 172 16
163 178 16
157 170 19
161 177 16
165 182 19
169 189 0
168 187 0
164 185 0
170 190 0
168 188 0
171 191 0
172 191 0
171 192 0
171 193 0
170 190 0
167 188 0
171 194 0
169 193 0
173 196 0
173 197 0
171 195 0
169 193 0
171 194 0
168 191 0
171 194 0
172 194 25
172 196 0
172 195 25
172 195 44
173 196 36
169 193 25
173 196 44
172 196 36
171 193 44
171 194 0
175 198 57
169 192 44
174 196 44
168 191 51
171 194 51
174 197 57
171 194 36
172 195 36
169 193 36
174 197 51
171 194 44
173 195 51
172 195 44
174 197 62
167 190 36
173 196 51
175 198 44
166 189 44
171 194 36
172 195 36
169 191 36
171 195 36
175 197 51
168 191 25
175 197 76
173 195 57
172 195 44
172 195 44
169 192 51
172 194 25
173 196 44
172 195 36
169 192 44
170 194 51
170 192 36
173 197 25
170 194 0
173 195 51
171 195 36
168 190 44
174 196 25
170 193 36
171 193 36
170 194 0
167 191 25
167 191 0
171 194 25
168 191 25
168 191 0
167 191 25
167 190 36
164 187 0
170 194 0
169 192 0
169 192 0
169 192 0
171 194 0
164 187 0
169 192 0
167 191 0
169 193 0
165 188 0
171 194 0
168 191 0
159 182 31
149 173 82
85 115 147
61 97 154
62 98 159
61 97 153
62 97 156
62 97 154
62 98 160
61 97 156
61 97 159
62 98 164
61 98 162
61 97 161
63 99 165
61 98 160
62 97 162
61 97 164
61 97 160
61 98 168
62 99 168
62 98 167
62 98 167
63 99 172
62 98 160
62 99 171
61 97 165
61 97 163
62 99 170
62 98 166
61 98 168
61 97 164
60 96 155
62 99 166
62 98 166
61 98 166
61 97 165
62 99 171
61 98 166
62 99 168
62 98 166
62 99 173
61 98 164
62 99 170
62 98 175
61 98 165
62 99 174
62 99 172
63 99 174
62 99 170
62 98 170
62 99 171
62 99 172
61 98 169
62 98 166
61 98 161
62 98 172
62 98 171
62 98 168
63 99 171
62 99 176
62 99 174
62 99 167
62 98 168
62 99 170
62 99 172
62 98 168
62 98 169
61 98 164
62 99 172
62 98 167
61 98 172
62 98 166
62 99 166
62 99 170
62 98 170
62 99 169
62 99 176
62 98 171
62 99 172
62 98 168
62 99 172
62 99 169
62 99 167
62 98 168
62 98 166
62 99 171
62 99 171
61 98 164
62 98 164
62 99 170
63 99 169
63 99 175
62 99 172
62 98 167
61 98 165
62 99 172
62 99 168
62 99 175
62 99 171
63 99 169
62 99 171
63 99 172
62 99 171
62 98 164
63 99 169
61 98 171
62 98 164
63 99 173
62 98 169
63 99 171
62 98 169
62 98 167
62 99 170
62 99 170
62 98 166
62 99 169
62 99 167
62 99 168
62 98 168
62 99 174
63 99 172
62 98 164
62 99 167
62 98 165
62 98 168
62 99 170
62 99 167
62 98 164
62 98 169
62 99 166
64 100 172
62 98 163
62 99 164
62 98 166
63 99 169
62 98 162
62 99 166
62 98 167
62 98 166
62 98 166
61 97 160
62 98 165
62 98 165
62 98 163
61 97 157
61 97 159
62 98 157
63 99 164
62 98 160
63 99 163
62 98 165
62 98 161
62 98 166
62 98 165
62 98 159
62 98 167
61 97 159
62 98 158
63 99 168
61 97 159
62 98 164
61 97 160
62 97 158
61 97 160
61 97 164
62 98 161
62 97 162
62 97 158
62 97 158
62 97 158
61 96 156
60 95 143
61 96 154
61 95 152
61 96 150
59 93 143
61 96 155
58 92 145
61 91 129
60 84 115
58 70 74
79 80 38
76 75 23
73 74 23
86 86 15
69 73 23
80 82 32
76 77 34
85 87 29
82 82 34
88 88 40
88 90 37
80 84 36
85 88 36
97 98 44
89 90 43
105 105 52
99 99 45
103 102 45
108 107 44
107 107 47
114 112 57
104 104 46
101 102 52
119 118 54
113 112 52
131 129 60
119 117 44
123 122 51
126 123 57
122 121 57
113 112 44
121 119 55
128 125 51
126 124 53
133 130 60
131 127 58
131 128 53
132 128 59
137 133 57
142 139 60
148 143 62
136 133 53
143 139 57
145 141 63
140 136 64
151 145 67
147 143 61
151 146 67
151 145 66
153 147 68
158 152 71
152 147 66
156 150 73
154 149 67
156 149 69
154 150 64
152 148 61
152 148 66
155 149 70
159 154 69
159 153 71
154 149 70
156 150 65
155 149 61
160 153 66
148 144 57
156 150 62
155 148 67
159 154 62
154 147 65
153 148 63
159 153 65
153 147 59
150 145 62
154 148 60
160 153 68
155 149 64
152 146 69
153 147 60
151 145 61
150 144 60
155 148 63
154 148 62
156 150 64
159 153 65
156 150 66
160 153 65
153 147 64
155 150 54
153 146 61
153 148 54
155 148 61
149 144 63
149 144 57
136 132 52
142 136 51
145 140 56
144 140 49
137 133 51
142 137 56
130 125 51
144 139 49
137 131 56
139 133 53
135 131 44
139 135 58
138 133 47
138 133 49
134 128 45
137 133 45
129 126 42
133 131 47
132 130 41
132 133 32
137 143 36
152 157 42
149 159 34
155 165 39
152 164 30
162 174 28
161 177 25
158 173 22
161 176 19
167 189 11
170 190 11
166 187 0
169 189 0
168 188 0
167 187 0
170 190 0
169 189 0
169 188 0
162 181 0
171 191 0
167 186 0
169 192 0
171 196 0
172 195 0
171 195 0
170 194 0
174 197 25
172 195 36
172 195 0
173 195 25
168 192 0
173 196 25
172 195 0
170 194 44
172 195 25
173 196 36
173 196 25
172 194 36
173 195 44
173 195 51
173 195 51
171 194 36
173 195 62
170 194 44
173 196 44
173 196 57
172 196 36
174 196 76
171 195 36
174 196 57
175 197 36
174 197 57
170 193 51
170 193 25
174 196 44
172 195 51
166 189 57
172 195 67
173 196 57
169 193 25
175 198 51
175 198 62
175 198 57
170 193 51
170 193 25
176 198 57
176 199 51
172 195 62
171 194 62
171 194 51
172 194 72
169 192 36
175 197 57
169 192 25
166 190 0
170 194 36
168 191 25
172 195 57
174 197 67
169 192 36
172 194 36
167 190 36
171 194 44
168 191 36
172 196 0
170 193 44
167 190 25
166 190 0
171 195 0
168 191 25
167 191 0
167 190 36
168 192 25
171 193 0
166 190 0
167 190 25
170 193 0
165 188 0
165 190 0
168 192 0
170 193 0
165 187 0
164 187 0
171 193 0
152 175 47
130 155 90
82 112 145
61 97 153
62 97 157
62 98 157
61 96 156
63 99 164
61 96 152
62 98 158
60 97 155
62 98 165
61 98 160
61 98 161
61 97 164
61 97 160
61 97 161
61 97 166
61 97 162
62 98 164
62 99 166
61 97 165
61 97 166
61 98 164
63 99 170
62 98 163
60 97 166
62 98 164
62 98 169
62 98 169
62 98 173
61 98 165
63 99 167
61 97 165
62 98 166
63 99 165
61 98 171
61 98 168
62 98 169
61 97 168
62 98 172
62 99 172
62 98 170
61 97 167
62 98 169
61 98 165
62 99 171
62 98 168
62 99 176
62 98 172
62 98 171
61 98 170
62 98 167
62 98 172
62 99 174
61 98 168
62 98 170
62 98 170
61 97 164
62 98 169
62 99 173
62 99 174
62 98 172
62 99 171
61 97 167
63 99 173
62 99 172
62 99 171
61 98 168
62 99 171
62 98 167
61 98 172
62 99 173
62 99 176
62 99 173
62 99 173
62 99 166
61 98 167
62 98 166
61 97 164
62 98 169
62 98 166
62 99 169
62 98 172
62 98 170
63 99 172
62 99 172
61 98 166
63 99 171
62 99 177
62 98 168
62 98 172
62 98 167
62 98 168
62 99 173
62 98 168
61 97 165
61 98 167
63 99 169
61 98 163
62 99 168
63 99 173
63 100 178
61 98 171
63 99 170
62 98 168
62 99 172
62 98 162
62 98 164
62 99 172
62 98 165
62 98 166
62 98 171
62 99 169
61 98 165
62 98 167
62 99 169
63 99 172
62 98 167
61 97 158
62 98 166
62 98 164
62 98 166
62 99 168
62 99 172
62 98 164
62 98 169
62 98 166
62 98 160
62 98 165
62 98 167
62 98 168
62 98 164
63 99 170
62 98 162
62 98 161
62 98 166
62 99 167
61 98 161
62 99 169
62 98 166
63 99 171
62 98 165
62 98 160
63 99 168
62 99 166
62 98 166
62 98 159
61 98 164
63 99 166
61 98 162
62 98 160
62 98 158
62 98 159
62 98 167
62 98 160
61 97 162
62 98 169
61 97 157
62 98 165
62 97 163
61 97 158
61 97 155
61 97 152
62 98 162
61 98 159
62 98 159
62 97 159
59 94 150
62 97 152
61 97 153
59 94 145
61 96 153
61 96 145
61 95 150
60 95 148
60 94 145
60 94 150
59 92 143
61 90 137
60 80 100
74 82 76
79 81 38
63 65 19
61 63 16
70 72 22
76 78 17
78 80 24
84 86 36
88 89 27
75 77 27
85 88 39
96 96 36
82 83 40
83 87 35
92 93 33
101 101 46
98 99 39
99 98 36
95 96 42
94 96 39
108 108 52
105 105 47
106 106 39
111 110 51
118 116 52
114 113 47
126 124 43
127 123 59
113 111 49
127 125 52
118 114 55
126 123 48
128 124 52
131 128 57
127 125 49
130 128 55
130 128 56
130 127 53
138 134 50
133 130 55
138 134 56
145 141 64
137 133 60
141 137 60
135 131 53
133 131 53
146 141 58
149 144 67
154 147 69
141 137 58
149 143 65
148 144 65
148 143 59
147 142 56
149 145 67
157 151 74
155 148 71
148 144 62
154 148 64
147 142 61
152 146 68
154 148 66
150 144 60
147 142 61
150 145 67
163 156 72
157 150 68
156 150 65
149 145 58
156 150 66
156 150 68
159 152 69
158 151 69
155 149 69
150 145 64
155 149 70
153 147 62
159 152 70
155 148 67
156 151 62
153 147 64
152 146 61
151 146 57
157 151 73
153 147 64
147 141 63
141 136 54
154 148 67
146 139 59
151 144 63
154 148 64
149 144 53
151 145 62
145 139 62
145 139 60
146 140 58
150 144 58
143 137 58
143 137 56
142 138 49
138 132 48
146 139 59
139 133 56
141 134 53
132 127 47
141 136 54
139 134 51
137 131 45
138 133 48
135 131 47
130 127 39
141 141 36
135 135 37
138 141 41
140 140 42
147 154 36
146 151 34
148 155 36
150 160 30
150 162 25
156 168 16
159 173 25
164 182 25
162 180 11
161 178 16
168 189 0
170 190 0
169 187 0
166 184 0
168 189 0
172 190 0
168 189 0
170 191 0
168 188 0
169 189 0
170 191 0
168 191 0
170 193 0
170 193 36
171 194 0
170 194 25
171 194 36
172 194 44
172 194 44
173 197 0
168 192 0
170 194 0
172 195 25
175 198 25
169 192 25
174 196 25
172 194 36
174 197 36
172 195 36
173 196 25
173 195 57
174 198 51
174 196 44
171 194 36
172 195 44
174 197 62
168 192 44
174 198 44
172 195 51
175 198 62
173 196 51
172 195 51
174 196 62
172 196 44
173 196 57
173 196 44
176 198 57
171 194 36
174 196 51
171 194 51
170 194 51
172 195 44
170 193 57
170 192 57
175 197 62
169 193 67
169 193 44
172 195 57
175 197 67
169 192 44
174 197 67
170 193 36
169 192 57
171 194 57
175 197 51
170 193 36
169 192 44
171 194 51
173 196 36
170 193 25
165 188 36
170 194 25
168 191 44
170 193 44
170 193 25
169 192 51
172 195 51
167 190 36
170 193 44
171 194 44
167 190 25
169 192 36
169 192 25
169 191 25
166 190 0
169 193 25
168 191 0
167 191 25
167 190 0
170 193 0
168 191 0
163 186 0
165 187 0
171 194 0
156 180 60
130 154 108
83 114 142
61 97 158
61 96 149
61 97 157
61 96 154
61 97 158
62 98 159
62 99 165
62 98 166
62 98 157
62 98 161
61 97 160
62 98 167
62 98 165
62 98 164
61 97 158
62 98 166
62 98 169
61 98 160
61 98 164
63 99 167
62 98 164
60 96 165
62 99 172
62 98 163
61 97 164
61 97 168
61 97 164
62 99 173
62 98 167
61 98 164
62 99 173
62 98 162
62 98 166
61 97 164
62 98 169
62 98 170
61 97 165
62 98 167
61 97 165
62 98 173
62 99 174
63 99 166
62 98 165
62 99 169
60 97 164
61 97 167
62 98 169
62 98 170
62 99 173
62 99 169
62 99 174
61 98 173
62 99 172
62 98 167
62 98 169
62 98 168
62 99 177
62 98 168
61 98 168
62 98 172
62 98 168
62 99 171
62 98 170
61 98 171
62 99 176
62 99 169
62 99 173
62 98 169
62 99 173
62 99 172
62 99 173
62 99 170
62 98 166
62 98 168
62 99 169
63 99 175
63 99 172
62 98 160
62 98 171
62 99 171
62 98 166
62 98 166
62 99 172
62 99 167
62 98 165
62 99 168
62 98 170
62 99 174
63 99 171
63 100 176
62 99 170
63 99 176
63 99 173
62 99 170
62 99 169
62 98 164
63 99 172
63 99 169
63 99 171
62 99 170
62 98 170
62 98 165
62 99 170
61 98 168
62 98 166
62 99 171
62 99 166
62 98 164
62 98 167
62 98 162
62 98 168
62 98 167
63 99 170
62 98 166
62 99 169
62 99 168
61 98 167
61 98 164
62 98 167
62 98 160
62 98 168
63 99 168
61 98 164
62 98 165
64 100 174
63 99 170
62 99 168
62 98 164
62 98 163
62 98 167
63 99 165
62 99 168
62 99 170
62 98 162
62 98 162
62 99 170
62 98 166
62 99 167
62 98 164
62 99 169
63 99 168
62 99 167
61 97 158
62 98 163
62 99 167
61 97 163
62 98 162
62 98 158
63 99 172
63 99 161
63 99 172
62 98 158
62 98 163
61 97 162
62 98 162
62 98 161
62 98 165
62 98 158
60 96 149
61 97 164
61 97 160
61 96 154
62 98 160
61 96 157
62 97 158
60 95 154
61 97 156
60 95 147
60 96 152
61 96 153
61 96 157
61 96 156
61 97 158
60 94 151
60 94 154
59 93 150
60 91 140
75 93 113
64 76 83
70 76 55
73 74 16
87 86 27
74 75 25
75 76 24
71 73 26
84 84 26
85 86 35
74 76 25
88 89 30
86 87 30
87 88 31
98 98 40
80 83 38
93 93 35
102 102 45
102 102 40
108 106 38
112 110 51
108 107 43
105 105 41
112 110 48
118 116 45
121 118 52
114 114 45
117 116 44
123 120 53
123 120 46
126 124 52
129 126 56
130 127 49
125 123 56
127 124 56
137 132 62
142 138 65
133 131 56
135 131 59
139 135 60
134 131 54
135 132 53
146 141 57
137 134 57
146 141 62
137 133 51
144 139 65
144 140 59
141 137 57
137 134 52
143 139 54
150 145 65
151 145 62
145 140 61
141 137 51
155 149 58
148 144 54
155 149 71
152 147 64
160 153 65
146 141 61
154 149 64
154 148 67
153 147 65
146 142 57
158 152 65
155 149 65
152 147 61
158 152 66
154 149 57
160 153 66
157 151 66
157 150 67
156 151 59
151 146 54
153 148 57
150 145 60
151 144 60
149 143 58
151 145 54
154 149 64
151 146 64
148 142 61
148 142 53
151 145 57
148 143 56
149 144 59
151 145 60
149 142 61
153 147 65
155 149 63
148 142 54
149 143 60
152 146 60
148 142 56
149 144 60
144 139 54
151 144 63
141 135 52
143 137 56
140 134 54
139 133 48
143 138 47
150 143 59
133 128 49
137 133 42
143 138 49
140 135 47
132 126 45
142 137 52
123 119 39
132 129 42
148 148 45
134 136 36
140 141 39
145 151 30
144 148 32
143 149 32
150 161 22
151 160 32
157 173 22
159 174 19
160 175 11
166 184 19
163 182 0
165 184 11
169 189 0
169 190 0
169 189 0
170 188 0
169 188 0
169 187 0
169 189 0
172 193 0
169 189 0
170 189 0
167 185 0
171 194 0
174 197 0
173 196 36
171 195 25
174 197 36
174 197 25
173 197 51
171 195 25
171 194 51
169 193 36
174 196 25
172 195 51
171 194 36
176 199 57
173 196 36
178 200 62
168 191 0
176 198 51
173 195 67
173 196 57
174 196 44
170 193 25
172 195 51
172 195 51
173 195 51
172 195 51
174 196 62
173 195 51
168 192 25
175 197 62
171 195 62
175 198 62
170 193 62
173 196 51
177 199 57
174 196 57
174 197 80
170 193 57
175 197 67
170 193 44
174 197 51
172 194 51
172 196 44
169 192 62
170 193 51
176 199 51
174 196 67
173 196 51
170 193 62
173 195 62
176 198 44
173 196 36
171 195 36
173 196 57
174 196 72
174 196 62
171 194 44
172 195 67
172 195 57
172 194 57
173 196 25
171 194 25
170 193 62
169 192 25
173 196 72
172 195 44
170 193 51
172 195 51
171 193 25
176 196 76
166 190 36
165 188 62
170 193 62
167 189 36
168 192 0
167 191 25
171 194 44
169 192 0
164 186 36
165 189 0
164 188 0
164 187 0
164 187 0
151 173 57
130 155 100
77 108 148
62 97 153
60 96 149
62 98 155
61 97 154
61 97 151
62 98 157
61 97 156
60 96 156
63 99 165
62 98 163
61 96 155
61 97 162
62 98 163
61 97 161
62 98 159
62 99 167
62 99 167
61 97 162
62 98 169
61 97 159
62 98 165
62 98 161
62 99 166
62 98 170
61 97 165
61 97 163
62 98 168
62 98 171
61 98 168
61 97 159
63 99 175
61 97 165
62 98 166
61 98 161
61 98 167
63 99 167
62 99 170
61 98 167
60 96 160
62 98 172
61 98 167
62 99 172
62 98 170
61 98 169
62 98 170
62 98 167
62 99 171
62 98 168
62 99 176
62 99 173
62 98 168
62 99 170
62 98 165
62 99 173
62 99 169
62 98 169
62 98 169
62 99 170
62 99 170
62 98 169
62 99 173
62 99 173
62 98 166
62 99 172
62 99 173
63 99 174
62 98 168
62 99 175
62 98 169
62 99 175
62 99 168
62 98 165
61 98 166
61 97 164
62 98 167
63 99 168
62 98 169
61 97 159
62 99 172
61 97 166
62 98 164
63 99 174
63 99 174
61 98 160
61 97 165
62 98 168
61 98 166
61 97 162
62 99 175
62 99 170
63 99 173
62 98 169
62 99 169
62 98 168
62 98 167
62 98 169
62 99 167
62 98 168
62 99 167
62 99 171
62 99 169
62 99 169
62 99 164
62 99 167
62 99 170
63 99 170
62 98 167
62 99 167
62 98 164
62 98 164
62 98 173
62 98 169
62 99 172
61 98 171
62 98 165
62 98 168
63 99 171
62 99 169
63 99 171
62 99 169
62 98 167
62 99 168
62 98 167
62 99 164
63 99 171
62 99 169
62 98 164
61 98 161
61 97 160
62 98 165
62 98 164
62 98 166
62 98 163
62 98 159
62 98 161
62 99 164
61 97 158
62 99 169
62 99 167
62 98 163
61 96 157
61 97 161
61 97 157
62 98 162
62 99 166
62 98 157
62 98 163
62 99 164
62 98 164
62 98 164
62 98 159
61 97 165
62 98 162
62 98 160
61 97 160
61 98 164
62 98 160
62 98 167
62 98 164
63 98 160
62 97 160
62 97 159
60 96 155
63 98 164
62 98 157
61 96 160
60 95 149
62 98 161
59 93 142
61 96 152
60 94 145
62 97 162
61 95 149
60 94 141
61 94 153
60 94 146
61 94 142
69 91 118
65 79 91
61 69 63
76 75 22
67 69 22
81 83 30
84 83 22
82 83 23
79 80 26
75 77 20
76 79 32
97 97 34
92 91 31
94 94 38
100 99 32
98 97 33
105 103 41
97 97 37
102 100 37
107 107 36
105 105 45
98 98 37
112 111 41
115 113 43
114 112 43
111 110 50
118 116 48
113 112 47
116 115 45
117 115 50
128 125 55
131 127 50
123 120 55
126 123 49
117 116 50
128 126 47
133 130 46
128 125 52
137 133 52
142 139 60
142 137 57
145 141 62
143 138 58
142 136 49
135 132 50
145 139 63
145 140 60
131 128 46
156 149 59
138 133 60
146 142 58
148 143 60
149 144 54
145 140 63
145 140 61
148 143 58
147 142 58
153 148 63
144 139 57
144 140 59
151 145 60
155 149 61
156 150 65
157 151 66
142 138 54
152 147 63
149 145 56
152 145 61
152 147 60
155 150 58
144 138 52
153 146 63
151 146 62
155 150 60
149 144 53
145 140 56
146 141 57
147 142 56
147 142 53
147 141 60
148 143 62
153 147 64
150 144 64
156 151 62
148 143 59
150 144 62
148 141 61
144 138 53
143 138 54
142 137 52
154 148 54
150 145 54
141 136 57
145 139 45
147 141 64
142 136 54
148 143 54
140 133 59
142 136 57
143 138 48
140 135 57
139 133 57
143 138 52
132 127 47
148 141 53
129 125 32
140 134 49
142 135 52
124 121 36
138 134 54
132 130 44
132 133 36
140 143 42
136 138 39
147 149 42
146 149 41
139 145 32
149 156 32
157 170 19
149 158 30
151 161 36
157 173 16
165 180 22
157 173 0
167 185 0
166 185 0
170 188 0
162 180 0
167 183 0
168 187 0
169 188 0
168 187 0
165 185 0
171 190 0
169 190 0
170 190 0
169 189 0
170 194 36
174 197 36
170 194 0
174 197 44
171 195 0
173 196 44
173 195 51
176 199 51
173 197 36
173 195 62
173 196 44
172 194 44
172 194 36
172 195 57
170 194 44
171 194 36
172 195 44
176 198 76
171 195 51
172 196 57
172 194 44
171 193 51
175 198 67
174 197 67
172 195 44
174 197 57
177 199 84
177 200 72
174 197 62
176 198 72
175 198 57
173 197 67
175 197 51
176 199 72
169 191 62
174 196 80
178 200 102
176 199 72
176 198 76
177 199 95
177 199 76
177 199 67
172 196 36
172 194 67
173 196 72
177 199 76
175 197 76
168 190 44
175 197 80
175 197 84
172 195 72
173 196 67
172 195 51
175 197 62
170 192 62
174 197 62
176 198 76
172 195 51
170 193 51
169 191 62
174 197 80
169 190 76
175 197 62
176 198 67
168 192 44
167 190 44
169 193 51
172 195 44
172 196 36
169 191 44
169 193 57
168 191 36
165 188 44
171 193 36
168 191 36
167 189 25
169 192 25
169 191 44
170 193 25
170 193 0
173 195 44
170 193 18
160 183 36
158 181 54
125 150 97
72 104 141
62 97 149
61 97 158
62 98 156
61 97 156
62 98 157
62 98 159
62 98 159
62 98 163
61 97 152
62 97 154
60 96 159
61 98 166
61 97 162
62 98 163
61 97 164
62 98 165
62 98 163
61 97 158
62 98 170
62 98 164
62 99 171
62 98 168
62 98 161
61 97 162
62 98 169
62 98 164
61 98 165
62 98 171
62 98 168
61 97 161
61 98 169
61 98 164
62 98 169
61 97 162
61 98 168
62 98 167
61 98 163
62 99 172
61 98 170
63 99 172
61 97 163
62 98 168
62 99 166
62 98 164
61 97 168
62 99 170
62 99 173
62 98 172
62 98 168
61 97 165
62 99 172
62 98 167
62 99 172
61 97 166
61 98 168
62 99 169
62 99 172
62 99 169
62 98 174
62 99 169
61 98 163
63 99 175
62 99 170
62 98 164
63 99 173
62 98 170
63 99 172
62 99 172
62 98 166
62 98 163
62 99 172
61 98 161
61 98 168
62 99 168
63 99 172
62 99 169
61 98 167
62 99 169
62 99 175
61 98 162
62 98 169
63 99 171
62 98 169
62 98 167
63 100 171
62 98 166
61 98 166
63 99 174
62 99 168
62 99 171
61 98 166
61 98 166
61 98 164
62 98 171
62 99 172
62 98 170
63 99 172
62 98 168
62 98 169
62 98 166
62 98 171
62 99 172
62 99 167
62 99 170
62 98 161
62 99 168
62 98 164
61 98 167
62 98 162
63 99 174
62 98 161
61 98 162
61 98 164
62 99 171
63 99 168
62 99 168
62 99 170
62 99 169
62 99 169
61 97 158
62 98 163
62 98 162
62 99 169
63 99 172
63 99 166
62 98 162
62 98 163
62 98 157
62 98 162
61 97 160
63 99 169
62 98 165
61 97 161
62 99 171
63 99 169
61 97 157
62 99 169
61 97 154
62 98 167
62 99 168
63 99 168
62 98 163
62 98 160
61 97 159
63 99 169
62 98 163
62 98 167
61 97 157
61 97 166
62 98 159
61 96 154
62 98 165
61 97 159
62 98 163
61 98 164
62 97 157
62 97 160
61 98 163
61 96 148
62 98 160
61 96 152
62 98 165
61 97 156
62 97 156
61 97 154
62 98 160
61 96 154
61 96 153
61 97 157
60 95 150
61 96 155
60 95 155
60 94 151
62 96 148
59 93 145
60 94 145
60 94 149
72 93 122
75 87 81
80 84 52
71 74 25
67 69 19
75 73 19
82 81 24
70 71 24
91 88 27
70 74 25
82 84 26
82 83 29
92 92 28
88 89 35
102 102 39
100 101 36
89 90 33
99 99 44
87 89 36
104 103 36
106 106 40
112 110 48
91 93 40
106 104 32
114 112 50
116 114 47
118 117 40
108 107 43
118 116 43
122 120 51
121 118 51
114 115 48
125 122 51
128 124 53
130 128 55
128 126 52
135 131 57
144 139 71
138 134 50
146 141 60
128 127 54
128 126 45
141 135 65
150 144 60
136 132 58
148 143 61
148 142 56
129 126 47
141 137 48
140 137 51
141 136 61
151 146 62
140 135 56
145 141 66
154 148 64
147 142 64
144 139 53
151 144 66
141 137 50
150 145 65
146 140 60
145 141 50
155 149 60
160 154 71
148 143 57
150 144 60
150 145 57
151 146 59
155 150 59
153 146 60
145 139 56
154 148 60
153 147 57
157 151 58
150 144 58
154 148 57
153 147 61
155 149 64
145 140 51
156 151 58
152 145 58
151 146 51
156 150 58
145 138 58
150 145 54
153 148 56
154 147 56
156 150 61
147 141 62
151 146 54
143 138 49
152 146 52
146 139 54
135 130 47
144 138 53
147 141 59
145 140 45
133 128 49
138 134 45
135 130 51
139 134 49
143 137 49
151 145 54
135 129 47
140 134 44
138 132 49
141 136 47
142 137 49
137 133 47
129 127 39
129 125 34
136 136 36
143 146 36
142 144 37
145 151 34
147 154 34
158 166 34
153 164 25
154 168 25
160 174 19
162 174 19
165 181 19
165 183 11
163 181 0
162 180 0
169 189 0
167 185 0
170 189 0
166 184 0
166 186 0
169 189 0
172 192 0
169 189 0
170 190 0
168 189 0
167 183 0
166 188 0
172 195 44
174 197 36
175 197 36
173 196 0
174 197 44
173 196 36
174 196 62
171 194 44
173 196 36
173 196 36
174 197 72
175 198 67
173 196 57
174 197 67
175 199 67
173 195 44
172 196 62
173 195 62
179 201 80
181 203 102
174 196 72
177 199 72
173 196 36
176 199 67
172 195 62
174 196 67
176 199 76
174 196 67
177 200 67
178 200 80
179 201 95
179 201 95
176 199 80
177 199 95
179 200 102
178 199 117
177 199 76
178 200 84
176 198 84
176 198 76
177 199 76
179 201 102
176 198 84
179 201 102
175 197 84
176 198 80
177 200 76
181 203 95
173 195 62
172 195 76
173 194 84
175 196 88
180 201 84
174 196 76
171 194 76
174 196 72
173 195 72
174 196 57
175 197 72
172 195 76
173 196 62
173 195 57
174 196 57
173 195 72
174 197 72
172 195 51
170 193 57
172 194 57
174 196 72
171 193 57
170 192 44
166 189 0
171 193 44
170 193 62
169 193 36
166 190 0
167 191 0
169 193 0
173 196 51
168 191 25
172 195 31
165 188 47
166 189 31
153 176 76
110 136 113
82 113 139
64 98 142
67 101 148
63 99 153
62 97 153
63 99 164
61 97 154
61 97 155
61 97 156
61 97 159
61 97 157
61 97 158
61 97 159
62 98 161
62 98 159
61 97 162
61 97 157
62 98 163
63 99 167
61 97 164
62 98 162
61 97 166
62 98 166
63 99 168
62 98 163
61 97 162
62 99 170
62 98 167
61 98 168
61 98 165
61 98 168
62 98 168
61 98 161
61 97 160
62 98 164
62 99 172
62 98 168
62 98 165
62 98 162
61 97 162
61 98 163
61 98 167
61 98 164
62 98 168
62 98 169
62 99 168
61 97 169
62 99 166
61 98 171
62 98 167
62 98 166
62 99 169
62 98 170
61 97 159
61 98 166
61 98 167
61 98 167
62 99 169
62 98 166
62 99 174
62 98 169
63 99 173
62 99 170
61 98 166
61 97 160
62 98 167
62 98 170
63 99 174
61 97 164
62 98 169
63 99 172
61 98 168
62 99 169
62 99 169
61 98 166
63 99 166
61 97 164
62 98 167
61 98 169
62 99 170
62 99 169
62 99 169
63 99 171
61 98 166
62 99 171
61 98 167
62 98 168
62 99 169
63 99 171
62 98 167
63 99 166
61 98 164
62 98 170
63 99 173
63 99 172
63 99 172
61 98 166
63 99 173
62 98 165
61 97 162
63 99 171
62 99 171
62 98 168
62 99 171
62 98 172
62 98 164
62 98 165
62 98 167
62 98 167
62 99 171
63 99 162
63 99 172
61 97 161
63 99 170
62 99 169
62 98 162
62 98 167
62 99 169
62 99 170
62 98 169
63 100 174
62 98 160
62 98 168
62 98 166
62 98 167
62 99 170
62 98 165
61 98 165
63 99 172
62 99 168
62 99 171
62 99 166
62 98 167
62 98 169
63 99 167
62 98 170
62 98 161
62 99 166
62 98 161
62 98 161
62 98 159
62 98 166
61 98 159
62 99 165
62 98 160
63 99 165
62 97 155
62 99 166
61 97 153
62 98 163
62 99 165
61 98 164
62 98 160
63 99 168
62 98 163
63 99 165
61 97 154
62 97 161
61 97 152
62 99 167
61 97 158
60 96 154
62 98 163
62 98 161
62 97 156
62 97 156
62 97 154
62 97 160
61 96 153
62 97 148
60 95 155
60 94 144
60 95 149
61 95 148
60 93 146
60 94 140
60 94 150
59 92 146
67 93 132
65 80 91
74 79 36
74 75 19
72 73 18
78 78 18
79 80 23
72 73 22
76 78 18
76 78 27
76 79 24
72 75 30
85 87 29
84 85 25
99 99 47
111 109 43
92 94 38
95 95 37
90 91 32
97 96 31
115 111 42
102 103 35
110 110 42
112 111 41
106 105 32
109 109 39
113 111 42
113 112 42
113 112 38
119 116 45
108 106 44
119 116 47
133 129 48
117 114 49
113 112 46
133 130 54
136 132 58
136 131 57
132 128 51
133 130 50
135 131 46
132 128 49
146 141 58
142 138 54
127 125 49
140 137 57
142 137 56
146 142 56
142 136 53
138 135 49
142 139 57
146 142 58
143 138 61
141 138 51
150 145 57
153 147 64
151 145 59
142 136 63
139 135 54
156 150 65
150 144 62
150 144 64
143 138 56
147 142 56
149 143 57
149 145 56
149 143 57
150 145 57
147 141 58
151 145 59
154 148 59
144 139 57
149 144 60
140 135 52
153 146 60
148 144 54
147 141 49
152 146 62
155 148 63
159 152 65
146 141 53
150 145 63
149 143 59
150 144 53
143 137 53
150 145 49
148 142 54
152 146 62
149 144 51
137 132 41
143 136 57
144 138 57
144 139 52
140 135 48
142 136 54
146 140 56
142 137 48
148 142 53
148 142 53
133 128 45
134 129 48
129 124 41
138 132 51
140 135 52
134 129 37
145 139 53
137 132 44
126 121 42
138 134 48
131 130 37
132 132 39
147 149 42
140 145 32
146 148 44
146 153 30
150 159 30
145 155 19
152 161 28
151 159 22
152 161 25
161 175 22
160 174 16
165 184 11
159 177 0
167 188 0
164 183 0
165 183 0
169 187 0
166 185 0
169 188 0
170 190 0
166 184 0
166 186 0
169 188 0
167 188 0
171 190 0
168 189 0
174 196 62
173 196 44
170 193 51
172 195 36
170 193 51
177 199 51
175 198 57
173 197 36
175 198 62
172 195 51
173 196 62
177 199 72
172 196 51
174 197 62
176 198 76
175 197 44
178 200 95
179 201 76
174 197 62
174 196 72
175 198 72
178 199 99
176 198 76
172 195 76
179 201 92
179 200 102
177 200 76
179 201 102
177 200 84
177 199 95
181 202 105
180 202 95
183 204 117
180 201 95
178 199 92
176 199 67
181 202 105
178 199 95
180 201 111
180 201 92
175 198 72
180 201 95
180 202 99
180 202 92
178 199 99
179 201 95
177 199 102
179 200 108
172 194 84
176 197 84
183 205 108
178 200 105
175 196 88
175 197 95
172 195 67
169 191 62
174 196 76
175 198 76
177 199 84
176 198 76
180 202 84
173 197 67
172 195 51
165 188 36
171 194 62
171 194 51
170 192 57
177 199 76
174 197 67
170 193 72
171 194 44
172 196 44
167 190 44
168 191 44
166 190 36
172 194 62
169 192 57
170 192 57
167 189 57
166 189 25
165 188 40
166 190 40
163 186 51
152 175 74
107 132 113
82 113 141
64 99 160
64 99 154
65 100 160
67 102 167
63 99 162
62 98 166
61 96 151
62 99 165
62 98 160
63 99 167
62 98 164
61 97 161
60 96 152
61 97 155
61 97 164
60 95 151
62 98 165
62 98 161
62 98 170
62 98 166
62 98 167
62 98 166
62 98 167
62 98 166
62 98 169
62 98 162
61 97 163
61 97 166
62 98 168
61 97 164
61 97 162
61 98 170
62 98 170
61 97 161
61 98 169
61 96 167
62 98 169
61 98 166
61 98 167
61 98 169
61 98 171
62 98 168
62 98 166
61 97 165
62 98 168
62 99 168
63 99 170
61 98 165
62 98 166
61 97 166
62 98 169
61 97 163
63 99 174
61 98 168
61 98 163
62 99 170
63 99 168
62 99 170
61 98 169
62 98 165
62 99 172
61 98 169
63 99 173
62 98 167
62 98 168
62 98 163
62 99 171
62 98 170
62 99 171
62 98 166
62 98 168
62 99 169
61 98 171
61 97 161
62 98 168
61 97 165
62 98 171
62 99 171
62 98 169
62 98 167
62 98 163
62 98 168
62 98 167
62 98 164
62 98 169
63 99 170
61 97 156
62 99 172
62 98 163
62 98 167
62 99 166
62 99 174
61 98 163
62 99 171
62 98 165
63 99 170
61 97 160
62 98 159
62 98 163
62 98 165
61 97 165
62 98 167
63 99 171
63 99 172
62 98 168
62 98 167
63 99 172
62 98 166
62 98 157
63 99 165
63 99 171
62 98 168
63 99 166
62 99 172
63 99 169
62 98 162
63 99 172
63 99 172
62 99 170
62 99 168
62 98 165
62 99 172
62 98 167
62 98 164
62 98 162
62 99 167
63 99 170
62 98 164
61 97 161
62 98 166
61 97 162
62 99 167
62 98 165
62 98 161
63 99 167
62 98 158
62 98 160
62 98 162
62 98 168
62 98 166
62 98 158
61 97 162
62 99 165
62 98 158
62 98 164
62 98 156
63 99 165
62 98 161
63 99 166
62 98 164
61 97 161
62 98 158
63 99 164
61 97 156
62 98 158
60 96 157
62 97 157
62 98 162
62 97 157
62 97 159
60 95 147
62 97 158
62 97 161
62 98 163
62 97 161
60 95 149
60 95 149
61 96 159
62 97 159
61 96 153
60 95 149
60 95 151
61 96 148
60 95 147
60 94 150
59 93 145
60 93 139
66 90 122
69 82 74
71 78 61
82 82 24
72 70 19
98 99 26
71 74 17
84 84 19
82 83 27
89 89 25
94 95 24
91 92 33
96 96 31
95 95 23
95 96 29
95 93 31
89 89 36
94 95 32
95 95 28
102 100 44
95 95 35
105 106 45
101 101 45
115 113 44
112 111 39
109 108 39
114 112 46
114 113 41
126 123 51
117 115 36
122 120 47
111 110 41
129 126 46
126 124 45
125 123 45
121 120 43
130 127 48
133 128 54
137 132 57
133 129 49
133 128 54
139 136 50
134 131 48
137 133 52
131 128 49
138 133 50
136 132 61
142 137 62
136 132 52
148 142 58
149 144 58
138 134 52
132 128 50
153 147 64
144 140 57
146 141 50
148 143 61
146 141 54
152 146 58
151 145 60
148 143 54
149 144 63
150 145 54
150 145 61
147 143 57
149 143 60
139 135 44
151 145 65
151 145 61
152 146 61
142 137 51
152 146 59
140 135 48
147 143 57
148 143 65
149 142 59
150 144 59
151 144 58
152 146 54
140 135 52
144 139 59
155 148 62
149 144 58
154 148 59
143 137 49
139 134 48
141 137 47
144 138 52
145 139 47
145 139 59
149 143 47
144 139 53
135 130 41
138 133 51
134 128 48
136 131 49
145 139 51
141 135 48
139 133 45
143 138 49
139 134 42
126 122 47
142 135 54
134 128 41
137 133 48
145 139 57
133 128 48
131 127 37
133 131 36
140 140 41
137 136 30
134 135 32
143 147 36
146 153 30
154 161 30
142 152 28
146 156 22
150 158 25
154 165 19
156 170 16
163 178 11
158 173 11
166 182 16
166 184 0
166 183 0
169 188 0
171 190 0
168 188 0
167 186 0
166 184 0
168 188 0
170 190 0
169 189 0
170 189 0
170 189 0
168 186 0
168 187 0
173 196 51
174 197 57
175 198 67
176 199 44
174 196 51
171 194 36
173 195 67
173 196 44
174 196 62
167 191 36
173 196 51
176 198 72
178 200 88
176 198 62
174 198 57
177 199 80
178 200 80
177 199 92
178 200 72
177 198 88
175 196 88
176 198 72
174 195 76
178 199 105
184 205 117
180 203 102
180 201 102
178 199 108
184 206 128
181 203 114
182 203 108
175 197 76
178 199 102
182 203 117
180 201 105
175 198 72
180 202 105
182 203 120
182 204 111
180 201 105
185 206 122
182 203 117
181 203 114
177 199 88
180 200 99
178 199 92
181 202 114
184 204 120
181 203 108
177 199 92
178 200 108
183 204 122
180 201 105
181 202 102
177 198 84
177 199 95
177 200 95
174 196 102
178 199 105
174 197 80
173 195 84
180 202 102
167 189 57
175 197 72
175 197 84
173 196 57
173 195 62
169 191 67
171 193 84
170 194 57
169 192 36
167 190 44
172 195 72
170 193 51
169 192 36
172 194 72
165 188 44
174 196 62
168 191 44
172 195 51
169 192 47
162 186 65
156 179 60
153 177 74
130 155 102
79 110 141
67 100 139
71 104 144
70 103 155
63 98 154
65 99 152
66 101 159
66 100 155
64 100 167
63 98 151
61 97 159
61 98 162
62 98 159
62 98 162
61 97 157
61 98 163
61 98 166
61 97 153
62 98 164
62 98 162
61 97 160
61 98 163
61 98 164
61 97 157
62 98 166
61 98 164
61 97 164
62 98 173
62 99 171
61 98 162
62 98 168
61 97 165
61 97 166
62 98 164
61 97 162
61 98 162
62 98 166
62 98 168
62 98 166
62 98 165
61 97 165
60 96 161
61 97 165
62 98 167
63 99 168
62 98 168
61 98 163
62 98 170
61 97 164
61 97 165
62 98 171
62 98 164
63 99 174
62 98 168
61 98 164
62 99 174
62 98 167
61 98 167
62 99 175
62 99 172
61 98 170
62 99 171
62 98 165
62 98 173
61 97 161
63 100 172
62 99 173
62 98 167
62 99 170
62 99 170
61 98 166
64 100 174
61 98 170
61 98 164
61 98 166
62 98 166
62 98 172
61 98 164
61 98 168
62 98 167
61 98 165
62 98 168
61 98 165
62 98 166
61 97 155
62 99 170
63 99 169
62 98 171
62 99 171
61 98 167
62 99 169
63 99 169
62 99 172
62 98 165
62 98 169
61 97 161
61 97 164
62 99 168
62 99 173
62 98 165
62 98 164
62 99 171
62 99 169
62 99 168
61 98 163
61 98 165
61 97 157
63 99 171
62 98 163
62 98 166
63 99 173
62 99 170
62 98 163
62 98 160
61 97 162
62 99 166
62 98 164
61 98 161
62 99 167
63 99 161
62 98 166
61 98 163
63 99 165
62 98 158
62 98 167
61 98 163
62 98 167
63 99 162
61 98 164
62 98 164
62 99 163
61 97 161
62 98 161
62 98 164
62 98 168
62 98 161
62 98 161
61 97 158
62 98 160
62 98 163
63 99 167
61 98 161
62 98 164
62 98 162
61 97 154
63 99 163
62 98 160
61 97 149
61 97 161
61 97 162
63 99 167
63 99 167
61 97 159
63 99 164
61 96 154
63 99 163
62 98 163
62 98 161
61 97 151
60 97 159
60 96 152
62 98 160
60 96 154
61 96 154
60 95 151
61 96 151
61 96 145
61 97 151
60 95 150
60 96 150
61 96 152
61 96 149
59 93 142
60 95 145
60 96 153
59 93 146
60 93 144
61 92 133
57 84 117
77 88 89
77 83 53
73 74 12
80 81 19
83 82 26
80 80 23
73 75 26
77 78 30
68 70 26
86 86 20
98 98 31
87 85 26
90 91 27
81 82 26
87 87 19
84 86 24
96 96 28
86 87 33
102 101 29
102 101 25
117 115 45
109 109 30
105 105 40
103 103 37
116 113 39
106 105 38
110 110 43
110 109 42
114 113 38
125 122 52
125 121 48
116 114 48
127 125 47
124 122 42
114 112 42
128 125 42
133 130 45
136 132 50
123 121 49
135 132 52
132 129 53
129 126 47
135 131 47
139 135 56
142 139 53
134 131 49
145 140 55
128 123 49
134 132 42
140 137 51
145 140 62
145 140 56
147 143 49
147 142 64
154 148 63
149 144 63
145 140 54
151 145 64
143 138 50
150 144 59
146 140 58
152 146 58
146 142 61
152 147 57
154 149 53
147 142 52
156 150 60
147 142 56
150 145 57
152 146 54
146 141 53
158 151 62
154 148 60
151 145 57
147 142 51
146 140 53
153 147 60
155 149 58
145 140 52
152 147 54
148 141 51
151 145 53
146 141 52
146 140 59
145 140 54
140 134 56
138 133 44
144 138 47
147 141 49
137 133 39
143 138 54
148 143 58
140 134 51
143 137 49
150 144 58
147 140 56
138 133 47
135 129 45
138 132 52
141 136 47
134 129 45
142 136 44
139 133 45
141 135 49
132 127 36
137 133 51
134 130 42
137 137 30
131 132 36
141 143 37
141 143 32
136 141 28
149 155 34
148 158 22
150 161 22
154 164 34
159 170 19
159 173 22
159 172 16
157 171 19
162 177 11
164 182 16
168 188 0
166 185 0
170 189 0
170 190 0
165 184 0
169 188 0
170 190 0
171 191 0
171 192 0
166 185 0
166 183 0
171 191 0
168 186 0
170 188 0
175 198 51
174 197 57
174 197 44
175 198 67
176 198 51
173 195 36
176 199 80
176 198 80
179 201 80
175 198 72
170 193 25
175 197 72
175 196 67
179 201 95
180 202 95
178 201 99
175 198 76
180 202 108
176 197 99
180 201 105
177 199 92
176 198 99
181 202 102
179 200 99
180 202 114
180 201 108
178 199 99
178 200 102
185 206 137
184 206 120
179 201 105
180 201 105
182 203 120
186 206 125
185 206 130
187 208 133
184 205 120
185 206 128
183 204 111
188 208 137
180 202 95
183 204 128
181 202 128
183 205 120
181 202 122
184 205 130
183 203 120
182 203 117
182 203 114
184 205 122
180 201 111
179 200 105
180 201 105
180 201 111
176 197 105
188 208 133
176 198 99
177 199 88
180 201 120
179 201 99
182 203 117
179 200 102
173 195 84
175 196 84
179 200 99
174 196 84
180 202 108
175 196 92
169 192 67
172 195 62
173 196 76
172 195 62
174 197 57
174 198 44
170 193 51
171 194 62
174 196 80
166 189 67
168 190 51
170 193 67
168 191 65
149 172 67
160 182 72
149 173 100
124 148 120
79 110 143
68 102 144
74 107 161
69 103 144
65 100 155
65 100 157
65 99 149
63 98 157
68 102 155
66 101 153
61 97 165
61 96 156
62 98 162
62 98 163
61 97 153
61 97 155
62 99 166
62 98 162
62 98 167
61 97 159
61 98 166
61 97 158
62 98 160
62 98 163
61 98 163
61 97 164
62 99 171
61 97 162
60 96 156
62 98 164
61 97 160
62 99 168
61 97 164
61 97 165
63 99 169
61 98 164
62 98 163
61 97 163
61 97 162
61 98 167
62 98 165
62 98 166
61 98 169
61 97 160
61 97 162
62 98 170
61 98 165
63 99 168
61 98 163
63 100 173
62 98 168
62 98 167
61 97 163
61 97 163
61 97 165
62 98 167
62 98 167
62 98 165
62 98 165
61 97 165
61 98 172
62 98 166
61 97 166
62 99 170
62 99 169
61 98 168
62 98 168
62 99 170
61 97 162
62 98 168
62 98 167
62 99 170
63 99 172
61 98 168
61 98 164
61 98 168
62 98 165
62 99 173
61 97 161
62 98 164
62 99 172
61 98 163
62 98 165
62 98 170
63 99 168
62 99 174
62 98 171
62 99 174
62 99 169
61 98 165
62 98 167
62 98 167
62 98 166
62 98 167
62 98 165
62 98 163
62 98 167
62 98 166
62 98 163
62 99 172
62 98 162
62 98 164
62 99 170
62 98 166
63 100 169
62 98 165
62 98 165
61 97 160
62 99 170
61 98 166
63 99 171
62 98 166
62 99 166
62 98 159
62 98 164
62 99 168
62 98 166
62 99 167
62 98 164
63 99 171
62 98 163
62 98 168
61 98 163
62 98 168
62 99 166
61 98 160
61 97 162
63 99 167
61 98 160
62 98 162
62 98 164
62 99 168
62 98 162
63 99 172
62 98 160
63 99 165
62 99 165
62 98 160
62 99 168
61 98 167
63 99 167
62 98 157
61 97 159
62 98 164
62 98 165
62 99 170
63 99 164
63 99 165
62 98 162
62 98 163
62 97 153
63 98 161
61 97 159
62 98 161
62 97 153
63 99 161
61 97 155
61 97 154
62 98 163
61 97 157
61 96 154
61 96 154
61 97 149
60 94 147
61 97 156
60 95 151
61 97 151
60 94 144
61 97 155
61 97 157
60 94 145
60 94 145
60 95 149
59 93 148
61 95 149
60 94 150
59 93 145
60 94 149
67 90 122
68 82 92
85 90 60
87 88 29
76 76 11
71 73 14
82 81 17
80 79 20
78 78 22
95 93 29
79 80 17
79 81 26
91 93 25
81 83 31
86 86 28
94 94 31
103 102 31
103 102 28
102 102 34
104 103 39
102 101 27
110 108 39
108 107 31
101 100 38
112 109 41
108 106 40
114 113 35
114 113 43
111 109 41
109 109 35
107 106 32
122 120 47
118 116 43
122 120 45
133 129 45
129 125 41
123 121 48
121 119 41
127 123 48
126 124 44
140 137 49
143 138 56
120 117 47
143 139 50
136 133 47
143 137 60
142 137 59
135 132 51
145 139 59
140 135 46
143 138 57
148 143 57
138 134 50
138 133 49
155 149 61
145 139 55
147 141 62
153 147 55
143 138 53
149 145 57
145 140 61
146 142 56
148 141 59
136 132 43
145 141 57
158 150 64
147 141 52
146 141 55
144 139 58
150 144 54
145 139 47
142 138 49
146 141 52
151 145 60
153 147 60
146 141 44
142 136 57
152 147 59
147 141 48
148 142 58
140 134 44
146 139 59
146 139 58
144 139 44
144 139 48
146 139 54
147 142 54
142 138 48
144 139 42
140 135 53
145 139 54
140 135 44
148 142 57
147 142 49
148 141 57
140 133 47
150 143 49
128 122 44
148 140 56
139 133 51
132 127 42
127 122 47
134 129 49
131 126 42
130 126 41
128 123 32
140 135 45
133 132 41
139 139 41
134 136 37
146 147 42
137 143 25
147 154 32
150 158 32
138 147 16
145 157 16
157 170 30
154 167 19
161 173 22
158 174 16
161 179 11
167 186 11
166 185 0
166 183 0
164 181 0
166 184 0
170 190 0
168 188 0
164 183 0
169 188 0
171 190 0
168 186 0
169 187 0
165 183 0
167 188 0
171 191 0
167 185 0
173 196 51
174 197 57
174 197 57
175 198 72
173 196 51
176 198 84
179 201 76
176 199 62
175 197 84
175 197 84
177 199 72
179 201 95
178 200 92
176 198 76
180 201 84
177 200 67
185 206 135
170 193 67
178 201 99
178 200 99
177 198 102
185 205 125
181 202 111
182 203 125
182 202 111
180 202 102
180 202 108
186 207 125
184 204 117
181 202 105
183 203 133
189 208 151
185 206 137
190 209 137
187 208 128
183 205 117
185 206 128
180 202 122
186 206 135
185 206 133
182 202 128
184 205 120
189 209 140
180 201 125
183 203 135
189 209 149
184 205 130
181 202 114
182 203 111
190 210 151
182 203 120
184 205 120
182 202 128
184 205 122
187 207 128
183 204 125
185 206 137
182 204 120
183 204 122
179 201 105
174 196 102
182 203 117
178 200 99
180 200 111
179 199 105
181 201 111
179 200 108
173 195 92
175 197 84
175 197 76
173 194 76
177 198 92
172 195 57
174 197 72
172 194 67
170 193 36
172 195 67
166 188 51
173 195 70
167 191 76
160 184 67
157 181 95
148 172 80
143 166 102
117 143 131
82 112 155
83 113 150
64 99 154
70 103 144
79 110 143
67 101 149
62 98 158
69 102 157
65 99 155
65 100 157
62 97 156
64 100 162
65 100 160
63 98 162
61 97 159
62 98 160
63 99 168
61 97 160
61 97 157
60 97 162
61 98 162
61 98 164
61 97 160
60 96 156
61 98 166
61 98 164
61 97 160
60 97 165
61 96 160
62 98 165
60 97 164
62 98 165
62 99 169
61 98 164
61 98 163
61 96 163
61 98 162
62 98 160
62 99 171
62 98 167
61 97 166
62 98 166
62 98 172
61 97 165
61 97 162
61 97 166
62 99 169
61 98 166
61 98 166
62 98 168
61 98 165
62 98 167
62 98 168
63 99 171
61 98 167
61 97 165
62 99 173
62 98 164
61 98 165
61 97 164
62 98 165
62 99 173
63 99 170
60 96 157
61 98 165
62 98 165
63 99 173
62 98 167
61 98 164
62 98 166
61 98 168
61 98 167
62 98 167
61 98 163
63 99 169
63 99 172
62 98 164
63 99 172
62 98 166
62 99 175
62 99 165
62 99 175
62 98 166
62 98 170
63 100 174
63 99 169
61 97 162
62 98 165
62 98 165
62 99 170
62 98 167
62 99 171
62 98 167
62 98 166
62 98 167
62 98 160
61 98 168
61 98 168
62 98 160
62 98 167
62 98 166
62 99 170
62 99 168
62 99 168
63 99 170
61 98 168
63 99 168
62 98 166
62 99 166
62 98 165
62 98 164
63 99 170
62 98 159
61 98 164
63 99 169
62 99 165
62 98 163
62 98 165
62 98 163
63 99 163
63 99 170
62 98 166
62 98 165
62 98 163
61 97 164
62 98 162
63 99 171
62 98 160
61 97 158
62 98 168
62 98 158
62 97 158
62 97 159
62 98 162
62 98 163
62 98 162
61 97 158
61 96 153
62 98 166
62 98 168
62 98 155
63 99 171
62 98 167
62 98 160
62 99 163
62 98 163
62 98 160
62 98 166
61 97 153
62 98 164
62 98 170
62 98 162
62 98 161
61 97 159
62 98 161
62 98 157
63 98 159
61 96 159
61 97 156
62 97 156
62 97 161
61 97 155
61 97 157
61 96 148
61 96 154
61 96 144
60 95 147
61 96 148
61 97 155
58 92 135
60 95 145
61 95 149
62 96 152
60 94 145
60 95 152
61 95 151
59 93 141
58 91 141
66 88 100
73 85 84
72 77 56
80 78 13
75 77 16
70 72 26
73 74 20
73 75 11
75 76 28
86 86 17
79 79 21
97 95 28
85 87 25
84 86 23
96 95 31
92 92 34
89 91 26
92 91 33
100 99 31
105 104 31
98 97 31
99 100 26
104 103 31
109 108 34
111 110 40
109 107 35
115 114 43
116 112 40
113 111 44
122 119 50
123 120 42
123 120 39
123 118 48
124 120 43
132 127 47
119 117 42
125 122 48
131 126 52
133 130 45
132 129 48
123 120 42
124 122 40
129 126 39
142 136 58
137 133 55
134 131 50
145 140 55
145 141 53
141 136 51
134 130 46
134 128 53
135 131 55
144 138 57
147 140 62
141 137 51
139 134 50
149 143 56
146 141 57
149 144 54
143 137 55
140 135 59
149 144 53
148 142 53
143 138 47
150 144 53
144 138 49
146 140 51
148 143 53
145 140 54
145 140 48
151 146 58
152 146 49
143 137 48
153 148 52
151 144 54
147 141 54
141 136 49
140 135 54
144 139 48
145 140 52
152 145 59
150 144 58
137 132 49
145 141 52
149 142 54
143 137 45
133 130 37
144 138 51
145 139 54
149 142 58
148 142 52
138 133 44
145 139 47
144 139 44
137 131 36
140 135 44
144 138 48
144 139 45
138 133 51
138 131 52
129 124 34
139 134 48
137 131 45
130 125 37
127 121 42
134 131 36
135 133 41
137 137 39
133 133 34
133 137 36
139 143 25
143 147 32
141 147 25
156 165 32
153 164 25
157 169 22
161 174 28
160 175 16
162 177 16
165 181 0
161 178 0
168 188 0
169 185 11
165 183 0
167 187 0
166 184 0
164 181 0
172 192 0
167 186 0
170 190 0
165 182 0
171 189 0
168 189 0
169 187 0
168 187 0
170 190 0
171 191 0
175 197 76
175 198 67
173 195 57
177 199 67
173 195 62
176 198 76
175 197 76
179 201 92
178 200 105
179 201 99
176 198 84
176 198 72
179 200 117
180 202 99
185 205 114
180 202 102
183 204 120
184 206 120
181 203 117
187 207 125
181 203 114
184 205 117
186 206 140
187 207 133
182 203 111
187 207 137
188 207 147
186 206 140
182 203 122
189 210 142
187 208 135
180 201 111
183 203 133
188 208 144
189 209 157
187 207 147
191 210 153
181 202 133
188 208 140
188 208 144
184 205 128
186 206 140
182 202 140
191 211 155
190 209 151
182 204 117
187 207 144
193 212 163
196 216 179
172 193 108
186 206 137
190 209 157
185 206 130
185 205 135
184 205 130
181 202 108
181 201 125
184 205 125
187 207 140
181 201 117
179 200 92
183 204 120
186 206 122
182 203 114
178 199 111
175 196 102
178 200 99
178 199 102
174 196 76
177 199 84
178 199 95
174 196 88
174 196 80
177 199 92
176 198 92
173 194 80
173 195 76
174 195 84
166 189 51
163 186 25
153 176 95
155 177 105
150 173 82
137 162 92
125 149 120
83 113 157
82 111 144
77 108 144
75 106 141
64 99 145
75 107 157
67 101 151
61 97 157
65 99 157
64 99 163
61 97 164
69 102 140
62 98 158
63 98 155
61 97 158
61 97 162
61 97 154
61 97 164
62 98 164
61 97 155
61 96 156
62 98 164
60 96 156
62 98 161
62 98 163
62 98 167
63 99 171
61 97 164
61 97 166
62 98 162
61 98 166
62 98 165
63 99 167
62 98 169
62 98 164
62 98 167
61 97 160
61 97 163
62 98 163
63 99 170
62 98 168
60 97 159
61 97 161
62 99 172
62 98 164
61 98 169
60 96 162
62 98 170
61 97 162
62 98 171
62 98 166
62 98 166
62 98 165
62 99 170
62 98 166
62 98 160
63 99 166
63 99 166
61 97 163
62 99 174
63 99 170
62 98 165
62 98 165
62 99 170
62 98 166
61 97 159
61 97 164
62 98 163
62 98 166
62 99 169
62 98 167
61 97 159
62 99 168
62 98 169
62 98 166
62 99 168
62 98 166
62 98 170
62 98 165
62 99 169
62 99 172
62 99 168
61 97 163
62 98 165
62 98 166
63 99 165
62 98 167
61 97 158
62 99 167
63 99 173
62 98 164
62 98 165
62 99 169
62 98 166
62 99 172
62 99 168
62 98 165
62 98 169
62 98 170
63 99 164
62 98 159
61 97 159
62 98 164
62 98 161
62 98 167
61 98 167
62 98 166
62 98 169
62 99 170
62 99 168
62 98 158
61 97 163
61 97 164
62 98 163
62 98 166
62 98 170
62 98 166
62 98 159
62 98 160
62 98 164
63 99 165
62 98 166
62 98 167
62 98 163
62 98 165
62 98 166
62 99 164
62 98 163
61 97 161
63 99 162
63 99 166
62 98 163
61 97 161
63 99 171
62 98 162
62 98 164
63 99 165
62 98 161
62 98 159
63 99 167
62 97 159
61 97 155
62 98 159
62 98 164
63 99 164
63 99 169
62 98 161
61 97 154
60 96 152
62 98 159
63 98 161
63 99 165
61 97 158
63 99 162
62 99 166
61 97 155
62 98 161
62 98 163
61 96 153
61 98 162
61 97 159
62 98 157
61 97 165
61 96 150
62 97 155
60 96 149
61 96 150
61 96 153
59 93 143
61 96 150
61 96 155
61 96 149
60 95 147
61 95 145
58 92 135
61 95 149
60 93 141
59 92 139
63 87 111
58 77 101
76 83 60
69 70 26
88 85 10
94 93 19
79 79 22
91 89 14
77 76 19
95 94 25
80 81 19
91 90 21
88 87 18
92 92 23
99 98 28
99 98 34
92 91 30
101 101 31
95 94 25
104 102 31
109 107 39
107 105 31
96 96 26
110 108 31
119 117 36
104 102 36
114 113 29
108 108 38
114 111 36
105 104 37
117 114 39
123 121 37
114 112 40
129 124 47
119 116 37
128 125 45
125 123 35
129 125 45
122 119 50
122 119 47
133 129 53
134 129 57
127 124 42
133 128 55
138 133 45
134 129 42
136 131 49
140 135 53
133 129 51
134 130 54
142 137 45
149 143 58
135 131 45
136 131 48
144 140 37
140 136 48
142 137 49
143 139 51
151 144 62
147 142 51
146 141 53
143 138 54
141 137 47
134 129 44
149 144 55
142 136 44
149 144 60
143 138 46
141 136 56
148 143 47
146 141 53
144 138 41
155 149 61
145 140 49
144 139 48
147 141 47
147 141 54
140 135 49
142 136 52
147 143 48
146 141 53
150 145 53
151 146 51
146 140 57
146 141 47
141 136 52
142 136 51
140 135 42
136 131 49
141 136 48
136 130 41
146 140 52
131 126 34
135 129 42
139 133 45
143 138 34
140 134 45
142 137 51
137 132 47
124 120 37
137 132 44
130 125 44
140 133 48
134 130 39
148 145 42
135 133 36
128 127 28
139 139 41
148 151 36
141 141 28
143 150 28
149 155 22
150 158 30
152 160 28
155 166 30
149 160 19
159 171 19
151 166 0
165 181 11
157 173 11
164 181 0
165 183 0
168 186 0
166 183 0
169 186 0
164 184 0
165 182 0
166 182 0
166 186 0
169 188 0
168 186 0
169 189 0
168 187 0
167 186 0
165 185 0
170 189 0
168 186 0
177 200 67
179 201 99
175 198 67
178 199 80
174 195 76
180 202 95
178 199 88
181 202 105
179 200 114
181 203 114
182 203 111
182 203 117
181 203 117
183 204 122
182 204 117
180 202 108
185 205 128
185 206 130
182 203 120
181 202 108
183 205 114
184 204 137
189 209 142
180 202 120
185 205 137
194 213 161
185 206 137
185 205 135
186 206 137
190 209 144
191 211 153
187 207 163
189 209 151
186 207 144
186 207 142
186 206 142
188 208 151
186 207 140
188 209 153
187 207 135
191 211 159
187 207 140
184 204 153
186 206 144
188 208 155
187 207 135
190 210 159
192 211 163
184 205 137
184 204 137
189 209 144
188 208 155
188 209 149
188 208 147
188 208 147
187 207 147
184 205 137
184 203 137
183 204 120
184 205 130
184 205 137
185 206 128
185 206 133
186 206 142
176 197 125
182 202 133
181 201 120
180 201 117
180 201 114
175 198 84
173 195 67
177 199 102
179 201 95
174 195 84
175 196 92
177 199 80
177 200 88
174 195 80
163 186 70
160 183 84
149 172 107
154 177 113
147 170 97
142 165 110
121 145 117
91 120 141
75 107 149
73 105 147
70 104 161
73 105 154
80 110 147
64 98 147
66 101 158
67 101 148
67 102 155
63 98 156
65 100 161
65 100 152
60 96 151
65 99 156
63 98 160
61 97 158
62 98 162
61 97 163
60 96 157
62 98 162
61 97 162
63 99 170
62 98 168
61 97 159
61 97 169
61 98 164
62 98 162
61 97 158
61 97 162
61 97 166
62 98 165
61 97 159
63 99 168
62 98 166
61 98 168
62 98 164
61 98 166
62 98 168
61 97 161
61 97 164
61 97 169
61 97 162
62 98 163
62 98 170
63 99 169
60 96 163
62 98 162
60 96 162
62 98 164
62 98 166
62 98 164
62 98 166
62 98 169
61 97 165
61 97 170
62 98 165
60 97 159
62 98 164
61 97 165
61 97 164
62 98 169
62 99 169
61 98 168
62 99 175
62 98 168
62 98 166
61 97 166
61 98 167
63 99 175
62 98 168
62 98 169
61 98 165
62 99 170
61 98 167
61 98 166
62 98 162
62 98 166
61 97 159
62 98 162
61 97 163
62 99 169
62 98 163
62 98 165
62 99 169
61 97 164
61 98 165
62 98 164
61 98 165
62 98 171
62 98 169
62 99 172
62 98 166
62 99 171
63 99 169
62 99 166
61 98 161
62 98 164
62 99 172
62 99 170
62 98 169
62 98 165
61 97 157
62 98 165
62 98 164
62 98 159
61 98 161
62 98 158
62 98 163
61 97 159
62 98 166
62 98 166
62 99 168
61 97 161
61 97 161
62 98 164
61 98 163
62 99 167
62 99 171
63 99 163
62 98 162
62 98 163
61 97 157
62 98 164
62 98 166
62 98 158
62 98 161
62 98 162
62 99 170
63 99 165
61 97 158
62 98 159
62 98 159
62 98 161
62 98 164
62 98 156
62 98 161
62 98 162
62 98 161
61 98 163
62 98 165
63 99 168
61 97 160
63 99 163
61 97 161
62 98 161
60 96 157
61 97 158
62 98 164
62 98 157
61 97 155
62 98 162
62 98 163
62 98 154
61 97 157
62 98 162
61 97 155
62 97 156
62 98 161
62 97 156
61 97 161
62 97 153
62 98 161
63 99 167
61 97 156
62 97 155
60 95 152
60 95 145
60 94 140
62 97 150
61 97 148
61 96 153
61 95 146
60 95 149
62 97 156
58 92 136
58 90 134
61 94 145
59 86 115
79 90 89
84 90 62
86 86 24
81 81 13
68 69 16
82 81 18
84 82 11
80 80 23
88 88 22
93 92 21
88 85 19
91 91 25
83 83 17
96 95 23
74 74 21
99 98 17
100 99 28
106 105 26
94 95 36
98 96 33
106 104 37
103 102 32
108 107 32
109 106 32
121 119 40
105 104 31
108 106 24
118 114 36
117 115 33
117 115 38
116 113 36
118 116 42
120 118 41
113 111 29
122 120 39
130 127 37
121 119 30
127 126 39
122 119 38
133 130 47
125 122 44
137 133 48
134 131 45
135 132 49
126 124 44
127 122 43
131 128 41
136 131 45
137 132 51
143 138 51
142 137 50
137 133 42
138 133 46
141 136 38
139 134 57
135 131 50
145 140 53
150 144 49
142 138 47
144 139 49
143 139 45
140 136 49
146 141 56
152 146 52
145 138 53
151 145 56
142 137 54
148 143 47
149 143 52
144 138 47
144 138 45
147 141 57
140 134 47
132 128 44
143 137 47
146 140 54
145 139 44
150 144 56
143 138 41
144 139 48
145 137 53
146 140 56
143 137 52
130 126 34
143 137 48
136 130 44
134 129 36
134 128 51
136 130 51
147 140 51
135 130 41
143 136 54
137 131 42
133 127 41
135 132 37
132 127 45
135 130 45
124 118 42
139 132 47
132 127 45
138 130 51
130 126 37
133 131 34
131 127 32
130 128 32
135 134 39
134 137 30
142 146 30
141 149 30
144 147 39
139 145 25
149 158 30
159 169 28
153 164 16
155 171 0
153 168 11
159 176 0
169 185 16
167 185 11
166 184 0
171 189 0
171 190 0
167 186 0
167 186 0
165 182 0
169 188 0
168 187 0
166 186 0
167 188 0
172 190 0
167 186 0
166 186 0
165 185 0
167 186 0
169 190 0
168 186 0
174 196 76
180 202 88
178 200 88
178 199 92
173 196 76
181 203 102
183 204 114
179 200 105
175 197 92
182 203 117
180 202 105
185 205 133
186 207 135
186 207 133
184 205 120
186 206 122
187 208 144
184 205 140
184 205 122
190 210 149
187 208 144
188 208 147
186 207 130
185 205 135
186 206 128
191 211 159
185 205 147
188 208 147
187 208 140
188 208 155
187 207 144
187 207 144
190 210 169
192 212 161
189 208 153
190 210 155
190 210 157
189 209 149
184 204 140
192 212 163
193 212 163
190 210 151
192 212 163
190 210 159
195 214 173
191 211 153
192 211 165
190 210 157
198 217 186
194 213 167
188 209 147
191 211 161
192 211 169
191 211 167
186 206 140
190 210 155
186 207 151
187 207 144
184 204 130
190 210 161
190 209 157
192 212 153
191 211 155
186 205 137
184 204 128
184 204 135
180 201 120
182 203 105
179 200 105
183 204 114
181 203 105
184 204 120
181 202 120
181 201 108
177 198 108
183 204 117
172 194 84
173 195 70
168 190 97
157 179 126
151 173 115
151 175 100
145 168 108
140 164 114
124 148 129
93 121 137
78 109 154
75 106 152
88 117 156
78 110 159
75 106 145
72 105 161
68 102 158
72 105 151
67 101 148
63 97 152
65 99 150
65 99 153
64 99 159
64 99 162
61 97 164
61 97 158
62 97 157
61 97 155
62 98 164
62 98 165
62 98 164
61 97 159
61 98 162
61 97 155
62 98 161
61 97 156
62 98 164
60 96 158
61 97 162
62 98 165
62 99 171
62 98 166
61 97 163
62 99 174
62 98 162
61 98 166
61 97 160
62 98 168
62 99 166
62 98 175
62 98 168
61 98 168
61 96 154
61 97 168
62 98 166
61 98 166
63 99 167
62 98 165
62 99 171
62 98 157
62 98 164
62 99 172
62 98 168
62 99 168
61 97 163
61 98 167
61 98 167
62 98 167
62 98 164
61 98 165
62 98 166
62 98 169
61 97 166
62 99 176
62 98 167
61 98 160
61 97 164
62 98 165
61 98 164
61 97 159
62 98 162
61 97 164
62 99 169
63 99 168
62 99 168
62 98 165
61 98 168
61 97 164
62 98 162
61 97 162
62 98 167
61 97 160
62 98 172
61 98 160
63 99 168
63 99 173
62 98 164
61 98 168
62 98 167
62 98 166
62 99 172
62 98 170
62 99 171
62 99 164
62 99 170
62 98 166
63 99 168
61 97 161
62 98 163
62 98 162
62 98 167
62 98 164
62 98 168
63 99 173
63 99 171
61 98 163
61 97 162
62 98 163
62 98 168
62 98 164
62 98 164
62 98 165
61 97 160
62 99 167
61 98 162
62 98 165
62 99 164
62 98 170
62 98 162
62 98 161
62 98 162
62 98 166
62 98 157
62 99 168
62 98 164
61 97 159
62 98 163
61 97 161
62 98 161
62 98 167
62 98 166
62 98 157
62 98 155
61 97 156
61 97 163
63 99 166
62 98 161
63 99 166
61 97 156
62 98 167
62 99 168
63 99 167
62 98 163
61 97 156
62 98 167
62 98 156
62 98 158
62 98 160
63 99 166
62 97 156
62 97 149
62 99 167
62 98 160
61 97 153
60 96 148
61 96 155
61 97 156
62 98 160
62 98 163
61 97 156
62 97 157
61 97 150
61 97 150
62 98 161
61 96 151
61 97 154
62 97 156
61 96 151
60 95 145
60 94 143
60 95 139
61 96 155
60 95 146
59 93 136
60 95 145
59 92 134
58 91 134
62 86 116
70 83 83
67 73 48
92 91 29
96 93 19
75 73 16
76 77 11
89 86 12
81 82 22
97 94 14
87 86 18
86 87 21
94 92 24
90 90 20
91 92 20
91 91 20
94 95 26
106 103 36
94 93 24
95 96 24
103 101 33
103 102 34
102 102 29
112 110 26
119 116 42
113 111 25
103 103 31
117 115 36
114 111 33
121 118 38
111 109 39
118 114 33
119 116 33
117 113 40
130 127 35
123 121 48
118 115 35
120 117 38
135 132 48
141 137 55
122 118 40
137 133 45
138 134 47
131 129 45
146 141 51
136 132 52
143 139 48
133 129 53
128 124 30
135 130 46
135 131 47
138 134 48
138 134 43
137 133 41
141 137 45
138 133 42
145 140 50
142 137 48
139 135 45
150 145 56
146 141 50
140 136 38
143 138 51
138 133 44
148 141 57
141 135 48
147 142 51
148 141 49
143 137 44
151 145 52
150 144 57
148 142 53
150 145 56
144 139 42
141 136 48
137 133 39
144 139 51
148 142 49
145 140 47
140 135 36
146 140 57
146 140 47
148 142 53
143 137 51
137 131 44
134 129 39
138 132 47
146 140 48
139 134 51
138 134 37
139 133 45
136 131 42
146 140 52
134 128 34
138 133 44
136 131 51
135 130 49
141 136 45
134 128 48
125 121 36
142 137 44
135 130 44
130 128 37
134 130 39
128 126 30
142 143 39
132 134 32
147 150 22
145 152 25
137 143 30
145 152 22
154 162 19
153 163 19
147 158 32
148 161 22
159 175 16
158 171 0
161 177 11
162 179 0
167 184 0
165 182 0
167 187 0
168 187 0
168 185 0
167 184 0
168 186 0
169 188 0
162 179 0
167 186 0
169 185 0
168 188 0
168 187 0
165 185 0
166 185 0
168 186 0
169 188 0
167 184 0
180 202 80
183 204 105
183 204 105
180 202 102
182 204 114
181 203 102
185 205 133
182 203 117
181 202 111
184 204 120
184 205 114
185 206 128
181 202 117
184 204 128
180 202 125
187 208 147
188 208 147
194 213 163
184 205 140
185 206 135
190 210 147
190 210 161
189 209 147
192 211 161
190 209 151
195 214 175
193 213 159
190 210 157
195 215 179
193 213 167
191 211 157
189 209 149
192 211 159
194 214 173
192 212 175
193 212 163
195 214 175
191 211 173
194 214 173
191 210 165
196 215 182
193 212 171
194 214 169
191 210 161
195 214 177
192 212 163
195 215 181
196 216 181
196 215 177
193 213 165
185 205 137
194 213 171
190 210 167
189 210 159
190 209 159
187 208 147
195 214 171
187 207 142
185 206 135
186 206 151
189 209 161
192 211 149
190 209 165
185 205 133
180 201 135
188 208 144
188 207 149
189 209 142
185 206 137
182 203 137
192 212 157
182 202 133
180 201 130
184 204 128
175 197 80
179 200 102
179 200 107
170 192 102
168 189 102
157 178 111
154 177 125
148 170 128
140 165 121
133 156 125
115 141 134
96 123 147
90 118 151
83 113 144
102 129 163
75 107 167
79 110 154
74 106 161
71 103 145
74 107 151
69 103 153
65 100 151
65 100 162
64 99 161
64 100 165
60 96 158
67 101 153
63 99 161
62 97 158
61 97 160
62 99 165
61 98 162
60 96 153
60 96 151
61 97 160
61 96 153
61 97 162
61 98 166
61 96 161
62 98 162
61 97 161
61 97 158
61 97 167
62 99 166
61 98 166
61 98 162
61 97 156
61 98 167
62 98 169
61 97 163
62 99 171
61 97 164
61 97 162
61 98 167
61 97 162
62 98 168
61 98 164
61 98 168
61 98 165
61 97 160
62 98 166
62 98 161
62 98 163
61 98 165
62 99 169
61 98 171
62 99 173
61 97 163
61 97 162
62 98 166
62 98 168
62 98 170
62 98 166
61 98 169
61 97 162
63 99 169
62 98 165
61 98 166
62 98 168
62 98 171
61 97 160
62 98 165
63 99 173
61 97 161
61 97 160
63 99 165
61 98 165
62 98 165
62 98 165
62 98 167
62 98 164
62 98 163
63 99 167
62 98 167
62 98 167
62 99 168
62 99 167
62 98 163
63 100 174
63 99 170
62 99 171
63 99 171
61 98 165
62 98 169
62 99 170
61 97 160
63 99 169
61 98 159
62 98 166
62 98 167
61 98 166
63 99 169
62 98 169
63 99 166
62 98 164
62 98 162
62 98 164
61 98 161
63 99 164
63 99 167
62 98 161
62 98 166
63 99 170
63 99 167
62 98 161
62 98 162
61 97 164
61 97 164
63 99 167
62 98 164
62 98 159
61 97 156
62 99 169
61 97 162
62 98 163
62 98 163
62 98 159
61 97 161
62 98 163
63 99 168
61 97 157
62 98 161
63 99 168
62 97 152
61 97 161
62 98 159
63 99 169
61 97 160
62 98 163
62 98 161
62 97 153
62 99 166
62 98 162
61 97 158
62 99 168
62 97 153
61 97 157
62 98 163
62 98 159
62 99 164
62 98 163
62 98 158
62 98 160
62 98 162
61 97 158
61 96 154
61 97 158
61 97 151
61 97 153
62 98 157
62 97 152
62 98 156
62 98 158
62 97 156
61 96 146
61 97 151
61 96 147
62 98 160
61 96 152
61 97 156
61 97 152
60 94 143
59 94 145
61 95 148
60 94 145
60 95 148
59 93 131
59 93 137
60 91 131
70 91 116
74 84 80
74 79 56
79 80 31
85 83 14
82 80 16
92 91 14
76 77 13
81 80 16
89 89 19
84 84 16
96 92 25
90 89 18
93 91 23
89 89 19
94 93 26
86 88 23
97 95 28
83 83 23
100 99 29
97 97 22
92 93 20
108 105 38
103 101 20
100 98 29
110 108 34
108 106 32
105 103 36
107 106 33
118 116 28
117 114 30
121 118 40
110 108 34
119 117 40
129 126 43
129 125 34
125 120 47
120 117 46
123 120 35
132 128 48
128 125 39
137 132 47
129 126 43
130 126 46
137 132 45
126 124 38
133 129 43
136 133 50
139 134 47
140 135 47
137 132 54
141 136 49
135 131 46
134 129 39
147 141 47
136 132 37
134 131 45
140 135 42
144 140 49
137 132 47
141 137 39
142 139 44
143 139 52
135 130 41
139 134 44
146 141 49
142 137 56
142 138 44
143 138 45
140 135 42
140 136 32
140 134 44
139 134 42
143 138 47
143 137 47
139 134 48
136 130 42
140 135 37
137 132 45
136 131 42
142 137 49
139 135 41
138 132 49
139 134 41
135 130 45
137 132 37
143 137 41
136 131 48
139 134 45
139 134 41
137 131 49
138 133 39
136 131 41
136 130 37
131 126 44
131 126 42
131 124 48
127 122 39
134 128 37
130 125 30
132 127 37
133 128 39
140 137 37
132 131 28
134 133 37
149 152 44
135 140 16
151 153 37
144 153 28
144 150 25
151 163 19
146 154 25
147 155 22
158 173 19
159 170 19
156 170 11
161 176 0
161 179 0
166 182 0
166 185 0
162 179 0
165 182 0
165 183 0
165 182 0
167 187 0
165 184 0
170 188 0
163 182 0
163 179 0
166 184 0
166 183 0
167 185 0
169 187 0
167 186 0
165 183 0
169 188 0
167 187 0
183 204 120
180 201 95
185 206 120
179 201 99
183 204 128
183 203 122
184 205 137
180 202 108
183 204 130
187 207 147
187 208 142
191 210 149
190 210 147
188 209 140
189 209 155
188 207 147
191 211 157
189 209 147
190 210 157
193 213 167
194 214 171
195 214 179
189 209 167
194 214 169
194 214 171
196 215 179
193 213 173
194 213 165
193 213 167
195 214 177
196 215 179
191 210 165
195 214 175
194 213 169
195 214 179
198 218 189
192 211 163
198 217 189
197 216 181
195 215 173
193 213 181
193 212 181
195 214 181
196 215 184
196 215 179
198 217 188
199 217 193
193 213 171
197 216 182
196 214 184
199 217 193
192 212 171
198 217 182
191 210 161
191 210 161
190 209 155
196 215 173
191 211 159
188 208 157
198 216 189
189 209 151
193 213 167
187 207 147
193 212 171
188 207 153
183 205 125
183 203 133
192 212 165
189 209 149
185 206 144
185 206 128
186 206 137
187 207 137
180 202 108
184 204 130
182 203 114
176 198 111
175 197 117
165 186 105
157 178 126
150 171 131
134 157 125
134 157 122
138 161 118
125 149 143
85 114 149
94 122 140
85 114 145
80 111 148
72 105 144
76 108 149
78 110 153
81 112 162
66 101 151
74 106 157
66 101 157
70 104 158
69 103 168
66 99 157
65 100 156
60 96 154
66 101 159
61 97 159
65 100 156
62 98 155
61 97 158
61 97 156
61 97 161
62 98 163
61 97 159
61 97 159
61 97 157
61 97 160
60 97 156
62 98 165
60 96 153
62 99 167
61 98 165
61 98 161
61 97 160
62 98 167
61 97 164
62 98 170
62 98 166
62 98 166
60 96 158
62 98 172
62 98 167
62 98 166
62 98 166
61 97 163
62 98 167
61 97 160
61 98 166
62 98 165
62 98 166
60 97 165
61 98 170
61 97 170
62 99 172
62 98 169
61 98 164
62 98 166
62 98 164
61 97 164
61 98 161
62 98 163
61 97 162
62 99 166
62 98 163
62 98 168
63 99 174
61 98 163
63 99 171
61 97 164
64 100 171
61 98 161
61 98 169
63 99 170
62 99 165
62 98 163
62 98 166
63 99 164
62 98 166
62 98 165
62 98 167
62 99 168
62 98 165
62 98 166
62 98 161
62 99 170
61 97 164
62 98 165
62 98 162
62 98 166
61 98 161
61 98 169
62 99 163
62 98 162
62 98 162
62 98 161
62 98 165
61 98 161
63 99 167
63 100 173
62 98 161
62 98 165
62 98 167
61 97 162
62 99 167
62 98 158
63 99 167
62 99 167
62 98 165
62 98 166
61 98 161
61 97 163
62 98 163
62 99 172
62 99 168
61 97 156
62 98 167
63 99 166
62 98 167
62 98 158
62 98 168
62 98 161
62 98 162
63 99 165
63 99 168
61 97 157
61 97 159
61 98 159
62 97 156
62 98 164
61 97 159
63 98 161
62 98 163
63 99 167
62 98 162
61 97 155
62 97 155
61 97 154
63 99 164
61 97 156
62 98 157
61 96 148
61 97 153
61 97 157
62 98 157
61 97 159
62 98 163
61 98 161
62 97 154
61 97 156
62 98 160
62 98 161
59 94 147
62 98 158
62 98 158
62 97 152
61 97 155
60 95 141
60 95 150
62 98 162
61 97 153
61 97 152
62 98 156
61 96 149
60 96 149
61 96 156
63 98 158
62 97 157
61 96 148
61 97 148
61 96 149
61 96 154
60 95 149
59 93 143
60 93 142
60 94 145
61 94 141
60 94 142
68 89 102
84 95 90
77 82 45
89 87 16
83 81 8
92 90 19
80 80 16
90 87 16
77 76 16
89 88 12
99 96 18
74 74 10
91 90 14
95 94 22
91 91 13
87 87 16
91 89 20
92 90 27
99 97 18
89 88 14
91 91 26
98 97 24
97 96 36
111 109 28
107 105 29
105 103 34
113 110 28
103 103 27
106 103 32
118 114 39
114 112 41
123 121 40
116 114 36
122 119 36
125 122 45
128 124 24
126 124 35
129 124 41
125 122 41
118 115 35
131 127 37
127 124 42
136 131 49
132 129 45
127 121 47
139 134 47
133 130 43
143 138 46
125 122 33
145 141 48
134 129 47
143 138 46
139 135 38
137 133 37
137 133 46
132 128 30
143 137 51
147 142 45
137 133 40
141 136 49
140 135 42
137 132 41
145 139 53
142 137 49
142 139 39
148 142 56
140 135 39
138 134 42
143 138 47
135 130 41
137 131 47
135 131 36
134 130 41
143 137 51
142 135 51
142 136 45
143 138 39
141 136 48
139 133 45
145 138 51
140 136 44
141 135 44
149 143 53
141 135 45
134 129 41
137 132 41
139 134 39
142 137 48
141 135 44
139 134 45
144 139 45
132 128 41
129 124 30
134 129 42
130 126 34
128 123 39
129 124 44
130 124 39
129 125 36
123 119 30
129 128 32
143 142 41
137 137 34
139 139 39
131 131 32
132 135 28
141 148 22
142 149 11
142 149 16
144 149 32
149 158 25
144 154 11
152 165 16
160 172 19
157 171 16
165 180 16
155 168 16
163 180 0
160 176 0
166 184 0
164 182 0
165 184 0
163 180 0
167 183 0
166 184 0
168 189 0
162 182 0
165 184 0
166 185 0
167 185 0
165 182 0
168 188 0
164 183 0
170 190 0
167 186 0
168 188 0
169 187 0
181 201 122
185 206 130
188 209 149
185 205 128
182 203 120
188 208 144
189 208 135
185 206 137
187 208 125
191 211 157
190 211 155
188 208 144
186 207 137
192 212 163
195 215 177
191 210 161
192 211 159
190 210 157
195 214 179
195 215 179
194 214 175
197 216 181
193 213 163
197 216 182
193 212 179
196 215 181
195 215 175
197 217 193
189 209 163
198 217 189
195 214 175
191 211 161
198 216 199
199 217 194
193 213 165
200 218 196
194 214 173
193 212 171
199 218 191
195 214 188
196 215 179
198 217 182
200 219 191
193 212 177
196 215 181
200 219 194
199 218 193
193 213 175
199 218 191
199 218 196
194 214 177
195 215 173
199 217 189
197 216 184
191 211 161
195 215 177
194 214 177
197 216 182
195 214 169
194 214 177
196 214 179
191 210 165
191 210 165
192 211 161
190 210 153
192 212 161
186 207 142
188 209 137
192 211 161
187 207 149
189 208 151
189 209 144
186 206 128
186 207 140
190 210 153
184 205 128
186 207 141
173 193 139
163 183 142
162 184 142
155 176 155
150 171 145
146 167 147
127 152 139
119 145 134
101 128 147
95 123 151
78 109 149
86 115 141
91 120 159
80 111 157
78 109 150
77 109 154
70 102 141
80 110 150
70 103 145
67 101 154
70 103 157
62 98 158
63 99 157
63 99 161
66 101 162
62 98 160
61 97 160
59 94 155
61 97 162
62 97 151
61 97 159
64 99 159
62 98 161
60 96 160
60 97 166
61 98 164
62 98 165
61 97 159
62 98 162
60 96 165
60 96 159
62 97 164
61 97 165
60 96 159
61 97 164
61 97 163
61 97 162
62 98 167
62 98 172
62 98 165
61 97 164
61 97 161
61 97 158
62 98 160
62 99 167
62 98 169
61 97 158
61 98 161
62 98 164
61 98 168
61 97 162
62 99 170
62 99 170
62 98 159
63 99 173
62 98 166
62 98 168
61 98 168
61 98 167
62 98 163
61 97 165
62 99 171
62 99 171
62 98 169
61 98 169
61 97 158
62 98 171
61 97 161
62 98 167
62 98 165
62 98 165
61 98 172
62 98 159
62 98 165
62 98 167
62 98 164
61 97 159
62 98 166
61 97 156
63 99 164
62 99 168
62 99 169
63 99 167
62 98 166
63 99 171
62 98 166
62 99 168
62 98 166
61 97 163
62 98 169
63 99 167
63 99 163
63 99 170
62 98 160
62 98 159
61 97 159
62 98 161
61 98 165
61 97 155
62 99 171
62 99 166
62 99 169
62 98 164
61 97 163
63 99 167
63 99 170
62 99 164
62 98 165
62 98 167
63 99 166
62 98 160
62 99 168
62 98 164
61 97 161
63 99 162
63 99 164
61 97 161
62 98 158
62 98 165
62 98 164
63 99 163
60 96 155
61 97 154
63 99 168
62 98 163
62 98 158
62 98 163
62 99 163
62 98 154
62 98 159
62 98 160
62 98 158
62 97 159
62 98 159
62 97 159
62 98 162
61 97 156
62 98 157
61 97 160
63 99 165
61 98 166
61 97 154
62 98 164
61 97 155
62 97 159
61 97 156
62 98 159
62 98 163
61 96 149
62 97 154
62 97 153
62 98 157
62 98 160
62 97 155
61 97 156
60 96 151
60 96 149
62 98 162
61 96 148
62 98 157
62 98 161
61 96 149
60 96 145
60 95 146
61 96 147
60 95 149
61 96 146
60 95 145
60 95 155
60 95 141
59 93 145
59 92 138
61 95 146
61 95 145
59 93 134
59 92 135
64 87 109
82 89 67
81 87 57
87 86 21
81 78 8
86 84 14
87 85 14
80 79 8
81 78 22
90 89 16
93 91 12
84 84 17
94 94 19
99 96 22
97 98 20
96 94 9
100 98 16
94 91 20
99 98 17
104 101 28
98 99 27
107 104 27
98 97 21
101 98 21
110 107 32
115 113 34
110 110 27
110 109 28
101 100 19
120 116 31
110 107 24
111 109 31
115 113 29
117 113 31
112 111 35
119 117 25
122 118 41
133 128 45
125 121 32
128 124 44
128 123 47
119 116 26
134 130 44
133 130 39
125 122 34
124 121 35
128 125 36
134 130 43
133 130 28
119 117 32
129 126 29
135 130 42
127 122 37
128 125 38
138 134 42
140 135 40
139 133 47
133 128 41
141 135 47
131 127 34
147 142 48
136 131 39
136 132 39
138 133 43
144 139 44
142 137 43
138 133 37
127 123 41
139 135 40
140 135 37
134 129 39
135 130 32
146 141 41
135 129 48
139 132 45
144 138 49
142 136 41
136 132 41
139 134 44
136 130 41
141 136 45
139 134 41
130 125 36
137 131 48
132 127 37
147 142 47
142 137 41
131 127 37
133 129 37
131 127 30
128 123 37
130 126 36
131 127 39
124 120 32
130 125 41
130 126 36
131 125 42
136 129 42
137 134 37
134 132 37
124 123 30
133 132 36
136 135 37
142 143 28
138 143 25
140 145 32
147 149 34
145 153 16
143 149 25
147 155 0
154 167 22
152 164 16
153 165 0
157 170 0
165 182 11
161 176 0
162 178 0
166 182 0
165 183 0
161 177 0
160 175 0
167 184 0
170 190 0
166 182 0
166 184 0
165 183 0
166 184 0
161 179 0
167 186 0
168 188 0
166 186 0
169 187 0
170 189 0
165 184 0
169 187 0
169 188 0
169 188 0
187 207 142
186 205 140
182 202 122
183 204 120
186 207 130
188 208 149
184 205 130
189 209 153
187 208 140
187 207 147
194 213 165
194 213 167
197 216 179
196 215 182
190 210 153
190 209 163
193 212 175
191 211 165
195 214 181
193 212 165
198 217 188
196 216 184
197 216 188
199 218 193
197 216 186
198 217 193
200 219 196
195 214 182
198 217 182
199 218 194
199 218 199
198 217 188
199 218 194
200 218 193
200 218 201
198 217 188
201 220 204
200 219 193
197 216 189
195 215 184
201 220 203
198 218 193
197 216 194
199 218 194
202 221 206
200 219 199
196 215 184
205 223 212
203 221 204
196 216 179
199 218 196
198 217 194
198 217 196
202 220 201
199 218 194
198 216 184
200 218 199
195 215 182
194 213 173
193 212 163
197 215 184
193 213 169
198 217 184
196 215 177
193 213 171
195 214 169
190 209 153
194 212 171
195 213 181
188 207 149
192 211 169
192 212 159
185 206 137
186 205 147
192 211 161
187 207 133
185 204 154
162 183 131
166 187 155
143 165 155
150 171 155
131 154 136
148 170 140
133 156 145
121 145 152
106 132 144
86 115 149
68 101 155
84 114 158
84 114 152
81 111 154
80 111 158
68 102 152
77 108 149
69 103 156
69 103 153
69 102 150
65 99 156
66 100 148
63 98 165
69 102 156
63 99 160
64 100 163
65 101 159
61 97 165
62 97 159
62 97 154
62 98 164
64 99 162
61 98 161
61 97 164
61 97 156
62 98 164
61 97 163
61 97 156
62 98 162
60 96 160
62 98 168
61 97 167
61 97 155
60 96 153
63 99 171
62 98 165
61 97 160
63 99 167
62 99 164
61 97 155
61 98 165
62 98 172
61 97 164
62 98 163
62 98 165
61 97 163
62 98 165
61 98 164
61 97 165
62 98 164
60 96 161
62 98 167
61 97 159
62 98 166
62 99 169
62 98 165
62 99 166
61 97 164
62 98 164
61 97 161
61 98 166
62 98 169
61 98 164
62 99 167
63 99 168
62 98 159
63 99 173
62 98 167
62 98 168
62 98 167
62 98 168
62 98 165
62 98 162
63 100 169
62 98 161
62 98 167
60 96 160
61 98 159
61 98 161
61 97 161
61 98 168
61 98 161
61 97 159
62 99 168
63 99 161
62 99 167
63 99 168
62 98 161
62 98 162
62 98 165
62 98 166
62 99 168
61 97 159
62 98 162
62 98 161
63 99 163
62 98 164
61 97 164
62 99 167
62 98 163
61 97 158
62 99 167
63 99 166
62 98 164
61 97 153
62 98 162
61 97 161
62 98 162
62 98 165
62 98 161
62 98 167
62 98 164
62 99 167
62 99 165
61 98 164
61 97 159
63 99 168
62 98 163
62 98 160
62 98 160
62 98 161
62 98 160
62 98 162
62 98 161
63 99 167
63 99 165
62 98 162
63 99 166
62 98 160
62 98 160
62 98 157
62 98 169
61 97 158
62 98 160
62 98 159
62 98 159
62 98 158
61 97 156
63 99 162
60 96 147
61 97 159
62 98 155
61 97 157
61 97 156
61 97 149
62 97 162
61 97 150
63 99 166
62 97 161
62 97 152
63 99 162
62 97 154
62 97 158
61 97 153
61 97 154
62 97 154
62 97 151
61 97 154
62 97 156
61 97 155
62 98 156
62 97 158
61 97 154
61 96 149
60 95 145
59 94 145
62 97 154
61 96 150
60 95 141
60 95 146
59 93 141
59 93 137
60 94 142
59 93 135
60 94 139
61 94 134
70 92 116
79 90 85
80 80 35
88 86 8
90 88 0
83 80 1
101 96 5
85 81 5
86 83 18
89 88 8
69 69 14
87 86 19
80 81 14
99 96 17
91 89 16
95 96 20
98 96 20
93 93 20
97 96 30
88 88 18
107 105 18
98 96 16
96 95 23
105 104 30
114 112 32
109 106 34
107 106 29
107 102 29
107 105 32
112 107 29
115 114 33
115 113 34
110 109 23
113 110 30
116 113 32
115 111 38
126 122 39
121 118 36
123 120 41
126 123 40
126 122 42
119 115 35
118 116 39
125 122 36
128 124 38
127 123 39
125 123 33
133 129 41
138 133 42
137 132 43
138 133 44
142 136 45
138 133 33
131 127 43
135 130 42
145 140 41
132 128 38
137 133 43
137 132 42
138 134 44
131 126 41
142 135 49
138 133 40
140 135 42
139 133 39
136 131 34
139 134 45
150 144 45
145 140 47
143 138 41
139 134 41
135 130 34
139 134 39
142 137 41
150 144 53
138 133 39
130 124 44
132 128 37
137 132 34
127 122 37
148 142 47
137 132 42
141 136 37
141 136 44
140 135 34
140 135 52
136 130 44
127 122 34
137 131 42
133 128 39
136 129 48
139 133 44
131 126 32
131 126 30
130 125 42
131 125 37
132 127 39
128 124 34
130 128 37
135 133 34
127 126 30
136 139 37
139 139 30
130 131 25
133 134 30
143 149 0
144 152 30
143 149 16
148 157 25
149 157 16
148 157 19
161 174 11
163 176 19
160 175 19
155 172 0
163 177 0
157 169 0
162 179 0
168 185 0
166 185 0
167 185 0
164 181 0
166 184 0
164 181 0
169 187 0
163 181 0
169 186 0
164 182 0
168 187 0
167 185 0
164 183 0
164 179 0
170 188 0
163 183 0
167 185 0
161 179 0
166 184 0
182 204 114
190 210 147
187 207 140
184 204 133
187 208 137
192 212 167
188 209 144
185 206 135
191 211 161
194 213 175
188 208 149
194 214 173
191 212 161
193 212 167
198 216 175
196 215 186
197 216 182
198 217 186
196 215 179
202 220 204
198 217 189
198 217 184
199 218 201
195 215 175
202 221 209
199 218 193
199 219 194
197 217 194
198 217 189
196 216 189
198 217 199
204 223 212
204 222 218
199 218 198
202 221 212
200 219 196
202 221 204
203 222 214
203 221 212
204 222 211
202 220 206
202 220 207
200 219 199
203 220 211
199 218 198
202 220 199
201 219 215
199 219 196
202 220 209
204 222 209
203 222 209
204 222 212
200 219 198
198 217 194
197 216 188
200 219 198
198 217 189
198 218 189
203 221 207
202 221 206
197 216 186
195 214 177
194 214 181
196 215 182
194 214 175
196 215 184
194 213 173
195 213 179
195 214 171
194 213 173
195 214 173
189 208 165
190 210 155
195 214 169
191 210 153
196 215 175
187 206 160
181 201 155
158 178 169
146 167 155
146 168 157
143 165 171
138 160 166
116 141 147
120 145 158
105 131 164
86 115 152
81 111 155
84 114 150
84 113 148
80 111 157
71 104 162
80 110 157
82 114 157
76 107 151
64 99 158
70 103 156
73 105 154
66 101 158
63 99 157
60 96 154
61 97 165
62 97 156
64 100 162
68 101 152
65 100 157
62 98 165
63 99 162
62 98 160
61 97 161
62 98 165
60 96 150
61 97 160
61 97 163
61 97 156
61 97 160
61 97 163
61 97 158
61 98 164
61 98 163
62 98 163
62 98 163
60 96 164
62 98 166
62 98 170
62 99 169
62 98 164
61 97 162
61 97 165
61 97 166
62 98 155
61 98 166
62 98 165
62 98 167
62 99 167
62 98 169
61 97 154
61 97 159
62 99 172
60 96 160
62 98 165
61 98 168
61 98 165
62 98 166
62 98 164
61 98 166
61 98 163
62 98 165
63 99 169
62 98 165
62 98 167
62 98 168
61 98 165
62 98 159
60 96 158
61 97 163
62 99 170
62 98 164
63 99 167
61 97 165
62 98 169
62 99 165
62 99 170
62 99 165
62 98 167
62 99 166
62 98 163
62 98 163
62 99 170
61 98 162
62 99 169
62 98 165
61 97 160
62 98 163
62 98 168
61 97 158
62 98 160
62 98 162
62 98 161
62 98 166
62 99 167
62 98 166
62 99 165
61 97 162
62 98 156
61 97 157
62 99 168
61 97 157
62 98 162
61 97 158
62 98 170
63 99 166
62 98 163
62 98 166
62 98 163
62 98 158
62 99 167
62 97 156
61 98 162
62 98 161
62 98 158
62 98 162
61 97 160
62 98 162
61 97 159
62 99 166
62 97 155
61 97 163
62 98 157
61 98 162
62 98 162
62 98 159
62 98 161
63 99 166
62 98 159
61 97 153
63 99 168
61 97 161
62 98 162
62 98 163
62 97 159
62 98 158
62 98 160
61 97 158
60 96 150
63 99 163
62 98 163
62 98 158
61 97 153
62 98 161
62 98 161
62 97 155
62 98 163
62 97 156
63 99 167
61 96 144
61 97 151
61 97 155
62 98 159
61 97 156
61 96 153
61 96 151
62 98 157
61 96 154
61 96 145
61 97 160
63 98 158
61 97 149
62 97 156
61 97 156
61 96 144
61 96 153
61 97 152
61 96 155
59 93 128
61 96 151
59 93 142
59 94 142
60 94 142
61 95 143
59 92 136
59 93 134
60 91 132
68 87 108
73 85 78
85 89 51
83 82 8
97 97 14
89 87 0
78 76 15
88 84 14
87 85 4
76 76 20
95 93 14
76 75 8
79 78 12
92 90 8
94 94 14
94 93 20
87 85 16
99 97 11
98 98 18
97 94 29
97 95 24
102 100 18
111 108 22
109 107 28
104 101 27
96 96 19
116 113 32
114 113 30
103 102 26
109 106 27
117 114 37
113 111 24
105 104 34
115 111 32
113 111 22
115 112 37
117 113 30
128 126 36
120 117 27
117 116 37
130 125 42
126 122 40
125 122 35
127 122 30
128 124 39
125 121 37
118 117 19
126 122 45
136 132 37
126 122 37
124 121 30
134 130 34
132 127 39
127 124 24
140 135 47
134 129 36
135 132 40
138 134 42
127 123 38
132 127 39
133 128 34
133 127 41
131 125 42
133 128 42
141 135 46
129 125 30
140 135 30
136 131 37
130 126 28
145 140 44
136 131 37
132 128 37
141 134 44
137 132 36
145 140 42
137 132 39
140 135 44
134 131 32
138 132 39
141 135 37
128 124 39
134 128 39
129 124 42
133 128 32
125 121 28
133 128 37
133 129 32
131 126 37
141 135 44
136 130 41
136 132 39
126 121 32
128 124 39
127 123 41
133 128 44
130 125 32
123 119 28
125 123 28
132 129 28
126 125 30
133 132 30
138 140 30
135 139 19
140 147 16
135 141 25
141 149 22
133 139 11
147 154 28
151 157 22
156 168 19
153 164 0
153 164 0
155 165 11
159 172 11
164 180 11
160 174 0
160 177 0
168 185 0
164 179 0
164 181 0
163 180 0
166 183 0
167 185 0
158 173 0
169 186 0
167 186 0
167 185 0
164 183 0
165 184 0
166 184 0
165 183 0
163 181 0
160 176 0
169 188 0
170 190 0
163 182 0
164 182 0
186 207 135
193 213 169
188 208 149
189 209 151
190 210 159
191 210 155
191 211 165
188 209 147
188 209 147
194 213 177
194 214 173
192 212 171
195 214 182
196 216 189
199 218 189
198 217 186
198 217 189
196 216 182
199 218 194
200 219 199
196 216 188
201 220 203
202 220 201
198 217 189
200 219 199
199 218 199
202 221 207
203 222 211
202 221 207
203 222 207
204 222 212
200 219 199
199 218 194
203 221 207
197 217 196
202 221 203
206 224 221
200 219 198
201 219 209
199 218 196
202 220 204
203 221 214
203 222 215
199 218 198
205 223 214
202 221 199
204 222 209
204 222 212
200 219 204
204 222 215
202 220 209
204 222 214
201 219 203
203 222 209
202 221 207
201 219 203
197 216 189
199 218 189
197 216 188
203 222 209
200 218 194
198 217 188
200 218 188
198 217 189
197 216 186
195 215 177
194 214 181
198 217 194
200 218 189
197 216 188
193 212 173
193 212 175
192 211 175
194 213 177
193 212 173
183 204 144
181 201 166
172 193 158
155 175 173
151 172 171
152 173 177
140 162 167
144 167 157
129 153 152
124 148 151
100 127 153
89 118 165
100 127 161
91 120 150
94 123 153
90 119 161
86 116 159
81 111 150
75 107 154
82 112 156
76 108 159
63 98 155
68 101 152
69 103 159
71 104 147
63 98 154
72 106 162
62 98 163
59 95 155
62 98 153
62 98 159
61 97 153
61 97 162
61 97 162
61 97 160
61 97 162
64 100 163
60 96 150
61 97 162
60 96 162
62 98 162
61 97 168
61 97 162
61 97 158
61 97 157
61 97 156
61 97 169
61 97 159
62 99 167
61 97 159
61 98 162
61 97 152
61 97 157
62 99 169
61 98 167
61 97 164
61 97 160
61 97 165
62 98 166
62 98 164
61 97 162
61 96 157
62 98 166
61 97 164
60 96 161
61 97 156
61 97 164
61 97 160
62 98 165
62 99 171
60 96 149
62 98 165
62 98 165
61 97 159
62 98 162
61 97 161
62 98 162
62 98 164
62 98 166
62 98 162
61 98 163
62 99 165
62 98 161
61 97 164
62 98 164
62 98 162
62 98 167
62 98 169
62 98 170
62 98 167
63 99 168
62 99 170
62 98 167
62 99 170
62 98 166
62 99 169
62 98 162
62 98 164
62 98 163
62 98 164
62 98 162
62 98 165
62 99 168
62 98 163
62 99 167
63 99 166
61 97 158
62 99 171
62 99 169
61 98 161
61 97 163
61 97 162
61 97 162
62 98 161
62 98 167
62 98 163
62 99 167
61 97 161
62 98 161
61 97 162
61 98 163
63 99 163
62 98 160
62 97 154
62 98 165
61 97 156
62 98 162
61 97 159
62 98 156
62 98 158
63 99 165
62 98 160
62 98 160
62 98 162
62 98 164
62 98 161
62 98 163
62 99 167
61 97 158
62 98 157
62 98 160
61 97 158
62 98 158
62 97 154
62 98 158
61 97 156
62 97 157
61 98 158
62 98 160
61 97 160
62 98 158
62 98 163
63 99 162
61 97 156
62 97 155
61 97 151
62 98 158
62 98 159
62 97 155
62 97 154
61 97 153
62 98 157
62 98 161
61 97 155
60 96 151
61 96 149
61 97 156
61 96 146
62 97 152
62 98 158
61 96 145
62 98 159
61 96 147
62 97 152
62 97 153
62 98 162
61 95 146
60 96 145
61 96 147
61 96 150
59 94 130
60 94 145
59 93 142
60 94 137
62 96 151
60 95 144
60 93 134
62 92 126
70 90 113
91 97 79
101 103 54
86 86 14
100 97 19
96 95 20
90 88 14
96 93 12
77 76 2
87 85 18
93 91 19
82 82 16
81 81 14
102 97 19
87 85 8
87 83 16
88 87 20
99 96 8
99 96 18
95 93 18
113 108 19
99 98 19
102 100 26
106 103 29
103 100 16
103 100 14
106 103 28
112 110 36
101 99 11
110 108 38
117 114 31
109 107 24
116 113 38
116 113 26
114 111 32
114 112 21
135 130 32
117 114 21
109 107 25
123 120 39
130 124 39
122 119 39
132 127 44
124 119 35
119 117 24
126 122 31
130 126 39
130 126 29
127 123 31
124 121 37
130 126 41
129 125 42
129 125 22
137 132 41
135 129 37
130 125 37
127 123 26
133 128 38
127 122 37
137 132 45
138 134 29
139 135 39
137 133 37
125 121 25
134 129 30
134 129 42
139 133 47
128 125 34
131 127 34
128 124 34
142 138 34
134 130 39
139 135 34
131 127 32
134 130 34
135 129 36
130 125 37
139 134 39
139 133 41
136 132 42
136 130 37
134 130 25
135 130 39
127 122 11
129 124 42
126 121 30
132 127 34
136 131 37
137 131 49
133 128 37
125 120 37
131 127 34
126 123 30
122 117 30
126 122 28
130 127 32
128 124 28
133 131 36
123 123 22
138 136 32
134 136 32
138 141 28
138 140 32
143 152 16
136 139 22
144 153 19
143 151 16
139 145 19
153 166 0
146 158 0
160 173 0
161 174 0
157 171 0
161 177 0
165 179 0
161 174 0
167 184 0
161 178 0
163 180 0
164 181 0
165 184 0
163 179 0
168 186 0
161 179 0
163 177 0
160 178 0
159 175 0
167 184 0
166 184 0
164 182 0
164 182 0
169 187 0
165 185 0
168 187 0
168 188 0
169 190 0
164 183 0
190 210 151
194 213 163
194 213 165
193 212 163
192 212 161
197 216 173
194 214 171
195 214 169
195 215 173
197 215 186
198 217 186
194 214 177
195 215 177
196 216 186
197 216 188
201 220 206
197 216 188
201 220 207
202 221 204
200 218 206
204 222 211
202 220 209
202 220 206
198 218 196
203 222 209
204 223 212
204 223 217
201 221 209
202 221 207
199 219 199
202 221 206
201 220 207
203 222 212
200 220 204
204 222 215
201 220 204
201 220 209
202 221 212
205 223 217
204 222 214
205 223 220
204 222 214
203 222 211
205 223 215
205 224 218
202 221 209
205 223 220
206 224 220
202 220 211
203 222 214
205 223 217
202 221 209
203 222 212
202 220 203
201 220 211
203 221 214
203 222 212
203 221 209
200 218 201
198 218 193
200 219 191
204 222 207
202 220 206
201 219 198
200 219 196
204 222 206
197 216 184
199 217 191
198 217 188
199 217 189
195 214 179
195 214 179
195 214 179
195 214 181
190 209 171
187 207 171
176 196 180
172 191 181
158 178 177
148 168 176
138 160 165
146 166 177
132 155 159
122 146 169
127 150 162
117 141 166
87 116 167
86 116 157
83 113 157
81 111 155
79 110 160
72 104 154
80 111 156
74 106 150
76 108 161
81 111 152
71 103 147
66 100 151
75 107 167
70 103 155
68 102 151
69 102 149
63 98 154
63 99 156
64 99 155
63 98 156
60 96 159
61 97 161
64 99 149
61 97 160
61 97 161
64 99 161
60 96 159
60 96 158
62 98 160
60 96 157
62 98 167
61 98 161
61 98 168
62 98 162
61 96 157
62 98 169
61 97 162
60 96 160
61 97 163
61 97 160
61 97 162
61 97 162
61 97 164
62 98 167
61 97 163
61 97 162
61 97 162
62 98 166
61 97 166
61 97 163
61 97 168
62 98 162
60 96 157
61 97 162
61 97 164
61 96 151
61 97 159
61 98 164
61 97 158
62 98 166
62 98 164
62 98 160
62 98 162
62 98 166
61 97 157
62 98 163
61 97 156
61 97 156
61 97 162
62 97 160
62 98 171
62 98 161
62 98 168
61 97 163
62 98 161
62 99 171
62 98 165
62 98 165
62 98 163
61 98 164
62 98 160
61 98 164
62 98 160
61 98 166
61 98 165
61 97 158
63 99 166
61 97 161
62 98 161
62 98 162
63 99 168
61 97 160
61 97 160
61 97 163
63 99 169
62 98 165
61 97 158
62 98 163
62 98 163
62 98 165
62 98 161
62 98 164
62 98 168
61 97 158
62 99 169
62 98 166
62 98 160
62 98 161
62 99 169
62 98 163
62 98 161
61 97 163
61 97 157
61 97 160
62 99 163
62 98 158
61 97 158
62 98 159
62 98 158
61 97 158
62 98 159
62 98 158
61 97 158
62 98 163
62 98 164
62 98 161
62 98 158
63 100 169
62 98 160
60 96 149
62 98 164
62 97 157
62 98 161
62 98 161
61 97 156
63 99 166
61 96 152
63 99 165
62 98 157
61 97 154
62 98 157
62 98 161
63 98 160
62 98 160
62 98 161
62 98 159
62 98 155
62 99 166
62 98 160
61 97 153
62 98 157
62 97 159
61 97 154
62 98 160
61 97 151
61 97 155
62 98 158
62 98 158
61 96 149
61 96 147
62 97 155
62 98 155
61 96 152
61 96 149
61 96 154
60 95 141
62 97 154
62 97 149
61 96 149
60 94 138
61 95 148
61 96 151
59 93 132
60 95 148
60 93 144
60 94 147
59 90 131
64 83 104
85 89 56
85 87 25
103 101 11
84 84 14
94 89 4
90 88 12
89 88 12
87 85 3
83 82 11
89 85 8
91 90 18
90 88 12
90 88 12
99 97 0
94 91 19
92 90 18
100 96 14
104 102 16
101 98 18
94 94 18
106 103 16
103 101 25
101 99 16
96 94 14
88 87 19
115 112 24
113 110 28
124 120 21
110 107 25
110 107 28
106 104 18
105 104 24
118 116 21
117 114 22
114 112 29
117 116 35
121 116 36
113 113 23
119 116 28
129 126 24
118 115 32
121 118 32
120 115 23
129 125 38
113 110 30
124 120 38
129 125 24
125 121 33
138 134 37
133 129 39
139 135 42
130 126 33
134 129 41
139 134 37
134 130 39
136 132 36
127 123 31
126 121 37
134 129 28
127 122 28
135 131 28
136 132 38
131 127 28
138 134 34
138 134 41
137 133 36
143 137 41
129 125 34
136 132 28
130 125 36
135 130 36
127 123 36
131 125 37
133 129 30
137 132 37
135 131 34
132 127 32
137 132 37
133 128 41
140 136 44
122 116 28
125 120 37
124 119 28
124 118 34
128 122 44
128 123 36
135 129 36
134 129 36
129 126 30
127 122 30
130 125 28
129 125 34
130 126 37
128 123 30
133 131 22
134 130 37
128 128 28
137 140 34
130 129 28
138 140 32
135 137 19
137 145 16
144 149 25
148 156 28
145 155 16
150 160 16
150 160 19
154 166 11
154 168 0
159 172 11
156 169 11
159 173 0
162 176 0
162 178 0
166 181 0
167 185 0
168 185 0
165 180 0
164 181 0
166 183 0
167 184 0
168 185 0
164 182 0
166 184 0
164 179 0
162 178 0
165 184 0
165 185 0
163 180 0
170 190 0
167 186 0
167 187 0
169 188 0
169 187 0
164 181 0
167 186 0
195 214 171
190 210 149
189 209 157
193 213 169
195 215 173
194 213 169
199 217 189
198 217 188
195 214 171
192 212 175
198 218 193
197 216 189
198 217 188
203 221 204
199 218 193
198 217 194
197 217 188
199 218 194
200 219 204
198 218 193
200 219 196
202 221 212
200 219 209
197 217 193
203 222 214
206 224 223
200 219 201
205 224 218
199 218 204
204 223 218
205 224 223
205 223 215
204 223 217
206 225 226
206 225 223
204 222 214
209 227 228
209 227 236
199 218 203
201 220 206
202 221 206
202 221 209
203 222 215
205 223 217
203 221 211
204 222 220
204 222 215
204 223 217
203 222 212
204 222 214
204 222 220
204 223 217
207 225 224
200 219 207
201 220 199
204 223 217
204 222 214
205 223 212
205 223 218
204 222 214
201 220 206
203 222 212
205 223 215
202 220 203
204 223 212
201 220 203
199 218 203
197 216 186
201 220 206
201 219 199
203 221 206
201 218 194
192 212 169
192 211 174
191 210 175
188 207 181
184 202 192
174 192 196
153 173 188
150 170 187
132 154 169
139 161 177
134 156 179
131 153 171
125 149 174
108 134 167
95 123 156
106 132 159
87 116 166
91 119 163
68 103 160
88 117 161
69 103 159
78 109 153
74 107 164
79 110 166
77 107 148
81 111 162
60 96 158
74 106 158
65 100 154
67 101 158
73 106 155
67 101 154
64 98 148
62 97 151
61 97 159
63 99 168
61 97 166
62 98 164
62 97 150
62 97 156
60 96 161
60 96 156
60 96 152
62 97 159
60 96 161
61 97 164
61 97 165
62 98 166
60 96 150
60 96 155
62 98 161
61 97 160
61 97 166
62 98 167
60 96 161
61 98 166
61 97 158
62 98 163
62 98 166
60 96 155
61 97 163
63 99 171
62 98 164
62 98 162
61 97 161
62 99 167
62 98 165
62 97 160
61 98 162
62 98 164
61 96 154
61 98 162
62 98 166
61 97 161
62 98 165
62 98 162
62 98 163
62 98 162
62 98 161
62 98 164
62 98 167
62 98 167
60 97 158
61 97 166
62 99 164
62 98 163
61 98 162
62 98 167
62 98 164
62 98 162
61 97 158
60 96 153
61 97 157
61 98 165
61 97 160
62 98 163
61 97 161
62 98 161
63 99 168
61 97 157
62 98 162
62 98 158
62 98 165
62 98 167
62 98 165
62 98 159
61 98 166
62 98 163
62 98 163
62 98 161
61 97 156
63 99 165
61 97 160
62 98 161
62 98 160
63 99 166
61 97 159
62 99 168
62 98 165
62 99 167
62 98 155
61 98 158
62 98 159
61 97 153
61 97 156
62 99 170
62 98 160
61 97 157
63 99 167
62 98 165
62 98 159
61 96 159
62 98 159
61 97 161
62 98 161
62 97 161
62 98 163
63 99 169
62 97 158
63 99 165
60 96 153
62 98 156
62 98 162
62 98 162
63 99 166
62 98 163
62 98 158
62 99 168
63 99 165
61 97 157
61 97 153
61 97 153
62 98 158
61 97 158
61 97 162
62 97 159
61 97 156
62 98 158
61 97 156
62 99 165
62 98 159
62 98 161
62 98 159
60 96 142
62 98 159
61 97 152
62 98 157
60 96 148
62 98 152
61 97 152
61 96 157
61 97 152
60 96 149
61 96 148
62 97 152
60 95 142
61 96 146
60 95 150
60 96 142
61 96 148
60 94 146
60 94 147
60 94 139
61 95 143
60 94 141
60 95 141
60 94 141
59 93 135
58 91 135
58 92 138
60 90 131
77 96 99
75 84 67
90 92 21
95 96 18
92 91 0
94 94 8
82 81 11
93 90 11
98 95 16
83 83 5
101 99 19
75 73 11
93 89 0
104 101 8
85 84 18
92 91 19
85 83 16
96 96 14
106 103 18
100 97 16
89 89 8
95 93 16
94 92 23
102 100 18
95 94 11
107 104 24
114 110 32
107 106 19
106 102 22
100 98 26
107 103 25
113 110 27
105 102 25
118 114 27
105 103 26
115 112 12
119 115 24
120 116 34
116 111 33
108 105 26
121 117 25
105 102 19
130 126 24
125 122 32
121 118 26
124 120 35
116 113 37
126 122 28
129 125 32
124 121 30
130 127 28
131 128 31
129 124 32
133 129 39
132 126 34
130 126 45
134 130 36
135 130 36
131 126 32
129 124 35
130 125 39
136 132 19
140 135 37
135 130 32
132 126 34
131 128 28
126 122 34
131 126 30
134 130 32
134 129 34
136 131 36
129 124 37
131 126 28
138 133 28
130 125 34
139 133 41
135 131 34
135 130 28
133 128 34
128 122 32
129 123 39
144 139 48
132 127 41
135 129 34
123 118 32
116 112 32
113 108 22
129 123 30
121 116 28
128 122 37
127 123 28
124 120 28
129 127 34
142 137 36
124 119 25
134 133 28
124 124 22
138 138 30
138 143 22
137 138 16
143 147 22
138 143 25
148 155 22
140 146 25
145 155 16
150 157 28
157 167 16
155 167 0
148 159 16
157 169 0
162 175 0
156 169 11
157 169 0
155 165 0
156 168 0
164 181 0
167 181 0
165 181 0
160 175 0
165 183 0
168 185 0
159 174 0
167 184 0
156 171 0
162 179 0
160 177 0
168 187 0
167 183 0
166 183 0
164 182 0
164 182 0
170 189 0
166 183 0
169 186 0
169 188 0
166 183 0
166 186 0
192 212 157
193 213 169
195 214 179
194 214 165
196 215 182
197 216 184
198 217 193
193 213 171
201 219 201
200 218 193
197 217 184
197 216 182
203 221 203
196 216 189
202 221 206
203 221 209
203 221 214
200 219 203
201 219 204
204 223 221
205 223 218
205 223 217
206 224 220
204 222 212
204 223 217
204 222 209
208 225 224
204 223 220
206 224 221
202 221 211
206 225 227
209 227 234
206 224 224
207 225 224
204 222 220
207 226 231
205 223 221
206 224 223
207 225 227
208 226 231
202 220 217
207 226 233
205 223 218
207 226 228
207 225 224
207 225 224
206 225 223
205 223 228
206 224 218
208 226 226
205 223 221
203 222 214
208 226 227
206 224 220
210 227 231
204 222 211
204 222 212
201 220 211
207 225 227
201 219 204
204 223 217
204 222 218
205 224 224
201 219 201
207 225 221
203 221 206
204 222 211
205 223 215
201 219 199
201 220 207
199 218 189
197 216 181
199 217 191
193 212 181
194 213 188
191 209 199
181 199 194
170 190 204
156 176 185
149 170 191
164 183 204
135 157 182
127 150 181
128 151 165
113 138 177
102 129 165
104 130 170
97 125 160
102 129 173
91 119 163
89 119 164
85 115 160
91 120 162
71 105 162
76 107 153
71 105 162
72 104 165
73 106 159
60 95 151
70 103 154
65 100 154
68 102 159
66 100 155
65 99 154
63 99 156
64 98 149
63 98 153
61 97 159
63 99 155
60 96 157
60 96 164
61 96 154
61 96 157
62 97 155
61 97 161
61 96 161
62 98 158
61 97 157
61 96 154
61 97 157
61 96 158
61 97 163
60 96 153
61 96 154
61 97 164
62 98 162
62 98 170
61 97 162
62 98 167
62 98 168
62 98 164
61 97 160
61 98 165
62 99 168
60 97 160
61 97 164
60 97 160
62 98 164
61 97 163
61 97 158
62 98 159
62 99 167
62 98 163
60 96 160
62 98 161
61 97 161
61 97 162
61 97 160
61 98 169
61 98 162
62 98 168
62 98 164
61 97 161
60 96 155
61 97 159
63 99 163
61 98 167
61 98 161
62 98 166
61 98 167
62 98 161
62 98 164
61 98 160
61 98 166
62 98 164
61 97 161
62 98 161
62 99 169
63 99 162
62 98 159
61 97 161
62 98 164
63 99 161
62 97 154
62 98 159
61 97 157
61 97 159
62 98 163
62 98 157
61 97 159
61 97 157
62 98 163
61 97 159
62 98 163
62 98 164
62 98 166
62 98 155
61 97 153
61 97 159
61 98 159
62 98 159
62 98 168
62 98 158
61 97 159
62 98 168
62 98 162
61 97 156
62 98 163
62 98 158
61 97 154
62 98 160
63 98 160
61 97 158
63 99 158
62 98 164
62 98 161
62 98 163
62 98 162
61 97 155
61 98 160
63 98 160
62 98 161
62 98 161
61 97 156
62 99 165
62 98 153
61 97 150
62 98 160
62 98 158
61 97 157
61 97 161
62 98 158
62 97 153
62 98 161
62 98 160
61 97 156
62 98 159
61 96 152
62 98 162
62 97 149
62 98 157
62 98 158
62 98 161
61 96 154
62 97 156
61 97 152
63 98 162
62 98 158
62 98 157
60 96 150
61 97 154
62 98 159
62 97 154
61 97 151
61 97 150
62 97 150
61 96 149
61 95 149
60 95 140
62 98 160
61 96 140
61 96 150
61 96 148
61 95 142
60 95 149
61 96 146
60 94 140
59 93 137
59 94 140
60 94 142
60 94 139
60 93 138
61 91 131
83 98 110
87 95 73
88 90 42
97 98 0
87 86 14
93 92 14
77 76 8
78 78 11
87 86 11
94 91 0
88 85 14
91 90 12
89 87 14
77 77 11
89 87 0
80 79 14
85 83 11
90 88 16
96 94 8
101 98 13
100 98 0
103 99 18
102 98 18
97 95 21
106 103 18
102 99 28
93 92 14
102 99 16
102 100 14
109 107 22
110 107 19
108 107 21
114 112 29
117 114 30
119 116 38
104 99 18
115 111 25
113 111 26
114 111 30
119 115 30
125 121 33
122 119 25
126 120 36
129 125 32
129 126 22
121 117 24
129 124 31
137 134 30
125 120 36
123 118 21
124 120 31
117 112 25
129 124 31
128 124 25
126 124 22
127 123 30
123 119 19
129 125 36
131 125 28
127 124 25
133 127 36
132 128 31
128 123 28
132 128 37
123 120 25
131 126 28
135 130 34
132 127 34
132 128 28
142 135 45
131 126 34
134 129 42
133 129 34
134 129 28
126 121 34
129 125 28
132 128 32
138 131 36
136 130 30
136 129 37
122 118 32
135 130 32
133 129 30
131 125 36
132 125 32
134 128 37
127 122 28
127 121 32
131 125 32
126 122 28
124 121 19
128 124 28
124 120 28
133 128 34
128 129 28
128 126 22
133 130 30
133 135 11
132 132 22
131 133 16
130 134 16
144 149 16
145 152 11
152 158 16
152 161 19
150 159 11
152 163 0
148 160 11
152 163 0
155 167 0
161 177 0
160 176 0
160 175 0
166 184 0
158 174 0
158 171 0
161 178 0
161 177 0
164 178 0
165 182 0
163 181 0
165 184 0
166 182 0
162 178 0
163 179 0
165 181 0
169 189 0
165 183 0
167 186 0
167 184 0
166 185 0
165 182 0
166 186 0
164 182 0
166 184 0
168 188 0
165 183 0
193 213 169
195 214 179
199 218 188
194 214 184
199 218 188
193 214 171
202 221 206
197 217 189
203 222 209
202 221 203
203 221 204
203 222 214
197 217 198
203 222 209
204 222 212
203 222 212
203 222 211
202 221 207
205 223 215
205 223 217
204 222 215
205 223 218
205 224 221
204 223 218
204 222 214
207 224 227
205 224 224
206 224 221
206 224 220
207 225 226
206 224 224
206 225 227
208 226 234
205 224 221
206 224 221
208 226 227
208 225 226
207 225 227
206 224 223
205 224 226
207 225 228
208 226 233
208 226 230
209 226 230
209 226 230
205 223 217
206 223 224
208 226 228
205 223 218
204 223 221
206 224 224
205 224 223
208 226 231
202 220 209
204 222 214
207 224 224
207 225 220
204 223 217
205 223 212
205 223 217
204 222 214
206 224 218
205 224 218
207 225 227
203 222 211
202 221 211
205 223 215
204 223 212
203 221 209
204 222 215
202 221 206
199 218 198
201 220 207
196 214 188
192 210 194
186 205 187
181 201 206
164 184 199
167 185 199
158 177 196
141 162 198
134 156 191
142 163 201
132 155 185
124 148 177
110 135 174
120 144 181
83 113 161
93 122 168
100 128 159
93 122 169
93 122 166
81 111 157
89 117 167
73 105 159
70 104 157
72 104 144
70 102 153
63 98 160
76 107 164
69 102 157
73 104 150
70 103 154
67 101 161
70 103 158
64 99 151
64 99 154
65 101 162
61 97 155
61 97 155
65 100 155
62 97 157
62 97 150
61 97 161
59 94 149
61 98 162
64 99 159
60 96 156
61 97 164
60 96 160
62 98 165
61 98 168
61 97 158
60 96 159
60 96 164
61 97 155
62 97 160
60 96 160
61 97 150
60 97 156
60 95 155
61 97 159
61 97 161
63 99 167
61 96 155
61 97 162
61 97 155
61 97 154
62 97 165
61 97 154
61 98 166
60 97 159
61 98 165
62 98 164
62 98 167
61 98 161
62 98 165
61 97 165
61 97 161
62 98 169
61 97 162
61 97 157
62 98 166
61 98 164
60 96 156
62 98 165
62 98 163
61 97 158
60 96 158
62 98 163
62 98 161
62 98 164
61 97 158
62 98 166
61 98 167
62 98 169
61 97 166
62 98 165
63 99 164
61 97 156
62 99 167
63 99 166
61 98 161
61 97 156
61 97 158
62 98 161
62 98 161
62 98 167
61 97 156
62 98 165
62 99 169
62 98 156
62 97 155
62 98 169
63 99 161
62 98 163
62 98 158
62 98 164
62 98 162
62 98 165
62 99 166
62 98 164
62 98 160
61 98 159
62 98 159
63 99 163
62 98 158
62 97 158
62 98 162
61 97 154
61 97 156
62 98 157
61 97 160
62 98 163
61 97 155
63 98 163
62 98 164
62 98 162
62 98 161
61 97 161
62 98 160
62 98 162
61 97 155
60 96 153
62 98 162
61 97 157
63 99 162
61 97 159
62 98 159
63 99 163
62 98 160
62 98 160
62 98 160
61 97 155
61 96 153
61 97 155
62 97 159
61 96 150
63 99 165
62 97 158
60 96 152
62 98 163
62 97 151
61 97 154
62 97 154
61 97 158
62 98 160
62 97 154
60 96 143
62 98 155
61 97 154
62 98 162
60 96 148
62 97 153
61 96 146
60 94 144
61 97 150
61 96 148
61 96 151
60 94 147
61 96 143
61 97 151
60 94 142
59 93 139
61 96 148
61 95 149
59 93 135
61 96 154
60 94 139
60 95 145
58 91 125
60 94 138
65 93 124
78 90 83
94 97 58
101 101 32
96 94 0
88 87 18
94 92 14
92 89 14
83 81 8
89 87 0
81 78 0
98 95 18
98 96 11
92 90 14
91 88 11
85 82 5
95 92 16
88 83 8
87 85 11
95 94 8
103 101 14
104 101 3
95 93 16
98 94 0
103 100 12
90 89 8
110 108 23
113 110 23
98 96 22
97 93 14
110 108 21
110 108 19
107 103 19
113 111 28
111 108 25
114 110 26
120 117 25
113 110 28
120 115 25
116 111 29
119 116 28
122 118 24
121 116 30
110 109 22
114 110 33
126 122 30
119 116 22
118 114 26
127 123 25
124 121 25
123 119 28
125 121 25
133 128 28
126 121 29
122 119 22
130 125 34
130 125 41
132 126 34
129 124 25
125 121 28
125 122 28
131 127 25
129 126 11
135 129 37
141 136 41
134 129 41
125 121 22
127 121 37
132 128 31
129 125 29
130 125 30
129 122 34
134 129 42
127 121 30
125 122 28
131 126 32
128 123 36
136 131 34
135 130 32
125 121 19
126 121 22
131 126 34
132 127 36
128 124 30
126 122 22
129 123 28
127 122 28
133 128 36
125 119 22
121 117 28
125 121 34
124 122 32
123 120 28
130 127 22
123 122 19
127 126 25
131 133 19
138 138 28
143 149 28
141 146 11
140 143 19
140 145 25
138 140 22
142 150 19
149 157 19
153 162 16
155 164 16
156 169 11
154 166 16
154 167 0
155 168 0
159 173 0
158 171 0
164 181 0
163 180 0
165 182 0
163 179 0
165 181 0
166 183 0
162 178 0
163 179 0
160 176 0
164 183 0
165 182 0
163 181 0
164 181 0
161 179 0
166 183 0
166 183 0
164 181 0
163 180 0
163 181 0
166 182 0
166 185 0
167 187 0
167 186 0
168 184 0
167 184 0
196 215 186
193 212 167
202 220 201
196 215 177
197 217 189
195 215 182
199 218 201
201 220 204
200 219 204
202 221 207
201 220 209
204 223 220
203 221 211
203 222 211
198 218 204
207 225 231
208 226 226
206 225 223
203 221 209
204 222 218
204 223 215
204 223 217
204 223 220
206 224 221
201 220 204
211 229 240
207 225 223
204 222 211
208 226 231
208 226 231
209 226 234
205 223 217
209 227 234
206 224 223
207 225 224
202 220 218
208 226 230
208 226 227
208 226 234
208 226 233
211 228 238
208 226 228
210 227 234
208 225 231
210 228 236
212 229 238
207 224 224
208 226 228
208 225 226
208 225 227
207 225 230
209 226 228
206 224 223
206 224 223
209 227 238
206 224 221
207 225 223
205 223 217
208 226 226
208 226 224
206 224 221
206 224 224
209 226 226
206 224 218
208 225 228
208 225 224
204 222 215
206 224 221
207 225 226
206 224 220
205 223 220
202 220 204
205 223 217
204 222 219
197 215 216
192 210 212
186 204 215
173 192 217
163 183 207
159 178 204
152 172 203
146 167 194
137 159 198
126 149 176
120 144 184
115 139 183
110 136 178
100 127 171
101 128 166
100 127 167
88 117 162
92 121 171
80 111 163
77 108 165
77 109 162
81 112 166
85 114 161
80 111 155
72 105 160
73 105 151
67 102 163
70 104 162
63 98 159
70 103 153
71 103 157
68 101 156
62 97 151
66 100 162
60 96 160
60 96 154
62 98 157
60 96 151
62 98 162
62 97 155
59 96 163
62 98 161
60 96 156
60 96 156
61 97 163
61 97 161
60 96 161
61 97 162
61 97 158
62 98 157
61 96 156
62 98 166
60 96 157
60 96 156
61 97 155
61 97 163
61 97 162
61 97 158
61 97 156
62 98 159
62 98 165
61 97 158
61 97 162
61 97 165
61 97 159
62 98 165
61 98 165
61 97 160
61 98 164
61 97 161
60 96 153
62 98 161
61 97 160
61 97 160
61 97 155
61 97 158
63 99 167
61 97 164
61 97 161
61 97 152
62 98 165
62 98 163
61 98 159
61 98 166
61 97 160
61 98 162
62 98 162
61 97 160
61 98 162
61 96 153
63 99 167
62 98 166
61 97 156
61 97 162
62 98 157
62 98 165
62 98 159
62 98 164
62 98 166
62 98 168
62 98 165
62 98 165
61 97 154
61 97 157
62 98 160
62 98 159
61 97 155
62 98 162
61 97 164
62 98 161
62 98 159
62 98 168
61 97 153
61 98 161
62 98 164
62 97 152
62 98 161
62 98 163
61 97 151
62 98 164
61 97 160
62 98 159
62 97 162
62 98 162
62 98 162
61 97 157
62 98 158
62 97 156
61 97 152
62 98 162
61 97 158
62 98 160
62 98 159
61 97 153
62 98 157
62 97 153
63 99 165
62 98 152
60 96 153
62 98 158
62 98 159
61 97 158
62 98 160
62 98 158
61 97 155
62 98 158
62 98 158
62 98 158
61 97 156
63 99 162
62 98 162
61 97 154
63 99 167
61 97 156
62 98 161
61 96 152
62 97 157
61 96 152
61 96 147
62 98 162
61 97 157
61 97 158
61 97 150
61 96 152
62 97 157
62 97 153
60 95 142
60 96 145
62 97 149
61 96 145
62 97 152
61 97 156
61 97 147
61 97 144
61 96 144
60 95 140
61 96 149
60 95 140
61 95 141
61 97 153
60 94 137
60 94 137
60 94 136
59 93 134
60 95 142
59 94 136
60 94 134
59 92 133
57 85 118
82 94 83
75 79 48
94 95 3
97 98 16
91 92 8
101 101 14
102 101 16
104 102 18
83 83 8
95 94 11
91 90 8
92 90 0
108 104 8
95 93 2
95 94 0
93 88 0
98 96 0
83 80 8
99 96 8
114 110 8
106 103 14
106 103 3
104 102 14
101 99 16
102 98 18
109 106 18
105 102 21
109 105 28
107 105 16
115 113 18
99 96 8
107 104 19
104 101 14
108 107 8
114 110 21
106 103 14
117 115 16
98 96 11
113 109 26
116 113 26
118 116 19
117 112 28
121 119 28
117 113 28
121 117 21
124 120 31
124 120 33
120 116 29
116 114 32
125 120 24
131 125 34
126 122 28
120 116 30
124 120 26
126 121 29
124 118 29
128 123 19
131 127 28
134 131 28
130 124 25
125 119 25
119 116 16
136 129 36
123 119 16
129 123 22
133 127 31
120 116 16
131 126 32
135 129 39
127 122 25
120 116 19
130 126 28
130 127 25
128 124 25
116 112 16
124 119 30
128 123 36
133 127 36
125 120 22
120 115 32
131 124 39
123 119 25
128 121 30
130 124 34
123 118 22
125 121 28
131 127 34
122 117 28
119 114 30
125 123 25
132 130 28
127 124 22
137 139 19
131 132 22
131 134 22
130 132 32
141 144 19
133 138 11
136 140 25
136 140 16
142 148 19
151 158 22
156 167 16
154 164 16
155 166 11
155 166 0
152 161 11
152 164 11
164 177 11
162 176 0
164 180 0
164 177 0
162 175 0
158 174 0
164 178 0
164 179 0
161 175 0
163 179 0
168 186 0
164 180 0
162 178 0
161 176 0
165 182 0
168 186 0
165 183 0
165 181 0
159 174 0
162 178 0
166 186 0
166 183 0
166 183 0
166 182 0
166 185 0
169 187 0
160 180 0
168 185 0
163 182 0
200 218 198
198 217 196
199 218 196
201 220 196
202 220 207
197 217 189
197 217 189
202 221 211
202 221 206
202 221 207
204 222 214
206 224 223
205 223 218
207 225 221
206 224 223
201 220 209
203 222 214
204 223 221
208 226 228
205 223 223
206 224 227
202 220 214
206 224 221
207 225 224
210 227 234
210 228 237
210 228 236
208 226 233
205 223 221
207 225 223
209 227 231
207 224 231
208 225 228
211 228 234
208 226 230
209 226 230
208 226 228
208 227 234
207 225 227
210 227 233
209 226 231
209 226 234
208 225 234
210 228 240
207 225 231
212 228 234
205 223 220
211 228 240
211 228 233
206 224 221
208 225 227
209 226 233
209 227 231
209 227 231
208 225 227
212 228 238
208 225 227
207 225 228
206 224 218
209 226 230
207 224 221
206 224 221
205 223 220
212 229 240
204 223 217
207 225 221
208 226 226
207 224 221
208 225 227
202 220 209
206 223 218
205 223 215
202 221 213
200 218 209
189 207 211
186 204 215
175 194 210
167 186 206
170 189 215
158 178 202
161 181 209
140 161 195
146 166 198
130 153 194
131 154 193
134 156 193
108 134 181
107 133 174
116 141 188
89 118 159
88 117 157
93 121 161
90 119 162
85 116 170
84 114 161
77 109 154
75 106 158
74 107 160
67 101 152
67 101 163
63 98 156
63 98 158
70 103 164
66 100 147
68 102 162
66 100 150
60 96 153
61 96 156
62 97 157
61 97 158
60 95 149
63 98 159
61 96 154
64 98 149
60 96 157
61 97 165
65 99 157
62 98 166
61 98 163
61 97 161
61 97 160
62 98 162
61 96 154
61 97 162
61 97 166
62 98 166
60 96 153
62 98 158
61 97 158
61 97 164
60 96 157
61 97 160
61 97 161
61 97 158
62 98 164
62 98 165
61 97 162
61 97 164
60 96 158
61 97 158
61 97 160
60 96 159
60 96 158
61 97 162
61 97 162
62 97 161
61 97 160
62 98 164
61 97 164
61 97 162
62 98 167
62 98 165
62 98 164
62 98 163
62 98 161
61 98 162
62 98 165
62 99 170
61 97 156
61 97 162
61 97 165
62 98 161
62 98 161
61 96 155
62 98 160
61 97 156
61 97 160
62 98 162
62 98 163
62 98 165
61 97 157
62 98 159
61 97 161
62 99 164
62 99 167
62 98 161
61 97 159
61 97 157
62 98 162
61 97 156
61 97 160
62 98 160
61 97 158
62 98 162
62 98 161
61 97 160
62 98 160
63 99 164
61 98 164
62 98 157
61 97 158
63 99 166
63 99 165
61 98 164
61 97 157
62 98 158
61 97 159
61 98 162
62 98 155
62 98 163
62 98 160
62 98 160
61 97 158
62 98 156
62 97 158
63 99 165
62 98 163
62 99 165
61 97 162
62 98 160
61 97 160
62 97 156
61 97 150
62 98 164
62 98 158
63 99 162
62 98 156
62 97 157
61 97 154
62 98 162
62 98 157
61 97 157
61 97 156
62 98 155
61 97 149
61 97 153
61 96 148
61 97 153
61 97 150
62 97 156
62 98 152
60 96 148
61 96 150
62 97 153
61 97 153
62 98 156
61 97 153
62 98 164
60 95 151
61 97 154
61 97 150
61 97 151
62 97 150
62 97 152
61 96 149
62 97 153
62 98 154
59 94 147
60 95 143
60 94 137
61 96 147
60 96 144
61 96 152
59 93 134
60 95 139
60 94 135
59 93 139
60 94 145
61 96 147
60 94 137
59 93 140
58 91 129
81 101 111
70 84 63
101 105 58
105 106 18
103 102 16
112 113 0
98 95 11
105 104 8
89 88 0
92 91 12
95 94 11
90 91 0
95 92 0
97 96 5
95 93 0
100 95 0
86 83 0
100 94 14
95 93 8
99 96 11
92 89 14
93 91 11
90 87 11
86 84 14
101 98 8
102 99 8
94 91 11
97 93 14
84 84 16
106 102 27
106 102 14
112 109 11
111 106 19
105 100 16
105 103 8
116 113 11
115 112 24
112 108 16
107 104 24
114 110 24
122 119 26
121 118 25
119 115 19
125 120 33
114 109 19
115 113 25
117 113 26
125 121 28
122 118 31
118 112 30
122 117 29
131 127 28
117 115 18
128 124 29
121 118 19
120 116 22
126 122 21
119 115 28
130 125 30
126 121 25
115 111 28
127 122 25
130 125 28
135 129 36
132 126 34
129 124 30
122 119 28
129 124 22
132 126 34
122 118 32
123 119 25
129 125 16
125 121 30
131 127 30
123 120 25
126 120 28
127 122 25
127 123 34
132 128 19
125 120 22
121 116 32
127 121 28
128 122 39
128 124 25
120 115 25
127 123 32
126 121 32
131 124 30
131 127 32
123 123 30
135 132 30
134 133 25
132 132 22
140 141 30
137 139 28
135 137 22
131 133 22
134 136 22
135 136 19
142 148 0
140 145 16
148 156 19
147 155 16
156 166 19
150 159 0
150 159 11
154 162 11
150 162 0
151 164 0
160 175 0
153 169 0
159 173 0
164 179 0
162 175 0
161 177 0
165 181 0
160 174 0
161 177 0
163 179 0
163 179 0
162 179 0
164 183 0
159 175 0
164 180 0
162 177 0
163 179 0
165 182 0
169 187 0
165 180 0
167 184 0
166 183 0
165 180 0
163 178 0
167 184 0
165 182 0
166 185 0
166 182 0
167 185 0
198 217 184
195 215 186
200 219 203
203 222 212
200 219 193
200 219 203
204 222 212
204 222 207
202 221 212
203 221 211
204 222 207
205 224 221
206 224 224
205 223 217
207 225 224
205 223 217
206 223 218
206 224 223
207 225 231
210 228 237
206 224 227
208 226 230
207 225 226
207 225 228
207 225 224
206 224 226
211 228 236
207 225 233
210 227 234
208 226 227
210 227 234
208 226 231
210 227 234
208 226 231
206 224 226
212 230 244
206 224 228
212 229 237
213 230 245
208 226 234
209 227 230
208 225 231
208 225 228
204 222 215
209 226 227
207 224 221
211 228 233
212 228 240
208 226 233
205 222 215
210 227 236
207 225 223
208 225 224
207 225 226
211 228 231
210 227 237
209 227 233
209 226 234
210 227 228
211 228 237
209 226 233
210 227 233
208 225 226
205 223 215
209 226 228
209 227 233
205 223 220
211 228 236
206 224 224
206 224 221
204 222 211
204 222 214
205 223 215
204 222 225
201 219 223
184 202 219
185 203 221
172 192 217
169 188 220
165 184 219
156 176 215
148 169 207
145 166 203
140 161 203
141 162 198
122 146 190
123 146 193
121 145 193
95 123 174
109 134 174
97 125 180
89 118 158
80 110 161
90 118 167
83 114 161
84 115 162
71 104 154
72 105 160
77 108 155
77 108 167
73 106 156
80 111 153
73 106 162
75 107 163
65 99 151
60 96 150
68 102 163
70 103 164
63 98 151
64 99 161
63 98 153
63 98 158
64 98 156
59 95 145
63 98 155
60 96 149
59 95 154
60 96 160
60 96 158
63 98 159
61 96 159
62 98 164
61 98 169
61 97 163
61 98 166
62 98 162
60 96 156
61 97 159
62 99 171
62 98 165
62 98 165
61 97 159
61 96 151
60 96 161
62 98 162
61 97 162
61 97 162
61 97 157
62 99 171
61 97 161
60 95 155
61 97 159
62 98 165
61 98 166
61 97 157
62 98 162
61 97 159
62 98 162
63 99 165
61 97 156
63 99 166
62 98 159
61 98 164
61 97 157
61 96 157
62 98 164
60 96 158
62 98 163
61 98 158
63 99 166
61 98 161
61 98 170
62 98 156
63 99 167
61 97 157
61 97 155
62 98 163
61 96 161
61 97 159
62 98 166
61 97 160
62 98 163
62 98 159
62 98 164
61 97 162
61 98 164
62 98 163
62 98 164
61 97 161
63 99 164
61 97 159
61 97 155
61 97 156
61 97 157
62 98 165
62 98 163
63 99 162
62 98 168
62 98 159
61 97 154
61 97 162
62 97 154
62 98 160
61 97 160
62 98 162
61 98 159
61 97 158
62 98 156
61 96 144
61 97 157
61 96 150
62 98 166
62 98 165
61 97 159
61 97 153
62 98 154
63 98 162
61 96 149
61 97 156
62 98 163
61 97 155
62 98 154
61 97 154
63 99 163
62 98 162
62 98 158
61 97 153
61 97 150
61 97 155
62 98 156
62 98 156
62 98 158
62 97 156
61 97 156
61 96 152
62 97 155
62 98 153
61 97 154
61 97 155
62 97 153
62 98 154
62 97 150
61 97 153
62 98 160
61 97 153
60 96 145
61 96 147
61 96 149
61 97 153
61 96 151
61 96 150
62 97 157
62 98 154
61 97 149
60 95 147
61 96 150
61 97 151
62 97 159
62 98 159
61 96 148
61 96 143
60 95 140
60 95 141
60 95 140
59 93 134
60 95 139
59 94 139
60 93 133
60 94 137
60 95 141
59 92 137
57 90 138
78 98 112
79 92 80
104 108 42
104 105 0
112 115 0
99 99 16
109 111 0
102 101 0
91 90 14
111 111 14
95 94 0
90 87 0
94 91 18
104 102 11
98 95 16
96 94 8
97 93 0
94 93 8
90 88 0
91 87 0
77 76 8
98 94 8
100 96 11
97 95 16
109 104 8
93 90 3
96 93 0
101 96 16
101 98 8
99 97 8
108 105 12
100 98 16
122 119 19
105 102 11
102 99 14
112 108 23
118 113 26
115 112 19
106 101 21
121 117 19
114 112 16
129 124 19
126 121 16
110 106 14
127 123 19
118 112 22
119 114 30
128 125 18
106 103 16
124 121 25
113 108 16
121 116 22
121 116 11
125 121 30
125 121 24
124 119 28
121 119 18
133 127 25
116 112 19
121 117 24
124 120 22
124 119 22
125 120 16
127 123 32
131 125 34
120 114 25
129 125 26
127 121 19
128 122 25
123 117 28
120 116 0
123 118 32
130 124 34
125 121 22
128 122 19
120 115 22
118 113 32
120 115 25
126 120 25
118 113 19
117 112 28
130 124 30
121 116 28
119 114 25
129 127 19
129 125 30
120 118 22
126 123 22
128 124 19
126 122 22
132 131 28
134 134 16
137 134 22
134 136 19
135 137 19
139 141 28
136 139 25
142 147 19
141 147 19
147 154 22
147 155 25
146 154 16
148 157 0
156 166 19
155 165 11
152 162 0
158 170 0
151 162 0
165 178 0
156 169 0
162 176 0
159 172 0
163 178 0
166 180 0
164 179 0
161 174 0
164 181 0
163 177 0
163 178 0
160 176 0
165 182 0
166 181 0
166 181 0
165 181 0
164 180 0
163 178 0
167 184 0
163 181 0
161 179 0
163 181 0
169 188 0
167 184 0
167 185 0
163 181 0
167 185 0
167 184 0
167 186 0
166 185 0
202 221 204
205 223 217
201 220 203
201 220 203
201 220 206
202 221 215
201 220 203
199 218 201
203 221 204
207 225 223
206 224 223
202 221 211
203 221 211
205 223 217
207 225 226
209 226 228
208 226 234
208 226 230
206 225 224
206 224 224
211 228 241
211 228 236
211 228 238
209 226 233
210 227 234
209 227 230
209 227 236
208 226 234
208 226 227
207 224 223
209 227 234
209 226 228
206 224 226
210 227 231
208 226 230
208 226 233
208 225 231
206 224 223
207 224 230
205 224 221
207 225 226
207 224 226
207 224 227
208 226 227
208 226 233
205 223 217
207 225 223
210 227 233
209 226 234
210 227 233
212 229 241
208 226 233
209 226 227
207 224 224
206 224 227
207 224 228
212 229 238
209 226 233
208 226 227
210 228 237
208 225 228
209 226 230
210 226 228
211 228 237
207 225 224
208 226 226
208 225 224
209 226 226
206 223 217
208 226 226
207 225 218
206 224 220
208 226 226
198 216 217
188 206 222
192 210 225
175 194 217
179 197 219
176 194 223
157 176 211
148 169 208
156 177 213
151 172 211
134 156 199
127 150 196
124 147 186
133 156 203
117 141 184
108 133 182
102 128 179
101 127 181
88 117 165
103 130 181
91 120 171
86 116 162
87 116 160
70 103 159
75 107 158
73 106 159
77 109 169
68 102 154
71 104 158
69 103 166
69 102 165
78 109 157
70 104 157
63 99 162
66 100 155
64 99 158
67 101 158
59 94 150
63 98 160
60 96 155
62 98 152
63 98 160
60 96 155
61 97 163
62 97 154
62 97 151
61 98 164
61 97 158
64 99 160
61 97 161
62 98 160
61 97 155
62 98 160
61 97 161
62 98 162
60 96 159
61 97 158
60 96 156
60 96 158
60 96 152
61 97 161
61 97 158
62 98 163
61 98 168
60 97 160
61 97 163
61 96 158
61 98 161
61 97 167
61 97 157
62 98 163
62 98 165
61 97 159
61 98 161
62 97 159
61 96 156
61 97 167
61 97 161
61 97 157
62 98 163
61 97 160
61 97 159
61 97 158
62 98 163
61 97 162
61 98 161
60 96 155
61 97 158
61 97 160
63 100 172
61 97 160
63 99 170
62 98 164
60 96 145
60 96 152
61 97 159
62 98 162
62 98 161
62 98 164
62 98 158
61 97 158
62 98 157
61 98 159
62 98 165
62 98 165
61 96 155
62 98 162
62 98 161
62 98 159
62 98 162
62 98 160
62 97 158
61 97 155
61 97 158
63 98 158
62 98 156
62 98 156
61 97 157
62 98 160
62 98 162
62 98 161
61 97 153
62 98 157
61 96 148
63 99 168
62 98 165
62 98 164
62 98 158
61 98 162
61 97 159
61 96 156
63 99 165
62 97 160
61 97 157
61 97 160
62 97 154
62 98 162
62 98 155
61 97 157
62 98 158
62 98 158
62 98 161
61 96 144
62 98 159
62 98 155
62 98 157
62 98 156
61 97 149
62 98 160
61 97 153
61 97 154
62 98 165
62 97 159
62 98 152
62 97 159
62 97 154
62 97 155
61 95 149
62 98 162
61 97 153
62 98 155
60 95 144
62 97 152
61 96 148
61 97 156
61 96 145
61 97 150
61 96 148
62 97 154
61 97 148
61 97 152
61 96 151
60 95 143
60 95 146
61 96 149
61 96 147
61 96 145
60 95 145
60 96 144
61 96 149
62 97 147
62 97 152
61 95 146
59 93 134
61 95 143
60 93 135
60 94 137
60 94 138
62 91 129
74 96 119
93 101 63
99 103 56
106 107 0
99 101 11
88 88 11
100 99 0
107 106 18
110 112 19
100 99 11
98 97 14
85 85 11
93 91 0
88 86 11
85 84 0
104 101 8
99 97 11
87 86 11
94 91 3
80 78 14
92 89 11
99 96 0
100 95 11
86 84 3
106 102 11
96 93 11
99 98 8
108 106 12
99 96 11
107 103 0
102 100 11
109 106 18
106 101 18
112 108 0
106 103 8
108 106 0
106 103 14
112 110 11
115 111 26
109 105 16
107 105 22
108 103 18
121 116 11
110 106 19
113 110 28
117 112 25
117 114 22
119 114 22
112 108 16
120 115 16
109 104 24
118 114 11
124 118 22
115 110 25
119 116 11
126 121 26
121 118 16
118 114 22
125 120 25
119 116 11
118 111 22
130 125 30
125 122 19
113 107 19
123 118 25
116 111 16
123 119 28
126 122 19
118 113 18
117 113 25
122 118 19
123 117 22
123 118 25
120 115 16
132 127 22
128 121 28
125 120 16
122 116 28
123 118 28
123 119 25
124 117 22
123 117 22
121 117 22
119 114 19
121 121 16
123 121 30
124 122 11
130 129 28
133 130 37
131 130 25
133 132 25
124 125 30
135 138 16
143 148 11
134 135 11
134 134 16
140 145 19
132 137 11
147 154 16
143 150 0
150 156 19
149 159 19
150 161 11
146 158 0
158 168 19
154 167 0
158 170 0
159 173 0
161 174 0
162 175 0
157 168 0
160 174 0
168 184 0
165 180 0
161 176 0
163 179 0
162 179 0
166 184 0
166 182 0
159 175 0
159 173 0
162 177 0
165 181 0
156 174 0
168 186 0
164 180 0
167 184 0
166 184 0
166 183 0
167 183 0
164 182 0
163 180 0
170 187 0
160 178 0
165 182 0
166 187 0
166 183 0
169 187 0
207 225 220
203 222 211
205 223 217
206 224 218
200 219 201
207 225 223
204 223 215
208 226 230
205 223 215
205 223 220
204 223 218
210 227 236
208 226 228
207 225 228
208 226 228
208 225 226
210 227 231
207 225 226
209 227 234
206 223 226
208 226 230
206 224 226
208 226 230
209 227 231
209 226 228
209 227 234
207 225 230
208 226 227
205 223 214
207 225 227
208 226 231
206 224 220
206 224 233
209 226 224
206 224 221
207 225 230
205 223 220
205 222 220
204 223 221
209 226 226
209 226 227
210 227 236
205 223 218
207 225 233
206 223 221
208 226 227
201 219 207
203 222 217
204 223 220
202 220 217
208 226 231
206 224 226
203 221 217
206 224 218
210 227 231
202 221 211
205 223 214
207 224 223
206 224 224
207 225 221
210 227 230
207 224 230
209 226 228
204 222 215
210 227 236
207 225 227
207 224 227
207 225 226
206 224 224
208 226 228
210 226 233
207 225 226
207 224 222
197 214 213
201 218 231
191 209 226
177 196 216
168 187 213
169 188 217
163 182 215
161 181 219
152 172 205
155 175 214
147 169 209
127 150 199
137 159 200
136 158 200
118 142 195
123 146 192
111 136 184
99 126 179
105 132 182
79 110 172
84 114 168
82 113 166
90 119 171
67 101 164
78 110 170
71 104 164
77 109 170
74 106 161
69 102 154
73 106 161
74 107 160
74 106 161
67 101 155
70 103 152
63 99 158
61 97 161
60 96 159
63 99 166
61 97 156
60 96 160
65 99 149
61 96 150
63 97 148
60 96 155
63 98 159
61 97 165
63 98 160
60 96 154
60 95 157
61 97 159
61 97 161
61 97 160
61 97 156
60 96 159
60 96 165
61 97 165
61 97 156
61 97 157
62 98 167
61 96 154
61 97 157
60 96 157
61 98 164
61 97 157
61 97 162
60 96 160
61 97 160
61 98 159
61 97 161
62 98 160
62 99 169
60 96 149
62 98 166
61 97 163
61 96 156
62 98 161
62 97 155
62 98 165
61 97 158
60 97 158
62 98 166
61 97 159
62 98 162
61 97 159
61 97 162
62 98 164
62 98 161
62 98 159
61 98 162
61 97 155
62 98 159
61 97 158
61 97 158
61 97 156
61 97 162
61 96 150
61 97 154
61 97 156
62 98 158
62 98 165
62 98 156
61 97 160
61 96 157
62 98 161
61 97 157
62 98 158
62 98 161
62 98 158
62 98 163
62 98 163
62 98 158
61 97 157
62 98 163
61 97 157
62 98 156
61 97 155
62 98 161
62 97 154
62 97 154
62 98 158
62 97 158
61 97 153
62 98 155
62 99 168
60 96 151
62 98 157
62 97 155
62 98 166
61 97 161
61 97 156
61 97 153
61 97 153
61 98 159
62 98 156
62 98 160
62 97 157
62 98 161
62 97 153
62 97 155
62 98 161
61 97 154
63 99 159
62 98 161
62 98 160
61 97 154
61 97 157
62 98 152
60 96 151
61 97 157
61 97 154
61 97 150
61 97 156
62 98 156
62 97 155
60 96 147
61 97 150
61 97 145
61 97 153
62 97 160
62 98 161
62 97 157
61 97 149
61 96 149
62 97 154
61 97 147
61 97 148
61 96 152
61 95 140
61 97 148
61 96 152
62 98 156
60 96 143
62 98 150
62 97 149
61 97 149
61 97 150
61 96 145
61 96 144
59 94 142
59 94 142
60 95 140
60 95 145
61 96 149
60 95 149
60 95 141
59 93 137
60 93 135
59 92 133
64 93 128
76 91 93
102 112 67
94 95 31
108 108 11
94 93 0
104 106 0
98 101 11
113 115 0
95 99 0
104 106 8
97 96 0
94 93 8
93 94 11
100 97 0
96 95 0
96 92 0
100 96 11
88 86 0
101 98 8
101 97 11
106 101 11
97 95 3
94 90 8
87 84 0
89 87 0
91 89 8
87 84 16
99 97 11
107 103 8
103 98 8
92 89 14
96 93 0
100 95 11
109 107 16
104 101 16
105 100 0
112 107 11
117 112 11
106 103 8
116 112 18
102 99 18
109 105 12
118 114 14
105 101 3
110 107 0
120 118 25
114 111 14
114 109 25
124 119 24
123 119 22
117 113 14
120 115 21
115 111 25
116 111 21
120 115 22
118 114 16
117 113 19
126 121 25
120 115 11
123 117 28
115 111 19
120 114 0
122 118 25
114 108 11
121 116 22
123 119 28
115 110 16
125 119 19
118 114 16
122 116 28
123 116 19
128 124 19
124 119 34
119 114 16
125 119 22
124 118 25
113 109 11
126 121 30
122 117 25
122 116 32
122 119 19
112 110 16
121 119 19
122 122 19
126 121 16
123 120 16
130 127 25
129 124 30
124 127 11
128 128 28
141 144 22
137 140 16
136 139 11
131 130 22
131 137 11
140 146 22
140 145 16
143 149 11
144 153 0
153 166 0
156 167 0
150 160 11
146 154 0
153 164 0
159 173 0
158 170 0
154 167 0
159 173 0
158 173 0
161 174 0
161 176 0
157 169 0
164 178 0
164 179 0
162 177 0
159 175 0
166 183 0
166 181 0
163 179 0
164 178 0
159 173 0
166 182 0
162 175 0
163 179 0
164 179 0
162 178 0
166 184 0
161 177 0
160 177 0
164 182 0
163 180 0
167 184 0
165 182 0
165 184 0
170 189 0
166 183 0
165 182 0
166 184 0
202 220 207
203 221 209
205 223 217
203 221 207
204 222 214
202 221 217
209 227 234
207 225 227
206 224 224
207 225 227
206 224 221
209 227 234
209 227 231
206 224 226
210 227 237
208 226 230
210 227 236
209 227 237
210 227 234
204 223 224
208 226 227
206 224 223
208 226 228
203 221 221
206 224 223
203 221 217
209 226 226
205 224 221
207 225 223
207 225 221
202 220 214
208 226 227
202 221 217
206 224 221
207 225 227
201 219 206
205 223 227
201 219 214
199 218 209
199 218 201
203 221 214
203 221 211
202 221 207
203 222 209
204 223 218
201 219 203
200 218 199
198 217 204
202 221 207
200 220 204
200 218 206
202 220 211
201 220 214
204 222 220
203 221 209
202 221 209
203 221 214
204 222 218
202 221 212
203 221 214
204 223 212
201 219 206
204 222 218
208 226 227
207 225 223
208 225 223
207 225 223
206 224 218
210 227 228
205 223 224
209 226 230
206 224 218
204 222 223
193 211 211
188 206 220
185 203 223
185 203 225
163 182 211
174 192 216
171 191 220
157 177 215
152 172 212
138 160 202
136 158 202
140 162 205
122 146 192
131 154 199
124 147 194
114 139 191
108 134 189
105 132 187
95 123 181
94 121 169
93 121 177
92 120 180
71 104 164
79 111 169
84 113 164
71 105 166
71 105 170
72 105 153
77 109 165
71 104 165
80 111 157
68 102 163
66 100 155
73 105 155
74 106 161
63 99 163
65 100 165
62 97 153
64 99 156
63 98 157
67 101 151
62 97 152
60 96 157
62 97 157
61 97 159
60 96 157
61 97 160
61 96 156
62 97 154
61 97 163
61 97 158
62 98 164
61 97 162
61 98 166
60 96 161
61 97 161
61 97 156
60 96 163
60 96 160
61 97 156
60 96 156
61 96 159
60 96 159
60 97 157
60 96 154
60 96 152
60 96 155
62 98 161
61 97 161
59 95 149
60 96 157
61 96 153
61 97 162
61 97 158
61 97 155
61 97 163
60 96 153
62 98 164
61 97 152
61 98 162
61 97 157
60 96 160
61 97 155
61 97 157
61 97 159
61 97 155
62 98 161
61 97 155
62 97 158
61 97 162
61 97 159
62 98 166
61 97 155
61 96 155
62 98 163
62 98 158
61 97 155
62 98 155
62 98 165
62 98 160
62 98 165
62 98 163
62 98 158
61 97 155
62 98 157
62 97 157
61 97 157
62 98 161
62 98 161
62 98 162
62 98 166
61 97 151
62 97 159
61 97 157
62 98 161
62 98 157
61 97 161
61 97 153
62 98 161
62 98 165
61 98 163
63 98 159
62 98 160
62 97 157
61 97 156
61 97 151
63 99 165
62 98 154
61 97 150
61 97 157
62 98 162
62 97 150
61 96 147
61 97 154
62 98 162
61 97 160
60 95 140
61 96 150
61 97 151
63 99 163
62 98 163
62 98 160
61 97 153
62 98 157
62 98 160
62 97 153
62 97 153
62 98 158
62 98 158
61 97 154
61 96 148
62 98 157
61 96 150
61 97 152
62 98 157
62 98 155
61 97 156
62 97 152
60 96 151
62 97 158
60 95 140
61 96 144
61 96 143
61 96 147
62 98 154
61 97 148
61 96 154
61 96 144
62 98 158
61 97 156
61 96 147
62 97 155
61 96 148
62 97 150
61 96 152
60 95 144
59 95 135
60 94 139
60 96 141
61 96 148
61 95 137
61 95 146
59 93 128
59 93 131
60 95 142
60 94 139
60 94 140
59 92 133
74 99 118
89 104 101
100 107 66
96 100 25
114 117 0
109 112 11
109 111 0
102 105 0
103 101 11
102 101 0
97 96 0
98 98 0
90 91 0
100 100 8
101 101 16
98 97 0
103 100 0
100 99 8
92 90 11
91 90 0
99 95 11
91 87 11
83 82 0
101 95 16
102 99 14
91 87 0
99 96 16
86 83 14
98 95 3
101 97 16
98 94 16
97 95 0
101 99 0
111 107 16
111 108 0
106 102 8
116 112 0
110 105 0
115 110 21
106 103 11
102 99 14
112 109 16
101 98 11
115 112 14
112 109 0
118 114 18
116 113 11
102 99 14
117 111 16
119 116 0
115 110 16
118 114 11
104 100 16
120 114 25
121 116 16
108 104 11
109 106 0
121 115 28
112 109 0
115 109 16
113 108 16
118 113 22
122 119 11
125 120 22
114 108 11
117 113 19
112 108 11
118 112 19
124 119 19
117 112 22
123 118 19
128 123 16
120 116 19
117 112 19
118 115 16
120 116 22
115 110 25
116 112 16
125 120 30
131 126 25
130 125 25
111 107 0
126 124 19
125 123 19
112 107 25
120 117 25
126 126 11
128 127 19
130 131 0
127 129 0
137 138 16
140 143 19
138 139 11
136 135 22
143 149 16
143 151 0
139 142 0
142 149 0
152 157 25
152 160 16
144 152 11
155 165 0
154 162 11
148 160 0
159 171 0
156 167 0
163 179 0
162 176 0
155 167 0
156 168 0
156 168 0
166 181 0
159 172 0
161 175 0
161 176 0
163 179 0
161 175 0
166 182 0
167 183 0
164 181 0
158 176 0
164 182 0
168 185 0
166 182 0
165 181 0
165 183 0
160 177 0
165 183 0
161 178 0
162 180 0
166 184 0
164 181 0
167 183 0
165 183 0
163 178 0
170 190 0
170 189 0
169 186 0
165 183 0
204 222 211
204 222 218
205 223 218
208 226 226
207 224 223
206 224 221
208 226 228
208 226 227
206 224 226
207 225 220
207 225 227
207 225 224
208 225 226
210 227 233
208 226 227
208 225 227
206 224 223
208 226 231
208 225 230
202 221 215
205 223 220
210 227 230
207 224 224
206 224 217
204 222 217
206 224 218
206 224 226
203 221 212
202 221 211
198 217 203
200 220 206
201 220 204
206 224 223
199 218 198
201 219 207
199 218 204
201 219 196
198 217 194
200 219 201
205 223 214
201 219 203
198 217 199
198 217 193
194 213 189
198 218 196
197 216 194
204 222 217
200 219 201
198 217 194
199 218 201
200 219 194
199 218 194
204 222 212
200 219 204
202 220 206
199 218 196
204 222 211
198 217 196
201 219 206
206 224 217
210 227 228
204 222 214
203 222 211
205 222 212
205 223 214
207 224 223
207 225 223
206 223 214
208 225 224
206 224 218
208 225 223
199 217 211
206 223 228
197 214 231
191 209 228
184 202 221
174 193 215
177 195 222
163 183 214
159 179 211
169 189 224
156 177 212
154 174 213
135 156 198
133 156 199
138 160 203
126 149 192
129 152 200
118 142 195
120 145 195
121 145 194
111 136 192
87 116 173
108 134 187
87 117 179
79 110 164
79 111 171
82 113 170
88 118 173
63 98 161
79 110 166
71 105 172
92 120 168
69 103 160
75 107 161
65 100 162
71 103 157
71 104 164
69 103 159
65 99 153
68 102 155
66 100 156
60 96 157
62 98 154
62 98 161
60 96 161
64 99 158
61 96 150
60 95 154
60 95 157
64 99 156
60 95 160
61 98 166
61 97 157
62 98 164
60 96 155
61 97 151
60 96 155
61 97 159
61 97 159
60 95 153
61 97 163
60 96 157
61 97 159
62 98 161
61 97 159
60 96 162
61 97 158
61 97 155
61 97 156
61 97 159
61 97 157
63 99 169
61 97 162
60 96 149
61 97 160
60 96 157
61 97 161
62 98 165
61 97 157
61 97 161
61 97 158
61 97 162
62 98 163
61 97 165
61 97 160
61 97 155
61 97 161
61 97 156
62 97 163
61 97 156
62 97 161
62 98 163
62 98 161
61 97 154
60 96 153
61 97 159
62 98 163
61 97 152
62 98 156
62 97 155
61 97 152
62 97 156
61 97 160
61 97 159
62 98 163
61 96 150
62 98 158
61 96 154
62 98 161
61 97 158
62 98 166
61 97 154
62 98 162
62 98 157
62 98 156
62 98 158
61 97 150
62 98 159
62 97 158
62 98 162
61 97 157
62 98 166
62 99 168
62 98 159
62 98 156
61 97 158
61 97 156
61 97 156
62 98 163
61 97 155
62 98 162
62 98 161
62 97 157
62 98 157
62 97 155
62 97 153
62 98 160
62 98 162
63 99 166
60 95 148
62 98 155
60 96 154
63 99 168
60 96 142
61 97 154
62 98 160
61 97 153
63 99 164
62 97 156
61 97 152
62 98 162
61 97 155
61 97 152
62 98 156
61 97 153
62 98 159
62 98 153
61 97 152
61 97 157
61 97 151
62 98 153
61 96 145
61 97 154
61 97 150
61 97 150
61 96 147
61 96 145
61 97 157
61 97 150
60 96 149
61 96 143
61 97 143
61 96 142
60 95 148
60 94 143
60 95 143
61 96 144
62 97 158
61 96 152
60 95 140
61 96 146
61 96 141
60 94 137
60 95 148
59 93 133
60 95 139
59 94 133
58 90 122
60 93 134
59 91 128
69 92 109
84 95 79
103 109 42
115 117 28
101 101 11
102 104 0
119 119 11
112 114 11
103 103 0
89 90 0
97 98 0
103 105 0
102 103 0
101 102 0
92 92 0
91 91 11
97 94 8
89 87 11
94 90 0
106 103 0
89 87 0
98 96 0
92 90 11
85 85 0
93 90 0
95 91 0
92 88 8
99 96 0
90 87 8
88 85 8
94 89 0
95 93 8
90 86 14
103 100 0
105 101 11
90 88 0
93 88 11
99 96 14
103 99 14
107 103 11
114 110 8
111 105 16
102 99 0
108 104 0
107 103 0
106 103 0
116 110 22
116 111 19
106 102 16
111 107 16
117 112 11
106 102 16
111 106 12
123 118 16
116 110 11
120 115 19
115 111 11
115 110 19
115 110 11
118 113 25
119 113 19
117 114 22
116 113 0
125 119 16
116 111 19
124 117 22
119 114 11
113 110 11
115 109 28
110 105 16
109 103 16
121 117 0
115 110 19
120 115 22
123 118 16
124 119 25
118 113 16
113 109 22
123 119 19
125 123 30
115 112 16
129 127 19
126 124 19
130 130 16
126 126 16
131 129 11
132 130 22
115 113 11
130 130 16
138 141 19
131 128 22
140 145 22
132 135 11
141 143 11
146 151 22
137 142 16
137 144 11
147 154 11
152 161 0
151 159 11
148 157 0
146 157 0
154 166 0
153 164 0
146 154 11
165 178 0
157 169 0
158 171 0
158 172 0
158 169 0
161 174 0
153 166 0
160 173 0
157 170 0
158 170 0
163 176 0
163 179 0
160 174 0
166 183 0
165 181 0
162 177 0
164 178 0
165 181 0
164 181 0
162 179 0
165 184 0
167 184 0
161 177 0
169 187 0
163 181 0
162 177 0
163 181 0
166 185 0
166 184 0
168 187 0
161 179 0
166 183 0
166 183 0
163 180 0
205 223 215
203 222 209
205 223 221
205 223 218
206 224 223
203 221 212
210 227 231
206 224 226
205 223 217
211 228 234
210 227 231
210 227 236
207 225 226
206 224 223
206 223 221
206 224 224
209 226 231
207 225 231
206 223 227
207 225 223
201 219 214
204 222 209
203 221 207
201 219 209
201 219 199
204 222 218
199 217 201
199 218 198
198 217 201
201 220 201
202 221 207
198 217 199
201 219 204
198 217 194
198 218 193
195 215 184
195 215 184
196 216 191
194 214 181
197 216 193
196 215 182
195 215 184
197 217 193
199 218 196
198 217 196
196 215 184
195 214 191
195 215 188
196 215 189
198 217 193
195 215 182
199 218 196
199 218 194
194 214 181
199 218 196
194 214 179
196 215 182
197 216 191
200 218 196
200 219 198
202 221 214
201 220 206
199 218 198
203 221 209
202 221 209
203 221 209
201 220 206
201 220 206
204 222 218
208 226 227
206 224 222
203 220 219
192 210 205
198 215 226
193 210 231
188 206 225
165 184 211
174 193 222
177 196 224
151 172 209
157 178 211
156 177 211
143 165 204
139 161 199
152 173 205
149 170 214
148 169 210
130 153 199
121 145 199
111 136 188
124 148 198
112 137 193
103 129 180
101 127 184
108 134 186
93 121 175
97 124 180
89 118 178
70 103 169
75 107 162
86 116 167
66 100 166
70 104 166
71 105 162
72 106 167
72 105 163
69 102 163
69 103 158
73 105 151
61 97 163
61 97 159
65 99 153
69 102 157
60 96 159
60 95 156
64 99 162
65 100 153
60 95 154
61 97 151
60 96 156
61 97 159
62 97 158
61 97 165
60 96 154
60 95 153
61 97 162
61 97 157
60 95 158
62 98 161
61 97 160
61 96 154
60 96 157
60 96 152
58 93 145
61 96 150
61 96 160
61 97 155
61 97 159
60 96 153
61 96 153
62 98 166
61 97 160
61 97 153
61 97 152
62 98 163
61 97 161
61 97 155
61 97 153
61 97 160
62 98 158
62 98 163
62 98 164
61 97 157
62 97 159
61 96 157
61 97 159
61 97 161
62 98 158
61 97 155
62 98 163
61 98 161
61 97 161
60 96 156
61 97 152
62 98 160
61 97 156
61 96 150
62 98 164
62 98 163
61 98 160
60 97 161
61 97 154
62 98 160
62 97 160
62 98 161
62 98 159
61 97 155
61 98 159
61 96 150
62 98 161
61 96 147
62 97 157
61 97 151
61 97 156
61 97 157
61 97 151
61 97 157
61 96 144
62 98 160
62 98 160
61 97 158
63 99 164
62 98 163
62 97 154
62 98 164
63 99 161
62 97 157
62 97 153
62 98 159
62 98 160
62 97 153
61 97 157
61 96 152
61 97 153
61 97 154
61 97 159
63 99 163
62 98 158
62 97 153
61 96 149
61 96 155
62 98 157
62 98 159
61 96 152
62 98 156
61 96 152
62 98 158
61 97 155
63 99 163
61 97 155
62 98 159
62 97 157
62 98 158
61 97 151
61 97 154
61 96 154
62 98 156
61 97 151
61 96 151
61 96 144
62 97 152
63 99 162
61 96 145
61 97 152
61 97 151
60 95 136
61 97 142
60 96 150
61 96 147
61 96 144
60 95 146
60 95 140
61 96 149
62 97 153
60 95 140
61 96 150
60 94 133
61 96 145
60 95 133
60 94 142
61 97 152
61 96 143
60 95 139
60 94 142
60 95 140
59 93 129
60 94 139
60 94 137
59 92 129
57 89 125
59 90 121
81 100 104
91 102 66
96 102 49
118 124 0
99 100 0
109 111 0
92 93 0
113 118 0
99 99 0
104 107 0
96 97 0
102 101 0
107 106 0
90 89 0
83 84 8
103 103 8
103 101 0
92 87 0
92 88 8
94 92 0
97 97 0
107 107 8
96 95 0
100 97 0
95 93 0
91 90 0
103 100 8
98 97 11
87 83 14
99 95 0
94 89 8
101 97 12
97 93 8
106 102 0
100 95 0
100 94 8
103 98 11
92 90 11
106 102 0
97 92 0
96 93 11
102 98 14
101 97 0
103 97 11
113 108 14
106 102 16
119 113 16
107 102 14
110 104 0
106 103 16
106 102 16
111 107 11
113 108 11
111 106 16
105 99 11
124 117 22
120 115 22
120 115 11
119 115 11
129 124 34
118 112 25
109 104 16
115 111 19
112 107 11
114 109 19
117 112 11
128 122 22
112 106 19
116 110 16
113 109 25
111 106 19
115 111 11
113 109 11
124 119 22
112 107 19
120 114 19
124 122 19
120 118 16
126 123 22
121 117 19
116 116 19
129 126 19
120 117 19
125 125 25
118 116 19
129 125 0
132 134 0
131 130 22
133 137 16
120 121 11
134 137 11
134 136 16
144 150 11
137 139 11
138 143 16
139 143 16
147 155 11
155 164 16
145 155 0
151 158 11
147 157 0
143 152 0
151 163 0
159 169 0
159 172 0
154 165 0
164 177 0
153 165 0
160 174 0
154 168 0
159 171 0
156 166 0
160 174 0
164 178 0
157 172 0
157 172 0
167 184 0
163 181 0
161 176 0
160 174 0
158 172 0
161 179 0
164 179 0
164 179 0
165 181 0
167 185 0
166 181 0
161 177 0
165 183 0
166 182 0
166 183 0
166 185 0
162 178 0
170 190 0
167 184 0
168 188 0
166 183 0
166 187 0
164 182 0
205 223 215
209 226 230
206 223 221
204 222 223
208 226 228
208 225 226
206 224 224
211 228 240
210 227 230
208 225 227
207 225 226
211 228 237
209 227 230
209 226 231
206 225 223
201 220 206
201 219 206
205 223 220
206 224 218
201 220 206
202 220 204
203 221 214
200 218 194
200 218 198
194 214 188
197 216 188
199 217 191
198 217 196
197 216 196
195 214 191
193 213 171
196 215 175
197 217 193
198 217 191
204 222 212
197 217 189
198 217 191
194 214 177
191 211 173
194 214 186
189 209 155
196 215 177
194 214 181
194 215 179
193 213 169
189 208 167
189 209 161
192 213 167
194 214 184
193 213 171
188 209 153
195 214 182
191 212 175
194 213 169
193 213 179
199 218 196
190 211 171
195 215 184
196 216 191
194 214 184
197 216 188
195 215 186
197 216 194
196 216 189
195 215 182
195 215 184
199 218 196
201 220 209
201 220 199
204 222 212
203 221 212
203 221 220
190 208 216
187 205 227
183 202 221
188 206 224
177 196 223
154 174 204
164 183 212
151 173 203
147 169 199
144 166 206
150 171 211
135 157 197
125 149 198
140 162 207
124 148 198
139 161 206
119 143 191
117 142 189
116 141 194
127 151 200
109 134 184
100 127 186
104 130 180
103 129 185
92 121 181
84 114 175
81 112 175
77 108 161
75 107 168
65 100 161
69 103 168
72 106 168
77 108 163
77 109 169
71 104 160
76 107 155
61 98 165
65 100 163
79 110 165
65 100 163
66 101 164
63 98 154
68 102 159
64 100 162
60 96 154
62 98 161
63 98 158
62 98 159
62 98 168
59 95 144
61 97 155
60 95 150
61 97 154
62 97 153
61 97 158
62 98 163
60 95 155
61 97 160
62 98 161
61 97 160
61 96 156
62 98 160
60 96 150
61 97 159
62 98 161
61 97 154
61 97 163
61 96 156
61 97 160
60 96 156
62 97 156
60 96 159
62 97 152
61 97 151
61 97 158
60 96 147
61 96 153
63 99 161
62 97 159
61 97 160
61 97 161
61 97 158
61 97 157
61 97 154
62 97 158
62 98 162
62 97 156
61 97 156
62 98 165
62 98 164
62 98 162
62 98 167
61 97 153
62 98 161
62 98 160
61 97 156
61 97 158
61 97 156
61 96 150
61 97 160
61 97 155
61 97 151
62 98 163
61 98 162
62 98 160
61 97 156
62 97 155
62 97 154
62 98 159
62 97 155
62 97 160
61 97 153
62 98 162
62 98 159
61 97 157
62 98 155
62 98 160
61 96 155
61 96 144
61 97 153
62 98 155
62 98 159
61 96 149
62 97 152
61 97 154
62 98 159
61 98 159
61 97 158
62 98 161
62 97 150
62 98 159
62 98 162
62 98 159
62 98 156
62 97 155
61 97 153
61 97 153
61 96 150
61 96 154
62 98 159
62 97 155
62 97 153
61 97 161
60 96 145
62 98 157
60 95 150
62 98 161
61 98 158
61 97 155
62 97 157
62 97 152
62 98 155
62 98 154
61 97 157
62 97 155
61 97 150
60 96 144
63 98 156
60 95 151
62 97 150
61 97 152
61 97 145
61 97 148
60 96 143
63 98 157
62 97 150
61 96 153
60 94 140
60 95 137
60 95 139
61 95 142
61 96 154
61 96 150
62 97 153
60 95 143
61 96 152
61 95 143
59 94 135
61 96 144
61 96 144
60 95 136
60 94 141
59 93 137
59 93 137
59 93 134
57 90 124
60 93 129
59 93 133
67 96 122
85 99 104
100 109 61
107 115 51
113 113 0
100 104 0
104 111 0
103 108 3
106 109 0
96 100 0
103 109 8
108 108 0
93 96 0
92 90 14
108 107 11
94 95 0
98 98 11
92 89 0
96 95 0
101 99 0
94 92 11
85 85 0
94 91 0
95 93 8
101 100 11
101 101 0
91 89 0
100 95 0
93 87 0
98 93 0
100 97 0
91 86 0
98 96 0
107 104 11
94 89 0
104 100 0
91 86 0
106 101 0
103 96 0
96 93 0
105 100 0
101 97 11
104 100 0
108 104 11
108 103 18
99 94 8
108 103 16
112 106 0
105 101 0
105 100 0
108 104 0
110 106 0
99 96 11
108 105 11
102 98 16
121 115 22
111 106 16
110 107 0
113 110 11
114 111 0
115 110 22
119 113 0
110 106 11
119 115 16
109 103 19
111 107 0
110 107 16
117 110 22
113 108 16
111 106 16
109 105 16
115 111 16
123 119 19
118 114 19
118 113 22
120 115 19
118 117 16
117 113 16
121 118 11
128 126 22
124 122 0
118 115 16
114 114 11
128 128 19
122 121 11
124 123 11
127 127 11
133 136 19
137 139 19
137 136 19
140 143 11
134 137 11
149 157 16
134 138 11
145 151 0
150 156 11
147 155 19
147 155 0
152 161 11
152 160 0
146 154 0
153 160 11
152 160 0
155 165 0
152 163 0
158 172 0
153 165 0
149 160 0
162 172 0
156 169 0
156 170 0
154 166 0
157 170 0
163 180 0
160 174 0
155 168 0
159 171 0
161 175 0
164 178 0
158 172 0
161 177 0
161 176 0
164 178 0
160 175 0
162 176 0
163 178 0
166 181 0
162 177 0
163 177 0
160 177 0
166 184 0
163 181 0
160 177 0
164 183 0
162 180 0
168 186 0
164 181 0
164 181 0
165 183 0
165 183 0
207 225 221
209 227 234
206 224 221
208 225 226
209 226 228
204 222 221
207 225 226
209 226 236
209 226 227
203 221 207
209 226 226
206 223 220
208 226 228
207 224 221
205 223 215
203 221 212
204 222 214
202 221 209
203 221 209
198 218 194
202 221 206
200 219 204
197 216 191
197 216 193
196 216 191
198 217 196
195 214 184
192 212 179
192 212 169
196 215 196
195 215 177
195 215 186
193 213 173
190 210 159
190 212 165
192 213 171
183 204 151
184 205 137
185 206 140
191 211 161
187 209 163
191 210 163
191 212 161
189 210 159
183 204 140
186 207 161
190 211 155
188 209 153
193 213 173
192 212 167
187 208 155
192 212 171
191 211 167
189 210 157
189 209 157
192 212 167
192 212 169
190 210 161
187 208 153
193 214 177
190 210 157
193 213 179
192 213 182
190 211 169
194 214 188
196 215 182
197 216 191
196 215 182
201 219 209
195 213 191
193 212 198
178 198 180
189 207 217
176 195 207
174 193 211
171 190 212
162 182 210
166 185 214
164 184 209
154 175 204
139 161 199
140 162 195
143 165 198
142 163 202
145 166 197
139 161 203
122 146 188
114 139 188
122 147 194
129 152 201
98 125 178
114 139 188
112 137 187
93 121 181
94 122 180
108 134 189
93 122 181
98 125 179
72 106 178
64 99 162
75 107 171
75 107 165
78 109 167
75 108 162
72 105 167
77 108 163
66 101 161
66 101 163
68 101 159
69 102 165
66 100 158
62 98 159
70 103 161
60 96 153
64 99 149
65 100 157
59 95 153
63 97 153
60 96 154
59 94 145
63 98 157
63 98 158
61 96 154
59 94 150
63 97 157
63 98 151
61 96 153
60 96 159
61 97 158
60 96 148
60 96 152
61 97 161
61 97 159
60 95 150
60 95 150
61 96 156
60 96 154
61 97 164
60 96 156
60 95 146
60 95 155
61 97 159
61 96 156
61 97 158
61 97 161
61 96 159
61 97 160
61 96 153
61 97 161
60 96 153
61 97 159
61 97 159
61 97 156
62 98 161
62 98 164
61 97 164
61 97 160
61 98 166
61 97 157
61 97 156
61 97 163
62 98 160
62 98 158
61 97 156
61 97 156
61 97 161
62 98 164
62 99 169
62 99 167
62 98 163
61 97 157
62 97 159
61 97 158
61 97 157
61 97 149
62 98 160
61 97 157
61 97 153
61 96 152
62 98 158
61 97 156
61 96 155
61 97 155
62 98 161
61 97 154
62 98 162
61 97 154
61 96 150
61 97 154
62 98 159
62 97 154
62 98 159
62 98 158
62 97 158
62 98 158
61 97 157
61 97 149
60 95 155
61 97 158
62 98 156
63 99 166
61 97 151
61 97 154
62 98 159
60 96 149
62 98 157
60 95 150
61 96 145
63 99 163
61 97 160
61 97 153
61 97 157
62 98 157
61 96 150
63 98 160
61 96 150
61 97 155
61 97 151
62 97 149
62 98 154
62 98 157
62 97 160
61 97 149
62 98 155
62 97 155
61 97 148
63 98 157
61 97 151
61 97 148
60 95 143
61 97 156
60 95 137
61 96 149
60 95 142
60 95 142
61 96 144
61 97 151
62 97 143
62 98 150
61 97 152
60 95 144
62 97 154
61 96 151
61 96 142
60 95 145
61 96 139
61 97 154
60 95 136
60 95 147
60 95 139
60 95 139
60 95 143
61 97 149
61 95 138
61 96 142
58 92 131
59 94 137
58 91 125
59 92 132
58 90 129
64 91 120
91 105 79
103 111 65
111 119 40
106 108 0
114 119 0
100 106 0
114 117 0
111 110 0
103 105 0
109 114 11
97 99 0
101 106 0
103 103 0
103 103 11
88 87 0
105 102 0
90 92 0
100 99 0
100 101 0
93 94 0
96 93 0
95 91 0
91 91 8
104 102 0
94 90 0
98 96 0
92 88 0
92 90 0
99 96 0
101 99 0
89 85 0
93 88 0
102 97 0
104 97 0
102 99 0
102 98 0
109 106 0
102 100 0
101 94 0
100 96 11
100 96 0
87 84 0
109 106 0
96 91 0
104 101 0
109 104 0
104 100 11
101 98 11
108 104 0
104 99 11
118 113 11
108 103 11
108 104 11
113 109 16
106 102 11
111 106 11
108 103 11
111 107 11
106 103 0
114 109 16
103 99 11
116 108 16
116 109 22
115 110 0
104 100 0
117 113 16
120 115 19
107 103 0
111 107 22
119 115 19
121 115 16
121 117 16
122 118 19
129 125 11
114 110 11
128 126 16
120 115 11
123 121 16
125 122 11
123 121 19
128 127 11
123 120 16
136 136 16
126 126 16
131 130 25
129 131 16
141 145 0
131 131 0
140 142 19
135 141 16
138 144 0
144 148 16
134 141 0
136 141 0
134 140 11
147 158 0
147 155 0
150 158 0
151 158 0
147 156 0
157 168 0
151 161 0
159 171 0
158 171 0
154 165 0
157 167 0
160 175 0
162 173 0
156 167 0
159 172 0
160 172 0
159 173 0
160 171 0
156 171 0
159 173 0
157 172 0
164 181 0
156 170 0
156 167 0
163 178 0
159 172 0
159 174 0
162 178 0
167 186 0
167 183 0
161 178 0
166 184 0
164 181 0
166 183 0
166 182 0
164 181 0
167 186 0
162 177 0
166 182 0
163 180 0
164 182 0
166 183 0
164 181 0
165 184 0
206 224 218
208 225 221
209 226 230
211 228 237
206 224 218
209 226 227
204 221 215
208 225 228
206 224 217
207 225 226
203 222 215
204 221 215
204 222 214
204 222 212
202 220 209
199 218 198
201 219 211
197 217 196
202 220 206
194 214 184
198 218 199
196 215 189
192 213 169
196 216 186
197 217 194
193 212 173
193 214 181
193 213 165
193 213 169
188 209 149
187 209 165
187 208 149
185 207 149
183 205 147
185 206 144
187 208 155
186 208 147
189 209 155
186 208 151
183 204 117
186 208 142
190 210 153
184 205 144
189 210 153
186 207 135
186 207 144
186 207 149
183 205 120
186 207 144
183 205 137
182 204 120
184 206 137
187 208 153
184 205 140
185 206 142
192 212 165
190 210 159
185 207 144
188 208 153
193 213 171
190 210 157
190 210 161
191 212 167
191 212 165
194 214 165
192 213 169
189 209 163
197 217 186
188 208 168
190 210 181
186 206 192
189 208 198
176 196 197
175 194 207
169 189 207
167 186 211
157 177 207
157 177 204
150 171 204
151 172 208
153 174 207
142 164 203
140 162 201
144 166 202
132 155 197
138 161 197
123 147 194
123 147 191
124 148 197
121 145 194
124 147 189
115 140 194
109 135 189
115 140 187
113 138 194
96 124 183
91 119 171
94 122 183
97 125 183
77 109 175
80 112 174
74 106 168
67 102 165
61 97 166
78 109 165
70 104 173
67 101 163
73 105 161
66 101 164
71 103 154
71 104 155
61 97 164
62 98 151
64 99 153
73 105 162
63 99 163
67 100 155
64 98 154
63 97 151
61 97 157
60 96 150
63 98 159
60 95 149
61 96 156
64 98 156
61 96 148
59 94 152
62 97 164
61 97 164
61 96 155
61 96 150
60 96 155
59 94 144
61 96 154
62 98 159
61 96 154
62 98 161
60 96 155
61 97 152
62 98 159
62 97 159
60 96 154
62 98 163
61 97 158
61 97 158
62 98 165
62 98 163
61 97 157
61 97 162
61 97 153
62 98 159
61 97 157
60 96 153
61 97 155
61 96 155
61 97 154
63 99 165
61 97 158
61 97 156
61 97 161
61 97 150
61 97 155
60 96 152
62 98 154
62 98 163
61 96 149
61 97 161
61 97 154
62 98 160
61 96 147
61 97 159
62 98 164
61 97 154
62 98 162
62 98 160
61 97 151
61 97 156
62 98 159
61 97 159
61 97 147
61 97 157
62 98 165
62 98 162
61 97 156
60 96 145
61 97 158
61 96 152
61 97 158
62 98 159
63 99 159
61 97 157
62 98 160
61 97 157
61 97 152
62 98 157
63 98 160
62 98 164
62 98 158
62 98 155
62 98 157
60 96 153
61 96 153
61 97 153
61 97 157
62 98 156
62 98 151
61 96 147
61 97 153
62 98 156
62 98 157
62 97 156
62 98 159
62 97 151
61 97 156
61 98 162
61 96 150
62 97 153
61 96 145
60 96 145
62 97 155
61 97 151
62 98 160
62 98 153
62 98 160
62 98 159
60 96 151
61 97 151
61 97 147
62 97 147
62 97 149
62 98 161
61 97 153
61 97 153
60 96 145
61 96 148
61 96 151
61 96 139
61 96 144
62 98 155
60 95 137
62 97 153
61 96 148
61 96 147
61 97 148
59 93 137
61 96 145
61 96 146
59 94 136
60 94 136
61 96 148
61 96 140
60 94 141
60 94 130
61 95 145
59 94 142
61 95 139
59 93 131
58 90 128
57 90 120
59 91 118
66 92 116
94 111 84
113 122 44
121 127 18
110 113 0
119 126 0
118 124 0
103 104 0
104 108 0
108 111 11
104 106 11
102 106 0
99 101 0
95 94 0
103 106 16
114 113 0
94 96 0
104 106 0
91 89 11
80 75 0
78 79 0
101 99 0
96 94 0
96 91 0
91 89 8
102 99 0
98 95 0
102 97 0
104 101 0
102 97 0
92 91 8
104 100 14
94 93 0
93 89 0
96 94 0
90 86 0
101 96 0
99 96 0
103 99 0
93 90 0
103 97 0
105 98 0
108 101 16
98 92 0
92 89 0
98 92 11
107 101 11
111 106 0
108 105 16
101 94 0
114 108 11
90 85 0
101 99 0
95 93 11
110 105 0
99 95 0
110 106 0
117 110 11
106 101 0
105 100 14
110 105 0
106 101 0
109 104 11
117 111 16
122 120 0
109 106 16
108 106 16
116 110 16
117 113 0
115 112 22
122 120 19
117 113 16
125 120 16
128 126 0
116 114 11
134 131 16
116 114 0
130 128 11
131 130 16
123 123 0
128 129 16
130 132 0
136 138 16
135 136 11
134 134 16
139 142 16
124 129 0
135 138 0
140 142 16
133 134 0
141 147 11
145 152 0
140 148 11
150 158 0
148 155 11
151 160 0
149 156 0
147 154 0
151 159 0
146 154 0
147 154 0
162 173 0
154 166 0
154 166 0
160 170 0
160 172 0
153 163 0
158 171 0
159 173 0
159 172 0
162 175 0
158 170 0
157 169 0
165 179 0
158 170 0
162 177 0
164 179 0
163 179 0
164 180 0
164 180 0
159 175 0
161 175 0
164 178 0
164 181 0
159 175 0
164 181 0
165 181 0
167 184 0
163 178 0
167 183 0
165 182 0
167 183 0
160 177 0
164 179 0
161 179 0
166 183 0
161 179 0
164 181 0
164 181 0
165 183 0
208 226 233
204 223 217
209 226 230
209 226 230
206 224 223
205 223 223
204 222 218
205 223 221
202 221 215
205 223 218
203 221 214
196 215 186
203 221 209
199 218 196
194 214 186
202 221 209
195 215 184
195 215 184
194 215 184
198 217 194
196 215 184
194 213 177
195 215 186
187 208 149
192 212 167
188 209 159
186 207 142
185 207 142
186 207 147
191 212 159
188 208 155
188 209 147
183 206 122
186 208 142
190 211 149
184 206 130
185 206 135
185 206 135
180 202 125
182 204 120
181 202 122
182 204 120
183 205 133
186 208 149
183 205 125
184 205 137
183 205 133
184 205 130
179 201 120
183 204 117
181 203 125
185 206 137
182 203 125
182 204 130
180 203 117
183 205 117
183 204 133
185 206 144
184 206 133
187 208 140
187 207 149
184 206 142
187 208 133
186 207 151
186 207 147
191 212 167
182 204 144
191 212 163
191 210 172
182 202 172
186 205 183
182 202 187
166 186 191
168 188 199
166 186 200
164 183 206
149 170 199
168 188 214
162 182 206
151 173 203
130 153 191
144 166 199
137 159 198
128 151 194
130 153 194
129 152 189
118 142 191
121 145 188
119 143 194
126 149 193
123 147 194
128 152 195
129 152 195
112 137 188
96 124 185
105 131 189
101 128 181
92 120 181
94 123 188
76 108 173
74 106 172
73 106 167
72 105 166
67 102 167
67 101 163
69 102 160
66 101 163
64 100 166
63 99 160
73 106 164
72 105 163
72 104 153
65 99 159
68 101 157
65 100 162
64 99 161
59 95 151
60 96 158
60 96 154
62 97 159
60 96 149
61 97 154
61 96 149
68 102 149
59 94 149
59 94 149
59 94 150
62 97 153
59 95 150
60 96 158
61 96 154
60 96 146
60 95 156
61 97 156
59 95 141
62 98 157
61 97 161
60 96 153
61 96 156
61 97 155
60 96 151
61 97 161
61 96 156
61 97 153
61 97 160
61 97 155
62 98 162
60 95 148
61 97 156
62 97 151
61 96 158
61 96 157
61 98 164
62 98 158
62 98 158
62 98 161
61 97 159
61 97 157
61 97 153
62 98 158
61 96 150
61 96 151
62 98 157
61 97 159
61 97 151
61 96 153
61 97 157
61 97 149
61 97 151
62 97 154
61 96 149
62 98 162
62 98 159
61 97 157
62 98 159
61 97 153
62 97 149
62 97 158
61 97 156
61 97 150
61 97 159
61 97 159
62 97 153
62 98 157
62 98 160
60 96 148
61 97 156
61 97 150
61 97 156
61 97 149
63 99 160
61 97 158
62 98 158
61 97 156
62 98 158
63 98 156
61 97 148
62 99 165
62 98 159
62 98 160
62 97 154
61 96 147
62 98 158
61 97 155
61 97 151
62 97 151
62 97 161
60 96 149
62 97 151
61 97 154
62 98 153
62 98 155
62 97 157
62 97 153
63 99 162
61 97 151
61 96 149
62 98 157
61 97 151
61 97 148
61 97 154
61 97 152
62 98 156
61 96 152
62 97 149
60 96 148
60 95 142
60 96 144
61 96 149
62 97 151
61 96 152
61 97 149
60 95 133
60 96 148
60 96 143
61 97 160
61 97 152
61 97 152
61 97 148
62 97 155
61 96 140
60 95 142
61 96 142
61 96 145
62 97 151
60 95 144
61 96 149
60 95 140
60 95 136
60 96 144
60 95 139
59 93 131
59 93 142
61 95 135
58 92 132
61 96 149
60 93 136
59 93 136
58 91 120
60 89 115
84 104 119
104 116 79
103 110 48
120 128 18
116 122 0
117 120 0
115 122 11
111 116 0
112 117 0
111 113 0
108 113 0
103 99 0
115 119 8
98 101 11
96 100 11
96 95 11
89 88 11
92 92 0
107 104 0
98 98 0
84 80 0
98 96 0
93 93 0
109 107 0
102 99 0
96 94 0
100 99 11
91 88 0
104 100 0
94 92 0
99 97 0
95 92 11
80 77 0
91 87 0
95 93 0
100 96 0
98 92 0
97 92 0
95 91 0
109 104 14
105 104 8
106 102 0
89 83 11
104 100 14
103 98 16
106 99 0
100 96 11
93 91 0
103 97 0
113 107 0
101 96 0
119 113 11
108 104 0
120 117 0
110 103 16
106 101 11
111 109 11
118 113 11
106 102 11
110 105 11
109 104 0
116 112 0
114 111 11
119 115 11
102 98 11
116 110 11
114 113 11
115 111 0
112 107 0
110 104 16
110 108 16
116 113 19
113 111 11
118 119 11
121 119 0
121 117 0
130 129 16
121 122 16
119 119 16
135 137 0
120 121 11
129 128 11
126 129 0
136 136 11
124 128 0
136 138 16
134 133 19
125 126 0
143 148 11
138 144 11
134 141 0
149 154 16
153 159 0
144 151 0
149 156 0
149 157 0
146 154 0
155 163 16
152 162 0
152 161 0
156 166 0
150 160 0
152 163 0
153 163 0
161 173 0
158 167 0
159 172 0
154 165 0
157 169 0
156 169 0
160 174 0
153 169 0
162 177 0
159 172 0
157 170 0
161 175 0
161 176 0
165 180 0
164 178 0
161 173 0
160 176 0
156 170 0
164 180 0
167 183 0
164 180 0
160 175 0
159 172 0
163 179 0
164 180 0
162 178 0
167 183 0
161 178 0
170 188 0
167 183 0
164 181 0
162 178 0
167 185 0
163 181 0
167 184 0
165 182 0
206 224 221
207 224 221
205 223 217
208 225 224
204 222 221
206 224 221
204 222 211
202 220 211
201 221 207
198 217 193
196 216 191
197 217 189
192 213 177
199 218 203
193 213 182
195 214 179
191 211 157
190 210 161
192 212 175
193 213 173
192 213 169
189 210 159
183 205 142
191 212 165
185 207 130
188 209 157
187 208 142
190 210 159
185 207 133
187 209 151
187 208 140
183 204 133
180 201 111
183 204 114
181 203 122
184 205 125
183 204 122
182 204 114
176 200 99
179 202 95
178 201 108
181 203 111
181 203 117
178 201 102
179 202 92
179 201 114
178 200 95
176 198 95
179 201 111
180 202 108
178 200 117
180 201 122
180 202 117
181 203 114
179 201 114
177 199 114
176 199 92
182 203 125
181 203 125
182 202 111
186 207 135
183 204 120
184 205 147
185 206 137
183 205 120
184 205 142
185 205 122
184 206 144
186 207 162
186 206 163
171 193 149
163 185 166
159 179 186
170 190 195
157 178 194
156 177 203
150 171 197
154 175 199
145 167 202
140 162 191
111 136 176
138 161 196
129 153 178
135 157 192
129 153 188
143 166 200
126 150 194
126 151 188
114 139 190
114 139 187
115 140 188
113 138 194
106 132 183
114 139 191
113 138 191
91 120 183
105 132 188
107 133 187
107 133 187
95 123 181
89 118 177
76 109 177
65 101 174
74 107 169
74 106 168
77 109 173
67 101 171
67 100 162
68 101 160
69 103 161
77 108 161
64 99 160
69 103 154
67 100 157
66 101 156
61 97 157
61 96 144
61 97 161
65 100 161
61 97 158
61 96 155
63 98 159
61 96 148
60 96 154
63 98 159
60 96 148
60 96 152
63 97 149
62 97 159
60 95 150
60 95 149
60 96 161
60 95 154
60 95 155
60 96 154
60 96 148
61 97 158
61 97 161
60 96 150
60 96 159
61 96 155
60 96 152
61 98 167
61 97 164
61 96 154
60 96 155
60 95 148
61 97 158
62 97 160
60 96 154
61 97 151
61 97 166
61 97 154
60 96 154
60 96 155
62 97 154
61 96 152
61 96 152
60 96 148
61 97 149
60 96 149
60 96 149
62 97 155
62 97 156
62 97 156
61 98 158
61 97 162
62 98 164
62 98 160
61 96 151
61 97 152
61 96 152
61 97 154
62 98 160
62 98 156
62 98 159
62 98 154
61 97 152
60 96 148
62 98 160
62 97 154
62 97 159
61 96 147
61 97 152
61 97 156
61 97 148
62 97 154
61 97 157
61 97 157
62 98 158
62 98 158
61 97 151
62 97 157
60 95 145
62 97 156
61 97 157
63 99 162
61 97 151
63 98 154
62 98 158
61 96 155
62 98 154
62 98 157
61 96 152
62 98 156
61 97 153
61 96 150
62 98 157
62 98 157
63 98 163
62 98 163
62 97 157
59 94 137
61 96 157
61 97 154
62 97 152
62 97 152
61 96 145
61 97 154
61 96 145
60 95 143
60 95 144
61 96 145
61 97 150
62 98 157
61 97 147
61 96 145
61 96 149
60 96 142
62 97 150
60 95 147
62 97 149
61 97 154
62 97 151
61 96 145
62 98 155
61 96 151
62 98 156
61 97 147
60 95 147
62 97 145
60 96 144
62 98 152
61 95 140
61 95 142
60 95 145
60 95 142
59 93 139
59 93 134
61 95 148
61 96 145
59 94 137
61 95 136
60 95 133
58 92 127
60 95 138
57 90 126
59 92 128
59 93 128
68 95 106
89 106 93
105 118 70
114 122 40
118 126 0
115 122 0
121 127 0
115 119 0
110 113 0
107 111 11
97 99 0
101 103 0
117 124 0
107 112 0
110 111 0
92 91 11
102 100 0
99 101 0
102 102 8
90 90 0
101 100 0
104 105 11
100 95 16
106 106 0
107 105 0
110 109 0
107 108 0
100 101 0
105 103 0
100 97 0
100 99 8
104 103 0
102 100 0
94 91 0
97 94 14
102 99 0
88 86 0
100 97 0
104 98 0
102 99 0
93 91 8
105 102 0
98 93 11
98 92 0
104 97 0
109 104 0
105 102 0
100 98 11
102 96 0
108 104 0
113 108 0
107 102 0
107 104 0
102 96 0
96 92 0
110 108 11
118 113 0
117 111 0
106 103 0
120 116 0
100 95 0
121 117 19
116 110 11
107 103 11
106 102 16
115 111 11
122 119 11
116 113 11
116 113 0
119 118 11
110 107 0
126 123 0
118 117 0
125 123 19
118 116 0
121 120 16
130 128 19
124 123 22
126 123 19
126 129 11
121 118 11
135 136 16
124 125 0
125 125 16
130 135 11
138 143 19
140 143 11
133 136 11
143 147 0
136 138 0
136 139 0
146 152 11
139 143 0
141 147 11
152 158 0
150 161 11
148 155 0
154 160 11
152 161 0
155 164 0
147 156 0
143 152 0
155 164 0
152 163 0
155 166 0
156 169 0
158 170 0
152 164 0
159 173 0
153 164 0
158 171 0
157 170 0
162 175 0
155 168 0
159 173 0
158 170 0
159 172 0
159 173 0
158 173 0
159 175 0
162 178 0
159 174 0
167 182 0
156 172 0
162 178 0
169 184 0
165 183 0
162 178 0
167 185 0
161 177 0
161 177 0
163 180 0
166 183 0
166 182 0
166 182 0
159 174 0
163 181 0
167 184 0
166 183 0
164 181 0
163 180 0
206 224 220
205 223 212
203 222 217
204 222 215
203 221 215
201 219 214
206 223 212
201 220 194
197 216 191
200 218 191
199 218 196
191 211 167
194 214 182
193 213 179
191 212 167
190 210 155
187 208 144
192 212 161
184 206 130
190 210 159
186 207 151
186 208 144
184 206 140
182 204 133
187 208 135
188 209 135
182 204 128
179 202 108
180 203 125
183 205 128
179 202 111
181 203 128
179 201 88
182 204 128
176 199 111
181 203 117
182 204 111
177 199 117
177 201 108
177 200 99
179 201 105
175 199 84
178 200 105
176 198 95
178 201 95
177 201 92
180 203 105
174 197 88
175 198 102
176 198 80
180 201 102
178 200 102
182 204 108
176 199 117
184 205 122
178 200 95
178 201 105
179 202 102
179 202 108
179 202 99
179 201 111
177 198 108
183 205 135
179 201 117
180 203 125
183 205 130
181 202 117
180 201 124
183 204 129
181 203 157
172 193 152
159 180 168
161 183 180
155 176 194
139 161 186
145 166 191
139 161 174
151 172 195
137 159 188
127 150 186
134 157 197
140 162 189
131 154 182
120 144 191
119 144 184
111 136 180
120 144 189
120 145 180
109 135 182
114 139 188
105 131 186
127 150 196
103 130 188
109 135 181
98 126 181
102 129 184
104 131 184
94 121 175
98 125 187
96 124 183
89 118 179
86 116 176
79 111 176
76 108 169
70 104 168
73 106 169
72 105 160
80 111 171
64 99 169
71 104 161
73 106 169
67 100 159
67 101 163
67 101 167
71 103 155
63 98 154
61 97 158
63 97 149
61 97 160
60 96 158
60 96 161
64 98 150
59 94 150
61 96 157
60 95 151
60 96 150
60 96 155
61 96 154
59 95 153
60 96 156
59 95 150
60 95 154
60 95 150
61 97 153
60 96 152
61 96 155
60 95 153
60 95 154
61 97 160
61 97 161
61 96 155
61 97 160
61 96 149
60 95 150
62 97 160
59 94 146
60 96 153
62 98 157
60 96 153
60 96 151
62 98 166
61 97 157
60 95 149
61 96 152
62 98 162
61 97 155
60 96 148
61 97 155
60 96 150
61 97 151
61 97 157
61 96 148
61 97 154
60 96 150
61 97 155
60 96 153
60 96 149
61 97 154
60 96 155
60 96 154
60 96 152
61 97 162
62 98 155
62 97 156
62 97 152
62 98 161
61 97 154
62 98 161
61 97 156
61 97 156
62 98 163
61 97 156
61 97 151
61 96 149
61 97 150
62 98 159
61 97 152
61 97 160
61 97 160
61 97 159
62 97 155
62 99 163
61 97 156
62 98 163
61 97 160
62 97 153
61 96 153
61 97 154
61 96 153
63 99 160
61 97 155
61 97 151
61 97 148
61 96 150
60 96 149
61 96 150
61 96 144
61 97 149
62 97 156
62 98 156
61 97 157
62 97 150
61 96 150
62 98 157
61 97 150
62 98 155
61 96 145
61 96 150
61 96 150
61 96 145
61 96 153
61 97 149
61 96 142
62 98 155
61 97 155
60 95 136
61 97 154
62 97 152
63 98 164
62 97 155
61 97 154
61 96 150
62 97 157
60 96 141
61 96 145
61 96 142
61 96 148
60 96 142
60 95 145
61 96 145
61 96 143
61 96 149
60 95 134
60 95 145
60 95 142
60 95 141
61 95 141
61 96 147
61 96 148
60 95 140
59 93 140
61 95 147
58 92 130
61 95 140
61 96 140
59 93 133
60 94 135
59 93 139
58 91 124
72 100 123
97 111 72
111 121 57
114 122 31
110 114 0
120 125 0
121 128 0
114 120 0
108 115 0
92 98 0
122 129 0
107 112 0
109 112 0
98 100 0
101 104 0
107 112 0
106 106 0
105 106 0
90 90 0
109 110 0
102 103 0
106 105 0
86 83 0
97 95 0
103 99 0
103 102 11
101 100 0
95 93 8
86 86 0
107 105 0
105 104 0
93 89 8
94 91 0
107 106 0
94 92 0
100 96 0
88 86 0
91 87 0
90 87 0
96 91 0
105 100 0
97 93 0
107 104 0
111 109 0
99 93 0
102 99 0
90 86 0
108 104 11
102 98 8
100 94 11
98 93 11
104 98 0
109 104 0
117 114 0
107 102 0
117 111 0
112 109 0
115 115 0
116 113 11
109 102 11
106 100 0
109 104 11
123 120 11
114 112 0
114 109 0
123 120 11
120 115 0
119 113 0
126 126 0
117 115 19
119 118 11
130 126 16
119 118 11
116 114 0
118 115 0
116 115 0
124 124 11
134 135 19
124 125 0
133 136 16
134 136 0
131 133 0
132 131 16
132 136 11
136 137 16
134 137 11
130 132 11
134 137 11
143 150 0
140 147 0
140 150 0
148 156 0
145 152 11
142 149 0
147 153 11
145 152 11
151 159 0
147 154 0
154 166 0
156 168 0
156 165 0
151 160 0
156 167 0
161 174 0
152 164 0
152 166 0
152 164 0
159 172 0
154 165 0
162 173 0
162 173 0
155 167 0
157 167 0
166 181 0
160 171 0
162 178 0
158 174 0
160 172 0
158 173 0
158 172 0
162 178 0
158 173 0
160 177 0
164 179 0
161 177 0
156 169 0
162 177 0
166 183 0
162 179 0
163 180 0
164 180 0
164 181 0
161 178 0
163 180 0
165 182 0
163 180 0
159 175 0
169 188 0
163 180 0
169 189 0
166 185 0
205 222 214
202 220 209
203 222 212
206 224 226
199 217 201
202 221 209
198 217 193
194 215 175
200 219 199
194 214 188
190 210 163
192 212 171
193 214 177
191 212 171
187 208 142
191 212 167
191 211 167
188 209 149
185 207 128
187 208 142
182 204 114
186 207 137
181 203 130
178 200 111
182 204 108
180 202 120
181 203 111
182 204 133
181 203 117
178 201 95
182 205 125
177 200 102
179 201 99
176 199 88
180 202 99
178 201 102
178 201 102
174 197 92
172 196 76
171 195 84
174 197 76
175 198 57
177 199 88
175 197 84
178 201 92
173 197 67
178 201 88
174 196 67
175 199 92
175 198 67
173 196 72
174 198 88
175 198 72
173 197 76
178 200 76
174 197 76
177 200 88
179 202 105
175 198 99
177 199 92
174 197 108
179 201 111
180 202 80
177 201 102
178 201 95
176 199 80
178 201 99
178 200 122
177 199 134
174 196 139
163 185 144
155 177 154
141 164 162
128 151 181
138 161 178
135 157 181
130 153 182
133 156 183
131 155 186
129 152 182
124 148 176
120 144 185
128 151 186
116 141 174
110 136 182
108 134 176
122 146 189
111 137 188
108 134 182
117 142 192
112 138 190
103 129 175
96 124 184
94 123 178
99 127 177
92 121 175
103 130 185
95 123 182
92 121 181
89 119 182
81 112 174
85 115 174
88 117 171
85 114 174
80 111 168
76 108 175
67 102 168
71 105 165
66 100 166
72 105 159
69 103 165
71 104 162
67 101 158
66 101 162
67 101 159
65 99 155
61 97 160
62 96 154
64 98 156
62 96 153
66 99 154
63 97 153
61 96 155
65 99 154
62 97 154
62 97 149
63 98 153
60 96 159
60 95 149
60 96 161
61 97 163
63 97 141
59 95 158
61 97 156
60 96 151
60 96 151
60 96 149
61 97 160
59 95 148
60 96 152
61 97 160
60 96 154
61 97 160
59 94 146
61 97 159
60 96 150
61 97 155
62 98 159
60 95 144
60 96 154
60 95 148
60 96 153
60 96 152
60 96 152
61 97 159
61 97 161
61 97 156
61 97 159
62 98 156
61 96 156
60 96 151
60 96 153
60 95 150
61 97 157
61 96 145
60 96 153
62 97 154
61 97 161
62 98 161
61 97 160
61 97 147
61 96 144
61 98 163
61 97 152
62 97 154
61 97 156
61 97 151
61 97 154
62 97 156
62 97 153
61 97 156
62 97 149
61 96 147
61 97 156
60 96 145
63 98 160
62 97 155
62 98 156
62 98 160
62 98 161
62 98 159
62 98 158
61 97 156
61 96 150
61 97 153
61 97 154
62 98 163
61 97 156
61 97 159
62 97 155
62 98 152
62 98 155
62 97 148
62 98 158
62 98 158
60 95 144
61 97 154
62 97 154
62 97 148
62 97 152
61 97 148
61 97 154
62 98 152
61 96 152
62 98 155
61 97 152
61 97 150
61 97 155
62 97 152
62 98 154
61 96 141
62 98 155
62 97 152
61 96 148
61 97 150
62 97 150
61 97 148
62 97 151
61 96 150
61 96 149
61 96 144
61 96 144
60 95 145
61 96 150
60 96 141
59 94 141
60 94 141
61 96 141
60 95 145
62 97 150
61 96 147
60 95 143
61 96 140
61 96 147
60 94 134
61 96 148
61 95 142
57 91 120
61 95 141
59 94 132
61 96 147
61 95 145
59 93 133
58 92 126
60 94 132
60 93 134
58 91 131
59 93 133
58 91 134
71 96 119
105 119 68
93 102 51
110 118 0
114 121 0
120 126 0
116 119 0
108 114 0
124 131 0
108 112 0
114 116 0
106 107 0
111 114 0
99 101 0
105 107 0
101 106 0
107 107 0
98 102 0
98 100 0
116 118 0
110 111 0
108 108 0
105 107 0
94 91 0
104 103 0
95 94 0
103 101 0
97 96 0
100 98 0
103 102 0
105 103 0
88 82 0
86 84 0
109 106 0
88 87 0
100 96 0
102 99 0
105 104 0
94 90 0
98 93 0
104 97 0
101 96 0
99 95 0
106 105 0
114 108 11
93 90 0
105 101 0
98 95 0
108 101 0
114 110 0
103 100 0
106 102 11
114 111 11
104 101 0
111 107 11
119 113 0
118 115 0
110 107 0
112 110 0
107 104 0
107 103 0
118 116 0
115 110 16
112 110 11
120 115 16
112 108 16
121 117 0
110 110 0
116 112 11
124 124 0
112 110 0
126 125 11
116 113 0
131 129 0
128 128 11
123 119 0
126 125 0
125 124 16
122 121 16
135 137 11
136 139 0
127 128 16
134 138 0
135 138 16
126 125 0
135 140 0
144 147 0
134 139 11
149 152 11
145 152 11
136 142 0
147 154 0
147 155 0
150 162 0
152 161 0
152 160 0
149 158 0
149 156 0
146 156 0
151 162 0
157 171 0
151 161 0
155 169 0
157 169 0
158 171 0
156 169 0
163 177 0
157 167 0
161 175 0
158 172 0
159 173 0
157 168 0
156 167 0
159 171 0
159 172 0
163 180 0
163 179 0
157 170 0
156 170 0
161 177 0
162 175 0
162 176 0
158 174 0
159 174 0
165 181 0
154 167 0
161 179 0
161 176 0
161 176 0
161 176 0
166 183 0
162 178 0
167 186 0
162 180 0
165 183 0
161 177 0
162 179 0
161 179 0
165 182 0
164 180 0
160 176 0
202 220 209
202 220 211
206 224 218
201 219 207
196 216 196
198 216 194
194 214 175
193 213 175
191 211 177
191 211 159
191 211 157
194 213 173
189 209 147
183 204 128
188 209 159
184 206 130
185 206 142
184 206 128
185 206 142
181 204 108
178 201 122
181 204 114
181 203 117
179 201 111
177 199 84
177 200 80
176 199 88
174 198 99
178 201 105
175 199 76
178 201 105
175 198 84
176 200 67
177 200 95
176 199 57
177 200 105
177 200 88
176 199 92
175 198 67
176 200 88
173 196 72
173 197 72
175 198 67
171 195 44
174 197 62
173 196 76
178 200 108
177 200 76
171 195 67
174 198 88
176 199 72
174 197 76
174 197 76
176 199 80
174 197 76
173 196 72
173 197 67
177 200 67
167 191 62
176 200 92
176 199 76
173 196 72
173 197 105
178 200 76
172 195 72
174 198 95
178 201 99
175 197 102
169 192 94
169 192 121
162 185 141
158 180 152
129 153 162
118 143 172
126 150 165
125 150 168
137 160 173
140 163 182
129 152 180
134 156 190
124 148 181
110 136 169
113 138 169
124 149 179
108 134 172
107 133 172
122 147 182
105 132 173
113 138 183
108 134 181
111 137 179
89 119 178
97 125 178
107 134 185
112 138 188
104 131 183
95 124 186
98 126 184
96 125 185
79 110 176
86 116 174
90 119 177
82 113 175
74 106 172
79 110 176
68 103 173
66 101 174
71 105 169
67 101 167
78 109 175
75 107 163
70 104 171
70 104 166
60 96 151
67 101 160
74 106 157
64 99 156
70 103 158
59 95 149
63 97 155
60 96 156
63 97 152
60 95 148
60 95 160
60 95 153
62 97 150
60 95 154
62 97 152
61 96 155
61 97 159
60 96 145
60 96 149
61 96 152
62 97 153
60 96 154
61 97 153
61 96 158
61 97 151
61 96 152
60 95 146
61 96 158
60 94 143
61 96 155
60 96 147
61 96 154
62 97 156
62 98 159
61 96 149
61 96 154
60 95 153
62 97 153
61 97 157
61 96 155
61 97 154
61 96 157
61 97 160
61 96 148
61 97 158
61 96 151
62 98 157
61 96 152
62 97 156
60 96 149
62 98 161
61 97 153
61 96 150
62 97 150
61 96 157
62 98 162
60 96 143
61 97 156
61 97 154
61 96 152
62 97 155
61 97 151
61 97 150
61 96 147
62 98 158
62 98 164
61 96 155
62 97 153
61 97 155
61 96 149
62 97 153
61 96 145
62 97 154
61 97 153
61 97 156
62 98 161
61 97 154
62 98 158
61 97 148
62 98 162
62 98 161
62 98 155
61 97 156
61 97 153
60 96 144
61 97 150
63 98 154
61 97 151
61 97 156
61 97 151
60 95 148
60 96 139
62 97 151
62 97 152
61 97 148
60 96 143
61 97 150
61 97 148
62 98 153
61 97 148
60 95 150
61 96 148
61 97 151
60 96 149
63 98 158
62 97 155
61 96 150
60 96 150
62 97 152
61 95 139
60 96 149
61 96 150
61 96 147
61 96 142
61 96 147
60 96 147
62 97 148
60 95 144
62 97 151
62 98 153
60 95 137
61 96 145
60 95 135
62 98 155
61 96 143
62 98 154
59 93 129
61 96 149
61 96 141
60 95 145
61 96 148
61 96 145
62 97 143
60 94 134
59 93 132
58 92 122
59 94 140
59 94 132
60 94 135
59 93 133
59 94 139
58 92 118
59 93 132
60 93 135
60 94 141
63 94 121
85 103 101
96 110 75
114 124 47
104 109 0
118 124 0
106 109 0
118 123 0
113 118 0
104 110 0
112 116 0
109 114 0
112 119 0
112 115 0
113 115 0
104 110 0
100 105 0
110 114 0
109 113 0
103 105 0
110 112 0
108 109 0
106 109 0
106 108 0
96 95 0
94 94 0
104 102 0
97 98 0
93 94 0
90 90 0
105 105 0
105 101 0
103 100 0
89 91 0
109 109 0
102 101 0
101 100 0
103 100 0
98 94 0
98 92 0
102 99 0
105 102 0
98 94 0
103 104 0
114 113 0
102 100 0
103 101 8
105 101 0
100 95 0
108 103 0
106 102 0
110 104 0
107 103 0
108 105 0
118 115 0
114 110 0
108 107 11
109 102 0
119 114 16
108 107 11
119 115 16
122 122 0
115 113 0
118 116 11
125 122 11
109 107 0
120 119 16
115 112 0
121 117 0
113 108 0
123 124 11
128 125 11
118 117 0
124 123 0
121 118 0
125 122 11
126 123 0
125 126 16
133 136 0
127 130 0
138 140 0
127 128 11
136 139 0
125 126 11
132 137 0
130 130 11
138 145 0
146 152 0
139 143 0
148 154 0
143 149 0
137 142 0
149 155 0
145 149 0
148 154 0
152 162 0
148 154 0
153 158 0
153 161 0
159 169 0
158 170 0
153 162 0
155 167 0
156 168 0
150 161 0
155 165 0
157 167 0
150 158 0
152 163 0
158 169 0
157 171 0
155 167 0
160 173 0
163 177 0
159 172 0
158 173 0
161 176 0
158 172 0
159 174 0
161 177 0
161 175 0
163 179 0
154 167 0
166 182 0
159 173 0
157 172 0
162 180 0
165 181 0
168 186 0
163 178 0
169 183 0
165 181 0
162 176 0
161 178 0
167 184 0
166 183 0
166 186 0
168 187 0
166 185 0
167 184 0
165 182 0
165 184 0
199 218 193
197 216 186
197 216 189
197 217 194
196 216 189
193 214 181
194 213 179
193 213 165
192 212 165
188 209 149
188 209 161
186 207 149
185 206 128
186 207 137
186 206 130
187 208 140
186 206 122
178 200 108
181 203 108
180 202 120
179 202 114
179 202 120
181 204 114
179 202 108
176 200 99
174 198 84
176 199 95
176 199 92
175 199 84
175 198 67
171 194 84
171 195 67
174 197 62
171 195 67
171 195 72
174 199 72
175 198 80
174 197 67
174 197 76
172 196 80
172 196 57
175 198 62
175 199 72
173 196 51
176 199 84
173 197 62
171 194 80
173 197 62
173 197 67
176 199 76
176 200 84
172 196 62
176 200 95
174 198 76
171 195 57
171 194 84
172 196 72
174 197 62
173 197 84
174 198 67
171 194 72
172 194 51
175 198 76
174 197 67
175 198 72
177 200 80
176 199 88
175 198 100
165 188 107
159 183 113
155 179 120
146 170 147
141 165 156
122 146 168
117 142 159
124 148 155
111 137 165
125 149 179
115 139 161
128 152 175
116 141 166
109 134 172
116 141 163
118 143 168
112 137 167
99 127 170
117 142 178
110 136 174
107 134 175
98 126 180
108 134 181
107 134 185
91 120 178
94 122 180
91 119 177
102 129 185
96 124 174
97 125 181
90 119 178
89 119 182
83 114 179
97 125 180
80 111 172
84 114 174
68 102 171
80 111 173
79 110 176
69 102 163
75 107 169
73 106 167
70 104 171
65 100 167
64 99 156
72 104 158
69 102 161
64 98 155
66 100 162
69 103 163
61 96 154
66 100 156
64 99 163
66 101 150
61 96 155
60 95 154
65 99 147
61 97 159
63 97 156
61 97 154
59 94 153
59 94 149
64 99 156
60 95 146
58 93 137
60 95 154
61 97 156
61 97 163
60 96 157
61 97 159
61 96 156
61 96 154
61 97 156
61 97 156
60 95 151
60 96 152
61 96 155
61 97 154
61 96 152
61 97 154
62 97 157
61 97 160
61 97 155
62 98 159
62 97 155
60 96 151
62 98 159
61 97 155
61 97 159
62 98 166
61 96 151
62 98 156
61 96 153
61 96 152
59 95 145
61 97 158
62 98 160
61 97 157
61 97 151
61 97 153
60 97 156
61 96 151
60 95 153
62 98 155
61 97 159
61 96 144
60 95 148
62 99 167
60 95 145
61 97 158
61 96 152
61 96 148
62 97 154
61 97 153
61 97 156
61 97 155
62 98 160
61 97 151
61 97 159
61 96 148
61 96 149
62 98 157
60 95 151
60 96 147
61 97 157
62 97 154
60 95 151
61 97 152
60 96 147
62 97 154
61 97 151
61 97 152
60 96 148
61 96 143
61 97 148
62 98 158
62 97 158
61 97 151
61 97 149
61 96 142
61 96 150
62 97 154
61 97 151
62 97 156
62 97 155
61 97 154
60 95 140
62 98 159
60 96 153
61 96 152
61 97 145
61 97 155
61 96 142
62 97 149
62 97 156
61 96 143
59 94 136
60 95 147
62 97 153
61 97 154
61 96 140
60 95 144
60 95 144
61 97 145
61 96 140
60 95 134
60 95 142
60 94 139
59 95 139
61 96 147
58 92 141
62 97 150
61 96 145
61 96 145
61 97 153
60 95 147
61 96 147
61 95 144
61 96 143
59 93 135
60 95 133
60 94 135
60 94 134
59 93 134
59 94 131
61 96 141
60 94 135
60 94 138
60 94 139
59 91 121
77 103 128
87 104 87
100 112 68
103 107 18
111 117 0
121 127 0
120 125 0
110 116 0
115 120 0
116 122 0
112 118 0
112 117 0
109 115 0
121 125 0
112 116 0
112 115 0
111 113 0
108 111 0
110 114 0
104 108 11
104 106 0
115 117 0
99 99 0
94 96 0
97 96 11
117 119 0
99 99 0
102 103 0
93 92 0
93 91 0
116 116 0
107 105 0
106 107 0
100 101 0
102 100 0
102 101 0
94 91 0
98 94 0
101 101 0
96 91 0
113 110 0
99 93 0
103 102 0
103 101 0
107 104 0
111 109 0
103 99 0
104 101 0
112 111 0
106 103 0
101 100 0
113 112 0
99 97 0
106 104 0
108 105 0
105 101 0
105 103 0
108 108 0
104 102 0
121 117 0
109 106 0
105 101 11
109 106 0
114 110 11
117 117 0
110 109 0
118 113 0
117 114 0
126 123 0
126 125 11
125 126 11
129 128 16
126 126 0
116 115 11
131 130 11
129 131 0
127 127 0
123 125 0
123 123 0
129 130 11
131 134 16
137 143 0
141 143 0
123 125 11
130 134 0
137 141 11
137 142 0
144 151 0
157 165 0
139 143 0
150 157 11
146 153 0
142 147 0
152 161 0
146 153 0
152 156 0
153 161 0
156 164 0
147 158 0
149 160 0
144 153 0
155 165 0
155 166 0
155 167 0
153 164 0
156 169 0
153 164 0
164 176 0
158 171 0
163 176 0
161 174 0
164 179 0
157 168 0
163 177 0
159 174 0
164 176 0
162 177 0
163 178 0
162 175 0
162 178 0
164 181 0
159 175 0
160 175 0
160 178 0
163 179 0
157 174 0
161 176 0
164 182 0
162 177 0
163 179 0
164 183 0
165 182 0
165 180 0
158 175 0
161 176 0
164 181 0
167 186 0
162 179 0
162 179 0
167 185 0
169 189 0
164 181 0
198 217 189
195 214 179
195 215 177
199 218 194
193 214 181
194 213 173
188 208 153
187 208 142
190 211 161
181 203 128
185 206 153
190 210 157
178 200 105
185 206 133
183 205 122
182 204 128
179 202 108
179 201 84
177 201 111
179 202 111
181 203 108
176 199 99
178 200 80
175 198 80
177 199 95
173 196 72
174 197 76
174 198 95
178 201 92
172 195 80
174 197 67
175 199 72
174 197 84
175 198 72
173 197 67
173 197 72
174 198 76
176 199 67
171 195 57
175 199 62
172 196 51
175 199 88
172 196 62
173 197 62
172 196 67
174 198 76
175 199 102
173 195 51
172 196 80
170 194 72
175 197 88
173 196 84
170 194 80
171 195 62
176 199 72
174 197 67
178 201 84
171 195 88
173 197 99
172 196 62
177 200 84
175 198 80
175 199 80
170 193 80
173 197 84
171 194 62
169 193 78
175 198 95
164 187 78
160 183 107
153 176 124
134 158 137
117 142 143
113 140 160
108 134 148
115 140 166
127 151 167
120 145 170
115 140 166
121 145 173
111 137 163
125 149 171
111 137 169
118 143 179
108 135 175
98 126 171
115 141 176
105 131 175
111 136 176
109 135 181
113 139 188
91 120 178
98 126 179
97 125 175
95 123 175
82 113 176
87 117 175
96 125 181
81 112 176
87 117 175
88 117 177
89 118 179
83 113 180
86 116 179
82 113 179
89 119 181
80 111 173
84 114 169
71 104 169
74 106 164
80 110 168
63 98 161
67 100 155
61 96 162
72 104 162
67 102 159
68 102 163
61 97 160
75 107 164
62 95 154
66 100 160
64 98 154
62 96 140
60 96 154
63 98 157
66 100 156
59 94 143
59 95 150
62 97 155
60 95 154
60 95 149
61 96 151
63 98 154
60 95 150
60 96 153
60 95 143
60 96 154
60 96 156
60 95 149
60 95 153
61 96 149
60 95 151
61 96 157
60 95 149
61 96 149
60 95 139
62 97 155
59 94 143
61 96 154
61 97 149
61 97 154
61 97 151
61 96 154
61 96 150
61 96 150
61 96 147
61 97 157
61 96 149
61 97 161
62 98 152
61 97 159
60 95 155
62 97 152
62 98 158
61 97 152
62 97 156
60 95 144
62 98 161
61 96 155
61 97 158
60 96 153
62 98 159
61 97 157
61 97 154
61 96 154
61 96 152
61 96 151
61 97 151
61 96 150
61 97 154
60 95 151
62 98 164
61 96 150
61 97 157
61 96 148
60 96 148
60 96 151
61 96 148
61 96 147
62 98 160
61 96 151
61 97 153
60 96 156
61 96 144
61 96 154
61 97 151
62 98 159
62 98 156
62 98 161
62 98 155
61 97 152
62 98 165
62 98 158
62 97 156
62 98 153
62 97 153
61 96 147
61 96 142
62 97 152
61 97 150
61 96 152
60 96 145
61 97 147
61 97 150
60 96 145
62 97 151
61 96 147
61 96 140
62 98 156
61 96 143
60 95 143
62 98 152
61 96 143
60 95 142
62 98 156
61 97 151
62 97 152
61 96 147
60 94 143
61 97 145
61 96 144
60 95 144
61 96 143
61 97 150
61 96 149
60 95 143
60 95 134
61 96 144
62 97 150
60 96 147
61 97 145
60 95 143
61 96 144
60 95 137
62 97 150
60 95 130
59 93 137
59 93 131
60 95 134
60 95 139
60 94 141
59 93 129
60 94 129
58 92 128
58 92 125
59 93 131
58 91 122
60 94 139
65 90 110
92 106 63
112 121 44
111 118 25
106 113 0
122 129 0
114 120 0
106 113 0
114 120 0
118 122 0
120 126 0
118 123 0
117 124 0
120 128 0
126 132 0
123 127 0
122 128 0
114 119 0
118 122 0
104 106 0
109 112 0
102 106 0
105 107 0
107 108 0
112 114 0
101 103 0
102 103 0
98 98 0
109 109 0
98 99 0
105 106 0
105 104 0
107 109 0
102 102 0
93 91 0
107 105 0
109 107 0
103 103 0
97 95 0
101 98 0
99 96 0
104 102 0
112 112 0
97 93 0
106 105 0
100 97 0
106 103 0
100 97 0
113 113 0
110 105 0
112 111 0
113 111 8
120 118 0
108 106 0
113 109 0
109 105 0
109 104 0
107 106 0
120 118 0
116 113 0
113 110 0
118 115 0
126 123 0
126 127 0
116 113 11
122 121 0
122 120 11
114 109 0
123 124 0
126 126 0
128 130 0
130 131 11
129 129 0
117 116 11
122 119 0
124 127 0
126 126 0
131 131 0
135 139 0
140 142 0
124 127 11
134 140 11
133 137 0
136 143 0
136 139 0
142 150 0
134 141 0
142 148 0
139 141 11
150 158 0
141 148 0
148 157 0
145 152 0
148 157 0
154 161 0
147 153 0
154 163 0
156 166 0
148 158 0
158 166 0
154 163 0
161 173 0
149 158 0
152 164 0
162 176 0
150 160 0
156 166 0
160 174 0
156 167 0
154 166 0
165 176 0
153 168 0
155 169 0
152 162 0
156 171 0
157 170 0
156 171 0
162 175 0
159 174 0
158 173 0
162 175 0
157 170 0
164 178 0
158 172 0
160 175 0
157 170 0
161 176 0
162 177 0
161 178 0
165 180 0
164 181 0
162 179 0
160 176 0
166 184 0
165 181 0
166 181 0
163 179 0
164 180 0
165 183 0
165 183 0
165 181 0
164 181 0
201 219 199
195 215 182
189 210 153
190 210 173
196 215 179
188 209 155
189 209 153
189 210 157
185 206 144
181 204 108
187 208 140
187 208 147
183 205 151
181 203 128
179 202 117
177 200 99
178 199 117
178 200 84
178 201 105
178 201 105
178 201 95
175 199 84
177 200 76
172 196 72
174 197 62
174 197 88
171 195 88
175 199 62
174 198 76
175 199 72
176 200 80
173 196 72
175 199 72
172 195 57
177 199 67
172 195 72
174 197 72
173 195 62
172 196 72
173 197 62
173 196 76
171 195 44
175 198 80
175 199 72
171 196 51
174 198 80
171 195 80
169 194 76
172 196 88
170 193 80
170 195 88
172 197 76
174 196 76
174 197 72
173 196 84
173 196 67
172 196 76
176 200 76
175 198 76
172 195 67
176 199 76
171 195 80
173 198 99
173 196 67
175 197 62
174 198 72
173 196 62
174 198 82
169 192 107
157 180 86
150 173 97
140 164 117
116 142 140
115 141 160
104 131 153
107 133 143
105 132 157
106 132 153
113 140 163
112 137 161
101 128 164
115 141 177
118 144 174
108 134 169
103 130 160
109 136 168
106 132 168
108 135 175
105 131 168
92 120 170
89 119 178
97 125 171
96 125 171
91 119 170
103 130 169
96 124 175
77 109 172
95 123 180
95 124 182
83 114 171
90 119 181
78 110 170
75 107 168
81 112 170
80 111 175
76 108 171
80 111 178
70 103 167
75 107 167
72 105 167
73 106 167
63 98 162
69 103 170
75 106 159
64 99 164
69 103 159
77 108 158
70 103 156
60 95 153
63 98 158
59 94 150
63 97 153
65 99 150
64 98 155
63 97 157
64 98 152
64 99 154
62 98 158
60 95 148
62 98 155
64 98 152
65 99 153
61 97 158
60 96 154
60 95 149
59 94 149
61 96 148
62 97 160
59 94 149
61 97 154
60 96 160
60 95 155
60 96 150
60 95 154
62 98 158
60 95 154
61 97 154
61 96 149
58 93 144
61 96 154
60 96 150
61 96 148
61 97 149
61 96 159
62 98 160
61 96 155
61 97 158
61 96 155
61 97 155
60 96 148
61 96 153
61 97 157
62 97 152
60 95 150
62 98 158
60 96 148
60 96 147
61 97 155
61 97 155
62 97 155
62 97 152
61 96 150
61 97 155
61 96 149
62 98 160
61 96 144
61 97 152
62 97 156
62 97 154
62 98 158
61 97 149
61 97 155
61 96 150
60 96 149
62 97 147
62 97 153
62 97 157
60 96 148
61 97 145
61 97 152
60 96 148
61 97 153
61 96 152
61 96 147
62 97 150
61 96 140
62 98 159
62 98 161
60 96 151
62 97 155
62 98 155
61 97 152
62 97 151
61 96 143
62 97 151
62 98 152
62 98 159
61 96 151
62 97 150
61 96 148
62 97 151
61 96 150
61 97 156
61 97 145
62 97 149
62 98 160
62 97 157
61 97 150
61 96 142
61 96 140
62 97 153
61 96 140
60 95 140
61 96 141
60 96 148
62 97 149
62 97 155
61 97 147
60 95 140
60 95 141
61 96 140
61 96 148
61 96 143
61 96 151
60 95 145
61 96 151
61 96 142
60 95 139
59 93 135
62 97 154
61 96 147
60 95 134
60 95 141
61 96 140
60 94 134
59 94 133
59 94 133
60 94 140
59 94 135
61 96 145
58 92 118
61 96 143
60 95 136
60 94 135
59 92 124
56 89 120
58 91 116
59 91 119
77 97 96
101 112 41
110 121 32
113 117 18
115 124 0
110 118 0
109 116 0
97 103 0
104 109 0
112 119 0
96 103 0
103 107 0
111 116 0
119 122 0
115 119 0
110 113 0
116 119 0
109 114 0
108 113 0
110 115 0
111 115 0
91 94 0
99 99 0
110 115 0
100 101 0
103 104 0
117 119 0
116 119 0
109 112 0
110 112 0
92 93 0
112 112 0
108 109 11
103 101 0
102 102 0
93 93 0
103 102 0
111 113 0
100 101 0
99 97 0
99 96 0
107 106 0
106 103 0
105 101 0
98 97 0
101 103 0
99 92 8
108 103 0
113 112 0
119 118 0
108 110 0
116 115 0
111 108 0
113 108 0
105 103 0
117 115 0
112 110 0
125 124 0
114 113 0
113 113 0
113 111 0
127 126 11
112 112 11
120 119 0
112 113 0
112 111 0
128 129 0
122 119 11
127 129 0
127 128 11
129 130 0
119 120 11
134 134 0
127 126 11
123 123 11
129 129 11
136 138 0
131 132 0
123 126 0
136 141 0
131 131 11
137 144 11
134 136 0
141 146 11
148 155 0
145 153 0
147 152 0
151 158 0
140 143 0
142 149 0
149 155 0
142 146 0
144 150 0
154 164 0
147 153 0
151 160 0
147 154 0
150 161 0
146 152 0
155 163 0
154 162 0
152 162 0
152 163 0
155 168 0
157 168 0
154 166 0
159 174 0
156 169 0
153 167 0
159 173 0
160 173 0
164 175 0
161 173 0
161 173 0
159 172 0
157 173 0
162 174 0
160 174 0
161 178 0
163 180 0
163 178 0
162 177 0
159 173 0
157 172 0
162 177 0
160 177 0
160 176 0
161 177 0
160 175 0
162 180 0
162 177 0
160 175 0
165 183 0
162 182 0
163 181 0
166 185 0
161 178 0
168 185 0
166 185 0
166 184 0
168 185 0
163 182 0
192 212 179
190 211 173
194 214 175
192 212 169
186 207 151
186 207 142
181 204 130
178 200 108
187 208 140
183 204 137
179 201 105
181 204 122
180 202 105
179 201 95
175 199 108
177 200 80
176 198 76
179 201 84
172 197 72
173 196 88
174 199 80
173 196 51
174 198 67
176 200 95
172 196 67
175 198 72
172 196 72
176 199 67
171 196 62
170 194 76
172 196 88
172 196 76
172 197 80
173 196 72
175 198 76
170 194 57
172 196 72
174 198 62
173 197 67
172 195 84
174 197 72
174 197 76
171 194 80
174 198 80
173 197 62
173 197 80
171 195 67
173 197 57
170 193 72
173 197 62
172 197 88
171 194 72
169 193 67
172 195 80
171 194 76
171 195 80
171 194 72
171 195 95
172 195 62
173 197 80
175 198 76
176 199 57
174 196 57
170 194 62
170 193 62
175 198 72
170 194 88
176 198 88
169 193 97
155 179 97
142 167 117
133 158 117
125 151 140
90 119 149
102 129 145
91 120 141
97 125 157
109 136 162
105 131 163
99 127 159
105 132 164
103 130 160
111 136 164
103 130 164
97 125 162
110 136 174
97 125 170
105 132 163
99 127 170
98 126 166
91 121 170
105 131 176
102 129 174
93 122 172
101 129 175
86 116 172
85 116 175
81 113 172
88 118 172
87 117 174
67 102 169
87 117 178
81 112 178
79 111 170
79 110 174
73 106 173
73 106 174
78 109 170
78 109 161
77 109 174
67 101 168
63 98 159
69 103 166
64 99 158
75 107 170
74 107 171
73 105 161
62 99 168
71 103 159
69 102 149
62 98 161
63 98 158
70 103 148
62 98 160
60 96 150
61 96 150
60 96 149
60 95 150
58 93 147
62 98 162
59 95 150
60 96 154
61 96 156
59 94 147
61 95 148
60 95 153
59 95 149
63 98 155
60 96 151
59 95 147
60 95 153
62 98 155
61 96 154
60 96 148
61 96 156
60 95 153
60 95 154
62 98 158
61 96 152
60 96 154
61 97 155
61 97 157
60 96 152
61 97 157
60 96 154
59 94 144
61 97 155
61 97 152
61 96 148
61 96 150
61 96 149
60 96 144
61 97 161
61 97 150
60 95 149
61 96 154
62 98 154
61 97 152
61 96 145
61 97 155
61 96 150
61 97 155
60 96 149
61 97 153
61 96 149
60 96 151
62 97 149
62 98 158
59 95 137
61 96 148
61 97 148
61 97 155
61 97 156
61 97 151
62 98 155
62 98 159
60 95 139
61 97 156
61 96 148
61 97 154
61 97 152
62 97 154
61 96 149
62 97 157
61 96 150
62 98 157
62 97 149
61 97 149
61 96 149
62 97 150
60 96 143
62 97 156
61 97 148
61 97 148
61 97 157
60 96 148
61 97 145
61 96 151
60 95 139
63 98 154
61 96 150
62 97 151
59 94 142
62 98 149
62 97 147
61 96 145
60 96 150
61 96 144
60 95 140
61 97 148
61 96 143
60 96 139
60 95 142
62 98 154
60 96 140
61 96 152
61 96 147
60 95 140
61 96 149
61 96 151
60 96 137
61 96 145
59 94 137
61 97 145
60 94 134
61 96 143
62 97 148
61 96 142
61 96 149
61 96 147
61 96 149
60 95 134
59 94 129
60 95 136
61 96 141
61 95 141
60 94 133
59 93 139
60 95 137
58 92 134
60 94 137
59 93 131
60 94 138
58 92 132
57 91 123
60 94 131
60 91 121
74 97 94
94 111 89
97 109 54
105 113 21
111 120 0
116 124 0
114 123 0
122 129 0
110 118 0
117 125 0
105 110 0
101 109 0
116 124 0
113 119 0
110 118 0
109 114 0
102 104 0
115 120 0
119 127 0
111 115 0
113 117 0
113 116 0
119 123 0
94 94 0
107 108 0
111 113 0
106 110 0
119 124 0
99 101 0
96 97 0
112 112 0
109 110 0
105 107 0
100 99 0
108 108 11
104 104 0
103 103 0
107 106 0
119 120 0
104 102 0
108 108 0
110 112 0
98 96 0
104 102 0
114 116 0
102 101 0
110 108 0
109 106 0
114 113 0
116 117 0
107 103 0
113 111 0
123 124 0
110 112 0
116 114 0
121 124 0
111 109 0
112 111 0
115 116 0
115 114 0
114 111 0
120 121 0
111 111 0
124 126 0
123 125 11
130 130 0
118 119 0
118 119 0
112 111 0
133 131 11
125 129 0
118 118 0
125 123 0
126 127 0
124 124 0
123 126 0
133 138 0
136 139 11
133 137 0
145 151 0
132 135 0
133 138 11
139 139 11
141 144 11
144 149 0
140 143 0
149 155 0
143 149 0
143 149 0
145 154 0
145 152 0
148 156 0
152 162 0
147 155 0
149 157 0
146 156 0
148 157 0
150 160 0
147 154 0
153 164 0
151 159 0
154 162 0
154 165 0
152 163 0
156 166 0
159 171 0
154 165 0
151 161 0
155 167 0
154 165 0
157 167 0
155 168 0
161 175 0
160 175 0
161 173 0
163 178 0
155 168 0
165 182 0
163 181 0
162 175 0
159 175 0
159 171 0
160 176 0
159 175 0
163 177 0
165 181 0
163 180 0
157 173 0
162 178 0
162 179 0
163 179 0
164 179 0
164 181 0
164 180 0
169 184 0
162 178 0
165 183 0
165 183 0
167 185 0
165 182 0
162 179 0
170 189 0
160 179 0
190 210 165
190 211 155
185 207 137
184 205 137
185 205 128
178 200 102
182 204 111
181 203 114
180 203 114
180 202 105
177 200 99
175 197 88
175 198 88
176 199 95
177 200 108
175 199 84
173 196 57
174 198 80
172 196 67
172 195 62
176 199 57
173 197 62
177 200 102
172 196 67
177 200 72
174 198 95
174 198 76
173 196 76
175 199 88
176 199 67
171 195 57
174 197 57
170 194 67
172 196 84
174 198 67
172 196 67
171 195 51
170 195 76
174 197 84
174 198 84
173 197 72
171 195 88
176 200 76
174 196 62
173 197 88
173 196 57
172 195 62
172 196 84
172 195 62
173 197 84
171 195 62
172 197 76
172 196 62
172 196 76
175 199 62
173 197 67
172 196 80
173 197 67
173 196 72
173 197 76
171 195 72
172 196 80
173 196 62
173 197 67
171 195 62
173 197 88
172 195 62
170 194 60
168 190 60
167 190 82
157 181 113
142 165 113
124 150 133
112 138 133
92 121 145
99 127 155
101 129 150
96 124 150
93 122 159
99 126 160
88 117 151
97 125 160
102 129 157
101 129 158
100 127 158
93 122 164
110 136 163
100 127 170
84 114 149
93 121 154
98 127 169
85 115 168
87 118 174
86 116 167
89 119 164
93 122 168
77 109 164
93 122 170
96 125 172
92 121 174
87 117 174
85 115 175
86 116 179
78 110 178
83 114 176
79 111 175
73 106 174
74 107 177
74 107 167
71 105 164
70 103 162
79 109 170
71 104 164
76 108 168
65 100 154
67 101 159
66 99 156
70 103 163
60 95 149
70 103 159
60 95 151
63 98 153
64 99 162
63 98 158
59 95 155
59 94 150
62 96 154
59 94 146
59 95 148
59 94 144
61 96 145
60 96 153
61 97 156
60 95 151
61 96 151
61 96 158
59 94 145
60 95 142
60 96 151
60 96 158
59 94 147
59 94 149
61 96 151
60 95 152
60 96 150
59 95 141
61 96 150
61 97 163
60 96 155
61 97 154
60 96 150
62 97 156
60 96 153
60 95 147
61 97 153
59 94 147
60 96 149
61 97 152
60 95 147
60 95 146
60 95 141
61 96 153
60 95 144
60 95 142
61 96 147
62 97 156
61 97 153
61 97 157
61 96 141
60 96 155
60 96 148
61 97 157
60 95 143
60 96 145
62 98 155
61 97 152
61 96 148
62 97 150
60 96 155
61 97 151
62 98 159
61 97 154
61 96 149
61 97 148
62 97 160
60 96 153
61 97 155
60 95 142
62 97 153
62 98 157
62 97 152
61 97 147
61 96 152
61 97 155
61 96 147
61 96 147
61 95 148
60 95 141
61 97 152
61 96 145
62 98 155
62 97 154
61 97 154
60 95 144
62 98 158
61 97 147
62 97 157
61 96 145
62 98 156
61 96 150
62 97 153
62 97 154
62 97 152
61 96 144
61 96 142
60 95 136
61 96 142
60 96 143
61 96 145
62 98 155
61 96 148
61 96 141
61 96 145
61 97 153
60 96 143
60 96 144
62 97 154
61 96 150
61 96 149
61 97 151
62 97 148
59 94 141
61 96 143
60 94 130
61 96 147
61 96 147
62 97 158
60 95 142
60 95 144
59 94 129
62 97 149
60 95 136
61 96 143
59 94 136
60 95 141
59 94 124
58 92 128
60 94 141
60 94 140
60 94 130
59 93 134
60 95 140
59 93 134
59 94 128
58 92 130
61 95 138
64 96 129
91 111 98
97 112 71
108 118 40
106 116 0
108 115 0
109 117 0
105 112 0
120 128 0
106 111 0
111 118 0
108 115 0
113 121 0
119 123 0
108 116 0
120 127 0
116 122 0
114 114 0
115 121 0
115 120 0
108 111 0
112 117 0
110 117 0
114 119 0
114 120 0
104 112 0
113 118 0
110 115 0
111 112 0
111 113 0
106 108 0
106 110 0
113 112 0
112 110 0
104 105 0
108 109 0
108 111 0
112 116 0
108 109 0
104 105 0
105 106 0
110 108 0
102 101 0
107 107 0
104 105 0
111 113 0
100 97 0
115 115 0
112 109 0
110 113 0
110 108 0
111 108 0
107 107 0
126 130 0
115 116 0
111 111 0
123 124 0
113 113 0
122 123 11
117 114 0
117 116 0
130 129 0
124 123 11
121 122 0
127 127 0
115 119 0
119 121 0
115 111 0
120 120 0
121 120 0
122 118 0
138 142 11
131 133 11
124 125 0
123 125 0
123 124 0
132 135 0
133 138 0
136 141 0
128 130 0
139 144 0
140 145 0
142 148 0
131 135 0
138 143 0
142 147 0
142 149 0
141 147 0
145 151 0
154 164 0
151 156 0
154 165 0
148 159 0
149 158 0
148 156 0
151 159 0
154 164 0
149 157 0
151 163 0
150 157 0
150 159 0
146 155 0
146 154 0
148 160 0
154 166 0
158 171 0
153 163 0
161 174 0
159 172 0
160 173 0
154 167 0
157 170 0
156 171 0
157 170 0
157 174 0
154 165 0
158 167 0
157 170 0
157 171 0
159 174 0
161 175 0
158 172 0
166 184 0
161 176 0
164 180 0
161 175 0
159 173 0
163 181 0
160 175 0
159 176 0
162 179 0
162 177 0
164 180 0
161 176 0
164 183 0
165 179 0
166 181 0
164 182 0
166 183 0
167 186 0
167 184 0
163 179 0
170 189 0
161 180 0
190 211 159
184 205 140
182 204 120
179 202 117
184 206 135
180 203 108
179 201 105
177 200 105
180 202 95
176 198 84
175 198 88
178 201 88
175 198 72
175 199 88
173 197 76
174 198 67
170 194 57
173 197 72
175 199 80
171 194 67
176 199 84
174 198 57
172 195 36
174 197 76
172 196 80
174 197 72
171 196 72
174 198 67
172 196 80
174 198 67
173 197 76
174 197 88
174 198 72
175 199 99
172 196 67
175 198 72
172 195 67
171 195 72
174 197 67
174 198 72
170 193 67
174 198 105
178 202 95
171 195 57
169 193 62
171 195 76
170 194 57
175 198 67
171 195 72
175 199 67
171 195 84
175 198 67
173 197 92
172 195 88
173 197 76
173 197 102
173 197 76
172 196 76
173 197 84
170 194 72
175 198 80
177 199 80
170 194 72
170 193 76
166 189 51
171 194 84
172 196 76
173 195 62
167 190 90
162 186 100
157 181 104
146 170 134
138 162 117
116 141 148
102 129 141
94 123 149
91 120 149
102 130 150
102 130 162
99 127 147
95 124 155
94 123 145
93 121 142
101 129 156
100 128 161
105 132 161
104 132 158
103 130 161
101 128 173
92 121 165
97 125 163
92 121 158
92 121 161
98 126 173
84 114 160
90 119 172
97 125 173
93 121 162
98 126 170
85 115 172
92 120 170
89 118 181
81 112 171
77 109 174
84 115 170
69 103 175
76 108 166
67 101 162
78 109 174
77 108 168
78 110 171
62 98 165
73 105 163
70 104 165
66 101 161
66 100 164
70 103 167
68 102 161
71 104 166
67 100 159
69 102 155
63 97 149
68 102 156
63 97 155
60 96 157
64 99 158
59 94 144
59 94 143
65 98 148
60 96 152
59 94 141
59 94 147
60 96 149
62 97 152
59 94 143
60 95 148
62 96 146
61 97 154
60 95 147
60 95 149
60 95 147
61 97 145
62 97 158
61 96 151
61 97 150
60 95 149
60 96 155
62 97 154
61 97 152
61 96 145
60 96 154
60 95 149
59 94 147
60 96 156
61 96 157
60 96 145
61 97 151
61 97 150
61 97 156
60 96 153
62 98 158
62 97 152
61 96 147
59 95 152
61 96 147
62 98 160
60 95 150
61 96 147
60 95 144
59 95 142
61 96 148
61 97 149
61 96 154
61 96 150
60 96 150
61 97 154
62 97 154
60 95 143
62 97 154
61 96 149
61 97 157
62 97 158
60 96 147
60 96 149
61 97 155
60 95 143
61 97 151
61 97 152
62 98 160
61 97 150
61 96 147
61 97 151
60 95 145
60 95 143
60 95 145
61 96 144
61 96 148
62 97 154
61 96 151
61 97 152
61 96 149
62 97 153
60 96 143
60 96 142
61 97 147
61 97 148
61 96 149
61 97 153
61 97 157
60 95 145
61 96 145
61 97 151
62 97 157
62 97 152
61 96 148
61 96 147
62 97 152
61 96 147
60 95 137
60 96 148
62 98 152
59 94 137
61 96 143
62 97 148
61 97 149
62 97 142
61 96 143
60 95 145
60 95 144
61 96 136
60 95 143
60 95 136
61 96 144
61 96 137
61 96 145
61 96 140
60 95 133
61 97 145
61 96 149
61 95 135
61 95 137
59 94 131
61 95 143
60 95 135
60 94 140
59 93 129
60 94 134
59 94 134
59 93 134
59 93 128
61 95 131
59 93 126
59 93 129
59 94 128
59 92 132
61 95 130
66 93 120
96 116 101
92 104 65
111 120 36
130 140 0
119 126 0
113 119 0
123 131 0
114 120 0
104 111 0
106 116 0
129 137 0
111 119 0
123 131 0
112 117 0
102 108 0
111 115 0
122 126 0
117 124 0
117 123 0
110 115 0
109 111 0
104 109 0
110 115 0
120 124 0
117 120 0
116 124 0
108 116 0
117 119 0
111 114 0
103 107 0
115 117 0
114 116 0
106 107 0
112 114 0
114 113 0
112 115 0
110 112 0
100 102 0
107 108 0
116 118 0
119 118 0
108 109 0
108 109 0
114 116 0
114 117 0
109 111 0
118 120 0
112 111 0
100 101 0
115 115 0
109 109 0
118 119 0
124 128 0
108 108 0
111 110 0
113 112 0
118 120 0
123 125 0
121 123 0
128 129 0
126 124 0
125 124 0
110 110 0
134 135 0
123 124 0
121 122 0
126 129 0
123 125 0
115 117 0
124 126 0
131 137 0
124 126 0
131 133 0
135 140 0
135 139 0
124 128 0
143 147 0
136 139 0
137 141 0
139 143 11
135 139 0
142 149 0
144 151 0
140 145 0
144 150 0
145 151 0
142 148 0
144 152 0
144 151 0
142 149 0
151 157 0
150 158 0
148 157 0
138 145 0
148 157 0
154 164 0
153 162 0
152 163 0
153 162 0
153 164 0
157 167 0
150 161 0
151 160 0
155 166 0
154 164 0
153 163 0
157 170 0
158 170 0
156 168 0
152 163 0
154 167 0
154 166 0
157 169 0
155 167 0
160 174 0
156 169 0
160 174 0
164 178 0
159 174 0
161 176 0
159 173 0
159 176 0
159 175 0
162 179 0
158 171 0
158 170 0
163 177 0
163 179 0
161 177 0
160 175 0
160 176 0
164 180 0
162 178 0
162 178 0
164 180 0
167 183 0
167 184 0
162 178 0
164 181 0
164 180 0
162 179 0
165 183 0
161 180 0
181 203 122
184 206 122
182 204 130
183 204 120
179 201 102
180 203 120
177 199 99
177 200 88
174 197 105
173 197 92
173 197 62
177 200 99
175 199 57
174 197 88
171 195 76
172 196 67
173 196 62
172 196 57
173 197 72
170 194 76
175 198 67
174 198 62
173 197 80
172 197 80
172 196 72
176 199 88
172 195 72
175 199 99
173 197 62
173 197 72
172 196 88
171 195 72
174 198 84
173 197 67
173 197 67
174 197 72
174 198 80
171 195 80
175 199 80
173 197 80
172 196 72
172 197 88
174 198 62
172 196 84
174 198 88
171 195 62
169 193 51
170 194 76
171 195 84
173 197 62
170 193 72
172 195 72
171 194 72
168 193 72
170 193 67
169 193 72
170 193 57
177 199 84
172 195 51
170 195 57
171 194 62
171 195 72
168 191 51
171 194 62
172 195 76
172 196 95
177 201 99
168 192 84
167 191 72
160 184 80
160 184 105
135 159 102
136 161 131
127 153 128
100 129 150
100 128 153
100 127 147
93 121 154
98 125 150
91 120 151
96 124 144
101 128 157
91 119 151
105 132 158
99 125 150
93 122 157
89 118 150
99 127 157
93 122 161
102 130 161
97 125 167
102 129 159
102 129 165
95 123 165
89 118 162
97 126 166
96 125 178
84 115 169
85 115 167
92 121 170
86 116 164
89 119 175
85 115 171
77 109 166
86 116 176
80 111 172
76 108 171
78 110 173
70 104 173
79 110 175
71 105 168
73 106 173
74 107 168
68 102 162
74 107 172
76 107 159
66 100 164
64 99 161
65 100 162
61 97 163
70 103 160
73 105 159
61 96 154
64 99 162
61 95 141
60 96 151
63 97 153
60 94 148
62 97 149
60 96 154
62 97 143
59 94 142
59 94 144
65 99 152
60 94 145
61 96 148
61 97 155
64 98 147
62 97 158
60 95 149
62 97 151
61 97 156
60 95 151
60 95 152
61 97 154
61 97 159
61 97 152
61 97 155
61 97 155
61 97 151
61 96 149
60 95 142
61 97 158
60 95 151
61 96 151
59 94 143
61 96 155
61 97 149
61 97 151
61 96 148
61 97 156
61 96 149
60 95 150
60 96 145
61 96 150
60 95 139
61 96 153
61 97 149
61 97 153
60 96 144
61 97 153
61 97 155
61 96 155
62 98 157
61 97 153
61 97 150
60 96 142
61 97 151
62 97 152
61 96 142
62 97 153
61 97 152
61 97 153
61 96 152
61 97 152
62 97 154
61 97 153
62 98 154
62 97 155
61 97 152
62 97 160
61 96 148
61 97 152
60 95 142
61 97 157
61 96 144
61 96 150
61 97 148
61 96 149
61 96 145
62 98 152
62 97 152
61 97 158
62 97 151
61 97 153
60 96 144
61 97 152
61 97 149
60 96 145
61 97 149
61 96 148
61 97 143
61 96 144
61 96 147
61 96 144
61 97 148
60 95 139
61 96 143
61 96 147
61 96 143
61 96 141
60 96 148
60 95 143
60 96 144
61 96 147
61 96 142
61 96 140
61 96 155
61 96 145
60 95 142
61 96 145
61 96 137
62 97 150
60 94 141
60 95 139
60 95 144
60 95 140
59 93 130
60 95 142
60 95 140
59 93 133
60 95 136
61 96 139
60 95 143
60 95 130
60 94 130
61 95 142
59 93 130
60 95 140
59 94 128
59 92 128
59 93 141
59 93 126
58 92 118
59 92 124
64 94 124
76 99 106
84 99 67
107 117 44
114 123 25
109 117 0
118 130 0
123 134 0
116 125 0
113 122 0
122 131 0
120 128 0
114 123 0
110 115 0
117 125 0
119 127 0
121 130 0
122 128 0
114 121 0
112 115 0
118 123 0
112 121 0
117 122 0
108 112 0
114 119 0
107 113 0
122 127 0
112 113 0
119 126 0
111 116 0
111 114 0
106 109 0
119 123 0
119 124 0
110 115 0
111 114 0
114 117 0
111 115 0
110 113 0
116 119 0
111 116 0
107 107 0
116 118 0
115 115 0
108 107 0
118 119 0
115 116 0
120 123 0
99 98 0
118 119 0
124 125 0
119 118 0
107 108 0
117 120 0
123 124 0
109 111 0
115 114 0
130 132 0
106 105 0
116 117 0
126 128 0
115 118 0
115 117 0
129 132 0
132 136 0
133 135 0
121 124 0
128 132 0
125 124 0
133 136 0
128 127 0
125 127 11
137 138 0
139 142 0
139 142 0
133 138 0
134 135 0
140 144 0
133 136 0
140 144 0
143 150 0
135 139 0
137 142 0
145 151 0
147 155 0
135 140 0
146 155 0
135 137 0
143 150 0
148 156 0
148 156 0
153 162 0
146 155 0
144 149 0
145 154 0
149 156 0
151 159 0
156 167 0
149 158 0
149 156 0
152 161 0
153 164 0
152 163 0
155 165 0
149 159 0
154 165 0
152 164 0
156 167 0
157 170 0
158 173 0
152 163 0
157 169 0
154 166 0
163 176 0
155 168 0
162 177 0
157 172 0
155 169 0
156 169 0
159 172 0
161 177 0
158 172 0
159 172 0
164 178 0
162 178 0
163 181 0
163 178 0
160 175 0
165 183 0
164 179 0
162 177 0
156 170 0
164 180 0
161 177 0
160 175 0
168 186 0
164 181 0
164 181 0
162 180 0
166 185 0
163 182 0
162 179 0
166 187 0
166 184 0
160 177 0
178 201 102
184 206 137
178 201 102
179 202 117
179 201 84
178 200 92
179 201 88
175 198 88
174 197 72
174 197 67
177 201 102
173 197 62
170 194 62
173 198 88
170 193 44
172 196 72
171 195 67
166 190 36
172 196 72
174 198 57
176 199 80
175 198 67
170 194 80
171 195 67
171 195 72
175 199 76
173 197 62
172 195 57
172 196 62
171 195 76
175 198 88
172 196 76
174 197 72
171 194 51
171 194 76
173 197 67
170 193 51
171 194 57
172 196 84
174 199 108
175 199 92
172 195 84
173 197 84
173 196 72
168 192 80
172 195 67
172 195 72
173 196 51
171 194 72
171 195 62
170 194 72
167 190 57
170 192 57
174 197 62
173 196 51
169 192 72
164 188 67
169 193 80
171 193 67
170 194 57
172 196 62
173 197 72
171 194 80
173 197 72
173 196 84
173 196 57
171 195 92
169 191 67
171 194 72
168 192 88
159 183 80
156 180 102
133 158 115
112 138 129
107 134 134
94 123 156
91 119 150
100 126 137
101 128 156
104 131 144
89 118 149
103 130 153
94 122 156
103 131 152
98 126 150
91 119 144
96 125 154
101 128 160
99 127 150
88 117 148
81 112 150
102 130 157
98 126 163
98 126 163
108 135 165
89 119 169
84 115 163
94 123 166
91 120 164
89 119 176
77 109 169
96 124 169
88 118 175
84 114 178
88 117 163
75 108 175
84 114 165
87 116 165
71 104 163
84 115 174
76 108 170
68 102 171
83 113 171
71 104 169
71 104 166
68 102 163
72 105 170
67 101 162
73 105 164
66 99 150
64 98 153
61 97 155
62 96 152
70 102 157
65 99 157
63 98 153
61 96 147
62 97 149
67 100 138
62 98 150
60 95 143
60 95 149
60 96 153
60 96 151
62 97 144
60 95 155
63 98 153
59 95 148
60 95 149
61 97 157
60 95 148
60 95 151
59 94 140
61 96 142
60 95 146
61 96 155
60 95 145
61 96 156
59 94 145
59 95 153
59 94 146
61 97 151
59 95 145
60 95 145
60 95 147
61 97 153
58 93 136
61 97 158
61 97 155
61 97 155
60 96 148
60 96 148
60 95 150
61 97 151
60 96 153
61 97 152
59 94 148
61 97 151
61 97 153
62 97 154
62 97 155
62 98 159
61 96 149
61 97 150
62 97 155
61 97 151
62 98 152
60 96 147
61 96 151
61 96 148
62 98 156
61 96 153
62 98 152
61 96 147
61 97 154
61 97 149
60 96 147
62 97 152
61 97 151
62 98 158
61 97 150
60 96 151
61 97 150
61 96 142
62 97 151
62 97 147
61 97 145
61 96 145
61 97 148
61 96 143
62 97 150
61 97 153
60 96 150
61 96 149
62 98 154
61 96 144
62 97 154
62 97 151
61 96 144
61 96 142
61 96 149
61 96 143
61 97 144
60 96 148
61 96 148
62 97 147
61 97 148
61 96 147
61 97 147
61 96 142
61 96 149
60 95 140
62 97 150
61 95 137
62 97 147
61 97 143
60 94 141
62 97 143
60 95 134
60 95 137
62 97 152
60 96 141
61 96 142
62 97 148
61 96 144
58 92 128
60 95 144
59 93 130
60 94 135
61 96 144
60 95 142
60 95 133
60 95 136
60 94 134
60 95 136
60 95 148
58 92 131
58 92 129
58 92 120
58 92 124
59 93 125
60 94 130
58 90 120
57 90 113
59 92 132
71 96 113
78 101 110
95 110 78
116 127 31
114 124 18
114 126 0
118 126 0
118 127 0
118 128 0
120 128 0
105 112 0
118 124 0
115 121 0
108 117 0
116 126 0
115 123 0
111 116 0
114 117 0
116 124 0
120 127 0
109 116 0
113 116 0
116 122 0
125 133 0
112 119 0
117 121 0
125 130 0
113 117 0
117 125 0
121 129 0
99 102 0
116 121 0
128 133 0
111 113 0
121 127 0
104 106 0
113 118 0
121 125 0
117 125 0
122 125 0
100 101 0
109 112 0
112 116 0
116 118 0
103 105 0
123 128 0
124 126 0
112 114 0
109 110 0
116 118 0
105 106 0
116 118 0
114 116 0
115 116 0
112 112 0
119 121 0
114 115 0
122 125 0
130 130 0
119 123 0
136 141 0
118 117 0
122 126 0
124 126 0
126 126 0
127 128 0
124 127 0
134 135 0
134 138 0
138 144 0
136 139 0
131 134 0
133 135 0
139 145 0
129 133 0
136 142 0
141 148 0
136 141 0
141 149 0
140 144 0
138 143 0
133 137 0
150 158 0
142 147 0
140 146 0
147 155 0
145 151 0
141 150 0
144 151 0
146 153 0
145 151 0
146 153 0
150 158 0
153 161 0
149 160 0
149 157 0
150 162 0
145 153 0
155 166 0
152 162 0
148 157 0
153 162 0
152 164 0
147 157 0
156 169 0
155 167 0
148 159 0
155 168 0
151 163 0
158 174 0
150 161 0
160 175 0
154 166 0
158 171 0
159 173 0
160 173 0
156 173 0
158 170 0
160 173 0
162 177 0
162 175 0
163 179 0
158 173 0
160 175 0
164 180 0
159 174 0
162 179 0
161 175 0
162 179 0
160 175 0
162 179 0
161 179 0
167 184 0
162 180 0
165 182 0
164 181 0
166 184 0
166 186 0
163 179 0
163 179 0
167 185 0
167 186 0
167 185 0
167 185 0
162 180 0
180 203 120
178 200 99
178 201 108
177 199 102
175 198 57
179 201 88
177 200 99
175 198 57
174 198 105
176 199 76
175 199 92
174 197 67
174 198 76
176 198 76
175 198 80
175 198 105
172 196 44
173 197 76
173 197 67
177 200 102
172 195 67
173 197 76
175 198 72
173 196 84
175 198 80
171 196 80
176 199 67
173 197 57
173 196 62
170 193 51
172 195 72
170 194 67
171 196 80
171 196 67
173 196 67
171 194 72
174 197 80
174 198 76
167 191 67
173 196 67
173 197 84
170 193 62
169 193 57
171 195 84
171 195 67
171 195 51
170 194 72
171 194 76
174 199 99
170 193 67
171 194 76
167 191 67
170 194 76
171 195 80
174 198 95
167 191 72
172 195 57
173 196 72
169 192 76
169 192 88
171 194 67
172 196 80
171 196 62
168 192 84
168 191 51
167 191 51
170 194 72
169 192 51
171 195 76
172 195 95
165 188 97
150 173 99
153 177 107
133 157 111
111 137 134
95 124 147
91 119 143
98 126 155
89 118 147
104 131 160
112 138 143
95 123 141
96 124 146
89 118 145
98 126 156
102 129 151
105 132 165
96 124 157
95 124 167
94 123 159
101 128 145
99 127 162
100 128 157
90 119 166
96 123 157
87 117 164
90 119 168
91 120 156
93 122 172
92 121 171
82 112 167
78 109 155
87 117 159
83 113 160
90 120 173
71 104 166
85 115 169
82 113 175
73 106 164
70 104 167
71 105 175
74 106 168
82 112 175
61 97 166
68 101 167
75 106 164
77 109 171
68 102 161
64 98 157
64 98 159
62 97 149
71 104 155
69 102 161
67 101 159
66 100 153
63 98 155
60 95 146
66 99 152
59 94 148
58 93 148
62 97 148
58 93 138
59 94 139
63 98 148
60 95 151
62 96 141
58 93 136
61 96 139
62 97 151
59 95 143
60 95 146
61 95 141
59 94 145
60 96 147
61 96 151
62 97 153
61 96 145
61 97 159
60 95 150
61 96 151
61 97 156
60 95 149
60 95 137
60 96 151
62 97 151
60 95 149
60 96 152
60 95 141
60 96 152
61 96 150
61 96 148
60 95 139
61 96 150
61 96 151
60 95 142
61 97 149
61 97 151
61 97 150
62 98 155
61 96 151
61 97 153
60 95 139
61 97 156
60 95 148
62 97 148
60 96 150
61 97 155
61 96 151
59 94 147
61 97 155
61 96 148
61 96 150
60 95 145
62 97 157
60 96 148
62 98 155
60 95 145
61 97 150
61 96 148
61 97 147
61 96 143
61 96 150
61 97 159
61 97 151
61 96 147
61 96 142
61 97 151
60 95 147
61 96 148
62 97 154
60 95 136
61 96 151
60 95 144
62 98 160
61 96 145
61 96 147
62 98 151
61 96 148
60 95 137
61 97 144
61 97 149
60 95 145
61 96 145
61 95 145
59 94 135
61 96 153
60 95 145
61 96 145
61 96 145
61 97 149
61 96 144
59 94 133
60 96 149
61 96 145
62 97 148
62 97 148
60 94 136
61 95 141
61 96 144
61 96 141
60 95 139
60 95 143
61 97 151
60 95 142
61 96 142
59 93 125
61 96 150
60 95 137
60 94 139
60 95 140
60 95 131
61 95 135
60 95 139
61 95 136
60 95 142
59 94 131
60 94 129
59 92 129
60 94 140
58 92 122
60 94 131
60 95 132
59 92 123
59 92 128
61 94 124
77 102 117
86 104 89
100 115 65
120 133 18
124 133 0
134 143 0
121 129 0
118 126 0
127 138 0
113 117 0
116 123 0
118 126 0
111 119 0
116 123 0
115 122 0
116 126 0
121 130 0
129 137 0
118 122 0
119 127 0
109 116 0
109 114 0
115 120 0
125 131 0
116 123 0
114 119 0
102 110 0
103 107 0
118 121 0
104 108 0
118 126 0
115 117 0
120 123 0
118 121 0
115 119 0
113 119 0
115 116 0
120 125 0
116 118 0
106 108 0
115 118 0
113 115 0
118 123 0
121 125 0
111 117 0
113 118 0
118 122 0
115 117 0
115 117 0
119 119 0
122 122 0
114 117 0
115 120 0
120 122 0
122 124 0
112 113 0
113 116 0
118 120 0
130 134 0
132 135 0
117 120 0
126 129 0
124 126 0
123 124 0
120 123 0
136 139 0
136 139 0
129 133 0
129 134 0
129 130 0
144 149 0
141 144 0
134 136 0
137 143 0
138 142 0
128 130 0
143 151 0
145 148 0
141 151 0
143 150 0
140 144 0
146 154 0
145 151 0
132 138 0
141 147 0
152 160 0
147 159 0
139 145 0
144 152 0
147 154 0
153 161 0
154 161 0
149 158 0
156 164 0
151 159 0
156 166 0
149 158 0
148 156 0
153 162 0
150 159 0
144 152 0
155 167 0
158 169 0
153 164 0
154 167 0
156 170 0
156 169 0
153 164 0
152 162 0
155 170 0
159 172 0
153 164 0
160 173 0
155 167 0
161 175 0
158 171 0
156 169 0
154 167 0
160 173 0
152 164 0
160 177 0
145 155 0
165 178 0
162 178 0
161 178 0
161 177 0
160 175 0
159 175 0
156 172 0
161 176 0
162 178 0
162 179 0
159 174 0
161 178 0
162 179 0
164 181 0
163 179 0
161 178 0
165 183 0
165 183 0
163 179 0
163 181 0
163 179 0
166 185 0
164 182 0
182 204 108
176 199 84
174 198 76
175 198 102
176 199 76
176 199 88
171 195 80
173 197 76
173 197 62
172 196 72
171 194 51
175 199 72
175 199 80
174 197 62
172 197 67
172 196 67
172 196 80
173 196 62
173 196 72
171 195 76
173 198 62
172 196 62
172 196 84
172 195 51
172 197 92
172 197 72
171 195 80
171 194 76
172 196 62
171 195 80
174 198 62
169 193 67
174 198 92
170 194 76
171 196 76
171 195 57
171 195 62
170 194 72
171 195 88
173 196 44
171 195 80
173 197 72
171 195 84
170 194 76
167 191 84
173 196 67
169 194 76
171 195 80
167 190 80
166 190 80
172 197 72
172 196 76
171 195 92
170 195 76
170 194 67
170 194 92
171 195 67
174 197 92
172 196 92
173 197 67
169 192 80
174 197 92
172 196 88
171 195 80
170 194 62
171 194 72
171 195 76
172 195 72
171 195 62
171 195 76
162 185 47
152 175 80
146 171 100
125 150 126
113 139 129
96 125 142
84 113 144
91 119 145
98 126 147
87 116 128
90 120 157
94 123 156
100 127 157
82 112 148
89 117 143
95 122 141
101 129 154
97 124 148
91 119 154
107 134 161
93 121 154
99 126 149
98 125 161
90 119 162
96 123 155
99 126 162
95 123 173
93 121 158
93 121 155
93 122 160
94 123 168
85 115 160
82 113 165
90 119 168
77 109 166
84 115 169
78 109 169
81 112 172
78 109 173
72 105 163
77 109 171
81 112 175
87 116 177
71 104 166
64 99 162
74 106 165
68 101 157
71 104 166
77 108 171
76 107 164
75 107 161
74 106 165
67 100 158
65 100 159
64 99 155
64 98 148
62 96 149
61 97 156
60 95 148
59 94 145
60 95 149
61 96 152
63 98 156
60 95 152
60 95 150
59 94 145
62 96 142
63 97 152
63 98 148
60 95 143
58 93 137
60 95 137
61 96 148
60 96 151
61 97 151
60 96 150
61 96 154
62 98 157
60 96 151
61 97 147
61 97 152
59 95 144
60 95 142
60 96 152
61 97 151
60 95 137
61 97 152
60 96 151
61 96 150
61 96 151
61 96 148
60 96 152
62 97 154
60 95 144
61 96 154
59 95 144
61 97 156
59 94 145
61 96 153
60 95 147
61 96 148
60 96 147
61 97 153
61 96 153
60 96 152
62 98 157
61 97 150
60 96 147
61 97 151
61 97 149
60 95 145
61 97 145
61 97 145
61 97 149
61 96 147
59 94 139
60 96 143
63 99 159
60 95 144
61 96 148
61 97 150
62 97 150
60 96 149
62 97 152
62 97 153
61 97 147
61 96 149
61 96 142
61 96 146
62 98 153
61 96 152
60 96 139
60 95 145
59 94 137
60 96 148
60 96 140
61 96 149
59 94 122
60 95 145
61 96 145
60 96 142
62 97 151
61 96 150
61 96 145
59 93 130
61 96 139
61 95 136
60 94 133
61 96 150
59 93 130
59 94 134
60 95 139
61 96 141
61 96 141
60 96 140
61 96 143
61 97 153
60 95 139
60 95 139
60 94 140
60 95 140
60 95 140
60 96 145
60 95 145
60 95 139
59 94 135
60 95 137
61 96 148
61 96 139
59 94 133
59 93 125
60 95 134
60 95 134
60 94 136
60 95 141
61 95 143
61 96 144
59 93 130
59 93 120
59 93 135
60 94 140
60 95 138
58 91 120
58 91 123
60 93 118
72 95 78
107 124 74
109 122 54
121 131 0
122 131 0
116 124 0
113 123 0
120 128 0
117 125 0
119 126 0
119 126 0
115 123 0
113 121 0
116 126 0
124 132 0
122 129 0
115 122 0
120 130 0
119 124 0
115 121 0
101 105 0
121 128 0
122 132 0
117 127 0
126 131 0
124 133 0
114 118 0
106 109 0
114 120 0
123 128 0
120 125 0
124 128 0
116 118 0
121 126 0
120 125 0
112 119 0
116 120 0
117 121 0
110 114 0
109 112 0
119 121 0
101 103 0
111 113 0
115 116 0
107 111 0
117 122 0
117 121 0
116 120 0
122 123 0
118 121 0
115 118 0
114 113 0
116 118 0
127 129 0
120 123 0
128 131 0
120 124 0
125 130 0
124 128 0
126 126 0
124 130 0
126 129 0
127 133 0
117 117 0
133 136 0
127 133 0
140 143 0
139 145 0
133 139 0
137 140 0
130 135 0
133 140 0
141 144 0
133 138 0
134 137 0
131 135 0
142 146 0
144 148 0
136 141 0
138 147 0
139 145 0
141 145 0
145 153 0
143 149 0
142 148 0
143 152 0
145 153 0
146 154 0
147 155 0
155 164 0
146 153 0
145 154 0
153 163 0
153 162 0
148 156 0
149 160 0
155 165 0
153 163 0
148 155 0
147 156 0
158 170 0
145 154 0
154 167 0
153 166 0
154 164 0
156 169 0
156 167 0
157 169 0
157 170 0
156 171 0
159 173 0
156 168 0
149 159 0
164 178 0
161 176 0
156 170 0
153 163 0
162 179 0
159 173 0
161 175 0
158 173 0
162 177 0
159 174 0
162 175 0
163 178 0
160 174 0
157 173 0
159 174 0
158 173 0
164 181 0
163 179 0
162 179 0
162 178 0
158 176 0
165 181 0
166 181 0
165 183 0
163 181 0
159 175 0
161 178 0
165 184 0
163 182 0
161 177 0
164 181 0
163 181 0
178 200 88
176 199 92
177 200 84
172 196 76
177 200 80
176 199 72
170 194 76
174 198 62
171 193 36
173 196 80
170 194 62
175 199 84
171 195 80
169 193 92
172 195 57
176 199 80
176 199 88
171 195 72
173 196 88
172 196 72
172 195 62
174 198 84
174 198 88
173 196 80
173 197 76
173 196 62
173 198 84
170 194 76
173 197 72
174 196 67
173 197 76
170 193 57
170 195 76
172 197 62
173 197 67
174 198 76
171 196 67
174 198 76
168 192 72
172 196 88
171 194 44
169 194 84
169 193 51
171 195 62
175 199 84
170 194 72
172 196 67
173 196 76
170 195 76
173 196 95
172 195 92
174 197 67
169 193 67
172 195 80
173 196 62
173 196 67
171 194 72
169 193 76
169 193 44
172 195 84
165 188 72
166 190 62
169 193 67
171 195 88
170 193 84
172 196 84
167 190 57
173 196 72
162 187 51
171 195 76
170 194 100
164 189 90
153 177 95
138 162 107
123 147 121
103 129 130
87 115 133
87 116 146
99 127 154
98 127 156
96 124 149
94 123 155
100 127 142
88 117 153
89 118 158
95 123 155
105 132 155
85 115 157
87 116 149
103 130 148
106 133 156
97 124 144
102 128 144
88 118 155
95 123 165
89 119 165
102 129 159
91 120 154
98 126 163
83 113 157
86 116 162
93 121 158
93 122 157
84 114 154
84 114 163
76 108 166
90 118 164
87 117 171
87 116 165
83 113 176
75 107 170
74 107 171
66 101 167
77 108 170
65 100 168
64 98 165
77 108 168
68 102 165
71 104 165
68 102 164
67 101 161
67 100 154
62 97 155
76 107 166
63 97 153
63 97 150
62 96 141
65 99 145
59 94 143
60 95 153
59 94 149
63 98 153
60 95 150
59 94 141
59 94 136
60 95 146
60 95 158
60 95 152
60 96 150
60 95 153
57 92 132
59 94 148
60 95 145
60 96 149
59 94 143
60 95 147
60 95 145
61 96 155
60 95 147
60 96 144
59 94 148
60 96 149
61 97 154
60 96 150
60 96 150
61 97 148
59 94 138
59 95 144
61 97 153
59 95 143
62 98 155
62 97 144
62 97 150
61 96 149
60 95 145
62 97 151
60 96 150
61 96 145
61 96 150
60 96 151
61 96 147
60 96 154
62 98 157
61 97 148
60 95 153
61 96 139
60 95 138
61 97 153
60 95 136
61 96 148
61 96 156
60 95 145
59 94 141
60 95 144
62 97 152
62 97 153
60 96 148
62 97 151
61 96 144
61 97 149
61 96 147
61 96 144
61 96 144
60 96 143
60 95 145
60 96 144
60 95 136
61 96 149
62 97 148
60 95 139
60 94 136
60 96 149
61 96 141
61 96 150
59 95 136
61 96 143
60 95 135
61 97 148
62 97 150
61 97 148
61 96 144
61 96 142
61 96 145
61 96 142
61 96 147
60 95 145
62 97 156
61 97 145
60 95 142
59 94 142
60 95 148
60 96 147
61 95 144
59 94 126
60 94 137
61 96 140
60 94 134
61 96 144
59 93 125
60 95 137
61 97 151
60 95 135
60 94 139
61 96 141
60 95 134
59 94 126
61 96 142
60 95 136
59 94 131
60 94 126
59 93 134
60 95 131
59 93 129
58 91 125
59 94 122
60 95 128
60 95 135
59 93 121
61 95 135
59 93 125
58 91 124
59 92 128
59 93 120
59 92 121
82 107 105
88 107 76
103 117 49
114 123 8
116 127 0
118 127 0
125 137 0
119 130 0
110 120 0
121 132 0
128 140 0
117 126 0
115 123 0
124 135 0
112 120 0
116 124 0
121 131 0
124 131 0
102 109 0
119 130 0
125 132 0
116 122 0
113 120 0
111 117 0
117 125 0
115 123 0
118 125 0
123 127 0
118 124 0
113 119 0
122 130 0
120 124 0
125 131 0
119 123 0
128 136 0
124 131 0
119 123 0
113 119 0
123 129 0
119 124 0
121 127 0
122 127 0
123 127 0
110 115 0
117 121 0
105 107 0
124 130 0
123 128 0
123 126 0
140 146 0
122 127 0
125 129 0
122 125 0
130 134 0
121 126 0
126 128 0
119 123 0
126 127 0
134 139 0
120 124 0
138 143 0
122 124 0
125 126 0
126 131 0
134 138 0
134 139 0
135 140 0
129 135 0
137 143 0
138 142 0
124 130 0
134 141 0
137 139 0
138 142 0
135 140 0
136 143 0
136 142 0
141 144 0
141 147 0
149 157 0
151 161 0
135 140 0
135 141 0
136 141 0
142 150 0
143 152 0
150 157 0
147 153 0
144 152 0
142 150 0
148 157 0
150 157 0
141 147 0
147 158 0
154 164 0
148 159 0
149 158 0
156 165 0
148 158 0
150 161 0
154 165 0
152 160 0
156 166 0
152 161 0
155 167 0
153 162 0
159 172 0
161 175 0
163 177 0
157 170 0
160 172 0
158 171 0
156 167 0
161 174 0
158 170 0
155 168 0
155 167 0
156 169 0
155 167 0
155 168 0
163 179 0
164 180 0
164 182 0
163 177 0
161 176 0
162 177 0
162 175 0
160 175 0
156 172 0
164 179 0
161 178 0
159 172 0
166 181 0
160 174 0
162 181 0
165 181 0
159 175 0
163 180 0
163 180 0
167 183 0
161 178 0
163 182 0
158 176 0
165 182 0
167 187 0
169 187 0
176 198 62
173 197 51
174 197 62
174 197 57
175 198 57
172 196 57
176 199 76
174 197 67
175 199 57
174 197 72
174 198 67
172 196 51
171 195 67
173 197 92
171 196 51
173 196 57
173 195 67
170 194 84
173 198 80
174 197 72
171 195 95
174 198 80
173 197 76
170 194 76
169 192 76
174 196 62
174 198 76
170 193 67
168 192 80
170 194 80
175 199 76
171 196 72
171 194 76
168 191 62
172 196 80
166 190 67
171 195 67
172 196 62
174 199 95
172 196 84
169 193 67
175 199 84
169 192 57
171 196 88
171 195 80
168 192 92
168 192 72
166 190 57
170 194 62
171 195 80
170 193 36
173 197 62
170 193 51
174 198 72
169 192 44
169 192 44
170 194 67
172 197 99
166 189 67
168 190 62
173 196 80
167 191 84
164 187 57
166 190 72
169 193 67
172 195 80
168 191 62
165 188 76
168 192 57
171 195 92
172 196 76
166 189 95
155 178 90
141 164 92
124 149 121
113 138 129
100 128 157
84 113 139
81 111 138
95 123 147
100 127 159
109 136 154
87 116 145
88 117 148
87 116 145
96 124 150
103 130 151
97 125 163
90 118 140
105 132 164
89 117 139
93 121 156
99 127 158
97 124 151
91 119 152
94 122 171
87 116 148
81 111 160
89 118 163
96 124 157
90 119 163
87 116 166
97 124 160
80 111 156
97 125 174
88 117 172
80 111 164
84 114 171
84 114 168
78 110 166
82 113 169
79 110 168
91 119 175
74 107 172
72 105 165
68 102 168
74 106 165
68 102 164
79 110 164
81 111 170
63 98 154
67 101 162
65 99 139
69 102 154
70 102 154
64 99 154
64 98 154
59 94 147
62 97 144
60 95 149
61 96 143
59 94 143
60 95 148
65 99 146
61 96 149
64 98 141
59 94 144
59 94 139
59 95 150
61 96 145
61 96 150
58 93 138
60 96 149
61 96 148
60 95 144
59 93 141
59 93 144
60 95 141
60 96 149
59 94 141
59 95 144
60 95 147
60 95 148
60 95 149
60 95 145
60 95 147
59 94 144
61 97 155
59 94 143
61 96 151
60 96 145
61 97 154
61 97 149
60 95 136
61 97 152
60 96 144
60 95 145
60 96 143
59 94 141
60 95 144
62 97 152
60 96 147
61 96 152
61 97 158
60 96 149
61 96 143
61 96 140
62 97 150
60 96 151
62 97 151
60 95 141
61 97 154
60 95 148
61 97 145
60 95 139
62 98 158
61 96 145
61 96 142
60 96 145
60 95 140
62 97 155
60 95 142
61 97 149
61 96 151
60 96 141
61 96 145
60 96 140
60 94 137
61 96 143
60 95 144
60 96 144
60 95 141
61 96 144
61 97 154
62 98 153
59 93 143
60 96 144
62 98 152
61 97 148
61 97 149
60 95 141
61 97 150
60 95 143
60 95 139
60 95 142
61 96 142
60 95 135
61 97 151
60 95 135
61 96 147
60 95 135
61 96 144
61 96 148
61 96 147
61 96 134
59 93 128
60 95 141
61 96 140
61 97 150
61 96 136
60 94 140
60 95 142
59 94 129
60 94 131
60 95 135
61 95 137
61 96 141
60 95 144
60 94 137
61 95 137
60 94 126
60 95 140
60 94 124
58 92 130
60 94 128
59 93 126
60 94 129
58 92 125
58 92 126
60 94 124
58 92 125
57 90 113
58 91 120
67 95 111
82 102 99
93 110 72
103 116 51
111 125 25
115 128 0
114 124 0
123 134 0
119 130 0
114 124 0
119 129 0
123 132 0
121 131 0
129 138 0
117 127 0
115 124 0
111 120 0
113 121 0
116 123 0
118 124 0
117 125 0
121 131 0
128 140 0
119 128 0
116 122 0
135 139 0
112 115 0
121 125 0
106 111 0
117 122 0
116 122 0
128 134 0
110 117 0
109 113 0
114 121 0
117 124 0
126 131 0
124 131 0
112 117 0
119 125 0
124 127 0
112 116 0
117 123 0
123 128 0
127 137 0
110 114 0
113 118 0
114 113 0
118 120 0
127 134 0
123 129 0
130 137 0
122 128 0
129 133 0
127 131 0
130 139 0
125 129 0
111 113 0
127 131 0
130 134 0
122 126 0
131 137 0
131 137 0
135 140 0
132 135 0
132 138 0
132 136 0
134 138 0
142 146 0
137 143 0
141 148 0
138 143 0
142 147 0
145 151 0
137 141 0
130 136 0
143 150 0
138 140 0
132 137 0
140 148 0
148 157 0
138 145 0
136 140 0
134 140 0
144 152 0
148 157 0
138 147 0
137 146 0
150 159 0
146 155 0
137 146 0
138 146 0
146 153 0
144 153 0
146 154 0
141 151 0
147 155 0
149 160 0
148 157 0
148 160 0
150 159 0
155 167 0
142 152 0
152 167 0
155 167 0
158 174 0
154 165 0
153 164 0
156 168 0
157 170 0
154 165 0
152 165 0
155 167 0
158 168 0
153 165 0
153 166 0
150 159 0
156 170 0
161 176 0
154 166 0
151 165 0
155 170 0
162 178 0
163 180 0
162 178 0
162 179 0
160 174 0
162 181 0
162 178 0
166 183 0
167 184 0
160 178 0
163 180 0
158 174 0
161 176 0
162 180 0
166 182 0
161 178 0
162 180 0
162 179 0
164 180 0
162 179 0
170 187 0
160 177 0
169 187 0
169 187 0
162 180 0
176 199 72
171 195 57
175 199 76
174 197 76
176 199 67
173 197 72
173 198 76
175 198 72
172 195 57
169 194 88
173 198 84
173 196 57
173 196 76
176 199 62
169 192 72
174 198 92
172 195 67
169 193 76
168 192 84
172 195 84
170 194 84
175 199 99
169 194 72
174 198 84
173 198 76
174 198 84
172 197 57
172 195 84
173 197 84
171 195 62
171 194 76
169 192 67
173 196 57
171 195 57
172 196 84
173 197 80
169 193 62
173 198 84
172 196 92
170 194 62
165 189 67
171 194 57
164 188 57
171 196 84
173 196 51
168 191 72
172 196 72
168 192 57
168 192 80
168 193 80
169 193 36
172 195 57
172 196 76
169 193 72
165 190 80
169 193 76
170 193 67
172 196 76
169 192 72
169 192 72
174 197 62
171 193 72
174 198 92
169 192 67
171 194 57
168 191 67
168 192 62
168 191 84
170 193 76
173 197 99
173 197 84
161 184 67
155 178 74
149 171 92
130 154 111
113 139 121
111 138 140
91 120 151
82 112 144
102 129 138
95 122 143
85 114 138
93 121 151
98 126 153
93 120 145
94 122 162
100 128 147
96 124 147
99 127 152
89 117 148
94 122 157
102 129 152
108 134 156
105 132 159
99 127 163
89 117 142
98 125 157
101 128 161
90 119 153
88 117 154
94 122 157
81 112 163
97 125 168
97 125 165
83 114 159
96 124 158
91 120 162
78 108 169
73 106 160
83 114 169
82 113 168
70 104 163
80 110 167
69 103 164
76 107 163
69 103 166
67 101 160
70 103 162
73 105 166
70 103 163
62 97 152
66 99 164
76 108 163
64 98 155
61 97 154
66 99 154
60 96 157
69 101 143
62 97 151
66 99 142
61 96 154
60 95 149
59 94 150
58 92 142
62 96 144
59 93 142
60 95 147
59 94 135
58 93 141
62 96 148
61 97 154
60 95 144
62 96 143
60 95 144
59 94 143
60 96 152
61 96 150
60 95 150
60 95 141
60 95 147
62 97 150
61 96 142
60 95 145
60 96 149
60 96 143
60 95 144
60 95 148
60 95 142
60 96 155
60 95 138
61 96 155
62 97 151
61 96 150
62 97 157
60 95 141
61 96 147
60 96 149
62 98 152
60 95 146
59 94 141
61 96 147
61 96 141
59 95 146
61 96 148
60 96 149
62 97 151
62 97 151
61 96 150
61 96 149
61 96 142
62 97 153
61 97 143
61 96 143
59 94 139
61 96 148
60 95 137
61 96 144
61 96 142
61 97 150
61 96 147
61 96 144
61 96 149
61 96 142
60 95 148
60 95 139
61 96 144
60 95 144
61 96 147
60 95 144
60 95 143
61 96 150
62 97 148
61 96 140
61 96 144
60 95 137
60 96 148
60 95 144
62 97 148
61 96 141
61 96 144
61 96 139
60 95 143
61 97 149
61 96 148
61 96 140
61 96 142
60 95 140
60 95 131
60 95 141
60 94 131
61 96 137
60 95 140
61 96 140
62 97 150
61 96 136
60 95 135
61 97 150
59 94 130
61 95 142
60 96 140
58 93 130
60 95 135
59 93 129
60 95 143
60 94 135
60 95 139
61 95 141
59 93 128
60 95 135
61 95 141
61 96 142
59 93 124
59 93 128
59 93 129
59 94 130
59 93 126
61 95 136
58 92 122
58 92 128
58 91 126
57 90 118
59 92 124
63 94 111
78 103 102
98 117 82
101 120 76
117 129 36
121 132 0
116 128 0
126 137 0
113 121 0
126 136 0
137 146 0
126 136 0
116 126 0
116 127 0
119 129 0
130 142 0
126 134 0
127 136 0
118 124 0
116 122 0
123 132 0
116 123 0
119 128 0
124 132 0
120 131 0
114 122 0
122 131 0
122 131 0
116 124 0
123 131 0
109 117 0
119 126 0
113 120 0
109 117 0
116 124 0
116 120 0
117 123 0
108 114 0
113 118 0
122 129 0
114 120 0
123 127 0
124 130 0
112 121 0
123 128 0
122 125 0
122 127 0
129 132 0
124 127 0
136 142 0
117 119 0
133 139 0
128 135 0
129 135 0
125 130 0
127 132 0
127 133 0
131 137 0
125 127 0
125 131 0
131 136 0
136 140 0
124 128 0
128 133 0
127 133 0
127 132 0
138 143 0
132 141 0
142 147 0
136 143 0
143 150 0
135 142 0
127 129 0
141 145 0
134 139 0
133 140 0
138 143 0
140 146 0
132 137 0
142 148 0
139 146 0
133 136 0
143 151 0
143 149 0
143 151 0
142 150 0
143 150 0
142 151 0
140 148 0
144 153 0
146 154 0
148 158 0
157 170 0
147 155 0
158 171 0
145 152 0
152 163 0
153 162 0
154 163 0
145 155 0
148 159 0
147 159 0
153 163 0
150 161 0
154 166 0
147 158 0
153 162 0
157 169 0
154 165 0
156 169 0
150 163 0
149 161 0
156 170 0
161 176 0
147 160 0
156 169 0
161 174 0
156 168 0
157 172 0
156 171 0
164 178 0
159 171 0
161 179 0
160 176 0
161 177 0
163 179 0
158 172 0
160 177 0
164 179 0
162 177 0
164 182 0
163 176 0
161 177 0
161 177 0
160 178 0
162 179 0
160 176 0
163 181 0
166 184 0
160 178 0
166 184 0
160 177 0
165 182 0
166 183 0
160 179 0
162 179 0
164 183 0
165 184 0
173 197 72
172 196 57
173 197 80
172 196 72
177 200 72
175 198 76
171 195 72
171 194 84
172 196 67
174 198 80
173 197 84
173 197 88
171 195 67
175 198 72
170 194 84
174 198 84
171 196 67
173 196 92
171 196 72
171 195 72
172 196 72
173 198 72
171 195 57
170 193 67
171 194 57
173 198 80
170 194 84
172 197 84
172 197 84
171 195 80
170 194 62
171 196 72
168 193 76
168 192 76
170 194 84
172 196 67
171 195 72
169 193 84
170 194 72
170 194 84
169 193 76
170 194 57
174 198 84
171 195 80
171 195 84
172 195 76
166 189 62
167 191 51
168 192 51
169 193 76
172 195 62
163 187 51
168 192 92
174 197 72
165 189 57
168 191 67
171 194 102
170 193 76
169 192 84
166 190 67
170 192 57
168 191 62
170 194 72
169 192 72
166 189 84
170 194 80
167 191 51
168 192 51
165 189 76
169 193 84
164 187 62
163 187 76
158 181 62
155 177 94
134 159 110
128 152 110
118 144 134
96 123 145
91 120 139
103 129 154
92 120 140
94 122 145
96 123 146
90 118 137
89 119 161
94 122 141
90 118 150
94 122 140
94 122 143
97 124 137
102 129 150
97 125 155
99 127 157
94 123 149
98 125 152
97 125 153
93 121 145
96 124 162
96 123 157
83 112 159
84 114 155
90 119 162
91 120 155
84 114 160
89 118 168
93 121 168
85 115 161
84 114 165
80 111 159
86 116 165
79 110 165
76 108 158
72 105 168
83 113 170
71 104 170
75 107 162
64 99 162
61 97 155
70 102 151
76 107 161
70 104 163
70 103 155
63 98 163
67 101 158
64 98 150
65 99 152
65 98 151
66 99 143
64 97 145
62 97 151
60 95 151
61 96 150
62 96 145
59 94 143
60 95 149
62 97 146
60 95 144
62 97 149
59 95 145
60 95 147
66 100 148
62 96 139
60 96 147
60 95 145
59 94 141
60 95 149
60 95 148
60 95 146
61 96 143
61 96 137
60 95 143
60 95 137
61 96 151
59 95 149
59 94 144
59 94 144
61 97 153
60 95 148
60 95 145
60 95 140
62 97 149
60 95 141
61 97 149
60 95 150
61 96 153
61 96 147
59 94 138
62 97 149
61 97 151
60 95 136
61 96 148
61 97 147
60 96 147
60 96 149
62 97 156
60 95 143
61 97 155
61 96 150
60 95 135
61 96 147
61 97 145
61 96 151
60 95 141
61 96 147
60 95 143
62 98 157
61 96 147
60 95 142
60 95 143
61 96 148
60 95 139
61 96 141
61 97 149
60 95 139
60 95 141
61 96 147
60 95 146
61 96 141
61 96 147
60 94 139
60 95 141
60 96 145
60 95 145
61 97 151
60 96 142
61 97 151
61 97 156
61 96 145
60 95 137
62 98 151
61 96 144
61 96 139
61 96 147
60 95 141
60 95 142
60 95 141
60 95 141
61 96 140
61 96 148
61 96 141
60 94 135
60 95 144
60 94 133
61 96 142
61 96 135
61 95 141
60 95 136
61 96 139
59 94 137
60 95 134
61 95 136
60 95 142
61 96 141
60 94 129
60 95 136
60 94 133
60 94 134
60 94 131
59 93 135
59 93 129
60 94 134
58 92 125
62 96 144
59 93 137
58 92 130
59 92 125
58 91 121
59 93 121
58 92 133
59 93 123
59 92 128
59 92 123
69 97 111
86 105 99
97 113 79
106 121 57
118 130 18
120 130 0
112 122 0
120 131 0
121 131 0
116 126 0
112 124 0
112 123 0
120 130 0
127 139 0
116 127 0
113 122 0
122 134 0
115 125 0
123 129 0
123 133 0
125 136 0
109 119 0
115 125 0
128 136 0
131 140 0
119 129 0
114 124 0
112 120 0
117 124 0
119 125 0
124 133 0
121 128 0
124 131 0
121 126 0
125 132 0
124 132 0
128 138 0
125 131 0
118 124 0
113 117 0
120 125 0
116 121 0
119 128 0
117 121 0
121 128 0
120 127 0
121 127 0
126 131 0
123 129 0
128 134 0
118 122 0
126 131 0
133 140 0
128 134 0
126 128 0
127 131 0
124 128 0
122 126 0
127 133 0
134 141 0
123 129 0
140 144 0
130 136 0
129 134 0
125 131 0
127 132 0
135 141 0
137 144 0
137 144 0
129 134 0
140 147 0
129 134 0
138 144 0
137 142 0
138 145 0
143 150 0
138 145 0
139 145 0
141 149 0
148 158 0
148 154 0
139 143 0
142 150 0
143 149 0
129 132 0
142 150 0
150 160 0
145 152 0
146 154 0
153 159 0
151 161 0
143 152 0
142 151 0
153 163 0
151 162 0
144 151 0
149 159 0
150 159 0
149 157 0
153 164 0
150 160 0
154 165 0
151 161 0
157 167 0
148 158 0
155 165 0
156 168 0
154 167 0
156 166 0
157 169 0
155 167 0
157 170 0
157 172 0
150 163 0
155 168 0
155 169 0
162 175 0
153 168 0
160 173 0
163 179 0
160 174 0
157 171 0
162 176 0
159 173 0
156 169 0
165 180 0
157 174 0
156 171 0
161 177 0
158 173 0
160 179 0
156 170 0
159 175 0
160 175 0
165 183 0
162 180 0
163 181 0
163 182 0
164 181 0
161 178 0
159 177 0
164 183 0
164 181 0
164 180 0
161 179 0
165 184 0
163 181 0
166 185 0
173 196 62
172 196 80
176 198 67
172 196 76
173 198 72
171 195 80
176 199 84
174 197 62
172 196 80
171 195 80
174 197 76
169 193 62
172 195 67
170 194 67
172 195 62
172 195 36
171 196 76
170 194 44
170 194 72
177 200 88
171 194 67
167 192 84
174 197 67
170 194 76
171 194 84
173 197 76
171 195 88
168 192 57
173 196 80
173 197 62
172 197 76
173 197 80
171 195 62
172 195 44
170 194 67
173 198 92
171 195 84
168 192 67
168 192 80
170 194 57
167 191 67
166 190 84
169 193 62
170 194 76
167 192 76
174 197 72
167 192 76
172 195 62
172 196 51
170 193 72
171 194 72
166 190 72
171 195 84
167 191 62
170 194 80
165 188 76
172 196 84
168 192 51
171 194 67
168 192 84
170 194 80
167 191 67
166 190 88
167 191 51
172 195 62
168 192 62
171 194 62
171 194 102
169 192 76
168 191 102
169 192 67
164 187 76
162 185 65
162 185 99
160 183 105
136 161 99
131 155 142
101 127 129
103 130 152
93 122 153
85 115 144
92 121 143
91 119 149
89 118 152
86 115 154
92 120 150
102 129 150
100 128 155
91 120 155
86 115 147
96 123 137
95 123 157
96 124 156
108 134 158
94 122 150
100 127 154
100 128 163
86 115 143
92 120 151
96 124 152
85 114 149
83 112 144
90 117 142
81 111 156
89 118 167
92 121 168
84 114 158
89 118 165
84 113 163
82 113 167
90 119 173
70 104 160
79 110 165
63 98 161
87 117 175
86 116 174
75 106 153
67 101 160
72 104 162
68 102 159
78 108 156
69 101 160
68 101 162
66 99 151
68 101 153
60 95 151
64 98 151
69 101 153
67 99 145
59 95 151
60 95 151
64 98 152
62 96 147
63 97 133
62 97 149
59 93 139
59 94 143
61 96 151
60 95 153
59 95 149
60 95 143
60 95 143
62 96 143
61 96 147
60 95 145
58 93 136
60 95 144
60 95 151
59 95 149
60 96 148
59 94 142
60 95 143
59 94 139
60 96 150
61 96 149
60 95 142
60 96 149
61 95 136
61 96 148
60 95 143
60 96 141
60 95 140
60 96 144
59 94 136
60 95 134
61 96 148
61 96 144
61 96 141
61 96 154
60 96 144
61 96 147
61 97 154
60 95 146
60 96 145
60 95 136
62 98 153
62 97 150
61 96 149
60 95 147
61 96 145
61 96 141
60 95 147
61 97 153
61 96 142
61 96 145
59 94 133
60 95 143
60 95 140
61 96 150
61 96 150
61 97 154
61 97 149
61 97 145
60 95 144
60 95 139
60 95 140
60 96 148
61 97 147
61 96 155
60 95 139
60 95 143
61 96 142
61 96 147
61 96 148
62 98 151
61 97 147
60 95 148
61 95 143
59 94 135
61 95 140
61 96 143
60 96 142
61 96 147
60 94 139
60 95 140
60 95 143
60 95 140
62 97 150
60 95 143
61 96 145
61 97 145
60 95 136
58 92 125
59 94 134
61 96 139
61 95 143
59 94 137
59 94 122
60 95 131
60 95 136
60 96 139
61 97 149
61 96 140
60 95 140
61 95 137
61 96 145
60 95 135
60 95 131
59 94 135
61 95 130
60 94 133
59 93 130
59 93 135
58 91 123
61 96 139
59 93 130
59 93 132
60 94 128
60 94 135
58 92 125
57 90 114
59 91 108
82 106 82
86 107 80
95 112 58
117 130 40
127 139 0
124 135 0
119 131 0
118 129 0
108 118 0
121 132 0
108 118 0
129 141 0
118 129 0
118 126 0
125 137 0
122 134 0
120 130 0
108 115 0
117 128 0
114 123 0
121 133 0
122 130 0
119 124 0
119 125 0
131 140 0
122 133 0
127 138 0
123 133 0
124 132 0
118 124 0
118 126 0
116 124 0
123 127 0
121 127 0
110 116 0
123 131 0
121 127 0
133 138 0
130 135 0
121 127 0
132 142 0
129 134 0
118 125 0
134 139 0
124 133 0
127 135 0
128 133 0
119 127 0
125 132 0
125 131 0
128 135 0
123 130 0
128 132 0
126 131 0
132 139 0
132 142 0
131 137 0
134 141 0
129 134 0
133 139 0
127 132 0
130 136 0
129 135 0
128 132 0
137 143 0
135 142 0
125 129 0
128 132 0
140 147 0
138 144 0
138 144 0
136 140 0
135 144 0
145 155 0
141 147 0
139 146 0
147 155 0
137 145 0
144 153 0
141 150 0
151 162 0
147 155 0
145 154 0
149 158 0
136 142 0
152 162 0
143 154 0
149 159 0
145 154 0
145 154 0
142 149 0
152 162 0
155 164 0
143 153 0
154 161 0
150 160 0
155 166 0
148 160 0
145 155 0
149 158 0
146 156 0
160 173 0
158 170 0
150 160 0
150 159 0
159 172 0
164 177 0
156 168 0
155 167 0
161 174 0
155 167 0
156 168 0
155 167 0
158 172 0
156 166 0
157 173 0
160 175 0
156 170 0
156 170 0
155 169 0
155 171 0
160 174 0
161 178 0
162 177 0
159 174 0
162 176 0
164 180 0
164 181 0
166 183 0
162 180 0
159 175 0
162 180 0
161 175 0
156 174 0
158 174 0
158 173 0
167 184 0
166 183 0
164 180 0
165 182 0
163 182 0
163 180 0
164 181 0
162 177 0
165 183 0
167 185 0
159 177 0
163 180 0
171 195 67
174 197 62
170 194 67
175 198 62
174 197 72
172 195 51
172 196 76
171 194 44
175 198 76
173 196 62
168 192 67
173 196 84
171 194 84
174 198 88
174 198 67
174 198 67
173 195 67
173 197 80
172 196 72
170 194 57
170 194 57
174 198 76
170 194 92
175 198 80
172 196 80
173 198 88
168 191 57
174 197 44
168 193 72
169 193 80
168 192 80
172 196 95
169 193 72
169 193 76
172 196 76
170 195 84
173 197 62
168 191 67
169 194 57
172 196 88
167 192 88
171 195 76
167 192 88
170 194 72
165 188 57
168 191 62
166 189 57
170 194 76
168 191 72
167 191 44
171 194 80
174 198 67
168 191 57
163 187 51
167 191 57
169 193 76
166 190 80
163 188 72
167 191 92
171 193 44
168 193 72
168 191 57
164 188 76
164 187 62
166 188 62
167 191 72
169 193 99
164 188 72
167 190 84
164 187 51
162 185 84
169 192 67
166 189 57
159 182 88
159 182 105
148 171 113
122 147 125
103 131 136
89 118 141
99 127 144
97 125 149
100 127 148
100 127 137
94 122 150
98 125 147
77 107 139
86 115 142
89 118 138
105 131 157
93 121 150
106 133 162
89 119 153
106 133 155
92 119 144
100 128 150
90 118 144
91 119 152
93 121 151
107 133 158
103 130 154
89 118 157
102 128 145
93 121 157
79 111 154
86 116 165
81 112 164
101 128 167
91 120 158
87 116 171
82 112 153
77 108 159
74 107 166
90 119 159
66 101 161
74 106 169
74 107 165
76 108 174
78 109 163
75 107 168
79 110 168
71 104 165
64 98 154
71 104 157
66 100 156
66 100 153
68 102 161
64 98 154
66 99 146
60 96 156
68 101 154
61 96 148
62 96 149
62 97 154
60 95 147
59 94 139
62 96 141
60 95 147
58 93 140
59 94 139
62 96 139
62 96 145
62 96 151
59 94 138
60 95 144
59 94 148
59 94 140
60 95 139
59 93 137
60 96 145
60 95 148
60 95 148
59 93 138
60 95 145
60 96 143
60 95 145
61 97 153
61 96 140
61 97 147
59 94 140
60 96 149
61 97 147
60 95 142
60 96 147
61 97 152
60 95 152
62 98 152
60 94 139
61 96 147
61 97 151
61 96 149
60 95 144
60 94 144
61 97 144
60 95 144
60 95 140
61 97 150
60 96 143
60 95 145
60 95 140
60 95 141
60 95 135
61 96 144
60 94 140
60 95 137
61 96 149
61 96 148
60 95 149
60 95 134
61 97 150
61 96 149
60 95 135
60 95 136
61 97 155
62 98 149
61 96 148
61 96 141
60 95 139
62 98 155
60 95 137
61 96 139
62 97 145
61 96 144
62 97 150
60 94 126
62 97 145
61 96 147
60 95 141
61 97 147
60 94 133
60 95 142
61 96 144
61 95 137
59 94 133
60 94 133
61 96 145
61 96 142
60 95 144
61 96 140
61 96 144
59 93 128
62 97 144
61 96 147
60 95 135
59 94 131
59 93 129
60 95 137
61 96 149
60 94 133
61 96 147
60 95 141
59 94 130
60 95 139
61 95 144
60 93 134
60 94 137
59 93 130
61 95 136
60 95 131
59 93 118
59 93 130
58 91 122
58 92 124
59 94 130
60 95 134
58 92 122
60 93 130
59 93 126
59 93 121
58 91 124
57 91 125
57 90 112
62 93 104
89 110 90
114 129 57
111 126 45
111 122 18
114 126 0
112 126 0
120 134 0
112 121 0
122 132 0
119 128 0
117 128 0
118 127 0
120 129 0
119 130 0
112 122 0
117 127 0
122 135 0
118 125 0
124 136 0
122 133 0
120 127 0
122 131 0
113 122 0
127 138 0
119 127 0
122 127 0
121 132 0
117 124 0
116 124 0
132 142 0
115 123 0
119 129 0
130 138 0
120 130 0
115 123 0
122 128 0
116 121 0
128 136 0
131 136 0
135 144 0
123 130 0
132 140 0
131 140 0
126 134 0
125 129 0
129 137 0
121 128 0
123 130 0
127 134 0
129 137 0
135 143 0
133 138 0
141 150 0
132 140 0
131 139 0
125 133 0
131 137 0
127 134 0
135 142 0
130 135 0
136 143 0
137 142 0
135 143 0
135 140 0
132 136 0
131 137 0
135 140 0
137 145 0
139 147 0
134 138 0
127 133 0
131 142 0
132 139 0
139 147 0
144 152 0
141 149 0
143 153 0
134 142 0
143 152 0
141 146 0
141 147 0
141 151 0
139 151 0
147 157 0
149 156 0
145 154 0
142 149 0
146 156 0
147 157 0
143 153 0
142 150 0
143 152 0
147 158 0
149 158 0
148 159 0
147 157 0
156 165 0
152 163 0
149 161 0
144 156 0
149 160 0
156 167 0
155 166 0
154 166 0
159 174 0
158 170 0
162 178 0
154 167 0
150 163 0
155 168 0
157 168 0
153 166 0
155 168 0
157 169 0
155 168 0
154 170 0
159 172 0
161 175 0
160 173 0
163 178 0
160 175 0
152 165 0
166 183 0
161 176 0
159 173 0
153 166 0
164 180 0
165 180 0
162 179 0
162 180 0
165 182 0
161 178 0
162 178 0
163 181 0
161 177 0
165 182 0
161 175 0
162 180 0
164 181 0
165 183 0
164 183 0
164 182 0
161 178 0
162 179 0
162 178 0
161 179 0
165 183 0
163 180 0
171 195 25
170 195 67
173 197 57
173 197 62
175 199 84
175 199 80
173 197 76
170 195 57
174 198 57
170 194 72
174 198 67
171 195 72
173 198 67
168 192 62
170 194 57
175 199 88
171 194 51
169 193 67
169 193 84
171 196 84
171 195 72
173 196 72
167 191 51
170 194 72
173 197 92
172 195 62
172 196 76
172 197 102
171 194 76
167 191 57
171 196 80
177 199 88
171 195 88
170 195 99
168 192 57
168 192 72
168 192 76
168 192 67
169 193 84
169 192 67
167 191 80
171 195 62
173 197 95
171 194 62
169 192 36
172 196 76
170 194 57
167 191 88
172 195 67
168 192 72
170 194 67
165 188 51
163 187 62
168 191 62
172 196 72
166 189 51
169 193 76
170 193 62
167 191 57
171 195 67
169 192 80
163 186 76
163 188 80
169 192 80
168 192 80
169 192 92
164 187 67
170 193 62
171 195 95
170 194 92
169 191 62
165 189 80
165 188 62
164 188 88
166 189 88
156 179 84
132 157 110
114 139 102
97 125 128
94 122 146
87 116 134
91 119 140
93 121 145
96 124 149
86 114 144
84 112 147
96 124 156
97 124 144
92 120 160
99 126 148
92 120 147
84 112 132
99 125 147
91 118 143
99 127 162
87 115 147
78 109 147
92 119 150
91 120 143
77 108 149
87 116 151
87 117 156
97 124 153
87 115 156
88 117 157
96 123 163
94 122 162
80 111 161
79 109 163
69 102 150
85 115 163
93 121 160
69 103 161
68 102 160
83 113 161
75 107 167
83 113 165
70 104 162
65 100 159
72 104 163
74 106 167
66 100 157
71 104 159
73 105 159
68 102 148
65 100 160
62 97 163
66 99 142
72 103 155
62 96 153
61 95 146
64 97 144
64 98 145
61 96 145
60 96 151
62 97 150
59 94 149
60 94 145
59 93 136
62 96 131
64 97 135
60 94 131
60 95 141
60 96 149
60 94 145
58 93 143
58 92 134
59 94 140
59 94 140
59 94 147
59 93 133
59 93 134
60 95 143
61 96 144
60 95 138
60 95 139
61 96 148
61 96 145
61 96 152
62 97 154
59 94 141
62 98 157
59 94 136
60 95 139
61 97 153
60 95 141
60 96 151
61 97 149
61 96 147
61 96 142
61 97 150
60 95 139
61 96 148
61 96 143
61 97 148
61 96 151
61 96 155
62 97 147
60 95 136
61 96 149
60 96 150
60 96 143
60 95 142
61 96 152
60 95 142
61 97 148
59 94 139
60 95 143
61 96 150
60 95 135
61 96 147
61 96 140
60 95 142
60 95 142
61 97 153
60 94 134
60 94 142
61 97 149
62 97 150
60 95 143
60 95 149
60 94 137
60 95 135
60 95 134
61 97 150
61 97 145
61 97 145
61 95 136
60 95 131
62 97 144
61 96 140
61 96 149
61 96 144
60 95 135
60 95 135
62 97 144
61 96 136
61 96 137
61 95 136
61 96 140
60 94 136
61 96 139
61 96 139
61 96 136
61 95 135
61 95 136
60 95 135
60 94 125
60 95 136
60 95 139
60 94 139
59 93 134
60 95 131
61 95 142
59 93 121
62 96 142
60 94 132
57 90 131
60 94 134
59 93 124
60 94 133
59 93 133
59 92 126
61 96 149
59 93 132
58 92 125
57 91 114
58 92 124
59 93 126
57 90 103
66 95 116
77 102 103
95 112 80
104 120 57
111 125 31
122 134 0
127 141 0
108 120 0
117 127 0
127 140 0
128 140 0
117 128 0
116 126 0
120 132 0
129 140 0
119 128 0
120 132 0
126 137 0
115 129 0
119 130 0
116 126 0
127 138 0
124 135 0
120 131 0
117 127 0
112 119 0
122 133 0
121 130 0
116 121 0
124 132 0
128 138 0
125 134 0
123 133 0
126 135 0
132 142 0
128 134 0
129 139 0
136 147 0
133 142 0
123 130 0
129 137 0
111 120 0
128 134 0
124 131 0
127 136 0
128 134 0
117 125 0
129 136 0
123 129 0
131 138 0
136 142 0
117 122 0
135 142 0
131 138 0
123 128 0
131 140 0
131 138 0
135 142 0
130 138 0
119 125 0
131 139 0
129 136 0
141 147 0
133 140 0
135 143 0
127 133 0
140 150 0
128 135 0
140 147 0
135 141 0
127 130 0
139 148 0
127 134 0
139 149 0
139 148 0
141 149 0
136 144 0
145 154 0
133 140 0
138 144 0
140 151 0
140 147 0
142 151 0
147 156 0
145 153 0
143 153 0
148 161 0
140 150 0
151 162 0
148 160 0
144 153 0
141 152 0
147 156 0
156 165 0
155 168 0
152 164 0
155 163 0
152 163 0
142 152 0
143 152 0
150 161 0
153 163 0
154 166 0
150 164 0
153 164 0
153 164 0
153 164 0
156 169 0
157 167 0
157 172 0
155 170 0
152 166 0
156 170 0
156 168 0
162 174 0
160 176 0
160 173 0
150 163 0
157 171 0
152 165 0
155 168 0
158 172 0
157 172 0
154 169 0
163 178 0
164 182 0
159 176 0
161 176 0
162 178 0
162 177 0
160 174 0
157 176 0
160 174 0
162 179 0
156 171 0
157 175 0
160 176 0
161 177 0
158 174 0
161 178 0
164 180 0
165 183 0
167 185 0
162 178 0
163 183 0
166 186 0
165 182 0
168 185 0
165 184 0
165 184 0
177 201 92
173 197 80
177 200 80
171 195 62
172 196 80
173 196 76
175 199 84
170 195 84
172 196 62
176 199 84
173 197 67
174 198 57
174 197 80
169 193 72
169 194 84
171 195 84
167 192 92
173 198 76
170 194 72
170 194 80
170 194 80
168 192 51
172 196 72
173 197 72
172 195 72
168 191 72
172 196 72
169 193 62
172 195 72
168 192 62
170 194 80
170 195 84
170 193 62
173 197 62
173 197 67
168 192 67
170 194 36
169 193 76
172 196 76
172 196 80
168 192 80
168 192 67
173 196 76
168 192 57
170 195 80
167 191 76
168 192 67
168 192 72
169 192 72
173 196 62
168 192 80
169 192 80
171 195 84
168 192 67
162 185 67
169 193 72
166 191 57
169 193 92
165 189 57
164 187 51
170 194 76
165 188 51
168 192 72
163 187 67
170 193 72
166 190 76
164 187 72
161 185 76
167 190 72
165 187 57
168 191 84
168 191 84
164 186 51
165 189 57
161 185 80
158 181 82
139 162 104
115 140 121
109 135 124
97 123 136
87 117 144
92 120 131
84 113 143
97 125 141
96 123 151
99 126 150
105 130 137
87 117 159
90 118 140
98 124 142
100 127 143
97 124 146
92 120 157
95 122 150
99 126 154
99 126 154
89 116 155
104 131 153
102 129 160
98 125 158
81 111 149
94 121 154
94 121 148
80 110 153
89 118 152
88 117 149
93 121 164
80 111 158
87 116 160
91 120 163
73 105 157
90 118 158
77 108 161
79 109 162
82 111 159
76 107 163
65 100 162
76 108 155
70 103 159
66 100 151
64 99 158
75 106 161
69 102 157
67 101 164
72 102 160
63 97 151
60 96 150
71 102 154
68 100 150
61 97 156
60 96 150
65 99 145
63 96 137
63 97 140
61 96 153
60 95 145
59 94 140
60 95 149
61 94 135
59 94 139
60 95 146
61 96 145
60 95 141
59 94 137
62 97 137
59 93 139
61 97 149
60 95 145
60 95 145
61 96 147
60 95 136
61 96 148
59 93 133
61 97 149
59 94 141
59 94 135
60 95 139
61 96 149
60 95 147
59 93 137
60 96 148
59 94 137
60 96 146
61 97 151
61 96 148
61 96 140
61 96 143
60 95 139
60 95 139
60 95 139
59 94 141
60 95 144
61 96 143
59 94 137
60 95 145
60 95 135
61 96 142
61 96 141
60 95 135
60 95 137
61 96 143
61 96 148
61 96 148
60 95 143
60 95 144
60 96 147
60 96 137
59 94 133
59 94 130
61 96 142
61 97 151
59 94 139
60 95 140
61 97 148
61 97 144
62 97 148
60 95 140
60 95 136
59 94 135
60 94 140
60 95 139
60 94 140
60 94 131
60 95 135
60 96 143
61 96 147
59 93 135
62 97 144
59 93 139
60 95 130
60 95 141
59 94 143
61 96 143
60 95 142
61 96 147
61 95 137
60 95 135
60 94 136
61 96 136
61 96 137
60 95 131
59 94 131
60 95 128
61 96 141
59 94 134
61 95 142
60 95 136
60 94 131
60 95 139
59 93 125
58 93 128
60 94 131
59 93 122
60 94 135
61 96 148
58 92 121
61 96 145
59 94 129
60 95 131
60 94 134
58 91 121
58 91 124
59 94 135
59 93 121
59 93 122
59 93 121
59 93 121
58 92 121
58 90 114
59 92 120
76 104 108
91 113 95
87 104 70
104 117 54
125 137 0
112 124 0
127 139 0
121 134 0
120 132 0
114 124 0
118 130 0
118 130 0
119 132 0
126 136 0
114 125 0
120 129 0
119 129 0
107 117 0
128 137 0
134 146 0
120 129 0
122 133 0
119 129 0
117 128 0
121 129 0
115 124 0
111 119 0
120 130 0
124 133 0
130 141 0
126 136 0
117 126 0
118 127 0
117 125 0
121 132 0
133 139 0
114 123 0
114 121 0
123 131 0
131 143 0
135 142 0
137 147 0
129 138 0
132 142 0
121 128 0
122 131 0
128 137 0
130 138 0
118 123 0
130 138 0
132 142 0
115 124 0
127 133 0
126 133 0
128 136 0
131 138 0
129 136 0
126 133 0
125 129 0
134 140 0
132 141 0
121 126 0
135 143 0
137 144 0
139 147 0
137 147 0
149 157 0
129 137 0
137 145 0
131 139 0
131 142 0
139 149 0
131 140 0
146 154 0
125 131 0
137 146 0
148 159 0
136 143 0
141 149 0
148 158 0
153 163 0
147 156 0
136 144 0
145 152 0
143 152 0
146 155 0
145 154 0
149 161 0
147 158 0
153 163 0
150 163 0
151 161 0
141 150 0
150 160 0
157 168 0
149 160 0
151 162 0
155 169 0
147 156 0
149 160 0
148 161 0
151 163 0
151 161 0
151 163 0
151 163 0
153 166 0
153 168 0
155 169 0
159 172 0
161 177 0
155 169 0
160 174 0
154 166 0
158 171 0
155 167 0
155 170 0
156 171 0
162 177 0
156 171 0
156 168 0
163 180 0
159 173 0
160 176 0
162 175 0
158 172 0
158 174 0
162 178 0
160 177 0
156 174 0
164 178 0
165 181 0
162 178 0
163 182 0
155 170 0
161 177 0
163 180 0
165 184 0
160 176 0
164 181 0
163 182 0
165 182 0
161 176 0
163 181 0
162 179 0
166 184 0
165 184 0
164 181 0
165 184 0
168 188 0
165 184 0
174 197 72
173 197 80
170 194 67
174 197 44
172 196 51
174 198 88
170 195 51
171 195 80
175 198 80
172 196 67
174 197 57
171 195 57
174 197 44
165 188 62
170 195 67
172 195 76
175 199 88
171 195 57
173 197 80
170 194 67
167 191 57
171 194 62
172 195 76
171 195 67
172 196 84
167 192 80
173 197 72
170 193 67
171 195 67
172 196 80
173 197 76
170 193 44
167 191 72
169 193 62
175 198 80
171 195 62
170 194 62
170 194 76
168 191 62
168 192 80
171 193 67
170 194 80
170 194 80
174 197 88
172 195 62
169 193 80
171 194 51
168 193 72
169 193 72
169 192 76
169 193 72
169 192 51
168 191 67
169 192 51
166 190 76
161 185 80
162 185 67
166 191 84
167 190 62
168 191 44
166 190 80
170 194 62
169 193 80
168 192 95
171 194 72
166 190 80
164 187 62
163 186 62
158 181 80
165 187 57
162 186 67
163 187 84
160 182 72
167 191 72
165 188 76
158 182 92
154 177 105
139 163 110
120 146 122
107 134 130
80 109 133
96 124 146
85 114 131
82 111 133
90 119 136
93 121 145
95 122 144
97 123 144
83 113 150
94 123 158
90 118 149
93 122 154
99 127 160
93 120 150
92 120 153
95 123 141
90 118 149
87 115 147
103 129 159
91 119 146
100 127 156
95 123 150
102 129 161
94 122 147
94 122 158
93 121 158
99 126 162
93 121 155
78 109 158
81 112 157
93 122 162
88 117 148
73 105 158
76 108 158
77 107 151
80 110 160
73 104 162
76 108 169
78 109 172
83 112 166
79 110 166
67 101 162
73 104 156
74 105 162
76 108 164
72 104 156
65 98 149
68 101 153
63 96 145
73 104 142
69 99 142
66 99 143
63 96 146
64 98 143
61 94 134
61 95 142
60 94 135
61 96 143
60 95 144
60 94 136
59 93 141
59 93 133
59 93 147
59 94 145
60 95 142
59 94 134
63 96 134
59 94 134
59 93 134
59 94 136
59 94 136
59 94 144
61 96 151
59 93 129
60 95 143
59 94 142
60 95 145
59 94 140
59 94 142
60 96 142
59 94 139
60 95 136
61 97 147
60 96 141
59 94 145
61 96 148
61 97 150
61 96 148
61 96 141
60 95 143
60 95 135
62 97 153
60 95 139
60 96 148
61 96 147
61 96 139
60 95 140
62 97 147
60 96 147
60 95 141
60 94 133
61 97 144
60 95 139
60 95 141
62 97 147
60 95 141
60 95 134
60 96 141
61 97 147
61 96 143
59 94 134
60 95 140
62 97 149
58 93 131
60 95 140
60 95 136
61 96 147
60 95 136
59 94 135
62 97 148
60 95 141
59 94 133
60 95 133
61 96 137
61 97 143
60 95 142
61 96 142
60 94 134
61 96 143
61 96 142
59 94 131
60 95 139
60 95 135
61 97 142
62 97 142
62 97 148
60 95 137
60 95 133
59 93 129
61 95 137
60 94 147
59 94 126
60 96 140
60 95 135
61 96 137
60 94 139
59 94 135
60 95 137
58 92 124
57 92 120
60 94 130
60 95 136
59 93 129
59 93 126
61 95 139
61 95 135
60 94 131
58 92 135
59 93 129
60 94 135
60 94 134
59 93 124
60 94 129
58 91 122
58 92 120
60 94 121
59 92 126
58 92 121
57 89 116
62 91 103
94 116 97
101 118 80
104 119 60
105 116 0
116 125 0
123 134 0
119 132 0
112 121 0
112 122 0
115 127 0
116 128 0
122 133 0
137 149 0
120 132 0
123 136 0
111 121 0
124 135 0
124 136 0
117 126 0
116 127 0
128 139 0
131 143 0
123 133 0
122 135 0
129 140 0
112 124 0
124 134 0
123 132 0
131 142 0
125 134 0
133 143 0
125 135 0
123 133 0
122 131 0
117 127 0
134 141 0
130 139 0
129 138 0
119 129 0
122 130 0
126 136 0
136 147 0
126 135 0
128 136 0
124 133 0
126 136 0
125 130 0
129 139 0
130 138 0
133 140 0
122 129 0
130 136 0
127 131 0
126 137 0
138 147 0
129 137 0
130 141 0
127 133 0
135 141 0
137 145 0
137 146 0
141 151 0
130 137 0
141 150 0
138 145 0
134 142 0
136 145 0
128 135 0
131 139 0
140 152 0
137 145 0
140 150 0
140 149 0
139 148 0
139 147 0
141 149 0
145 154 0
140 148 0
148 157 0
148 160 0
136 144 0
148 160 0
142 150 0
138 146 0
150 157 0
142 153 0
153 164 0
148 160 0
142 152 0
155 168 0
144 154 0
137 146 0
148 158 0
147 157 0
152 164 0
149 161 0
152 164 0
150 159 0
146 157 0
149 164 0
146 154 0
155 166 0
156 170 0
142 154 0
159 172 0
148 162 0
152 165 0
157 168 0
158 171 0
158 172 0
154 166 0
156 169 0
153 169 0
159 175 0
160 174 0
157 173 0
155 167 0
161 174 0
159 173 0
161 176 0
158 173 0
162 177 0
160 175 0
158 173 0
158 173 0
161 177 0
161 175 0
159 172 0
165 182 0
157 174 0
164 179 0
164 180 0
162 181 0
161 178 0
159 174 0
160 175 0
168 186 0
160 178 0
160 177 0
166 183 0
167 185 0
161 180 0
165 184 0
164 182 0
163 180 0
162 180 0
166 185 0
166 184 0
168 189 0
165 183 0
173 196 76
170 195 67
173 197 84
173 197 67
171 195 88
174 198 72
175 198 84
172 197 88
174 199 84
171 195 95
175 199 102
172 196 72
170 193 67
173 198 88
172 196 76
168 193 80
175 198 67
173 197 51
173 197 76
170 195 72
172 197 84
172 196 67
170 194 72
172 196 80
172 197 84
173 196 57
170 194 84
170 195 67
173 197 84
174 198 76
172 196 92
168 193 84
170 193 51
167 192 80
169 194 95
171 195 72
174 197 84
171 194 84
169 192 76
171 194 72
169 193 80
172 196 84
169 194 88
170 194 80
166 189 36
170 195 80
169 192 51
162 186 51
170 195 76
166 189 62
168 190 67
171 194 67
166 190 72
166 190 67
172 195 80
167 191 44
167 191 88
169 193 62
170 193 76
169 194 95
168 191 62
160 182 44
165 188 62
170 193 67
162 186 76
167 190 57
168 191 51
165 189 51
166 188 76
162 186 57
167 190 57
165 187 80
163 186 51
164 188 62
162 185 84
162 185 78
152 175 70
147 170 97
135 159 111
111 136 133
100 127 141
89 117 128
84 112 139
95 123 140
101 127 156
91 119 141
105 131 147
87 115 139
75 105 148
96 124 163
96 124 146
100 127 151
88 115 147
106 132 159
83 114 154
89 117 155
86 114 149
98 125 144
90 118 153
97 124 154
94 121 145
99 126 151
94 121 147
106 132 158
97 124 155
97 124 157
89 117 145
103 129 158
68 101 152
73 104 155
90 119 159
78 109 164
80 110 161
96 123 166
68 101 155
91 120 163
81 111 155
70 103 155
83 113 169
70 102 159
65 99 158
74 105 159
69 102 156
64 99 157
66 99 159
71 103 160
71 104 164
68 100 156
62 96 155
59 94 142
69 102 157
64 97 143
60 95 147
63 98 147
62 95 146
64 98 149
61 95 137
61 96 147
61 96 151
58 93 136
59 94 142
61 95 141
59 93 135
60 94 139
59 94 148
59 95 141
61 97 152
60 96 144
59 93 134
59 94 140
60 95 142
59 94 141
61 96 147
61 96 145
60 96 147
59 94 137
60 95 139
60 95 145
60 95 145
60 95 135
61 96 142
60 96 145
60 95 142
60 95 136
60 95 140
59 93 129
60 94 137
60 95 148
60 95 137
60 95 141
60 94 147
60 95 143
60 96 148
59 94 131
60 95 146
62 98 154
60 96 144
60 95 143
60 95 134
59 94 137
60 95 139
61 96 141
58 93 137
60 95 143
60 95 141
60 95 144
60 94 134
60 95 140
61 97 145
61 95 142
60 94 133
60 95 143
61 97 152
59 93 133
60 95 141
61 96 145
60 95 137
61 96 144
60 95 141
60 95 140
59 94 137
61 96 141
61 96 145
59 94 130
61 96 142
60 95 135
61 96 139
60 95 135
59 93 130
60 94 141
60 94 133
60 95 137
59 94 141
60 94 136
60 95 134
60 95 137
59 94 131
60 95 141
60 94 144
59 94 136
61 97 149
59 93 129
61 96 139
61 96 135
61 96 139
60 95 135
60 94 130
60 94 125
60 95 136
59 92 125
59 94 131
60 95 137
61 96 141
59 93 128
59 93 128
58 92 121
59 94 128
60 94 134
61 96 139
58 91 128
59 93 122
59 93 120
60 94 129
57 90 121
56 89 113
58 91 120
58 91 120
57 89 111
55 87 110
74 99 102
99 118 72
93 110 62
107 121 31
111 120 0
127 138 0
106 118 0
124 138 0
124 135 0
116 128 0
117 127 0
124 137 0
119 131 0
124 136 0
129 141 0
129 139 0
121 133 0
120 130 0
123 136 0
133 146 0
128 138 0
118 130 0
117 128 0
126 138 0
130 142 0
117 128 0
116 126 0
122 130 0
128 136 0
130 141 0
117 127 0
129 140 0
123 133 0
128 138 0
127 138 0
126 134 0
127 138 0
128 134 0
133 141 0
127 134 0
134 144 0
129 143 0
124 134 0
130 140 0
130 141 0
138 150 0
128 136 0
134 143 0
132 139 0
124 130 0
129 139 0
126 134 0
141 152 0
139 150 0
132 141 0
133 143 0
123 132 0
132 141 0
132 139 0
132 139 0
136 144 0
139 147 0
135 145 0
142 152 0
136 143 0
128 136 0
135 143 0
137 145 0
148 156 0
144 151 0
145 154 0
131 136 0
133 139 0
140 150 0
142 150 0
148 155 0
150 161 0
141 151 0
144 153 0
154 163 0
138 146 0
146 154 0
149 159 0
152 163 0
144 152 0
153 164 0
151 165 0
155 169 0
141 150 0
148 158 0
144 153 0
157 168 0
147 159 0
154 167 0
149 161 0
151 162 0
153 164 0
146 157 0
151 163 0
155 165 0
147 156 0
146 158 0
151 164 0
150 162 0
151 163 0
153 164 0
152 163 0
156 172 0
160 172 0
156 171 0
159 172 0
152 167 0
157 169 0
160 176 0
156 170 0
159 171 0
162 178 0
157 172 0
157 171 0
162 176 0
158 173 0
157 171 0
152 166 0
159 176 0
154 169 0
160 177 0
160 175 0
162 180 0
153 170 0
167 181 0
161 179 0
159 176 0
161 176 0
162 179 0
161 178 0
162 180 0
167 185 0
161 178 0
159 177 0
162 180 0
166 183 0
160 174 0
164 183 0
162 181 0
170 187 0
163 180 0
165 183 0
162 181 0
163 180 0
159 177 0
160 177 0
176 199 76
174 197 57
171 195 84
175 199 102
171 194 57
174 199 88
170 194 72
174 198 67
172 195 88
167 192 76
170 194 51
172 196 44
172 197 76
173 197 72
172 196 76
172 195 62
171 195 92
171 195 84
168 192 51
169 193 44
170 194 76
171 195 84
170 194 84
170 193 72
171 196 72
167 192 88
173 197 80
171 195 57
170 193 57
171 195 72
171 195 76
171 195 72
167 192 76
169 194 62
174 198 88
170 195 76
172 196 72
170 194 84
170 194 76
168 193 84
170 194 92
173 196 67
171 194 57
167 191 67
169 193 67
166 191 99
166 190 62
171 196 88
167 191 72
168 192 62
163 186 44
170 195 76
166 191 62
172 196 76
167 191 76
166 189 76
170 193 62
160 185 57
169 192 76
165 189 67
165 189 84
166 189 62
167 191 76
166 188 80
167 192 84
165 188 36
166 190 72
167 190 62
166 189 67
168 192 108
162 186 67
160 184 80
162 186 72
168 191 72
165 188 72
162 186 67
157 179 90
162 184 100
143 167 110
119 145 121
99 125 130
99 127 147
83 112 128
102 129 141
96 122 134
84 113 139
86 113 140
93 120 136
92 120 139
103 130 156
93 120 140
88 115 141
101 127 166
105 131 148
80 110 141
86 114 143
93 120 128
86 115 143
92 119 148
87 116 142
99 126 150
99 126 151
103 128 153
106 133 159
88 116 143
81 112 157
90 118 153
94 121 142
85 114 162
89 117 158
88 118 162
86 115 158
84 113 162
81 112 157
81 112 167
77 108 160
65 99 155
73 106 162
75 107 163
82 112 167
76 108 162
76 108 163
63 98 153
69 101 158
68 101 157
68 101 160
70 103 157
62 96 156
72 103 155
65 98 149
64 98 150
69 100 134
63 98 155
62 95 140
60 96 150
62 95 141
63 96 131
58 92 140
59 94 142
60 94 147
60 96 139
60 95 141
61 95 132
61 96 134
58 92 134
60 95 131
62 96 140
59 94 135
58 92 131
60 96 135
60 95 141
60 94 136
59 93 140
59 94 141
58 93 124
59 93 134
60 95 141
60 95 151
59 93 137
59 94 132
60 94 133
60 94 137
59 94 141
61 96 142
60 95 140
61 96 141
59 94 140
61 97 150
60 95 142
60 95 143
58 93 134
61 96 143
60 95 139
59 94 129
60 95 137
61 96 146
59 94 134
61 96 143
60 95 139
59 94 132
60 95 141
58 93 142
59 94 134
61 96 142
61 97 147
61 96 147
59 94 137
60 95 136
59 94 135
61 96 145
60 95 140
59 93 131
60 95 143
61 96 140
60 94 135
60 96 139
60 95 141
60 95 139
60 95 133
61 97 144
59 93 126
60 95 130
60 95 140
59 94 133
59 94 133
61 96 140
59 94 135
60 95 133
61 96 133
60 95 141
59 93 128
60 95 131
60 95 137
61 96 136
60 95 136
60 94 134
62 96 142
61 96 147
59 94 139
61 96 142
60 95 136
59 93 126
59 94 129
60 94 131
60 95 136
59 93 126
60 95 129
60 95 135
60 95 131
60 94 126
60 94 126
59 94 133
59 93 122
58 92 115
59 93 131
59 93 129
58 93 120
60 94 129
60 94 134
58 91 120
59 93 130
59 93 125
57 90 105
59 92 117
58 92 116
59 92 119
58 91 111
58 91 115
69 97 94
88 109 85
96 114 72
113 128 28
122 136 25
129 141 0
116 129 0
116 126 0
124 138 0
120 133 0
112 126 0
128 140 0
138 150 0
115 126 0
125 137 0
112 124 0
130 144 0
130 142 0
119 128 0
123 137 0
128 139 0
117 127 0
133 144 0
127 139 0
126 137 0
123 136 0
118 128 0
131 141 0
115 125 0
125 136 0
116 127 0
124 133 0
120 132 0
122 132 0
129 139 0
134 146 0
130 141 0
126 136 0
132 142 0
136 147 0
115 124 0
125 133 0
134 142 0
141 153 0
131 141 0
135 147 0
133 143 0
131 139 0
128 138 0
134 144 0
133 142 0
143 152 0
128 136 0
136 146 0
132 141 0
136 145 0
128 136 0
133 143 0
135 145 0
133 142 0
128 134 0
141 150 0
140 150 0
137 148 0
144 154 0
136 145 0
139 148 0
142 152 0
139 148 0
138 145 0
139 151 0
148 154 0
140 146 0
141 151 0
147 158 0
138 148 0
134 142 0
134 147 0
149 159 0
143 156 0
138 145 0
138 146 0
146 158 0
138 146 0
145 154 0
144 153 0
150 159 0
148 161 0
154 164 0
147 157 0
147 159 0
147 159 0
141 154 0
142 153 0
145 155 0
153 166 0
148 159 0
146 156 0
146 158 0
153 166 0
149 159 0
153 165 0
151 163 0
154 165 0
149 161 0
154 167 0
155 170 0
147 161 0
158 174 0
157 171 0
152 165 0
154 166 0
158 174 0
157 172 0
157 172 0
154 168 0
154 167 0
156 171 0
153 166 0
158 172 0
158 175 0
157 172 0
161 177 0
162 180 0
157 172 0
158 173 0
160 177 0
156 171 0
161 177 0
159 175 0
165 180 0
160 177 0
166 185 0
155 172 0
159 176 0
162 178 0
167 186 0
163 178 0
159 179 0
160 176 0
161 178 0
162 181 0
157 172 0
163 179 0
161 178 0
166 185 0
163 181 0
165 182 0
162 180 0
163 179 0
164 183 0
159 175 0
172 197 67
173 197 84
172 196 80
175 199 95
175 197 62
173 196 88
170 193 72
175 198 76
174 198 76
170 194 76
166 190 72
171 195 57
172 195 72
170 193 67
172 196 72
174 198 84
173 198 99
170 194 62
168 192 67
168 192 44
173 196 62
169 194 67
171 194 67
172 195 76
170 194 92
171 195 72
168 193 84
172 196 72
169 193 76
169 193 80
172 196 67
170 193 72
169 193 88
170 194 80
168 194 76
171 195 80
168 193 72
167 192 67
168 192 72
170 193 62
171 194 80
167 191 76
163 187 80
165 190 88
172 196 76
167 190 72
165 189 25
164 189 84
167 191 72
170 194 80
169 193 72
172 196 62
165 189 72
170 194 76
173 197 99
166 190 44
165 187 57
165 188 67
163 186 62
161 186 80
166 189 80
168 192 72
171 194 84
173 196 92
168 191 62
161 185 51
161 183 84
159 181 67
170 193 84
162 186 80
161 184 80
163 187 80
161 184 67
169 193 88
160 184 67
161 185 62
164 188 84
152 175 97
148 171 111
130 155 98
114 140 121
86 115 134
82 112 137
105 132 159
75 105 136
87 116 148
97 124 146
87 116 141
92 120 145
97 124 153
96 122 141
87 116 136
92 119 139
105 131 142
97 125 150
77 107 133
102 128 145
94 122 137
90 118 145
88 116 152
98 125 155
83 112 143
93 121 150
101 128 151
93 121 135
101 128 151
95 122 139
84 113 159
81 110 147
87 117 156
87 115 151
98 124 158
88 117 165
88 117 157
90 119 167
77 107 152
80 111 156
71 102 153
70 103 158
70 103 160
74 105 160
65 99 158
67 100 153
71 103 155
70 102 152
73 105 160
69 102 154
68 101 157
63 97 149
65 99 151
63 97 151
64 97 145
62 95 145
69 100 146
64 97 149
62 95 143
70 102 154
60 95 144
60 94 138
58 93 138
64 98 139
59 94 140
62 96 134
58 92 136
59 93 140
59 94 137
60 95 143
59 93 142
60 94 138
59 94 144
60 95 137
61 97 149
59 93 136
58 93 131
59 93 140
61 96 147
60 95 138
60 95 144
61 96 145
60 96 137
58 92 133
61 96 148
59 94 141
59 94 139
61 95 143
59 94 138
60 95 148
59 94 135
60 95 140
61 96 141
61 96 139
59 94 137
59 94 140
60 95 140
61 96 151
60 95 136
60 94 135
60 95 141
61 97 144
60 94 134
59 94 138
61 96 140
61 96 147
60 95 135
60 94 128
62 97 150
61 97 149
60 95 137
61 96 144
60 95 147
61 96 142
60 95 136
61 96 142
60 95 140
61 96 141
60 95 142
61 96 150
61 96 147
60 95 142
61 96 147
59 93 126
60 94 134
61 96 134
59 94 137
61 97 144
61 97 149
60 94 130
59 93 131
59 94 129
60 95 128
60 95 134
60 95 135
60 94 130
60 95 139
60 95 135
58 92 125
60 95 133
59 94 129
60 94 129
59 93 131
59 94 133
59 93 133
59 94 129
59 94 137
60 95 139
60 95 134
58 92 113
59 94 129
59 93 124
59 93 128
57 90 122
59 93 129
60 94 137
59 93 130
59 93 131
60 95 135
59 93 131
59 93 130
59 92 120
60 94 128
60 94 128
58 91 122
57 90 117
58 91 129
58 91 116
58 92 124
56 88 105
61 91 110
75 100 87
89 109 80
109 124 40
106 120 31
122 136 0
121 134 0
121 133 0
124 138 0
125 137 0
122 136 0
122 133 0
122 134 0
120 133 0
114 125 0
132 146 0
120 132 0
118 130 0
125 138 0
126 139 0
126 137 0
122 135 0
132 145 0
118 129 0
129 138 0
125 136 0
123 132 0
132 144 0
127 141 0
128 141 0
132 143 0
127 137 0
131 142 0
129 140 0
121 131 0
123 132 0
131 141 0
134 144 0
132 142 0
124 134 0
127 137 0
128 140 0
127 137 0
127 138 0
127 139 0
136 146 0
131 142 0
135 147 0
129 140 0
126 136 0
131 140 0
124 134 0
131 139 0
135 143 0
129 139 0
134 143 0
128 137 0
135 144 0
135 143 0
138 147 0
139 150 0
136 145 0
142 153 0
130 141 0
137 146 0
137 146 0
143 154 0
137 149 0
137 147 0
133 141 0
136 147 0
145 154 0
154 164 0
138 145 0
142 152 0
143 153 0
142 149 0
146 157 0
143 155 0
140 150 0
136 146 0
141 151 0
142 154 0
151 161 0
147 161 0
141 151 0
145 158 0
151 163 0
147 159 0
146 160 0
152 163 0
149 158 0
154 163 0
152 165 0
150 162 0
146 154 0
149 161 0
158 170 0
151 161 0
150 161 0
153 166 0
144 155 0
148 160 0
154 167 0
147 160 0
153 167 0
152 167 0
152 169 0
156 171 0
155 168 0
161 178 0
153 166 0
159 175 0
160 176 0
155 171 0
159 175 0
156 171 0
158 174 0
152 166 0
155 171 0
158 174 0
157 172 0
162 181 0
157 172 0
156 173 0
155 171 0
158 175 0
160 178 0
154 169 0
163 180 0
164 180 0
163 177 0
162 179 0
165 182 0
158 173 0
160 175 0
166 186 0
163 177 0
160 178 0
163 181 0
166 184 0
162 179 0
160 177 0
163 182 0
162 181 0
164 183 0
161 179 0
164 183 0
165 184 0
165 185 0
169 190 0
168 188 0
164 184 0
171 194 51
175 199 80
170 193 62
170 194 92
170 194 92
174 197 67
171 195 76
170 194 80
172 196 76
171 194 62
169 194 76
171 195 51
169 193 76
175 198 88
171 195 76
170 193 72
173 197 67
172 197 72
170 194 72
170 194 51
172 197 80
167 192 84
172 196 80
168 192 76
165 189 57
171 195 72
172 196 72
170 194 72
169 193 62
169 193 84
164 187 62
169 192 67
172 197 92
171 195 72
173 197 51
170 193 51
172 195 84
169 192 67
166 190 57
170 194 51
167 190 72
169 193 72
168 193 88
170 195 84
157 181 62
169 193 80
169 192 44
168 192 80
168 192 84
169 192 80
167 192 72
162 186 57
168 193 76
168 190 62
171 196 105
160 184 72
163 187 51
163 186 62
164 188 62
168 192 88
163 186 80
162 185 72
161 185 76
161 185 57
167 189 76
163 186 62
170 193 95
166 189 67
166 190 76
156 179 72
161 185 67
163 186 76
165 188 36
164 188 76
165 188 67
164 188 72
161 184 57
160 184 72
150 173 84
146 170 120
120 146 122
102 129 135
91 118 141
97 123 140
86 114 131
85 115 142
95 122 143
96 123 146
85 113 142
80 109 145
92 119 153
95 122 146
101 127 156
101 127 158
88 115 141
95 121 147
93 120 140
97 123 141
96 124 147
93 120 139
93 121 146
91 118 153
98 124 141
98 125 154
94 122 151
80 109 138
97 125 148
92 120 152
91 120 161
111 136 164
86 115 157
89 118 146
83 112 161
84 114 154
83 112 153
86 114 159
85 115 167
72 104 155
92 119 165
83 111 160
69 102 160
73 104 156
67 101 162
72 104 158
67 101 151
70 103 159
64 99 150
64 97 141
60 96 147
63 98 156
65 99 147
62 97 155
65 99 150
63 96 137
63 98 153
63 95 146
65 98 146
62 95 141
66 97 138
60 95 148
63 97 143
62 97 145
61 96 150
59 94 137
58 93 130
63 96 142
60 95 143
61 95 135
59 93 133
60 95 143
59 94 140
59 93 132
59 94 134
59 93 136
60 94 143
61 96 145
59 94 139
58 92 129
60 95 142
60 95 137
60 94 136
62 97 144
60 95 138
59 94 134
59 93 133
59 93 133
59 94 136
60 95 135
60 95 139
59 94 137
60 95 137
59 94 137
60 96 142
61 96 142
59 93 137
61 96 143
61 96 144
61 97 144
60 94 131
59 94 134
59 94 130
59 94 136
61 96 145
60 94 131
60 95 144
59 93 129
60 95 142
61 96 140
61 95 143
58 93 131
61 97 150
62 97 149
61 96 144
60 95 145
59 94 136
60 95 139
59 94 129
59 94 137
60 94 135
60 95 144
58 92 122
61 96 142
59 93 128
59 93 134
60 95 135
60 94 126
60 95 131
60 95 129
60 94 133
61 97 148
60 94 131
60 95 141
60 95 142
60 94 136
61 96 139
60 95 136
60 95 135
59 94 128
59 94 137
60 95 140
59 94 133
59 94 129
60 94 128
60 95 136
62 98 151
61 96 139
61 96 143
59 94 126
59 94 126
61 95 135
59 93 122
59 93 124
60 94 129
59 94 131
59 93 129
59 94 133
59 92 120
59 93 121
60 95 124
59 93 130
59 93 113
60 94 128
59 93 124
58 91 125
58 91 117
57 90 124
56 88 117
78 103 102
90 112 88
98 118 62
116 129 47
128 141 0
118 130 0
118 131 0
129 142 0
117 129 0
114 128 0
118 130 0
121 134 0
112 124 0
119 133 0
119 131 0
120 131 0
114 123 0
133 148 0
121 133 0
123 136 0
126 138 0
126 139 0
131 143 0
121 133 0
125 137 0
124 139 0
128 141 0
121 132 0
116 124 0
122 132 0
124 137 0
122 133 0
130 144 0
122 131 0
126 139 0
143 156 0
130 140 0
125 137 0
121 133 0
133 145 0
131 141 0
124 134 0
122 133 0
122 130 0
127 139 0
130 142 0
138 149 0
118 128 0
129 139 0
136 145 0
126 135 0
135 146 0
132 146 0
135 148 0
139 147 0
134 141 0
128 138 0
133 144 0
137 147 0
130 136 0
136 146 0
124 134 0
134 143 0
140 151 0
131 140 0
140 149 0
143 156 0
141 151 0
137 149 0
143 155 0
146 156 0
133 144 0
139 147 0
138 149 0
149 160 0
144 156 0
147 157 0
138 148 0
141 152 0
151 160 0
139 147 0
144 156 0
150 160 0
150 163 0
141 151 0
146 160 0
148 158 0
144 156 0
147 160 0
147 158 0
143 152 0
149 159 0
149 159 0
144 155 0
153 164 0
150 160 0
148 158 0
154 168 0
153 164 0
150 161 0
157 171 0
153 166 0
151 164 0
155 169 0
157 172 0
153 168 0
159 172 0
151 164 0
151 163 0
159 173 0
153 167 0
148 162 0
156 170 0
160 172 0
158 172 0
161 177 0
147 160 0
154 168 0
157 171 0
161 178 0
151 166 0
156 170 0
152 166 0
161 177 0
165 184 0
161 177 0
161 176 0
162 179 0
155 171 0
158 174 0
161 177 0
161 180 0
161 177 0
162 179 0
167 185 0
164 181 0
159 175 0
162 181 0
163 182 0
166 185 0
160 178 0
155 172 0
163 179 0
163 182 0
161 178 0
159 175 0
163 182 0
165 184 0
165 183 0
162 180 0
167 184 0
160 178 0
166 186 0
172 196 67
175 198 88
168 192 67
172 196 80
175 199 80
172 195 51
173 197 67
168 193 72
171 195 76
170 194 62
171 195 76
172 196 72
171 195 92
171 193 62
172 196 62
174 198 88
175 199 76
168 192 72
170 194 72
166 191 72
168 192 62
172 196 72
170 194 92
170 194 80
170 194 92
169 192 72
172 197 80
169 193 80
172 195 80
171 195 84
170 195 80
172 197 92
171 195 84
168 192 72
169 193 57
168 192 62
170 194 72
169 193 67
168 191 72
168 191 72
169 193 62
167 191 80
169 192 76
164 187 62
169 192 72
165 189 72
167 190 62
169 192 62
170 194 102
167 191 62
169 193 67
169 193 44
170 193 84
167 191 62
166 190 88
168 192 72
169 193 80
164 187 57
163 186 72
164 187 67
167 191 67
165 188 80
161 186 62
165 189 62
165 188 72
162 186 67
162 185 67
162 185 72
161 184 84
155 178 57
160 184 80
167 190 67
167 190 80
163 186 62
164 188 88
164 188 57
162 186 72
159 183 62
159 182 60
151 175 107
136 160 103
111 136 120
88 115 127
90 117 140
91 118 141
90 119 152
85 113 137
96 122 144
85 114 139
96 123 146
85 114 141
98 126 158
96 123 143
89 116 143
100 126 151
102 129 159
92 120 150
93 119 136
100 126 144
92 119 137
88 115 143
99 125 148
96 123 159
102 128 131
93 119 143
95 122 160
90 117 145
84 113 153
98 124 154
87 116 150
88 117 159
85 114 155
89 117 149
89 117 160
80 110 150
86 116 166
82 112 160
76 106 152
75 106 156
64 99 157
71 104 151
73 104 162
65 100 159
67 100 140
72 105 162
75 106 161
65 98 149
68 100 146
66 99 144
70 101 138
71 103 147
68 100 142
63 98 152
74 103 140
60 95 150
58 92 131
58 93 131
63 97 137
59 94 142
59 93 140
60 94 140
61 96 138
61 94 137
60 95 137
60 95 141
61 96 149
60 94 140
61 95 134
58 92 129
59 94 139
59 93 136
58 92 131
60 95 143
61 96 137
60 95 134
59 93 139
59 94 133
61 96 144
59 94 141
60 95 133
58 93 124
58 92 135
59 94 139
60 95 139
60 95 136
59 94 135
58 93 134
59 94 135
61 96 145
60 94 138
59 94 138
61 96 149
60 95 143
61 97 147
59 93 135
59 93 134
59 94 136
59 93 130
61 96 147
60 95 135
59 94 135
61 97 147
60 95 142
61 96 140
59 94 137
61 97 147
61 95 134
60 95 133
59 94 135
60 95 134
59 94 134
61 96 147
60 95 135
59 93 129
61 96 150
60 95 140
60 95 139
60 95 140
60 95 137
61 96 143
59 94 139
60 94 133
60 95 134
60 95 141
61 96 145
59 94 136
60 95 137
59 93 130
59 94 131
61 96 135
61 96 135
60 95 139
60 95 142
61 96 140
58 93 129
59 93 130
60 95 134
60 96 135
60 94 131
59 93 134
62 97 144
61 95 139
60 94 133
59 93 118
60 95 135
61 95 128
60 94 128
62 96 142
60 95 133
60 95 139
60 94 129
60 94 137
57 91 114
58 92 121
58 93 122
58 92 121
59 92 118
59 93 134
58 92 117
59 93 124
58 92 115
58 91 117
58 91 118
57 90 122
56 88 105
56 88 107
72 98 107
80 104 92
102 120 67
120 136 54
113 127 25
114 127 0
118 132 0
117 129 0
122 134 0
130 143 0
118 131 0
118 130 0
117 129 0
120 136 0
117 130 0
127 142 0
115 127 0
137 151 0
124 137 0
125 140 0
123 137 0
132 147 0
133 147 0
128 140 0
135 150 0
124 134 0
125 138 0
117 130 0
134 144 0
138 150 0
128 138 0
125 138 0
131 144 0
134 146 0
125 138 0
132 146 0
123 134 0
133 144 0
118 127 0
134 147 0
128 140 0
130 140 0
120 130 0
135 144 0
133 144 0
134 146 0
126 138 0
142 154 0
130 139 0
121 129 0
133 144 0
126 138 0
140 151 0
142 155 0
131 140 0
130 140 0
133 143 0
134 145 0
135 146 0
143 153 0
126 136 0
138 149 0
147 158 0
136 148 0
137 146 0
138 149 0
133 141 0
145 155 0
135 146 0
138 147 0
143 153 0
133 142 0
142 153 0
137 147 0
140 153 0
148 159 0
143 153 0
140 151 0
144 154 0
148 160 0
132 142 0
152 165 0
143 153 0
145 154 0
137 149 0
146 159 0
151 164 0
142 153 0
152 163 0
153 164 0
144 154 0
156 171 0
153 167 0
147 156 0
149 160 0
154 168 0
147 157 0
151 163 0
147 158 0
157 171 0
155 169 0
155 168 0
153 166 0
155 169 0
153 167 0
157 174 0
154 166 0
153 165 0
155 170 0
158 172 0
155 171 0
157 172 0
157 172 0
151 163 0
159 174 0
156 172 0
163 180 0
153 168 0
159 175 0
157 173 0
152 166 0
156 173 0
160 176 0
157 170 0
159 176 0
161 177 0
161 178 0
158 174 0
159 178 0
164 183 0
160 176 0
161 177 0
160 178 0
162 181 0
163 181 0
161 178 0
161 178 0
163 179 0
165 183 0
164 180 0
164 182 0
166 183 0
163 179 0
166 185 0
166 183 0
163 182 0
162 180 0
161 178 0
162 181 0
166 185 0
164 183 0
162 180 0
167 186 0
164 183 0
172 196 62
174 197 57
168 192 62
175 198 67
172 196 57
171 194 72
175 198 67
170 194 57
172 195 76
171 195 76
167 191 67
171 195 62
170 195 88
170 195 72
170 195 99
169 194 62
170 194 76
172 196 72
173 197 76
165 188 62
169 193 67
168 192 57
168 192 76
171 195 72
168 191 84
172 196 67
172 195 62
171 195 62
170 195 80
171 195 76
168 192 51
169 193 57
172 197 88
169 194 67
172 196 67
168 192 72
170 193 51
171 195 88
170 194 62
165 190 51
169 194 72
167 190 51
167 191 76
167 192 76
163 185 67
165 188 62
162 186 76
168 192 92
164 188 76
166 190 80
164 188 62
161 185 76
162 185 51
165 188 62
161 186 67
163 187 67
165 189 88
157 180 62
164 188 72
169 193 62
166 190 92
161 185 62
167 190 67
161 185 80
165 189 80
165 189 76
161 185 62
165 189 84
163 186 80
165 187 51
163 186 76
157 181 44
168 191 80
158 181 67
161 185 76
161 185 80
158 181 67
160 182 67
162 185 76
155 177 82
142 165 97
120 144 90
100 127 118
95 122 144
88 116 143
90 118 126
97 125 144
91 119 136
93 120 147
83 112 145
100 127 144
99 125 136
85 114 143
98 124 143
92 119 141
84 112 135
94 122 151
95 123 151
89 117 143
81 110 139
99 126 152
102 129 153
97 123 153
91 119 152
94 122 143
94 121 148
97 124 141
93 121 140
92 119 148
95 121 156
86 115 150
95 122 156
72 105 153
92 120 158
84 112 149
83 112 153
77 107 146
102 128 158
78 108 153
70 102 151
80 111 150
71 104 161
75 105 156
72 104 161
70 102 158
75 106 163
64 99 154
63 98 154
59 94 143
62 96 144
69 102 149
65 99 150
63 97 150
64 98 151
61 94 133
65 98 150
60 95 144
61 94 136
60 95 139
59 93 135
61 96 140
60 94 129
59 93 135
61 95 135
59 93 130
59 94 137
62 96 140
60 94 134
60 93 124
62 96 134
59 94 136
59 94 139
59 93 136
58 93 131
59 94 129
59 93 128
60 94 131
59 94 140
60 95 142
60 94 133
60 95 141
60 95 142
60 94 133
59 93 132
58 92 129
57 91 124
61 96 144
60 95 134
60 95 141
61 96 148
60 96 147
59 94 141
60 94 137
60 94 137
60 95 131
59 94 136
60 95 144
59 94 133
60 95 144
59 94 129
61 96 149
60 95 141
60 94 136
59 93 132
61 96 142
60 95 139
61 96 143
60 95 140
60 94 137
59 94 133
61 95 140
61 97 141
61 96 144
61 96 140
60 95 141
59 93 134
61 96 140
60 95 137
61 96 148
61 96 143
60 95 135
60 94 126
60 95 137
59 93 129
60 94 133
60 95 141
59 94 130
60 95 137
60 94 137
60 95 131
60 95 140
60 94 137
60 94 131
61 96 141
60 95 130
59 93 125
60 95 135
59 93 126
59 93 118
58 93 122
60 95 128
59 94 130
58 93 124
60 94 141
60 94 126
60 94 128
60 94 131
59 93 122
58 92 122
59 94 126
59 93 130
60 95 135
59 94 131
60 94 129
60 94 134
58 91 130
58 92 117
60 94 134
58 91 118
58 92 128
60 94 122
58 92 134
57 91 120
56 89 113
56 88 116
71 99 111
72 98 86
87 105 76
102 116 45
114 127 40
107 118 0
114 126 0
106 115 0
123 137 0
117 131 0
128 143 0
128 143 0
123 136 0
112 123 0
121 134 0
116 129 0
113 126 0
119 131 0
124 138 0
124 137 0
129 142 0
111 125 0
115 128 0
121 133 0
126 138 0
130 143 0
131 146 0
129 143 0
120 131 0
128 142 0
135 148 0
130 140 0
128 140 0
130 142 0
126 140 0
125 136 0
135 148 0
127 139 0
128 140 0
124 134 0
135 146 0
134 145 0
127 137 0
126 135 0
129 140 0
130 138 0
139 151 0
129 141 0
127 138 0
127 139 0
125 135 0
137 148 0
133 144 0
132 140 0
126 141 0
134 146 0
140 152 0
132 143 0
136 148 0
135 144 0
137 147 0
126 135 0
146 158 0
128 140 0
130 140 0
125 135 0
137 148 0
143 155 0
148 159 0
145 156 0
136 145 0
142 155 0
142 153 0
131 141 0
140 152 0
146 158 0
139 152 0
132 141 0
144 156 0
141 152 0
145 155 0
146 160 0
138 147 0
146 158 0
147 158 0
140 152 0
149 164 0
139 150 0
145 155 0
149 163 0
149 162 0
142 154 0
152 166 0
148 160 0
149 160 0
149 161 0
149 163 0
149 162 0
152 165 0
154 168 0
157 173 0
152 164 0
155 170 0
150 164 0
155 168 0
149 163 0
154 168 0
149 163 0
153 166 0
148 161 0
154 166 0
150 163 0
155 169 0
158 173 0
158 170 0
156 174 0
156 169 0
151 163 0
159 173 0
165 180 0
161 179 0
161 179 0
164 177 0
161 177 0
159 175 0
161 179 0
159 175 0
166 184 0
160 177 0
164 180 0
156 173 0
154 170 0
163 180 0
159 177 0
167 186 0
165 183 0
162 179 0
160 177 0
160 177 0
164 181 0
161 178 0
163 180 0
161 178 0
162 179 0
164 181 0
164 182 0
160 176 0
162 180 0
162 179 0
166 186 0
159 177 0
162 181 0
164 182 0
167 185 0
165 180 0
172 196 72
173 196 67
174 198 84
173 196 67
174 198 111
174 198 76
173 197 76
170 194 88
171 195 84
170 193 67
172 196 67
169 193 57
172 195 57
171 196 105
167 192 99
173 197 62
170 194 84
169 193 84
168 192 62
175 199 76
170 194 76
171 195 57
170 194 80
168 193 88
171 195 95
164 189 72
172 196 67
168 193 80
170 195 84
173 196 72
166 190 67
169 193 95
165 189 67
169 194 80
170 193 62
169 193 92
169 193 67
169 193 44
164 188 76
164 189 62
169 192 62
168 192 62
166 190 80
168 191 72
164 188 80
168 193 80
163 186 62
169 194 80
166 190 80
166 189 62
166 189 76
168 193 88
161 184 80
164 189 62
164 187 67
167 190 57
165 189 72
169 194 67
162 186 72
166 190 76
164 187 76
165 189 57
166 189 44
165 189 57
167 190 72
163 187 72
164 188 95
158 181 57
167 190 62
167 191 57
161 184 76
160 184 62
161 183 44
160 184 76
167 191 88
160 183 92
164 187 67
162 185 92
162 184 67
160 183 80
145 168 83
138 161 87
124 148 116
93 120 126
87 115 135
89 117 131
92 119 139
97 125 163
98 125 147
85 114 143
98 124 141
90 117 149
90 117 137
81 111 139
92 119 137
89 117 141
82 111 147
86 115 136
97 124 154
85 112 129
95 122 147
102 128 135
83 111 134
103 129 144
102 128 154
108 135 160
93 119 145
100 126 148
91 118 143
93 121 151
98 125 151
84 113 156
101 128 159
78 108 135
102 128 161
87 115 152
94 121 166
91 118 160
84 113 160
81 110 151
72 104 156
84 113 160
74 106 160
82 112 159
69 102 152
68 101 156
65 99 152
67 101 151
72 103 157
68 100 145
69 100 144
61 96 146
68 101 140
66 98 144
66 98 136
65 97 139
64 97 137
66 99 137
58 92 131
63 98 145
58 92 136
58 93 140
59 94 128
62 94 133
66 98 128
59 94 131
63 97 148
61 96 141
59 94 130
61 96 139
59 93 131
58 93 131
59 94 134
60 95 141
59 93 133
61 95 144
60 95 145
62 97 147
60 95 150
59 93 133
60 94 135
58 92 129
61 96 142
59 94 135
59 94 133
60 95 137
60 95 143
58 92 118
60 94 135
61 95 141
59 94 130
60 94 128
59 94 134
59 95 135
60 94 135
59 94 128
61 97 150
59 93 131
59 93 129
60 95 135
60 94 130
61 96 143
60 95 137
61 96 142
61 96 147
60 94 131
61 96 135
61 97 147
60 95 136
59 94 133
61 96 149
60 94 131
60 95 135
61 96 141
60 95 140
60 94 137
60 94 131
60 95 137
60 95 128
60 94 141
61 96 143
61 96 137
60 94 131
58 92 128
61 96 148
59 94 128
61 96 139
61 96 139
61 95 135
60 94 131
59 93 126
61 96 145
61 96 140
59 94 126
58 93 129
60 94 134
59 93 129
60 94 136
59 93 130
60 95 133
59 93 122
58 93 121
60 95 130
59 93 126
58 92 133
59 93 113
58 92 118
59 94 130
59 93 120
59 93 122
59 93 128
58 91 117
59 93 129
59 93 122
59 93 131
58 93 121
58 92 126
60 95 131
61 94 136
58 92 121
59 93 121
58 91 111
57 90 118
58 91 114
60 91 114
73 100 105
82 100 62
99 116 47
111 123 31
114 129 18
117 132 0
119 132 0
118 131 0
127 142 0
121 136 0
116 132 0
123 137 0
125 138 0
124 139 0
119 132 0
114 127 0
120 134 0
120 132 0
129 141 0
125 138 0
121 137 0
123 136 0
131 146 0
111 125 0
136 151 0
125 139 0
123 136 0
118 130 0
127 140 0
113 127 0
118 128 0
134 147 0
138 150 0
126 141 0
112 121 0
127 140 0
130 140 0
127 139 0
132 145 0
129 142 0
132 142 0
122 133 0
130 142 0
130 142 0
135 147 0
140 153 0
125 136 0
133 148 0
129 141 0
131 143 0
139 150 0
140 153 0
140 153 0
135 149 0
139 150 0
131 142 0
140 150 0
133 144 0
142 154 0
126 138 0
142 154 0
145 158 0
131 143 0
141 152 0
140 152 0
140 150 0
140 153 0
142 156 0
134 146 0
139 150 0
135 145 0
138 149 0
143 156 0
142 151 0
138 146 0
135 145 0
143 155 0
136 147 0
143 153 0
153 164 0
146 159 0
147 160 0
141 153 0
153 165 0
144 155 0
138 151 0
146 158 0
142 153 0
144 157 0
153 165 0
138 150 0
147 158 0
157 170 0
152 164 0
150 163 0
138 148 0
153 165 0
153 165 0
153 168 0
154 168 0
153 169 0
154 167 0
151 163 0
147 162 0
157 170 0
151 164 0
157 172 0
154 166 0
161 176 0
153 168 0
157 171 0
144 156 0
150 165 0
152 168 0
156 170 0
151 166 0
157 174 0
160 175 0
160 176 0
162 179 0
160 176 0
160 175 0
156 172 0
158 176 0
155 169 0
158 175 0
162 181 0
161 178 0
160 176 0
158 173 0
165 182 0
156 172 0
163 181 0
162 178 0
163 179 0
159 178 0
160 179 0
161 179 0
163 181 0
168 188 0
158 175 0
162 181 0
161 177 0
161 180 0
169 188 0
166 183 0
161 177 0
160 178 0
159 178 0
169 187 0
163 183 0
163 181 0
164 181 0
161 180 0
161 178 0
168 192 72
171 196 88
173 197 84
170 194 67
169 194 80
171 195 92
172 196 84
175 198 76
173 196 88
170 194 62
172 196 80
173 196 67
172 196 84
172 196 51
172 197 80
175 199 88
171 196 88
167 192 88
172 196 80
170 195 92
172 197 92
172 196 95
173 198 102
167 191 72
172 196 80
168 192 57
171 196 95
171 194 92
163 187 51
170 194 76
166 192 76
168 193 92
165 189 67
167 191 62
170 194 76
170 194 76
165 189 76
167 192 92
164 188 72
168 192 80
168 191 72
166 190 62
167 190 57
171 195 67
166 189 51
171 196 88
165 189 44
168 192 80
162 185 72
172 196 80
170 194 80
163 187 57
164 189 67
165 189 80
162 186 67
163 187 72
164 188 62
159 182 67
158 182 44
157 182 67
163 187 62
160 184 67
166 189 62
164 188 76
159 182 51
168 192 92
163 186 62
163 187 84
162 185 76
158 182 62
162 186 67
155 178 51
155 178 72
161 184 51
156 179 67
157 180 67
156 179 72
168 190 67
160 182 76
157 179 62
155 176 67
152 174 67
126 149 123
103 129 102
97 124 133
90 118 134
98 126 151
75 105 129
91 118 141
91 118 122
104 130 140
94 121 146
100 127 140
89 117 141
98 124 146
92 120 145
92 119 138
83 111 121
92 119 134
112 137 155
95 122 141
87 114 148
102 128 133
95 122 149
102 128 154
89 117 145
99 126 155
104 129 148
96 123 150
92 119 145
92 119 150
93 121 150
88 115 142
88 115 145
78 108 145
86 114 154
94 122 167
88 116 153
85 113 150
79 109 146
74 106 157
83 112 152
68 101 148
81 110 156
67 100 148
85 113 158
64 97 149
65 99 139
67 100 159
72 104 154
68 100 139
65 99 151
66 98 138
69 101 138
66 100 143
69 101 145
65 98 149
62 95 142
66 97 136
59 93 138
63 96 129
62 95 129
68 99 135
60 95 145
71 102 129
59 94 140
60 95 143
63 97 136
60 94 132
59 94 138
60 95 147
60 95 141
59 93 133
58 93 128
59 94 129
60 95 137
60 94 140
58 92 133
61 96 150
59 94 130
58 91 130
58 92 128
59 93 138
60 95 140
61 96 142
59 93 135
59 93 126
61 96 143
60 95 139
61 96 144
59 94 134
60 96 142
60 95 135
60 95 136
59 93 128
61 95 137
60 95 139
60 95 141
60 94 135
60 95 142
61 96 142
61 96 145
61 95 137
60 95 136
60 95 142
59 93 130
60 94 133
60 94 133
61 97 141
59 94 131
60 95 133
59 94 137
60 95 139
59 94 133
59 94 134
60 95 136
59 94 139
60 94 131
60 95 139
61 96 133
60 95 139
59 93 129
58 92 126
61 96 142
60 95 133
60 96 137
60 95 140
61 96 140
59 93 136
59 93 129
59 94 126
60 94 133
59 93 121
60 94 133
60 94 136
59 93 124
59 94 128
60 94 134
60 95 130
60 94 135
59 94 128
59 94 131
59 93 120
59 94 129
60 95 135
58 92 126
57 90 114
59 93 126
59 93 124
60 95 144
59 94 126
60 93 135
59 93 122
59 94 122
59 92 122
58 92 121
58 91 118
59 93 125
59 93 126
58 91 110
58 92 128
59 93 117
58 92 118
57 90 115
75 99 100
92 113 74
100 117 54
97 109 51
105 117 18
112 124 0
113 127 0
122 134 0
124 137 0
119 132 0
126 142 0
121 136 0
123 136 0
134 149 0
124 139 0
122 136 0
131 147 0
116 127 0
125 141 0
122 137 0
126 139 0
119 134 0
126 140 0
126 140 0
122 137 0
132 144 0
130 144 0
120 131 0
130 142 0
120 132 0
129 142 0
136 149 0
129 141 0
127 140 0
123 134 0
133 148 0
130 143 0
133 144 0
123 134 0
128 142 0
142 154 0
128 139 0
134 146 0
129 139 0
135 147 0
134 148 0
131 142 0
133 147 0
127 138 0
135 148 0
131 143 0
131 145 0
142 156 0
132 143 0
142 152 0
131 144 0
149 162 0
139 150 0
139 149 0
140 153 0
132 144 0
130 141 0
137 150 0
144 157 0
138 149 0
136 148 0
140 152 0
144 157 0
132 144 0
142 155 0
138 148 0
145 156 0
146 158 0
150 164 0
141 154 0
142 153 0
144 155 0
140 151 0
141 152 0
142 156 0
137 147 0
145 157 0
148 159 0
139 152 0
150 164 0
145 157 0
153 167 0
146 155 0
147 162 0
147 160 0
149 163 0
154 164 0
138 150 0
152 166 0
143 154 0
155 169 0
145 155 0
146 159 0
153 167 0
153 166 0
151 164 0
150 164 0
147 157 0
152 167 0
143 158 0
153 167 0
154 170 0
159 174 0
151 167 0
153 165 0
149 163 0
155 168 0
149 163 0
157 174 0
153 164 0
155 168 0
150 168 0
157 174 0
159 176 0
161 178 0
156 173 0
156 171 0
155 168 0
160 175 0
160 177 0
159 177 0
157 172 0
162 180 0
158 175 0
164 181 0
162 178 0
166 182 0
162 180 0
160 178 0
160 177 0
159 176 0
162 177 0
159 176 0
162 179 0
160 176 0
154 170 0
161 177 0
161 180 0
165 183 0
163 182 0
160 179 0
162 182 0
159 178 0
160 176 0
164 182 0
165 185 0
165 185 0
166 184 0
156 173 0
165 184 0
163 181 0
175 198 76
169 193 72
173 196 57
173 196 62
171 195 44
173 196 84
169 192 62
170 194 62
169 193 67
172 196 76
171 195 88
169 193 62
171 196 92
169 193 80
171 195 62
170 194 67
167 191 67
167 190 76
169 192 62
171 196 88
170 195 80
170 194 88
171 195 80
171 195 67
171 194 44
171 195 67
164 188 62
166 191 72
170 194 67
170 194 80
170 192 62
171 195 76
171 196 67
165 189 57
166 190 72
166 191 84
171 196 80
167 190 62
167 192 80
166 190 67
164 189 92
163 187 67
165 189 80
168 191 62
167 191 72
169 192 57
167 191 72
165 189 57
167 192 67
168 193 95
162 186 67
168 193 76
166 190 72
169 192 72
165 189 76
164 188 67
167 191 80
161 185 76
166 189 57
161 186 88
164 188 80
158 181 44
152 176 62
150 173 25
158 182 67
165 188 95
162 186 80
159 182 76
162 185 57
161 184 57
161 185 62
162 185 76
153 176 51
159 183 76
162 185 72
158 181 62
161 184 62
159 181 67
164 187 76
154 177 51
160 183 76
159 181 80
137 160 102
127 151 97
94 120 114
95 122 131
100 127 142
91 119 144
101 126 124
94 121 137
90 118 133
96 123 144
99 125 138
98 124 129
92 119 128
91 119 136
94 122 140
95 122 150
79 108 133
99 125 149
101 127 138
92 118 135
89 118 141
92 118 142
99 125 150
80 109 131
103 129 147
93 120 144
91 119 143
92 120 149
98 126 149
103 128 141
88 117 145
96 122 148
86 115 154
93 121 160
81 111 157
92 119 153
74 104 141
78 108 160
83 113 159
69 102 154
73 103 150
82 111 156
70 101 145
83 112 158
70 103 156
71 103 162
63 97 152
72 103 152
72 103 150
62 96 144
73 102 142
62 96 142
62 97 145
66 99 144
66 99 135
59 94 137
67 99 129
66 98 140
64 97 139
59 93 139
59 93 136
62 95 136
59 94 129
58 92 126
56 90 128
61 96 131
57 92 120
62 95 131
59 94 135
58 92 128
60 94 129
61 96 148
60 95 136
60 95 139
59 94 134
59 94 136
59 94 131
60 94 137
60 94 140
59 93 134
59 93 129
61 97 148
60 95 139
60 95 139
58 92 126
60 95 137
59 94 131
60 95 134
60 95 137
59 94 126
58 93 129
60 95 135
61 96 133
60 95 139
60 94 128
59 93 133
60 94 137
60 94 134
61 96 147
60 95 135
60 94 135
59 93 129
59 94 135
60 94 136
58 92 125
59 94 131
61 96 143
61 96 143
59 93 126
58 92 130
62 97 152
59 93 130
60 95 139
59 94 139
60 95 136
59 94 131
59 94 133
60 94 126
60 94 129
60 95 135
59 93 122
59 94 131
59 94 130
60 95 129
60 95 134
61 95 137
59 93 131
58 92 121
58 92 129
60 95 137
59 93 125
60 95 130
59 93 126
61 95 137
58 92 118
60 94 135
59 93 118
59 93 122
58 91 117
59 93 121
60 94 129
58 92 120
60 94 126
59 93 126
58 92 128
59 94 129
57 91 108
58 92 120
59 93 125
58 92 124
58 92 115
59 93 129
58 93 122
58 92 113
58 92 122
59 93 123
58 92 117
55 88 113
58 91 107
57 89 99
57 90 108
68 97 111
94 116 84
111 128 65
113 128 47
113 127 31
126 141 0
122 135 0
119 132 0
101 115 0
116 127 0
127 142 0
114 130 0
122 135 0
110 122 0
127 142 0
129 142 0
120 135 0
126 140 0
127 141 0
131 146 0
126 138 0
118 131 0
131 142 0
138 153 0
122 134 0
124 137 0
125 137 0
127 141 0
125 138 0
120 136 0
127 140 0
126 138 0
126 141 0
125 136 0
130 142 0
134 148 0
115 126 0
138 151 0
124 136 0
132 144 0
130 143 0
130 143 0
130 141 0
132 146 0
130 143 0
137 149 0
128 140 0
133 147 0
130 143 0
132 143 0
129 141 0
130 140 0
130 140 0
126 138 0
133 145 0
137 151 0
134 145 0
140 153 0
135 146 0
138 149 0
136 149 0
143 154 0
140 151 0
133 146 0
142 154 0
132 144 0
139 150 0
143 154 0
142 155 0
137 150 0
143 154 0
141 155 0
146 161 0
142 156 0
147 159 0
141 151 0
135 148 0
144 156 0
154 167 0
145 156 0
148 161 0
149 162 0
144 158 0
146 159 0
154 168 0
147 160 0
144 155 0
151 165 0
146 159 0
143 156 0
146 160 0
150 163 0
148 159 0
153 171 0
158 171 0
157 171 0
146 159 0
145 158 0
152 166 0
156 171 0
153 167 0
156 174 0
159 174 0
151 166 0
153 165 0
151 165 0
155 169 0
154 167 0
154 170 0
152 165 0
151 167 0
151 166 0
155 169 0
156 171 0
155 170 0
159 174 0
161 178 0
157 170 0
159 176 0
158 174 0
157 172 0
156 172 0
164 181 0
158 174 0
154 169 0
163 181 0
156 173 0
158 174 0
158 174 0
161 177 0
166 187 0
155 172 0
155 172 0
161 178 0
169 187 0
163 181 0
162 181 0
161 180 0
162 182 0
164 183 0
163 182 0
162 180 0
161 179 0
164 184 0
161 179 0
162 179 0
167 183 0
162 180 0
166 183 0
158 178 0
162 179 0
164 183 0
166 185 0
159 178 0
164 183 0
167 185 0
164 181 0
174 197 76
166 189 72
168 192 67
174 197 88
173 197 76
172 196 88
171 195 57
171 194 44
170 194 51
171 195 72
171 194 44
173 198 102
170 193 62
174 198 72
170 194 62
171 196 72
173 197 76
167 192 92
171 196 80
170 194 76
172 196 88
173 198 92
168 192 72
168 192 57
166 191 84
167 191 76
168 193 76
170 194 67
166 189 67
171 196 84
171 195 80
166 190 99
173 196 57
170 194 51
169 193 72
167 191 95
173 197 76
169 193 62
174 197 57
165 189 76
170 195 88
165 188 57
170 194 57
162 186 51
169 194 51
164 189 92
167 191 62
166 190 51
168 193 92
166 191 88
160 185 88
167 191 62
162 185 67
168 193 92
166 190 88
164 188 72
160 184 80
167 191 76
166 188 36
154 177 36
161 185 80
164 188 92
158 181 51
161 184 84
161 185 76
165 188 44
163 186 51
164 187 72
164 187 51
159 183 67
165 188 80
155 179 67
155 178 80
160 183 67
158 182 76
164 187 76
163 186 76
156 179 36
162 185 57
162 184 67
164 187 88
161 184 67
150 173 76
117 142 94
125 148 107
98 124 107
88 114 128
91 117 125
88 117 143
83 111 122
89 117 140
84 112 136
85 113 134
78 106 126
95 121 151
80 109 140
85 113 135
88 116 144
91 117 135
84 113 143
98 123 141
92 118 140
90 118 136
93 120 138
97 124 140
97 123 148
80 110 145
95 122 139
100 125 140
84 113 141
94 120 140
87 115 144
92 120 147
86 115 148
88 116 150
94 122 155
85 113 141
71 103 152
75 106 146
94 121 151
83 111 152
65 98 143
78 108 155
75 106 143
65 98 149
76 106 162
73 103 147
75 104 146
75 106 150
69 101 145
70 101 151
72 102 141
71 102 152
66 98 139
62 96 137
66 98 139
71 101 135
66 98 145
62 95 133
67 100 146
63 95 132
61 93 127
63 97 134
66 96 117
63 95 128
60 94 130
58 92 127
65 98 134
59 93 134
61 95 131
60 94 118
60 93 123
58 93 125
59 93 133
58 92 128
59 94 131
58 92 131
59 93 131
59 93 131
61 96 144
60 94 133
60 95 133
59 94 124
60 94 132
59 94 135
60 95 136
60 94 135
59 93 135
59 94 134
61 96 148
57 92 126
59 94 133
61 97 145
60 95 142
60 94 128
60 94 136
60 94 139
60 94 140
60 94 135
60 94 136
59 94 134
60 94 130
58 93 130
60 95 134
60 95 143
59 94 128
60 94 125
60 94 129
60 94 128
59 93 134
59 93 117
60 95 134
60 95 134
60 94 137
60 94 137
59 93 125
60 94 134
60 94 133
59 93 131
58 92 129
59 93 124
59 93 128
60 94 137
61 96 144
59 94 130
60 95 134
59 94 120
60 95 139
59 93 124
60 95 140
60 95 140
60 95 130
58 93 125
58 92 115
59 93 128
60 95 135
58 91 121
60 95 135
59 94 130
60 94 131
59 93 121
59 93 118
60 94 133
60 95 140
58 91 122
58 91 125
58 92 118
60 94 136
59 93 124
59 93 124
57 91 117
58 93 120
57 90 121
57 90 117
58 92 121
58 92 122
56 89 114
57 89 122
59 93 120
57 90 115
59 92 110
58 91 126
68 95 102
88 110 84
97 114 57
112 128 40
111 127 25
127 143 0
125 140 0
122 139 0
114 127 0
120 133 0
129 145 0
123 137 0
124 139 0
120 133 0
117 127 0
120 134 0
133 149 0
120 132 0
129 142 0
117 129 0
124 138 0
128 141 0
128 142 0
126 139 0
137 152 0
136 152 0
126 140 0
118 131 0
125 137 0
133 148 0
138 150 0
121 138 0
136 149 0
124 139 0
133 148 0
122 135 0
126 138 0
129 140 0
118 131 0
131 145 0
135 148 0
133 146 0
134 148 0
141 153 0
135 149 0
139 152 0
136 150 0
128 141 0
124 136 0
138 152 0
131 144 0
140 153 0
138 151 0
133 146 0
136 147 0
127 138 0
133 147 0
138 150 0
133 147 0
140 154 0
144 160 0
146 158 0
142 155 0
138 150 0
140 156 0
136 147 0
145 156 0
140 154 0
136 148 0
138 150 0
149 163 0
141 153 0
144 156 0
150 164 0
143 157 0
144 156 0
140 151 0
141 156 0
147 159 0
150 164 0
150 159 0
146 161 0
139 151 0
150 163 0
140 151 0
150 165 0
142 154 0
150 162 0
149 165 0
145 157 0
149 164 0
142 153 0
151 163 0
147 160 0
155 169 0
147 161 0
146 160 0
149 164 0
144 156 0
151 165 0
150 166 0
150 164 0
155 170 0
157 169 0
150 165 0
147 161 0
156 170 0
155 169 0
160 175 0
157 172 0
152 165 0
161 176 0
155 170 0
153 169 0
158 174 0
163 179 0
155 171 0
151 167 0
156 171 0
158 174 0
154 170 0
153 171 0
157 170 0
158 174 0
155 171 0
161 178 0
158 174 0
162 178 0
159 174 0
159 176 0
164 184 0
158 175 0
164 181 0
162 180 0
164 179 0
160 175 0
162 176 0
164 182 0
163 181 0
160 178 0
162 180 0
158 176 0
169 187 0
161 179 0
160 177 0
164 182 0
156 174 0
164 184 0
166 184 0
164 184 0
160 179 0
162 180 0
169 188 0
161 180 0
165 185 0
160 177 0
166 184 0
164 185 0
175 199 80
170 193 25
171 195 76
172 196 88
171 195 76
171 195 84
170 194 67
170 194 88
169 193 67
171 195 80
172 196 51
173 197 88
170 194 84
167 192 57
171 196 84
170 193 67
173 198 84
170 195 80
168 193 88
174 198 76
171 195 76
168 192 67
170 193 57
171 194 76
170 194 99
166 191 51
171 195 76
165 189 57
170 194 72
168 193 92
169 193 57
167 190 72
169 194 88
171 195 72
169 193 76
166 191 76
167 191 67
171 194 72
169 193 88
171 196 72
169 192 57
166 191 67
164 188 72
163 187 67
166 191 80
159 182 36
163 188 57
164 188 88
167 191 76
164 189 92
166 191 84
163 187 72
169 194 80
161 185 76
161 185 57
163 186 84
165 189 80
161 186 99
163 188 57
152 176 84
160 184 67
171 195 88
164 188 57
161 185 80
163 187 84
161 184 51
164 188 72
161 185 62
163 187 88
165 188 80
157 180 76
155 178 72
158 180 76
157 181 76
150 173 72
157 180 72
161 185 76
157 180 76
154 176 51
156 178 62
152 174 74
163 186 72
144 166 54
138 161 82
128 151 90
109 134 102
94 121 126
86 113 132
98 125 135
87 116 143
94 121 133
96 122 118
85 113 131
87 114 122
90 118 136
85 112 134
87 115 137
98 125 136
100 127 154
94 121 133
109 134 148
77 106 122
95 120 139
90 117 133
81 109 137
98 125 150
89 117 147
84 112 139
89 116 129
86 113 124
90 118 133
91 119 138
92 119 140
91 118 153
97 123 155
90 117 137
87 115 147
87 115 139
76 106 146
84 113 153
76 106 154
73 105 145
67 99 144
78 106 146
73 104 146
83 112 158
67 99 142
81 109 156
72 103 160
70 102 149
70 103 156
68 100 143
76 106 149
59 94 141
64 97 137
64 98 137
62 96 133
64 98 137
63 95 138
65 98 135
67 99 141
64 95 124
66 97 135
64 97 137
60 95 145
61 95 129
62 96 136
61 95 136
58 92 137
58 92 135
59 93 126
61 95 128
59 93 129
58 92 138
59 94 133
58 91 129
59 94 136
59 94 130
59 94 125
60 94 135
59 94 126
59 93 132
60 95 141
59 94 133
60 94 134
57 90 122
58 92 133
60 94 133
59 93 131
60 94 136
60 94 139
61 96 143
61 96 144
59 93 130
60 94 135
58 92 122
59 93 128
60 95 136
59 93 126
58 93 125
61 96 134
59 94 128
60 95 134
59 93 131
59 93 129
59 93 125
60 95 135
60 95 141
61 95 137
60 95 133
60 94 133
60 95 135
60 94 130
59 94 131
59 93 130
59 94 133
60 95 130
60 95 134
59 93 128
59 93 124
59 93 122
60 95 137
59 93 121
59 93 126
59 94 126
59 93 130
60 94 125
60 94 135
60 95 133
60 94 139
60 94 136
60 94 133
60 95 135
59 93 129
59 93 124
57 91 118
59 94 125
60 94 126
59 92 122
57 90 118
58 92 121
59 93 134
60 95 137
60 94 135
59 93 128
60 94 136
59 93 122
59 93 120
61 95 135
60 94 131
60 94 128
55 88 100
58 92 115
59 93 118
59 92 124
58 91 118
56 89 118
58 91 118
58 91 120
58 91 118
56 89 111
62 93 107
80 105 86
101 120 77
115 130 44
107 123 47
108 123 18
126 141 0
123 139 0
126 140 0
120 134 0
121 135 0
118 132 0
112 126 0
127 139 0
123 139 0
122 134 0
122 134 0
131 146 0
132 144 0
132 149 0
126 139 0
129 144 0
119 135 0
130 142 0
127 140 0
122 136 0
119 132 0
132 146 0
122 137 0
131 146 0
123 137 0
132 147 0
131 144 0
129 142 0
136 151 0
125 137 0
140 155 0
136 148 0
135 148 0
123 135 0
127 139 0
131 141 0
134 147 0
131 148 0
131 145 0
136 150 0
127 140 0
123 134 0
133 147 0
131 143 0
129 142 0
137 152 0
142 155 0
139 153 0
132 143 0
133 146 0
141 155 0
130 142 0
141 155 0
138 149 0
130 141 0
147 160 0
139 154 0
144 160 0
148 162 0
145 157 0
142 155 0
135 146 0
141 153 0
152 166 0
141 154 0
148 161 0
141 155 0
134 146 0
145 157 0
142 154 0
151 166 0
148 163 0
140 154 0
151 165 0
147 161 0
149 162 0
145 159 0
147 161 0
146 159 0
138 148 0
141 154 0
148 160 0
144 156 0
149 165 0
156 169 0
144 156 0
152 165 0
147 157 0
151 164 0
145 157 0
150 164 0
149 163 0
148 162 0
143 156 0
149 163 0
153 166 0
160 175 0
154 169 0
154 168 0
150 162 0
154 170 0
158 173 0
155 170 0
158 175 0
155 170 0
161 176 0
150 165 0
156 174 0
153 167 0
154 168 0
151 164 0
157 172 0
152 168 0
156 171 0
153 170 0
164 180 0
158 176 0
159 176 0
159 176 0
163 176 0
160 177 0
159 174 0
163 180 0
155 171 0
158 175 0
161 177 0
162 179 0
161 178 0
159 174 0
160 174 0
162 179 0
158 173 0
164 182 0
162 179 0
162 179 0
162 180 0
165 184 0
158 177 0
165 182 0
162 181 0
162 178 0
162 181 0
166 186 0
161 180 0
163 181 0
162 180 0
164 182 0
163 181 0
161 180 0
164 183 0
164 183 0
164 182 0
165 184 0
170 195 62
169 193 51
173 196 57
172 196 76
172 197 95
171 195 80
174 198 88
173 196 67
170 195 84
172 197 80
166 190 51
172 196 80
172 196 67
174 197 67
169 194 76
171 195 105
171 196 92
169 193 62
171 193 84
168 193 57
170 194 72
169 193 57
171 195 88
173 198 105
164 188 84
165 189 67
168 192 84
168 192 76
166 190 67
169 193 76
171 195 72
165 189 57
169 194 72
169 194 84
164 189 72
168 192 76
168 192 80
166 192 80
168 192 62
166 191 72
166 191 80
170 194 67
166 189 62
170 195 84
167 190 80
163 186 57
168 192 95
166 190 62
165 189 76
167 191 67
165 189 62
165 189 62
164 187 62
168 192 51
165 189 57
163 187 84
172 194 67
162 186 62
165 188 84
163 186 51
161 185 51
166 189 84
161 184 67
156 180 74
156 181 76
162 187 72
156 179 62
161 185 67
161 185 88
159 183 44
156 180 102
161 185 84
161 184 51
159 182 92
156 179 44
150 173 88
160 183 92
159 182 84
153 176 67
165 188 95
150 173 84
161 184 76
156 179 80
144 166 72
136 160 102
123 147 122
103 129 128
87 115 134
83 111 124
99 126 134
94 121 133
92 119 136
86 113 124
99 125 137
91 117 131
89 116 122
96 122 144
92 119 136
105 130 149
90 117 143
92 119 150
96 122 141
88 116 145
87 114 135
96 123 145
102 128 149
90 116 139
98 124 156
91 118 149
95 121 139
95 121 144
102 126 137
94 121 147
99 126 148
89 117 144
91 118 145
81 109 145
86 114 151
85 113 155
84 113 160
75 105 146
76 107 158
78 108 150
77 107 156
71 102 148
70 103 150
72 104 160
70 102 151
68 100 145
73 103 152
69 102 152
68 100 141
72 103 148
65 97 142
67 99 132
66 99 129
65 98 142
68 100 140
63 96 131
72 103 133
62 94 124
64 97 122
63 96 127
61 96 133
60 94 135
64 97 133
60 94 131
60 95 137
60 95 139
61 94 120
58 92 123
59 93 138
59 93 134
60 95 134
59 93 126
58 92 126
58 92 131
60 95 136
58 92 116
59 93 131
59 94 133
59 93 126
59 93 121
60 94 142
58 92 126
59 93 120
59 94 131
59 94 129
59 94 134
59 94 137
60 95 133
60 95 139
59 94 129
57 90 118
59 94 139
58 93 126
60 94 124
60 94 134
60 95 134
59 93 128
59 93 131
60 94 129
59 93 134
60 94 129
59 94 128
59 94 125
59 93 122
60 94 134
60 95 131
60 95 134
59 93 130
60 95 136
60 95 135
58 93 126
61 96 144
58 92 124
59 94 128
60 95 133
61 96 140
60 94 125
61 95 148
59 93 129
60 94 134
59 93 129
58 93 120
60 94 129
60 94 137
60 95 136
60 95 135
60 94 136
59 93 133
59 94 131
59 94 126
59 92 120
59 93 129
60 95 126
59 93 120
58 92 115
59 94 128
60 94 128
60 94 129
59 93 121
59 93 121
60 94 129
59 93 133
59 93 113
58 91 118
59 92 125
59 93 125
57 91 115
59 93 113
58 92 120
57 90 110
57 90 110
59 93 124
59 93 118
57 90 118
57 90 114
59 92 117
56 89 102
62 91 108
81 105 95
91 111 74
106 122 60
108 123 40
113 128 0
122 135 0
130 144 0
114 127 0
121 135 0
110 122 0
118 132 0
125 138 0
120 135 0
122 136 0
126 140 0
128 140 0
129 145 0
123 136 0
119 134 0
125 140 0
125 140 0
130 142 0
125 140 0
124 139 0
131 145 0
141 155 0
133 149 0
128 143 0
125 139 0
136 149 0
131 145 0
129 144 0
134 150 0
138 151 0
123 137 0
132 146 0
132 145 0
142 157 0
131 145 0
137 153 0
138 152 0
142 156 0
135 146 0
131 147 0
130 143 0
135 149 0
144 157 0
128 140 0
135 148 0
134 148 0
139 154 0
137 152 0
127 139 0
130 143 0
141 156 0
130 142 0
135 148 0
130 143 0
142 153 0
131 144 0
146 160 0
135 151 0
133 147 0
138 153 0
143 158 0
133 146 0
149 162 0
136 149 0
149 164 0
146 161 0
145 159 0
136 149 0
141 154 0
136 148 0
145 162 0
142 157 0
145 158 0
142 155 0
133 146 0
142 155 0
144 156 0
146 159 0
146 159 0
147 156 0
151 167 0
151 165 0
148 161 0
145 157 0
147 160 0
142 158 0
147 160 0
146 160 0
156 168 0
151 166 0
143 156 0
152 165 0
158 175 0
151 165 0
149 161 0
145 157 0
151 164 0
151 166 0
153 166 0
146 159 0
146 161 0
152 166 0
158 173 0
154 170 0
159 178 0
149 165 0
151 166 0
157 172 0
156 171 0
157 173 0
152 166 0
157 175 0
155 171 0
159 178 0
155 172 0
160 175 0
153 167 0
159 175 0
162 180 0
161 179 0
159 175 0
158 173 0
159 176 0
158 175 0
162 177 0
164 183 0
163 181 0
165 183 0
161 178 0
162 181 0
163 181 0
161 179 0
161 180 0
159 177 0
155 172 0
166 185 0
161 179 0
166 184 0
164 181 0
158 176 0
163 183 0
154 173 0
162 180 0
165 185 0
166 185 0
162 181 0
161 179 0
159 178 0
165 185 0
165 182 0
168 185 0
164 183 0
166 185 0
161 180 0
166 183 0
169 194 67
168 191 51
173 197 88
170 195 67
169 193 67
174 197 88
172 196 57
173 196 88
172 197 76
171 196 67
174 198 95
171 195 76
169 193 84
172 197 99
168 192 67
168 193 72
167 192 76
172 196 67
169 192 62
167 191 80
170 194 84
170 194 76
171 195 62
168 192 72
170 196 92
169 194 62
171 195 67
171 196 80
167 191 62
167 190 76
169 194 92
164 188 72
167 192 76
170 194 84
168 193 72
166 190 80
173 198 76
171 195 76
165 188 51
170 194 80
167 191 72
168 193 72
171 195 76
167 190 57
170 193 76
159 182 67
163 187 57
167 192 95
161 185 76
161 185 67
166 189 57
163 187 76
166 190 80
165 189 80
162 186 84
167 192 76
168 192 72
158 182 57
158 183 80
160 183 84
162 185 57
159 181 72
160 184 62
164 188 76
162 187 84
159 181 62
168 191 62
163 187 76
164 187 80
166 190 80
157 180 76
159 182 51
153 176 25
152 175 51
160 183 62
159 181 67
152 175 62
152 175 80
163 185 57
160 183 72
152 174 67
155 178 76
155 176 80
156 178 78
151 173 110
135 157 86
126 149 110
104 130 121
98 125 130
76 105 129
88 116 126
92 119 134
87 115 144
98 125 154
90 118 137
102 127 141
99 124 133
98 124 146
87 113 131
97 123 141
84 112 131
88 115 134
93 119 141
95 121 138
104 129 148
87 115 142
85 111 125
87 116 140
106 131 131
101 126 140
107 132 142
80 109 137
84 113 140
93 120 139
104 129 148
88 115 139
95 121 155
91 118 148
96 122 151
80 110 145
84 112 147
77 107 149
85 112 159
75 106 152
76 107 150
94 120 158
71 102 150
76 106 149
74 105 148
77 105 147
79 106 144
77 106 142
70 102 142
63 97 145
74 104 145
63 97 149
66 98 142
72 103 134
68 99 136
62 94 138
71 101 137
60 94 125
62 96 139
59 93 140
59 93 130
59 93 126
61 95 140
60 94 118
61 94 117
58 93 129
57 91 126
61 94 120
57 91 128
60 94 121
60 94 127
59 94 132
58 92 137
59 94 139
58 93 126
58 91 124
60 94 134
59 93 125
58 93 125
59 94 131
58 92 126
59 94 129
59 94 134
59 93 118
59 94 133
59 93 129
60 94 132
59 94 133
60 94 140
58 92 123
59 93 131
59 93 130
60 95 134
60 94 131
60 94 134
60 95 133
60 94 128
61 95 137
60 95 141
59 94 126
60 94 125
61 95 134
61 96 142
60 94 136
60 94 129
58 92 124
60 95 135
59 94 129
59 93 128
59 93 125
59 93 133
60 94 131
60 94 134
60 95 131
57 91 124
59 94 129
58 92 126
60 95 136
60 94 128
59 93 130
60 95 135
60 94 129
58 92 120
60 95 130
60 94 134
58 92 125
59 93 133
59 94 133
59 93 128
58 92 126
58 92 125
59 93 121
57 91 129
61 95 141
60 94 129
60 94 122
59 93 125
57 89 118
59 94 121
59 93 129
60 95 129
59 93 113
59 93 125
62 96 136
56 89 110
57 91 122
59 93 124
58 91 124
58 91 114
57 90 111
57 90 103
56 89 108
58 92 120
58 91 120
57 90 115
60 90 95
70 96 82
84 103 80
102 119 57
116 131 31
108 121 18
114 127 0
125 139 0
133 147 0
119 132 0
118 130 0
115 130 0
109 124 0
114 126 0
113 127 0
123 138 0
126 137 0
113 127 0
123 135 0
129 144 0
123 137 0
117 131 0
131 145 0
126 139 0
129 142 0
124 137 0
132 146 0
121 134 0
121 133 0
121 135 0
127 140 0
120 135 0
123 137 0
136 148 0
121 134 0
137 151 0
122 136 0
135 148 0
137 150 0
134 147 0
135 148 0
129 144 0
136 151 0
131 145 0
139 153 0
136 151 0
132 146 0
137 151 0
129 141 0
140 156 0
134 147 0
138 152 0
139 155 0
135 149 0
136 148 0
139 156 0
141 153 0
122 135 0
143 156 0
138 148 0
141 151 0
137 152 0
134 145 0
139 152 0
132 146 0
141 155 0
152 166 0
143 156 0
140 153 0
143 157 0
139 152 0
143 156 0
141 153 0
139 152 0
141 155 0
137 150 0
144 160 0
140 156 0
148 161 0
147 160 0
146 161 0
147 163 0
143 156 0
150 165 0
146 160 0
151 164 0
146 161 0
144 158 0
147 163 0
144 158 0
149 162 0
138 151 0
156 170 0
152 166 0
149 164 0
143 157 0
149 163 0
158 173 0
152 166 0
150 165 0
154 168 0
162 178 0
152 166 0
149 164 0
153 169 0
157 171 0
153 167 0
153 168 0
155 172 0
156 172 0
151 164 0
146 160 0
160 179 0
149 164 0
154 171 0
160 177 0
153 167 0
157 172 0
163 180 0
155 170 0
156 171 0
157 174 0
159 176 0
157 175 0
157 174 0
159 173 0
160 177 0
159 175 0
159 178 0
160 178 0
159 174 0
162 178 0
162 178 0
157 174 0
157 173 0
162 180 0
160 177 0
160 178 0
161 178 0
160 177 0
158 176 0
162 180 0
164 181 0
164 183 0
163 181 0
160 179 0
160 178 0
162 179 0
159 178 0
158 175 0
166 186 0
163 181 0
159 177 0
164 182 0
168 187 0
163 182 0
165 185 0
162 183 0
166 187 0
165 184 0
165 185 0
167 190 57
173 196 72
174 198 88
170 194 57
174 199 84
171 194 67
167 191 72
170 194 62
174 199 105
171 194 57
169 193 72
171 195 72
170 194 92
169 193 57
173 197 76
171 196 72
168 194 88
166 190 62
174 197 76
169 193 72
169 193 88
168 193 62
168 192 84
165 189 57
172 196 62
171 196 80
168 192 76
169 195 84
168 192 67
172 196 67
168 192 72
164 188 76
169 192 67
170 194 76
166 189 57
167 192 105
169 192 72
168 193 95
164 189 62
170 194 76
169 193 67
168 191 80
167 191 62
166 190 95
166 191 88
163 187 67
166 189 76
167 191 67
164 187 44
162 186 67
166 190 51
162 186 76
161 186 67
161 185 44
164 188 72
166 190 88
165 189 76
161 185 88
162 186 76
161 185 62
164 188 62
159 183 76
165 189 72
153 176 44
161 185 72
160 184 44
162 186 76
161 184 72
163 187 76
160 184 62
156 180 72
158 182 62
156 179 51
159 181 57
159 182 44
162 186 80
158 181 76
152 174 62
158 181 67
161 184 99
157 180 57
152 175 57
151 174 67
153 176 92
158 181 92
143 166 90
122 146 107
110 135 124
88 115 124
85 113 129
96 123 143
96 122 134
79 107 119
94 121 143
106 131 138
90 117 130
97 123 132
98 123 133
95 121 138
95 121 136
92 119 141
84 112 134
102 127 144
94 121 134
105 130 137
90 118 140
93 120 135
95 122 139
99 125 137
101 127 131
89 117 136
93 120 131
87 115 136
97 123 148
98 125 155
100 127 133
106 130 155
90 117 143
84 112 142
83 111 144
82 111 138
82 111 157
76 107 145
80 110 150
75 106 148
87 115 161
76 105 143
69 101 147
68 101 155
75 103 143
76 104 145
65 98 147
73 102 138
66 99 144
65 98 140
75 103 143
76 105 142
67 99 142
66 99 142
72 101 126
68 99 135
61 95 136
66 99 131
60 93 122
61 94 126
58 92 134
60 95 137
62 96 141
64 96 131
62 96 136
62 96 129
61 95 129
60 94 129
61 95 128
60 94 139
59 93 126
59 93 135
58 92 135
59 93 126
58 92 129
59 93 132
59 93 127
60 95 130
59 94 128
60 94 126
60 94 128
58 92 125
60 95 136
57 91 120
59 94 129
58 92 115
59 94 131
60 94 144
60 95 136
58 92 124
59 94 125
58 93 130
61 95 139
60 94 131
61 95 139
59 93 128
59 93 135
60 94 122
60 94 137
59 93 125
59 93 130
59 93 133
60 94 126
59 94 128
59 93 120
59 94 121
60 95 130
60 95 142
59 94 133
59 93 129
60 94 130
59 93 133
59 94 129
60 94 128
58 92 128
59 94 137
61 95 130
61 95 133
58 92 125
59 93 124
58 92 118
59 93 125
60 94 129
60 94 133
59 93 131
59 93 129
60 95 128
60 95 130
59 93 126
57 91 118
60 94 133
58 92 118
59 94 129
59 93 124
59 93 121
57 91 113
58 92 128
58 92 121
59 93 128
59 93 130
59 93 128
58 92 122
59 93 133
59 93 117
57 91 117
60 94 122
57 91 113
57 90 120
57 91 113
57 90 120
56 89 120
58 92 115
56 89 111
62 92 97
71 96 86
91 111 83
108 124 57
109 125 51
120 133 18
118 133 0
105 119 0
118 132 0
125 138 0
122 133 0
114 128 0
117 132 0
120 134 0
127 141 0
119 133 0
129 144 0
122 136 0
125 139 0
129 144 0
135 151 0
124 140 0
119 134 0
127 141 0
133 147 0
128 141 0
131 145 0
133 147 0
126 141 0
128 143 0
125 140 0
132 147 0
137 152 0
132 147 0
129 143 0
141 156 0
131 146 0
123 140 0
139 152 0
125 138 0
128 142 0
135 151 0
133 145 0
129 143 0
136 148 0
143 157 0
132 146 0
131 147 0
133 147 0
140 154 0
134 148 0
138 153 0
137 153 0
140 153 0
135 153 0
146 163 0
135 152 0
134 150 0
139 154 0
140 156 0
137 151 0
141 155 0
149 164 0
151 165 0
142 156 0
143 158 0
143 156 0
143 156 0
140 156 0
144 157 0
141 154 0
133 145 0
144 159 0
136 151 0
143 157 0
149 165 0
139 154 0
151 167 0
144 157 0
142 154 0
145 157 0
140 155 0
150 166 0
152 167 0
146 159 0
142 156 0
147 162 0
143 157 0
146 160 0
151 166 0
152 166 0
150 164 0
153 167 0
147 162 0
145 157 0
145 157 0
146 160 0
150 166 0
151 166 0
154 170 0
148 163 0
155 167 0
156 172 0
153 170 0
153 171 0
160 175 0
156 169 0
152 167 0
158 174 0
159 176 0
154 169 0
151 166 0
154 171 0
162 178 0
164 181 0
157 172 0
157 169 0
154 169 0
157 171 0
164 179 0
163 180 0
154 171 0
160 177 0
158 175 0
153 170 0
162 179 0
160 177 0
157 175 0
161 178 0
155 173 0
159 177 0
156 173 0
157 173 0
159 178 0
165 182 0
159 177 0
163 182 0
156 172 0
156 173 0
159 179 0
162 179 0
161 180 0
159 176 0
159 178 0
154 170 0
164 183 0
166 186 0
160 178 0
158 176 0
162 181 0
159 176 0
163 183 0
164 182 0
166 187 0
163 181 0
165 182 0
163 180 0
168 188 0
166 187 0
165 184 0
167 186 0
168 189 0
173 199 111
174 199 99
172 196 62
171 195 72
171 196 76
172 196 62
170 194 51
167 192 76
168 192 62
170 194 72
171 195 67
168 192 72
172 196 88
171 196 95
170 195 76
167 192 84
170 194 57
171 195 80
169 193 67
171 195 67
172 196 67
168 192 57
170 196 92
163 187 57
169 193 84
165 188 36
173 198 84
166 190 57
166 190 67
169 193 84
172 196 67
167 191 44
165 189 80
168 192 62
167 191 62
171 196 92
168 191 62
169 193 88
167 190 76
169 193 62
164 188 62
163 188 76
169 193 76
163 187 67
165 190 62
168 192 80
166 190 62
166 189 67
162 185 67
169 194 72
167 191 76
166 190 72
162 186 76
165 189 62
167 192 80
161 184 80
163 187 36
161 185 62
163 187 57
172 195 80
155 179 57
161 184 76
163 186 95
165 188 95
164 188 80
166 189 76
163 187 62
156 178 44
163 187 76
155 178 72
160 184 80
164 187 76
155 178 67
159 183 80
158 181 88
156 179 62
158 181 67
159 183 74
158 181 67
152 174 57
155 178 36
156 178 72
145 168 57
158 181 76
150 173 57
158 181 76
126 149 82
124 147 105
86 111 110
89 116 129
88 115 120
87 114 128
76 104 122
87 115 140
87 114 130
82 110 126
86 113 131
86 113 141
95 121 133
82 109 127
98 123 140
95 122 143
98 123 139
99 125 134
83 113 138
89 116 127
95 121 147
105 130 148
97 123 144
98 123 135
98 124 150
98 123 136
93 120 132
98 124 151
100 125 155
93 120 154
88 116 144
82 110 145
102 129 161
88 115 146
87 115 145
81 110 146
85 114 142
82 111 156
92 119 158
76 106 151
81 109 149
76 105 152
67 100 151
73 103 151
85 109 143
68 101 153
77 105 148
65 97 134
71 102 144
72 102 140
64 97 138
66 97 141
68 100 137
66 97 130
63 96 129
58 92 127
65 97 132
65 97 125
65 99 144
61 95 128
62 94 122
61 95 126
60 95 137
62 95 137
60 94 124
61 95 132
60 93 120
57 91 120
58 92 127
58 92 123
58 92 132
57 91 123
59 94 133
60 94 128
59 93 131
59 93 136
60 95 136
59 93 128
57 91 111
59 93 129
59 93 128
59 94 132
58 93 128
59 93 118
59 93 126
59 93 130
59 94 128
59 93 128
60 95 133
59 93 120
59 93 129
59 93 133
58 91 126
60 95 136
58 92 128
59 93 124
58 92 120
59 93 125
58 92 124
61 96 139
60 94 125
58 91 117
58 92 122
58 93 133
60 94 129
59 93 133
60 95 134
60 95 128
61 96 140
59 93 128
59 94 128
60 95 134
59 94 125
59 93 118
61 95 133
59 94 130
59 93 122
58 92 115
58 92 126
60 94 129
58 92 117
61 95 140
59 94 130
59 93 125
58 93 121
58 91 126
58 92 120
59 93 121
58 91 114
59 93 125
58 92 115
59 93 124
59 93 121
58 92 125
58 92 115
59 93 121
60 94 125
57 90 115
57 91 114
57 91 115
59 93 126
58 92 117
57 91 108
59 93 118
57 89 114
56 90 113
57 90 121
56 89 102
56 89 107
56 89 103
56 89 110
60 93 118
74 100 97
91 112 87
97 115 76
104 120 36
132 149 18
106 120 0
121 137 0
110 123 0
126 141 0
109 121 0
122 135 0
126 141 0
119 133 0
122 137 0
113 128 0
130 143 0
128 142 0
119 133 0
121 135 0
124 139 0
133 148 0
127 141 0
121 136 0
124 141 0
128 145 0
134 150 0
127 141 0
124 138 0
126 143 0
131 146 0
128 141 0
125 139 0
125 140 0
139 154 0
130 145 0
136 154 0
140 156 0
136 151 0
126 142 0
142 157 0
134 147 0
136 152 0
124 139 0
136 151 0
139 155 0
129 143 0
136 151 0
130 145 0
133 146 0
133 148 0
130 147 0
135 149 0
131 143 0
137 151 0
135 150 0
124 136 0
135 150 0
135 151 0
148 165 0
143 159 0
143 156 0
137 151 0
140 155 0
141 160 0
143 156 0
140 154 0
142 156 0
142 157 0
136 147 0
144 159 0
145 159 0
136 150 0
140 153 0
146 159 0
148 162 0
138 152 0
147 163 0
146 158 0
150 167 0
141 155 0
141 156 0
139 151 0
150 164 0
143 156 0
145 158 0
151 167 0
144 158 0
150 165 0
151 166 0
157 174 0
142 157 0
148 165 0
159 174 0
152 168 0
156 172 0
144 157 0
148 163 0
142 156 0
150 166 0
154 168 0
150 166 0
153 169 0
151 168 0
144 157 0
146 159 0
148 164 0
157 173 0
157 173 0
153 169 0
156 171 0
154 169 0
152 167 0
155 171 0
159 176 0
155 169 0
157 174 0
162 180 0
161 179 0
154 168 0
151 169 0
157 171 0
155 172 0
162 180 0
161 180 0
159 176 0
160 177 0
161 178 0
158 175 0
149 165 0
155 173 0
158 173 0
161 178 0
163 182 0
161 178 0
161 180 0
154 170 0
165 184 0
162 181 0
160 175 0
163 182 0
159 176 0
157 175 0
165 183 0
162 181 0
156 174 0
162 181 0
161 180 0
163 182 0
162 180 0
165 183 0
162 182 0
158 177 0
162 177 0
166 186 0
162 180 0
166 185 0
166 186 0
161 180 0
165 186 0
167 186 0
162 180 0
166 185 0
172 196 72
170 194 72
171 194 62
175 197 57
169 192 62
169 193 76
166 190 62
173 197 80
170 194 88
171 196 72
172 195 76
175 199 72
171 194 67
171 195 76
171 194 76
171 194 67
165 189 76
169 193 72
170 194 57
168 192 44
170 194 80
171 196 84
166 191 80
169 193 84
167 191 62
165 189 51
170 194 72
167 190 62
171 196 92
166 190 84
167 192 76
169 193 76
164 187 67
169 193 92
167 192 88
166 190 72
166 189 57
168 192 88
162 186 62
167 191 72
162 187 80
165 189 51
167 191 80
161 185 80
163 187 67
162 187 102
167 191 67
166 191 88
162 186 67
163 187 76
163 187 62
164 188 67
163 187 57
159 183 51
160 185 80
161 185 88
164 187 67
159 183 57
160 183 67
161 185 67
162 185 51
165 188 72
164 187 57
153 177 76
162 185 76
164 187 67
157 180 57
167 191 84
157 181 76
161 183 78
159 182 80
162 186 72
163 186 72
156 180 92
162 185 62
160 183 76
154 177 62
159 181 72
151 174 62
161 184 84
153 176 72
148 172 62
155 179 105
152 175 76
147 170 67
151 174 62
155 177 86
140 164 109
121 144 121
98 124 111
104 129 122
82 110 120
96 123 136
87 114 132
78 107 121
95 121 131
77 107 129
85 113 135
97 123 119
90 116 127
85 112 122
90 116 137
83 111 126
92 118 133
93 120 123
83 110 136
80 108 133
96 123 137
85 113 126
96 123 130
94 121 128
95 122 144
92 118 139
94 120 117
101 126 131
95 123 141
84 112 137
102 128 156
93 120 154
83 112 136
83 112 142
92 119 156
85 112 143
79 107 141
76 106 135
61 96 144
76 106 139
75 104 143
78 107 153
63 96 135
76 105 154
85 111 144
78 106 154
61 96 148
68 100 145
67 99 139
73 103 140
66 98 131
61 95 137
69 100 133
69 102 137
63 95 129
74 103 118
63 96 128
59 93 131
58 92 128
67 98 120
61 93 116
63 96 129
58 91 114
58 92 127
60 93 111
63 95 118
59 93 135
61 95 136
59 93 119
60 95 134
59 93 120
57 91 117
61 96 139
60 94 136
58 92 130
59 93 120
58 92 125
59 93 131
57 91 116
58 92 117
60 94 136
58 93 128
60 95 140
59 93 131
59 93 122
60 94 136
60 94 128
59 93 132
59 93 133
59 94 126
59 93 136
60 95 131
60 95 134
60 94 135
59 93 133
58 92 125
60 94 136
58 91 125
59 93 128
58 93 126
58 92 118
60 94 126
60 95 137
59 93 131
60 94 137
59 93 120
59 93 134
58 92 126
59 93 128
59 93 133
58 92 118
59 93 126
60 94 133
61 96 135
59 93 124
58 92 118
59 93 120
57 91 115
59 93 126
58 93 121
59 94 121
57 91 114
60 95 126
59 93 125
59 93 125
59 93 117
58 92 117
58 93 122
58 91 120
59 93 124
59 93 121
58 92 124
58 92 120
56 89 102
59 93 121
60 93 130
58 92 121
56 89 103
58 92 114
57 90 115
58 92 111
59 93 117
58 91 121
59 92 126
56 88 111
60 93 125
57 90 110
55 88 108
58 91 125
56 90 102
78 101 90
80 101 86
93 113 47
117 133 51
111 127 18
113 126 0
106 119 0
118 131 0
121 135 0
116 132 0
116 131 0
118 130 0
106 121 0
111 125 0
115 130 0
121 135 0
118 134 0
119 134 0
125 140 0
127 141 0
106 119 0
123 139 0
138 153 0
123 137 0
124 138 0
123 139 0
126 139 0
133 149 0
129 143 0
131 146 0
125 138 0
122 137 0
133 148 0
121 135 0
126 139 0
133 149 0
128 143 0
133 147 0
136 149 0
133 149 0
139 155 0
137 151 0
131 148 0
138 154 0
133 147 0
133 148 0
135 150 0
143 157 0
130 146 0
130 145 0
137 153 0
138 151 0
132 147 0
135 147 0
132 145 0
138 154 0
133 147 0
145 163 0
135 149 0
145 160 0
140 155 0
143 158 0
140 154 0
139 152 0
145 159 0
136 151 0
140 152 0
143 158 0
127 140 0
142 158 0
137 151 0
148 164 0
144 159 0
137 151 0
135 147 0
140 153 0
147 160 0
145 158 0
144 159 0
139 155 0
146 161 0
149 163 0
142 158 0
152 167 0
153 168 0
148 162 0
153 169 0
143 156 0
144 156 0
138 153 0
156 172 0
148 161 0
151 167 0
142 155 0
145 159 0
150 164 0
150 166 0
148 164 0
156 170 0
155 173 0
153 170 0
146 161 0
155 170 0
153 168 0
152 168 0
149 166 0
153 167 0
156 172 0
152 169 0
156 172 0
163 179 0
158 176 0
153 167 0
157 173 0
152 166 0
159 176 0
153 169 0
159 176 0
153 169 0
160 177 0
155 172 0
152 168 0
151 168 0
162 177 0
164 181 0
159 178 0
162 180 0
160 177 0
157 174 0
155 173 0
157 172 0
160 178 0
155 171 0
163 180 0
159 176 0
156 176 0
158 175 0
165 183 0
159 177 0
159 179 0
161 177 0
159 177 0
164 183 0
157 173 0
165 184 0
160 180 0
161 179 0
158 177 0
162 183 0
161 179 0
161 181 0
163 183 0
160 179 0
164 181 0
165 186 0
165 185 0
161 179 0
164 184 0
165 184 0
164 182 0
161 178 0
164 182 0
165 185 0
171 194 67
173 197 92
170 193 62
172 195 67
171 195 72
175 199 95
170 194 57
172 196 76
171 195 80
172 196 57
167 192 76
170 195 76
171 195 76
171 195 62
173 196 76
173 196 62
170 194 80
170 194 72
171 195 88
170 194 67
171 196 76
168 192 72
168 193 62
169 193 72
170 193 62
171 195 76
171 194 62
166 190 72
169 193 62
168 192 51
167 191 51
169 194 51
166 190 72
167 191 88
167 191 72
164 188 76
167 192 57
167 191 44
163 188 80
162 187 84
163 187 80
169 194 80
167 191 72
161 186 67
166 191 62
167 190 25
167 191 84
163 187 72
167 191 72
164 187 51
165 189 80
165 190 72
164 187 76
156 180 72
167 190 67
157 181 72
159 184 76
164 189 84
166 190 76
161 184 51
160 183 72
164 188 67
161 184 92
168 192 88
159 184 80
164 188 72
158 181 51
156 179 51
159 183 80
157 180 72
162 184 76
159 183 76
158 182 76
154 177 80
159 182 84
155 178 72
158 181 76
160 182 80
160 183 67
159 182 84
146 170 57
152 175 62
142 164 67
151 174 84
158 180 72
149 171 72
149 171 78
134 157 80
123 146 88
117 141 121
81 109 121
90 117 129
87 114 118
83 111 118
83 110 129
87 115 141
92 120 131
92 119 130
79 107 129
100 125 137
91 118 143
101 127 149
92 118 131
94 119 143
85 112 126
94 120 126
103 128 142
97 121 138
103 127 154
98 123 148
90 115 141
89 114 134
97 123 131
96 122 148
91 117 119
86 113 134
90 117 146
89 115 141
84 113 150
85 112 138
84 112 141
89 116 150
68 101 150
89 115 148
86 114 157
73 104 143
79 108 153
72 103 150
68 100 143
78 107 143
75 104 159
80 107 142
82 109 147
72 101 138
63 95 137
66 99 139
66 99 145
68 101 151
64 96 124
66 98 141
65 98 136
64 95 127
68 98 125
67 98 126
61 93 120
61 95 135
63 95 124
60 93 127
58 93 133
59 92 125
60 93 120
59 93 129
60 94 122
60 93 113
59 93 130
58 92 128
59 93 129
59 93 124
59 93 122
58 92 128
58 92 125
58 92 121
59 93 126
58 92 126
57 91 114
59 93 128
58 92 127
59 94 120
59 93 130
59 94 126
59 93 131
59 93 121
60 95 136
59 93 128
60 95 137
60 94 139
57 91 122
60 94 131
60 94 130
59 93 123
58 92 124
60 94 131
60 94 125
58 92 119
60 94 131
59 93 130
59 93 131
58 92 121
60 94 124
59 93 124
60 94 126
60 94 129
59 94 136
59 94 135
58 91 117
58 93 117
58 93 118
59 93 128
59 93 111
59 94 126
59 93 124
60 94 126
59 93 129
58 92 125
60 95 136
60 94 131
58 92 120
59 93 122
57 90 114
60 94 126
58 91 110
61 96 137
60 94 120
57 90 111
58 93 126
58 92 130
57 90 110
59 93 124
58 91 114
57 90 114
58 92 125
59 93 126
58 91 118
56 89 105
58 92 115
57 91 117
57 90 110
57 90 108
58 92 118
57 89 107
57 91 111
55 88 102
57 90 113
57 90 110
55 88 102
59 88 102
73 100 94
79 101 76
90 110 47
103 120 48
118 135 31
124 139 0
125 140 0
125 140 0
115 129 0
119 135 0
128 144 0
114 130 0
118 134 0
123 137 0
115 127 0
116 129 0
118 135 0
131 147 0
114 128 0
128 143 0
120 137 0
124 138 0
114 126 0
122 137 0
116 130 0
133 149 0
128 144 0
135 149 0
130 145 0
126 141 0
125 138 0
134 148 0
123 138 0
122 136 0
131 147 0
130 144 0
127 140 0
140 158 0
132 148 0
131 147 0
131 147 0
142 159 0
129 145 0
128 143 0
137 152 0
138 154 0
129 144 0
143 158 0
144 162 0
131 147 0
133 149 0
141 156 0
131 145 0
139 156 0
144 160 0
138 154 0
135 150 0
132 145 0
140 156 0
144 159 0
130 144 0
139 156 0
143 157 0
138 153 0
133 148 0
144 159 0
135 150 0
141 156 0
134 148 0
136 151 0
141 157 0
152 167 0
147 160 0
143 157 0
144 158 0
137 152 0
139 153 0
148 163 0
146 161 0
153 168 0
136 148 0
134 148 0
146 163 0
142 157 0
144 158 0
152 168 0
147 159 0
154 171 0
155 168 0
153 170 0
151 166 0
151 168 0
149 161 0
149 164 0
150 164 0
154 168 0
152 168 0
152 167 0
151 169 0
150 167 0
143 159 0
149 163 0
153 170 0
146 159 0
152 168 0
155 172 0
150 167 0
156 171 0
158 174 0
153 169 0
159 175 0
154 171 0
151 168 0
157 174 0
154 170 0
154 172 0
154 171 0
158 175 0
156 172 0
159 177 0
158 175 0
160 178 0
158 175 0
163 181 0
159 175 0
158 176 0
160 178 0
157 174 0
157 174 0
156 172 0
162 180 0
157 174 0
153 173 0
154 172 0
157 174 0
156 174 0
165 184 0
160 178 0
167 184 0
161 181 0
165 183 0
164 184 0
158 176 0
163 181 0
167 188 0
161 180 0
161 179 0
164 184 0
168 188 0
160 178 0
164 184 0
165 183 0
162 180 0
163 183 0
162 181 0
157 177 0
160 179 0
161 179 0
167 186 0
165 186 0
162 182 0
166 187 0
160 180 0
162 181 0
167 191 72
170 195 72
170 194 51
169 192 57
174 199 88
170 194 76
171 195 80
170 194 62
169 192 67
173 196 72
169 193 72
169 193 62
169 193 76
169 193 67
171 195 88
173 196 76
172 196 72
166 191 88
169 194 62
171 194 57
164 189 72
171 196 72
165 189 84
170 195 72
170 194 51
166 190 88
168 191 57
166 191 57
167 192 57
167 191 44
171 195 80
167 192 62
170 194 67
168 192 76
168 192 88
169 193 72
169 192 67
167 192 84
169 194 67
168 192 62
170 194 72
163 187 80
167 191 44
164 187 72
164 188 57
163 187 72
165 189 62
166 190 84
167 191 92
166 189 44
164 188 76
165 188 51
166 190 72
163 188 92
160 184 84
162 186 62
163 187 76
169 192 76
164 188 80
162 186 76
167 190 84
162 185 67
165 188 80
166 189 92
165 189 80
148 172 57
154 177 76
160 183 76
156 179 67
156 178 72
162 185 84
157 182 88
162 185 44
163 187 51
160 184 51
154 177 72
160 184 95
146 169 80
155 177 92
158 181 62
161 184 84
150 172 67
159 182 62
151 173 76
150 173 67
153 176 62
151 173 62
140 164 76
137 160 90
123 145 88
115 139 113
88 116 122
78 107 127
87 115 127
94 121 117
87 114 115
84 111 120
91 118 133
87 114 123
85 112 108
89 116 131
83 111 130
101 127 139
100 125 133
101 125 132
96 122 141
87 114 124
102 128 140
92 118 138
93 120 128
95 122 136
96 122 131
93 119 121
95 121 135
98 123 136
91 118 127
97 122 140
86 114 122
88 115 141
79 108 131
100 125 137
93 119 146
79 108 144
89 115 150
79 108 134
74 103 137
83 110 151
78 107 150
81 109 154
72 104 149
70 101 143
73 101 133
74 103 139
72 100 139
77 105 148
81 107 142
73 102 141
69 101 141
66 98 125
63 96 138
62 95 125
69 101 126
63 95 131
60 94 122
60 92 123
62 95 122
65 96 123
66 97 121
59 93 136
65 98 125
61 93 114
60 93 128
62 96 126
60 94 131
59 94 135
58 92 115
55 88 110
60 94 139
59 93 124
58 93 128
59 93 129
60 94 139
59 93 118
59 93 125
58 92 124
58 91 129
58 92 121
57 91 122
59 93 131
58 92 125
59 94 130
59 93 124
59 94 128
58 92 128
60 94 128
58 92 120
60 95 129
57 91 117
60 94 122
59 94 126
56 90 113
57 92 117
59 93 126
59 93 122
58 93 124
60 94 125
59 92 115
60 94 138
59 93 114
59 93 127
60 94 129
60 94 129
60 94 127
60 94 125
59 93 126
60 94 128
58 92 121
60 94 134
60 94 129
57 90 121
58 92 118
59 94 122
60 95 128
58 91 117
59 93 122
60 95 130
59 92 118
61 95 135
58 92 124
58 92 117
57 91 114
59 93 122
59 93 128
58 92 122
58 92 124
59 93 121
57 90 111
59 93 125
58 92 110
58 92 120
59 93 121
58 91 115
58 91 122
59 93 130
58 91 115
59 94 128
57 90 105
57 91 113
57 89 103
59 92 114
57 90 103
57 90 111
53 85 94
57 89 100
60 92 110
81 105 84
91 111 82
98 115 54
103 119 54
113 128 0
114 129 0
113 128 0
108 123 0
121 135 0
128 139 0
119 134 0
124 139 0
123 138 0
118 133 0
118 134 0
128 142 0
124 138 0
116 130 0
115 132 0
122 138 0
124 137 0
122 137 0
126 143 0
128 144 0
119 135 0
126 139 0
127 144 0
131 146 0
129 143 0
124 138 0
126 143 0
133 150 0
129 145 0
130 146 0
130 143 0
127 142 0
123 140 0
134 147 0
130 143 0
132 147 0
127 141 0
125 141 0
134 151 0
134 150 0
135 149 0
131 145 0
134 151 0
136 153 0
144 159 0
144 158 0
139 155 0
134 149 0
136 151 0
136 150 0
133 145 0
137 152 0
137 153 0
143 158 0
139 154 0
137 151 0
146 161 0
146 161 0
137 151 0
145 163 0
133 147 0
138 153 0
143 158 0
138 153 0
147 163 0
131 146 0
148 164 0
149 164 0
147 161 0
155 171 0
148 166 0
145 158 0
149 164 0
139 152 0
140 154 0
140 154 0
149 165 0
141 155 0
151 166 0
152 166 0
145 160 0
139 154 0
147 163 0
151 166 0
145 160 0
151 167 0
147 164 0
153 169 0
150 165 0
155 172 0
151 166 0
146 161 0
146 161 0
152 168 0
149 163 0
145 157 0
150 166 0
147 164 0
160 176 0
153 167 0
156 172 0
153 168 0
156 172 0
160 176 0
160 177 0
156 172 0
150 166 0
154 168 0
154 171 0
161 178 0
152 170 0
159 176 0
151 168 0
154 171 0
151 168 0
155 171 0
161 177 0
156 171 0
156 174 0
154 171 0
156 171 0
157 173 0
156 173 0
153 170 0
156 173 0
161 180 0
157 174 0
151 168 0
163 180 0
162 181 0
160 179 0
154 172 0
160 178 0
152 171 0
159 177 0
163 182 0
159 176 0
163 181 0
166 184 0
157 174 0
162 182 0
158 174 0
164 183 0
160 180 0
156 172 0
158 178 0
158 176 0
162 181 0
166 184 0
164 183 0
164 181 0
168 184 0
161 181 0
166 185 0
163 180 0
166 185 0
165 186 0
166 186 0
166 186 0
165 186 0
163 182 0
171 195 80
170 194 57
171 195 84
170 195 80
172 196 76
172 196 84
172 195 67
170 194 72
168 192 57
169 193 57
167 191 76
167 191 51
172 196 84
170 193 62
169 193 62
169 193 57
174 198 84
170 194 62
169 193 88
169 194 62
167 192 76
172 196 95
168 193 76
173 197 88
168 192 51
172 197 99
167 191 67
166 190 76
167 191 80
168 192 62
169 193 62
168 191 36
166 191 36
169 193 72
168 191 62
168 193 72
166 190 72
166 190 88
162 186 76
163 187 72
167 192 88
166 191 76
162 187 84
166 190 76
165 189 62
168 192 92
163 187 57
168 191 51
165 190 84
162 185 57
169 193 88
165 190 92
165 188 72
161 184 76
159 184 76
162 186 67
165 189 76
164 187 76
160 184 95
162 185 72
163 186 80
161 184 62
159 183 67
162 185 62
166 189 76
157 181 76
162 185 62
163 186 80
161 184 76
161 183 76
160 183 67
153 176 62
150 173 65
158 181 76
154 177 88
159 182 94
160 183 76
157 179 88
149 172 72
155 178 80
150 173 88
150 172 67
152 174 57
146 168 57
160 183 76
141 163 67
151 173 76
147 169 80
155 177 82
129 151 70
120 143 107
87 112 94
86 112 105
86 114 121
92 119 125
100 126 121
91 117 123
100 126 129
89 115 118
88 115 130
101 127 139
97 124 135
81 110 126
89 116 133
102 126 135
84 111 118
99 124 128
90 116 125
93 119 131
98 123 141
89 116 124
96 121 131
92 119 134
92 119 139
81 109 144
98 123 148
81 110 137
98 123 139
95 122 136
101 126 148
83 112 137
87 113 142
98 124 154
87 115 151
79 108 141
82 108 123
83 109 145
81 109 147
82 109 142
72 100 142
67 98 135
73 101 137
84 108 134
76 102 130
72 101 136
64 97 140
68 99 132
68 98 137
75 104 148
73 103 134
71 101 141
67 99 122
64 97 136
61 95 137
63 97 141
71 102 132
62 95 117
70 100 116
56 90 118
58 92 118
59 92 120
58 91 118
60 93 118
64 96 111
60 94 113
57 91 120
59 94 135
58 93 118
55 88 90
57 91 111
58 91 119
59 94 131
59 93 135
59 94 131
58 92 129
58 91 110
59 93 129
57 91 120
57 90 118
59 93 117
57 91 115
59 93 122
59 93 120
59 92 123
58 93 128
58 92 122
59 94 129
58 92 120
60 94 134
59 93 124
58 92 118
59 93 128
58 92 124
60 95 128
59 93 128
60 94 134
60 94 128
59 93 117
60 94 140
59 93 124
59 93 129
59 93 130
60 95 126
59 93 128
58 92 125
59 94 129
59 93 125
60 94 128
58 92 118
60 94 126
60 95 134
60 94 129
59 93 124
59 92 121
59 92 118
59 93 117
58 92 124
60 94 133
60 94 126
59 93 122
58 92 108
58 92 122
59 93 124
59 93 115
58 92 121
58 91 113
57 91 110
58 92 120
57 91 118
58 91 124
58 91 117
59 93 122
57 91 118
58 92 117
57 90 115
56 89 108
56 89 111
57 90 105
56 88 108
56 89 100
57 90 118
56 89 110
55 88 108
54 86 99
74 99 90
83 106 84
93 112 51
107 124 25
105 119 18
114 127 0
107 120 0
117 130 0
119 131 0
119 135 0
106 121 0
127 143 0
112 128 0
111 126 0
110 126 0
117 134 0
130 146 0
124 137 0
124 141 0
119 134 0
119 137 0
121 137 0
120 134 0
128 142 0
135 150 0
125 139 0
129 144 0
130 146 0
131 147 0
134 150 0
128 143 0
135 150 0
135 152 0
136 151 0
129 145 0
141 157 0
137 152 0
147 165 0
132 148 0
124 139 0
132 147 0
132 149 0
140 155 0
140 156 0
139 154 0
126 140 0
125 141 0
143 159 0
134 146 0
143 160 0
143 158 0
138 153 0
134 150 0
137 151 0
144 160 0
135 151 0
139 153 0
135 151 0
141 155 0
134 151 0
146 160 0
142 155 0
140 154 0
137 152 0
138 154 0
140 155 0
134 148 0
142 159 0
138 155 0
145 162 0
144 159 0
141 156 0
154 170 0
141 154 0
143 158 0
149 165 0
141 157 0
150 167 0
135 151 0
148 162 0
146 162 0
145 160 0
142 158 0
151 165 0
156 170 0
153 170 0
143 159 0
150 166 0
151 167 0
143 159 0
142 155 0
151 166 0
146 161 0
144 157 0
151 165 0
146 161 0
153 170 0
148 163 0
148 163 0
151 168 0
152 169 0
150 168 0
154 168 0
154 169 0
158 173 0
151 167 0
150 166 0
156 172 0
150 168 0
152 169 0
157 173 0
157 174 0
152 167 0
154 171 0
160 177 0
166 183 0
152 168 0
156 175 0
155 171 0
156 172 0
150 167 0
165 182 0
157 174 0
157 173 0
152 168 0
157 173 0
156 174 0
165 184 0
161 178 0
160 178 0
155 173 0
158 173 0
158 176 0
159 176 0
162 179 0
162 180 0
164 182 0
164 182 0
165 183 0
162 182 0
163 182 0
160 177 0
163 182 0
166 185 0
160 177 0
165 185 0
162 180 0
156 173 0
160 180 0
164 185 0
157 175 0
163 180 0
163 183 0
163 182 0
162 182 0
162 183 0
160 179 0
164 183 0
165 186 0
162 182 0
167 186 0
165 185 0
165 184 0
162 180 0
166 186 0
167 186 0
171 195 72
165 188 25
169 194 80
172 196 80
169 194 72
169 193 95
173 197 80
170 194 67
168 192 57
170 194 80
166 190 76
172 196 88
167 191 57
171 196 84
170 193 36
169 194 99
170 194 62
170 194 84
172 196 76
168 191 51
169 194 76
170 195 62
169 193 80
166 190 57
167 191 57
165 189 72
170 194 80
171 195 76
169 194 84
169 194 80
166 190 67
169 193 76
167 192 67
172 196 76
166 191 62
169 192 80
168 193 99
168 192 88
169 193 67
163 187 62
165 189 84
167 191 72
167 192 92
166 190 76
166 190 88
168 192 76
165 189 62
166 190 62
171 195 80
167 191 80
161 185 84
165 189 80
170 194 105
163 186 67
166 189 88
163 187 92
158 181 80
158 181 88
170 193 99
163 186 72
164 188 80
163 185 67
166 190 80
158 182 67
165 188 84
164 189 88
159 183 72
154 178 92
160 183 57
157 179 80
154 176 62
161 184 67
158 182 72
156 179 84
158 181 62
155 179 80
155 177 80
146 168 62
156 179 80
161 183 67
153 175 67
152 174 57
153 176 92
144 165 57
150 172 67
151 173 72
156 177 76
141 162 67
150 171 76
147 169 82
129 151 73
121 144 94
98 124 122
85 112 111
85 113 126
76 105 125
99 125 133
88 115 130
98 122 119
83 111 129
91 118 126
88 116 135
87 114 121
99 124 139
96 122 129
89 116 130
93 118 136
94 120 151
92 118 133
91 117 122
99 124 133
96 122 133
89 117 124
106 130 137
101 126 139
98 124 130
96 123 147
87 115 148
99 124 146
80 109 136
101 126 148
85 112 151
88 116 132
87 114 152
93 118 154
85 112 146
80 110 151
82 111 141
74 104 147
86 112 141
84 108 136
88 113 150
81 108 149
77 102 133
78 105 136
67 98 137
66 97 127
74 103 135
63 96 126
67 98 130
68 99 128
67 99 141
68 100 132
63 96 130
61 95 139
58 92 129
62 93 121
60 93 122
58 92 118
64 96 126
59 93 136
60 93 120
59 93 130
58 92 120
57 90 120
61 95 120
61 94 126
59 93 136
58 92 125
58 92 117
58 93 124
59 93 129
56 90 122
57 91 118
58 91 121
56 88 102
59 94 130
59 93 122
59 92 120
58 92 117
58 93 121
60 95 136
58 92 117
58 92 120
57 90 121
58 92 125
59 93 126
59 93 124
59 93 125
59 93 125
59 93 133
59 93 124
60 95 135
59 93 121
59 93 126
59 93 125
58 92 121
60 94 131
58 92 117
59 93 129
60 96 140
59 93 126
60 94 128
59 93 118
58 92 121
56 90 107
59 93 122
59 93 128
57 90 115
58 92 118
57 90 105
60 94 124
58 92 118
59 92 117
58 91 114
59 93 118
59 93 118
59 93 120
58 92 124
58 92 117
58 92 121
59 93 122
59 93 120
58 93 125
57 91 118
57 91 110
58 92 121
59 93 117
56 89 113
57 92 113
57 90 102
57 90 111
58 91 114
57 90 100
57 90 120
57 90 97
58 91 114
57 89 111
55 87 103
56 89 117
55 87 90
57 90 110
60 90 116
72 96 90
76 99 70
90 107 60
94 110 47
110 124 18
110 124 0
108 125 0
112 126 0
116 130 0
122 137 0
124 140 0
118 133 0
109 123 0
125 141 0
106 119 0
118 135 0
116 132 0
121 135 0
128 143 0
122 137 0
108 121 0
113 130 0
118 132 0
125 142 0
120 133 0
122 140 0
119 135 0
113 130 0
121 138 0
129 144 0
133 149 0
129 143 0
134 149 0
132 150 0
126 140 0
126 141 0
123 139 0
138 155 0
127 144 0
132 148 0
130 147 0
136 148 0
130 146 0
135 150 0
138 153 0
132 149 0
133 148 0
129 146 0
141 158 0
150 168 0
128 145 0
134 150 0
141 157 0
147 164 0
140 155 0
142 156 0
146 164 0
149 166 0
146 163 0
137 152 0
139 154 0
140 155 0
142 159 0
138 154 0
139 155 0
141 158 0
127 141 0
140 156 0
146 160 0
151 166 0
140 157 0
134 151 0
141 154 0
145 161 0
145 161 0
147 163 0
151 169 0
137 151 0
143 159 0
147 162 0
146 163 0
145 162 0
149 168 0
139 153 0
147 163 0
146 161 0
146 160 0
149 165 0
145 161 0
150 165 0
144 159 0
145 160 0
147 162 0
144 158 0
146 161 0
149 166 0
154 171 0
147 164 0
156 172 0
153 168 0
152 168 0
145 161 0
153 167 0
156 175 0
161 178 0
151 166 0
149 165 0
155 172 0
152 166 0
157 173 0
152 169 0
155 171 0
157 175 0
155 172 0
152 171 0
157 172 0
157 173 0
159 174 0
154 170 0
157 174 0
153 169 0
158 177 0
154 172 0
154 173 0
165 184 0
156 172 0
153 170 0
157 176 0
157 174 0
158 173 0
157 175 0
159 176 0
162 181 0
164 182 0
159 177 0
161 178 0
156 171 0
150 166 0
162 182 0
161 179 0
160 178 0
164 181 0
163 181 0
156 176 0
160 178 0
162 182 0
164 184 0
159 178 0
162 181 0
166 186 0
163 183 0
159 179 0
163 181 0
163 183 0
160 179 0
163 183 0
159 178 0
165 184 0
161 180 0
169 190 0
162 181 0
160 179 0
164 182 0
165 186 0
170 191 0
169 188 0
164 184 0
171 195 84
164 188 76
171 196 84
169 192 76
169 193 67
168 194 76
167 191 76
169 194 80
169 193 84
168 193 80
170 195 88
168 193 67
170 194 51
172 196 84
173 196 72
165 190 80
168 192 62
170 195 84
164 189 80
170 194 57
170 193 76
164 187 51
171 196 92
161 186 67
167 191 57
164 187 76
168 192 62
166 191 80
163 188 80
168 193 88
170 193 57
164 188 44
167 192 72
167 189 67
173 196 88
168 193 80
166 190 67
169 193 88
164 187 76
170 195 76
165 189 51
163 186 67
162 184 76
166 190 72
164 187 51
165 190 80
167 190 88
164 188 67
166 191 80
161 186 88
163 187 80
166 189 62
160 185 80
167 190 76
166 190 95
170 194 92
165 187 84
160 184 95
168 191 92
164 187 95
160 183 57
161 184 80
160 184 88
164 188 62
160 183 72
161 184 84
155 178 76
161 185 92
161 185 67
163 187 62
146 170 76
158 180 57
157 180 72
163 187 92
152 174 84
153 177 102
152 175 67
149 172 67
159 181 72
159 182 67
159 182 80
149 172 62
157 178 72
143 165 80
149 172 62
156 177 62
145 167 76
153 175 62
152 174 76
147 168 44
139 161 74
128 151 82
129 151 108
79 106 107
94 121 124
87 114 115
89 116 122
107 131 123
86 113 119
90 115 123
77 104 102
94 120 121
107 132 136
85 111 122
84 112 119
92 119 142
87 113 122
96 121 136
100 124 148
96 122 141
105 130 137
83 111 127
93 119 130
84 111 124
90 116 126
96 122 140
101 126 138
100 126 131
96 121 132
87 115 142
97 121 145
88 115 137
92 117 137
87 115 139
76 105 140
93 118 133
93 119 142
74 103 134
83 111 144
90 114 146
78 107 145
82 107 130
76 104 143
81 106 139
75 102 129
85 109 140
74 103 133
59 93 129
65 98 135
65 97 127
76 105 124
72 101 129
62 93 118
71 102 128
65 98 126
62 94 126
64 96 115
64 95 121
61 94 129
57 90 111
62 95 121
59 91 110
58 92 113
57 91 113
60 94 136
61 93 120
60 94 120
57 90 115
59 94 131
58 92 113
59 93 131
57 90 120
58 92 124
57 91 113
59 94 122
58 92 120
56 89 113
57 90 114
57 90 122
57 91 121
57 91 113
59 93 125
58 92 121
57 91 124
59 93 128
58 92 121
59 93 129
59 93 122
59 93 114
59 93 118
59 93 120
59 93 120
59 93 120
59 93 125
59 92 122
55 88 105
58 92 125
58 92 135
57 91 117
58 91 111
60 94 118
59 93 121
58 92 115
58 91 117
57 90 114
59 93 133
59 93 122
56 89 107
59 94 128
60 94 125
57 91 115
57 90 114
58 91 114
57 91 118
58 92 124
58 91 120
56 89 113
58 91 114
58 91 113
58 91 124
58 91 120
57 90 118
58 92 121
56 89 110
58 92 118
55 88 102
58 91 113
59 92 117
57 91 105
56 89 105
57 90 103
57 90 115
56 88 100
58 91 114
56 89 97
58 91 120
57 90 111
57 90 118
58 91 110
54 86 97
58 89 99
67 95 100
72 98 84
85 105 65
103 119 44
101 117 44
108 122 0
122 136 0
108 121 0
108 124 0
110 126 0
115 128 0
111 124 0
118 134 0
117 131 0
115 130 0
111 125 0
134 150 0
101 116 0
118 132 0
123 138 0
114 129 0
114 129 0
127 145 0
127 143 0
115 131 0
123 142 0
135 152 0
136 154 0
132 148 0
125 140 0
129 143 0
130 149 0
131 148 0
129 146 0
123 139 0
135 150 0
130 146 0
134 150 0
141 157 0
129 145 0
133 150 0
134 150 0
117 133 0
121 137 0
133 151 0
133 148 0
126 142 0
136 152 0
133 149 0
139 155 0
135 153 0
129 145 0
131 148 0
137 154 0
139 154 0
134 151 0
131 145 0
133 148 0
147 165 0
137 150 0
132 148 0
142 161 0
144 157 0
142 159 0
146 161 0
137 153 0
152 169 0
144 160 0
138 153 0
134 147 0
142 159 0
133 148 0
145 161 0
153 171 0
140 157 0
143 157 0
149 166 0
149 166 0
139 155 0
146 161 0
140 156 0
149 165 0
144 159 0
150 166 0
145 163 0
144 160 0
155 170 0
152 167 0
143 158 0
145 159 0
152 171 0
147 164 0
148 165 0
144 159 0
152 169 0
151 170 0
148 160 0
151 166 0
153 171 0
152 164 0
150 166 0
151 167 0
156 174 0
149 165 0
149 164 0
158 175 0
151 168 0
152 168 0
157 174 0
153 170 0
157 174 0
149 163 0
147 164 0
152 170 0
159 175 0
157 172 0
155 173 0
155 173 0
163 178 0
160 175 0
158 176 0
156 173 0
164 184 0
152 169 0
151 169 0
163 179 0
162 181 0
158 174 0
155 171 0
161 180 0
158 177 0
155 172 0
157 175 0
153 172 0
166 186 0
157 174 0
155 174 0
161 180 0
160 176 0
162 179 0
160 179 0
165 183 0
163 184 0
159 176 0
159 177 0
159 178 0
166 186 0
163 180 0
162 181 0
161 180 0
158 176 0
164 185 0
161 180 0
164 184 0
160 180 0
166 185 0
159 177 0
163 182 0
163 182 0
164 184 0
161 178 0
162 183 0
163 183 0
160 178 0
164 186 0
159 177 0
167 185 0
164 182 0
163 184 0
173 197 67
171 195 57
171 196 67
169 194 51
170 195 76
168 192 57
173 196 76
170 193 44
174 199 105
171 195 57
166 190 72
163 188 44
172 197 80
172 195 62
170 194 67
169 192 57
170 195 88
161 185 51
168 192 80
170 195 72
168 193 84
170 195 84
163 187 57
167 191 62
168 192 84
169 193 76
169 193 67
169 194 92
169 193 67
165 190 84
165 189 76
165 190 80
168 192 76
161 184 62
167 191 88
165 190 67
167 191 67
167 191 57
166 190 92
167 191 62
161 184 67
169 192 72
163 186 72
166 190 62
167 191 76
171 195 88
166 191 88
170 194 92
162 186 76
164 187 72
163 187 80
162 187 62
166 190 80
164 187 95
169 192 105
166 190 95
162 185 72
160 185 84
161 185 62
159 183 76
166 189 92
162 184 67
167 190 95
161 183 80
161 184 72
163 186 72
156 179 72
165 188 72
158 180 62
157 180 88
158 181 72
153 175 76
153 175 76
155 179 67
157 181 84
152 175 57
156 178 72
156 180 72
156 179 62
163 185 72
149 171 51
150 172 72
152 175 67
156 178 67
147 169 51
149 171 67
146 168 88
146 168 62
145 166 80
151 172 72
146 168 78
139 161 90
127 150 101
106 130 107
92 118 107
83 111 113
84 110 115
93 118 108
83 110 117
82 110 137
79 106 117
101 125 129
102 127 142
95 121 128
100 125 140
95 121 126
101 126 133
96 122 139
86 114 122
98 123 140
102 127 131
95 120 123
102 127 142
90 116 129
104 128 139
100 125 140
93 119 128
93 119 128
94 121 137
95 120 142
100 125 143
87 115 133
95 122 142
100 125 140
82 111 146
80 108 133
72 102 142
77 105 125
77 104 138
88 114 148
79 105 140
92 115 140
75 102 135
94 114 139
80 105 132
81 107 133
75 103 138
70 100 126
77 104 132
68 99 126
65 98 129
65 95 122
73 103 135
64 95 128
71 103 139
64 95 125
68 98 120
63 94 117
63 95 120
63 97 129
59 93 124
57 90 120
61 93 115
60 93 117
57 91 115
59 94 124
61 94 122
56 89 110
58 91 118
58 91 122
59 94 129
58 92 114
59 94 126
57 91 113
57 91 122
57 91 110
58 91 123
59 93 131
58 91 120
59 94 129
59 93 131
59 93 124
56 89 103
60 94 131
58 92 115
56 88 114
61 95 128
57 91 123
58 92 113
57 91 118
60 94 131
57 90 115
58 92 118
58 92 117
58 92 117
58 93 122
58 92 121
59 93 113
57 90 113
58 92 114
59 93 126
57 91 114
60 94 133
58 92 110
58 92 122
58 92 120
57 91 113
59 93 128
58 92 118
58 92 110
57 90 115
58 92 115
59 93 129
57 91 110
57 90 120
58 91 117
57 91 107
59 92 121
57 91 111
59 94 129
57 91 113
60 94 129
56 89 110
60 93 125
57 90 107
57 90 110
58 92 115
58 92 129
58 92 120
57 91 114
56 89 111
57 91 114
56 90 107
59 93 118
56 88 113
55 87 103
59 92 122
57 90 111
59 92 120
53 84 97
62 90 90
80 102 80
79 101 65
95 111 51
108 124 31
102 116 0
101 112 0
111 124 0
123 138 0
111 125 0
117 129 0
118 133 0
112 127 0
123 139 0
124 140 0
112 125 0
124 140 0
117 131 0
117 131 0
123 139 0
118 132 0
122 138 0
127 141 0
120 137 0
124 139 0
119 132 0
119 134 0
138 155 0
132 149 0
134 150 0
132 148 0
125 141 0
129 145 0
138 153 0
130 147 0
129 145 0
134 150 0
122 139 0
123 139 0
131 146 0
124 142 0
130 147 0
135 150 0
135 152 0
122 138 0
134 149 0
123 137 0
139 156 0
142 158 0
134 150 0
137 155 0
138 152 0
138 154 0
138 155 0
131 148 0
137 155 0
138 155 0
140 157 0
129 145 0
141 156 0
129 142 0
141 155 0
138 153 0
138 154 0
147 165 0
140 156 0
141 155 0
144 162 0
144 162 0
146 161 0
140 157 0
139 154 0
145 159 0
149 166 0
148 165 0
143 158 0
145 160 0
142 155 0
152 168 0
153 169 0
143 158 0
149 166 0
152 168 0
138 155 0
148 165 0
151 168 0
143 160 0
144 160 0
147 164 0
154 171 0
146 163 0
157 176 0
155 173 0
155 172 0
148 165 0
145 160 0
152 168 0
149 167 0
147 162 0
150 166 0
155 174 0
151 168 0
153 169 0
151 165 0
147 165 0
153 172 0
151 171 0
147 163 0
158 176 0
158 174 0
159 177 0
157 173 0
153 169 0
151 168 0
157 176 0
157 172 0
155 172 0
158 177 0
158 174 0
159 175 0
157 173 0
158 177 0
155 169 0
155 171 0
159 177 0
155 173 0
157 172 0
158 177 0
159 177 0
157 176 0
155 171 0
158 175 0
164 181 0
152 168 0
162 180 0
158 173 0
158 173 0
157 173 0
161 181 0
158 177 0
160 180 0
166 183 0
157 175 0
154 171 0
162 182 0
156 176 0
162 179 0
161 181 0
161 179 0
160 175 0
161 180 0
159 177 0
169 189 0
163 181 0
163 182 0
164 183 0
162 182 0
162 181 0
162 180 0
160 180 0
167 187 0
165 185 0
161 179 0
166 186 0
159 180 0
168 187 0
162 182 0
164 181 0
165 184 0
161 183 0
174 198 84
172 195 80
169 193 88
170 194 80
170 193 84
173 198 92
171 195 76
170 194 95
166 191 36
171 195 84
167 191 72
172 197 88
169 193 72
172 196 72
165 189 84
173 197 67
168 192 51
168 192 57
169 193 76
165 190 76
169 193 72
167 191 51
168 193 76
169 193 80
165 189 62
171 196 88
166 191 99
167 191 67
168 192 67
167 191 57
171 195 88
169 193 57
168 192 62
171 193 62
167 191 84
167 191 62
170 193 72
162 186 62
164 188 76
167 191 76
170 194 72
170 194 95
166 190 76
163 187 88
162 185 67
167 191 99
168 192 62
163 187 67
167 191 84
166 190 76
162 184 80
163 186 92
162 186 84
164 188 88
160 184 102
164 188 80
165 187 92
168 191 80
166 190 92
164 187 92
162 186 57
158 181 67
163 186 76
160 183 92
160 184 88
153 177 57
153 177 92
161 185 92
159 182 76
161 182 76
164 187 72
168 190 92
153 175 72
168 191 102
152 175 72
159 181 72
152 175 84
156 179 88
152 175 80
154 176 62
152 174 84
153 175 99
146 168 67
156 179 84
146 167 57
143 164 62
151 173 84
152 174 51
148 169 88
144 166 84
143 164 62
145 167 82
146 167 105
120 141 90
102 127 94
90 115 121
98 123 134
97 122 122
92 118 126
101 125 118
96 121 118
94 119 124
104 129 148
81 110 126
89 115 126
96 121 137
106 131 143
96 122 135
91 118 126
105 130 154
101 126 136
102 128 126
103 128 143
95 121 139
104 127 125
102 127 131
92 119 131
97 124 130
90 116 113
91 118 141
93 119 147
101 127 133
93 120 139
81 108 134
90 116 132
93 117 142
87 113 139
88 114 139
94 115 137
77 105 137
69 101 152
88 113 149
81 107 137
80 106 140
87 112 140
82 106 127
75 102 131
74 101 125
74 102 124
70 100 127
70 99 118
69 101 131
64 96 118
61 93 126
70 98 123
61 93 108
69 96 110
67 98 110
59 92 125
63 94 105
56 90 107
60 92 118
58 91 125
58 91 108
62 94 111
59 92 118
59 93 130
58 92 124
56 90 104
58 92 120
56 90 116
57 91 120
58 92 118
59 93 121
57 91 118
59 93 131
58 92 128
58 92 121
59 93 125
57 90 116
58 92 120
58 92 128
59 93 126
58 92 110
59 93 129
58 92 124
58 92 128
57 91 107
59 93 125
60 95 135
57 91 115
58 92 124
58 92 121
56 90 108
58 91 110
59 93 129
58 92 118
61 96 141
58 92 128
59 93 131
59 94 115
58 92 126
60 95 129
58 92 120
58 91 118
58 92 129
57 91 110
59 93 124
59 93 122
57 90 108
58 92 118
57 91 110
59 94 128
58 92 115
59 93 120
56 89 105
58 91 108
57 91 113
57 90 107
58 91 126
58 92 122
58 91 118
55 88 105
56 89 103
58 91 111
57 91 108
58 92 120
57 90 114
59 92 121
58 91 117
57 91 105
57 90 107
58 90 111
55 88 102
55 87 92
57 90 110
54 86 103
54 86 86
54 86 95
62 90 84
81 103 72
80 103 70
94 111 40
104 120 40
107 123 18
108 121 0
111 126 0
120 135 0
110 123 0
108 122 0
117 133 0
124 140 0
125 139 0
117 133 0
104 119 0
115 128 0
123 140 0
106 121 0
119 133 0
122 139 0
118 131 0
119 135 0
133 149 0
117 133 0
127 144 0
125 142 0
127 144 0
125 142 0
131 148 0
133 150 0
133 148 0
135 152 0
136 152 0
134 150 0
129 146 0
123 139 0
136 154 0
129 145 0
122 136 0
132 149 0
129 145 0
131 145 0
125 140 0
133 149 0
133 151 0
138 154 0
144 162 0
136 153 0
136 153 0
132 148 0
134 151 0
134 150 0
125 141 0
144 161 0
139 154 0
142 158 0
137 152 0
139 155 0
141 158 0
145 164 0
135 151 0
139 156 0
149 166 0
142 158 0
142 158 0
138 152 0
132 148 0
139 152 0
140 153 0
149 165 0
141 157 0
142 158 0
142 159 0
143 160 0
146 163 0
150 165 0
150 168 0
149 165 0
144 162 0
146 162 0
153 169 0
145 162 0
144 163 0
147 163 0
150 165 0
154 172 0
154 171 0
151 167 0
152 168 0
146 159 0
147 163 0
148 165 0
157 177 0
146 161 0
149 165 0
152 169 0
150 167 0
145 160 0
142 157 0
150 167 0
153 170 0
147 165 0
158 176 0
155 173 0
146 164 0
156 174 0
150 166 0
153 168 0
155 172 0
159 175 0
155 171 0
148 163 0
152 169 0
157 172 0
155 171 0
153 169 0
156 174 0
153 171 0
156 173 0
156 174 0
156 173 0
155 174 0
162 181 0
151 167 0
155 173 0
159 176 0
158 177 0
158 175 0
157 176 0
165 183 0
167 185 0
160 180 0
158 176 0
161 180 0
159 179 0
162 181 0
158 178 0
158 176 0
164 181 0
157 177 0
157 174 0
159 177 0
162 180 0
162 180 0
159 176 0
165 183 0
155 172 0
162 181 0
160 176 0
162 181 0
162 181 0
157 175 0
161 182 0
165 184 0
166 185 0
159 179 0
165 183 0
163 182 0
165 185 0
164 183 0
162 183 0
163 183 0
164 184 0
162 182 0
166 186 0
166 187 0
163 184 0
165 186 0
165 186 0
164 183 0
171 195 84
173 196 80
169 192 57
171 195 62
169 194 57
171 195 67
169 192 44
168 193 99
172 196 67
167 191 84
171 196 95
165 189 44
166 190 72
173 197 92
166 190 76
168 192 76
168 193 80
167 191 76
172 196 72
172 196 84
160 183 62
167 191 67
167 191 62
169 193 62
170 193 72
171 195 62
167 191 76
166 190 76
166 190 62
167 191 76
169 193 57
163 187 92
169 193 80
170 194 84
169 193 67
165 188 62
171 195 92
165 189 76
169 194 84
165 189 62
168 191 76
165 189 99
165 188 84
165 188 88
164 188 84
166 190 84
164 188 76
169 192 80
167 191 95
167 191 102
168 190 76
168 191 80
161 184 67
168 192 95
162 185 84
157 178 67
167 191 114
166 189 88
160 183 105
165 188 84
164 187 99
159 183 88
161 185 72
158 182 76
164 187 99
151 173 72
156 179 67
152 174 76
162 184 102
157 181 102
163 186 80
148 172 84
153 175 57
160 182 84
156 179 80
157 180 84
156 178 88
154 177 76
154 176 57
149 171 72
160 182 62
148 170 80
161 183 95
144 165 70
155 177 80
152 174 80
155 177 80
152 175 80
149 170 62
152 174 88
141 163 70
143 164 72
130 151 65
130 151 94
129 151 86
100 124 111
85 110 111
80 108 120
97 121 108
80 108 107
94 120 120
86 112 127
93 119 107
98 122 133
97 123 128
102 125 119
89 115 124
93 119 128
87 114 123
92 116 141
100 125 134
101 125 145
86 113 131
88 115 128
104 129 131
93 118 123
95 121 139
97 123 135
107 131 123
98 123 130
95 121 128
97 122 144
81 109 123
91 118 137
81 108 129
98 122 133
83 110 134
82 108 132
86 112 127
83 108 135
87 109 128
84 110 145
86 110 136
76 104 144
78 104 133
77 103 133
68 98 125
77 105 128
67 99 134
64 96 125
65 97 121
74 103 134
73 102 121
68 100 126
64 95 109
59 92 123
69 98 109
72 100 117
67 98 113
59 91 110
62 94 115
61 94 121
66 98 132
59 92 106
57 89 109
65 96 114
59 93 118
61 94 111
60 93 113
57 91 113
57 90 107
57 91 117
58 91 122
58 91 118
57 91 115
56 89 103
59 93 134
59 93 118
58 92 113
58 92 115
59 93 124
58 93 128
58 92 118
58 92 130
57 91 120
58 91 113
59 92 114
58 91 118
60 94 126
58 91 115
59 92 121
58 92 131
57 90 113
56 89 111
58 92 122
58 91 121
58 92 115
57 91 114
57 90 121
59 93 128
58 92 118
57 90 113
57 91 108
57 91 114
59 92 118
57 90 110
57 90 108
60 94 120
59 93 113
59 93 118
59 92 117
57 90 113
56 90 103
57 91 110
58 92 114
57 91 103
57 91 115
58 91 111
57 90 103
58 92 114
59 93 128
58 91 120
57 91 124
56 89 102
58 92 107
57 91 111
59 92 114
58 91 114
56 89 103
56 88 107
57 90 118
57 91 118
56 89 110
56 88 97
57 89 114
54 86 100
55 86 102
63 92 99
67 94 76
79 101 82
88 107 57
97 110 31
99 116 47
92 107 18
119 136 0
113 127 0
104 115 0
116 129 0
103 119 0
110 124 0
109 126 0
110 127 0
111 126 0
111 127 0
114 129 0
113 129 0
119 135 0
121 136 0
119 136 0
118 134 0
119 135 0
126 142 0
123 141 0
133 150 0
125 142 0
134 150 0
112 128 0
133 150 0
131 148 0
134 151 0
125 140 0
126 140 0
133 147 0
141 159 0
135 152 0
133 148 0
137 154 0
138 155 0
129 145 0
133 151 0
132 149 0
129 146 0
133 150 0
136 151 0
125 138 0
140 157 0
132 147 0
135 153 0
132 148 0
141 157 0
131 146 0
142 159 0
150 166 0
139 155 0
146 163 0
143 159 0
142 158 0
145 163 0
151 169 0
136 154 0
137 154 0
143 160 0
141 156 0
151 167 0
143 160 0
144 160 0
143 158 0
144 159 0
150 169 0
143 159 0
142 158 0
148 165 0
141 155 0
149 166 0
143 157 0
148 164 0
140 156 0
141 158 0
146 161 0
145 162 0
151 169 0
147 166 0
143 160 0
145 159 0
151 168 0
147 164 0
145 162 0
155 173 0
143 158 0
146 162 0
145 161 0
152 169 0
145 160 0
152 167 0
147 164 0
153 170 0
148 165 0
150 167 0
143 161 0
157 175 0
157 174 0
154 173 0
153 169 0
158 176 0
151 167 0
151 168 0
158 177 0
155 172 0
155 173 0
154 170 0
158 175 0
150 166 0
158 173 0
159 178 0
161 180 0
158 176 0
152 167 0
156 173 0
155 171 0
153 169 0
158 176 0
159 177 0
166 184 0
158 176 0
155 171 0
155 171 0
158 176 0
159 176 0
156 174 0
156 173 0
158 176 0
161 178 0
163 183 0
158 176 0
163 182 0
161 180 0
161 178 0
161 179 0
165 182 0
159 178 0
161 181 0
166 185 0
158 175 0
162 180 0
156 174 0
161 177 0
157 175 0
162 180 0
165 185 0
160 180 0
162 183 0
160 179 0
168 187 0
166 185 0
161 182 0
165 184 0
165 184 0
164 183 0
163 182 0
160 180 0
167 187 0
162 182 0
168 188 0
166 185 0
158 179 0
165 185 0
160 179 0
168 187 0
168 188 0
164 183 0
170 195 44
167 191 67
171 195 76
169 193 80
166 190 67
169 193 72
170 194 62
169 193 62
166 191 72
168 191 67
171 195 62
171 195 76
168 192 76
171 195 62
170 194 88
166 191 72
170 195 88
171 195 57
165 190 72
170 194 76
168 192 62
172 196 88
168 193 72
170 194 67
167 192 62
167 192 92
165 189 88
169 192 80
171 196 92
164 188 99
171 196 95
163 187 84
165 188 76
166 190 88
167 190 92
162 186 67
166 191 80
165 188 88
166 190 72
163 187 72
168 191 92
167 190 84
168 191 72
165 189 88
169 192 102
169 193 108
163 186 67
171 193 88
164 187 51
166 191 92
168 192 95
169 193 102
165 190 102
158 181 92
165 188 80
159 183 99
164 187 92
159 182 95
163 186 92
163 184 88
163 187 102
164 187 80
160 183 84
166 190 114
162 186 92
156 179 92
157 180 84
161 185 80
165 188 80
163 185 114
162 184 102
155 177 76
159 183 84
160 183 95
149 172 72
157 181 95
152 175 67
150 173 84
159 182 95
154 176 72
157 179 76
151 173 88
155 177 99
152 173 88
144 165 76
150 172 88
149 170 72
142 163 67
158 180 84
149 170 92
148 169 84
151 172 72
142 162 72
134 156 44
131 153 70
118 141 101
91 117 99
97 122 125
94 120 128
82 109 108
94 119 121
83 111 111
92 118 110
91 117 126
99 124 127
93 120 143
88 115 130
90 117 126
107 131 136
95 120 128
98 123 133
94 120 134
98 124 137
91 117 120
93 118 127
95 122 134
96 121 124
104 129 147
82 110 133
99 124 121
102 127 133
96 121 141
82 112 135
88 114 129
100 125 147
74 104 151
78 106 131
87 113 142
76 103 128
87 111 134
92 115 136
91 116 149
95 117 130
80 103 126
81 107 133
65 95 133
82 105 128
82 107 133
71 100 137
70 99 130
61 95 129
63 95 129
63 96 124
66 96 115
63 95 121
66 95 88
64 96 123
62 95 120
57 89 111
65 96 121
63 95 117
62 93 94
64 95 118
64 96 115
59 92 113
57 90 113
57 89 103
58 92 116
58 91 122
57 90 117
57 91 126
57 90 117
57 91 117
57 90 117
57 91 120
58 92 120
59 93 127
57 90 120
57 90 108
59 93 126
56 90 103
56 89 106
58 92 113
57 90 108
60 94 122
59 93 121
56 89 117
58 92 118
59 92 122
58 91 115
58 92 118
57 91 108
58 91 115
57 91 118
56 89 110
57 91 115
59 94 130
58 92 111
59 93 115
59 94 128
57 91 114
58 91 115
57 90 111
59 92 125
57 91 114
57 91 120
57 90 117
57 91 124
56 90 110
59 93 126
59 93 117
57 91 111
57 91 117
58 91 120
57 90 121
56 89 117
58 91 121
58 91 120
57 90 110
58 91 115
57 91 105
57 90 107
58 91 114
57 90 114
58 92 118
55 88 103
55 87 100
57 90 108
56 88 117
55 87 105
57 89 108
55 88 110
55 86 102
55 88 95
56 88 105
58 89 95
62 91 100
66 91 88
84 106 65
98 120 67
95 114 40
101 115 31
118 134 25
106 121 0
99 116 0
110 124 0
115 131 0
108 124 0
112 126 0
98 114 0
117 133 0
123 140 0
128 143 0
116 132 0
119 136 0
116 131 0
116 132 0
120 136 0
122 137 0
104 118 0
126 141 0
130 146 0
118 134 0
130 146 0
122 140 0
122 139 0
121 136 0
136 151 0
123 139 0
125 142 0
138 157 0
125 141 0
123 140 0
128 145 0
142 162 0
136 153 0
117 136 0
136 152 0
131 148 0
137 157 0
119 135 0
136 153 0
134 150 0
138 154 0
144 163 0
141 158 0
131 149 0
144 162 0
136 156 0
137 153 0
124 139 0
145 164 0
141 157 0
140 155 0
146 162 0
137 154 0
144 162 0
143 162 0
138 152 0
136 152 0
142 159 0
135 154 0
139 155 0
153 172 0
142 160 0
142 158 0
141 158 0
143 159 0
147 166 0
143 160 0
147 164 0
146 163 0
144 162 0
141 157 0
149 166 0
147 164 0
143 159 0
156 174 0
142 159 0
145 161 0
147 166 0
140 157 0
148 163 0
151 167 0
147 166 0
151 166 0
159 174 0
147 164 0
155 172 0
154 171 0
151 169 0
149 164 0
153 171 0
153 171 0
156 173 0
153 171 0
140 155 0
139 154 0
156 174 0
154 171 0
152 168 0
151 169 0
152 169 0
155 172 0
150 166 0
152 169 0
151 166 0
149 166 0
157 173 0
154 169 0
150 167 0
153 168 0
151 169 0
156 175 0
155 174 0
157 173 0
158 175 0
160 178 0
163 182 0
156 172 0
156 172 0
158 174 0
149 167 0
155 173 0
159 179 0
157 175 0
153 171 0
158 179 0
158 177 0
160 178 0
158 177 0
160 178 0
159 177 0
158 176 0
158 176 0
165 184 0
161 180 0
158 177 0
160 181 0
157 174 0
157 176 0
163 182 0
158 177 0
158 176 0
158 176 0
167 187 0
163 183 0
159 178 0
161 182 0
165 186 0
165 182 0
160 181 0
164 183 0
163 183 0
165 184 0
166 186 0
164 182 0
164 182 0
165 184 0
164 181 0
164 185 0
168 188 0
162 183 0
168 187 0
167 186 0
161 181 0
163 182 0
165 186 0
161 180 0
166 186 0
172 196 80
172 195 57
167 192 84
170 194 57
172 196 76
170 195 72
170 194 62
170 195 67
166 191 88
172 196 84
169 193 67
168 192 80
170 194 62
170 194 84
170 195 92
171 194 62
164 189 67
168 192 62
169 192 51
165 190 80
166 190 80
169 193 72
166 190 67
171 194 72
168 192 80
167 190 62
167 191 80
172 195 80
166 190 80
167 191 80
165 189 84
171 194 105
165 189 88
173 196 92
172 195 108
171 194 95
168 192 76
167 191 76
166 190 99
170 192 99
168 191 99
169 191 102
166 190 72
160 183 72
167 190 84
166 189 99
169 192 92
169 192 102
165 188 80
169 193 76
163 187 114
166 190 88
165 189 102
166 191 80
156 178 108
168 192 108
155 178 76
160 183 92
165 189 92
164 186 92
169 191 88
155 179 65
159 183 102
162 185 92
156 179 80
162 185 99
162 185 99
160 183 84
157 180 99
163 185 92
167 190 105
159 182 84
152 175 76
157 180 105
158 180 95
157 179 67
150 172 80
152 174 76
153 175 88
146 168 76
143 165 99
146 168 67
159 182 76
154 177 92
157 179 95
152 175 92
156 177 67
148 170 72
139 160 76
161 183 84
157 178 88
141 163 67
148 169 80
140 161 76
140 161 67
119 139 80
115 137 103
111 134 97
86 111 107
87 113 115
90 116 115
86 112 122
85 111 113
77 105 104
100 124 131
85 110 113
91 117 124
90 116 119
85 111 124
101 124 134
92 118 130
95 120 115
92 117 123
96 121 126
83 111 132
100 124 121
89 115 124
90 117 129
104 129 133
95 120 129
96 122 134
89 115 129
79 107 114
91 116 140
86 113 133
91 116 135
90 115 131
84 111 144
100 123 139
82 108 132
80 107 133
95 117 130
84 107 132
79 102 124
77 102 130
89 110 124
85 107 127
73 99 119
89 112 134
72 99 113
69 99 129
70 99 126
66 97 120
85 112 108
68 98 118
72 101 107
70 100 113
60 94 125
66 97 115
66 95 125
63 94 103
61 94 130
58 90 104
62 94 110
59 91 115
57 91 105
59 91 113
56 89 107
58 92 120
57 90 113
60 95 130
58 92 118
56 90 110
58 92 123
57 91 111
57 90 117
57 91 108
57 90 113
56 89 111
57 90 120
58 92 121
58 92 122
58 92 117
57 90 111
57 90 115
57 90 108
59 93 124
57 90 105
57 91 111
57 91 126
57 90 125
58 92 124
57 90 111
58 93 128
57 90 114
58 91 121
58 92 126
58 92 120
58 91 110
56 89 105
59 93 118
57 90 113
59 93 117
58 92 121
57 91 107
57 91 118
58 91 121
59 93 125
56 89 114
56 89 110
58 92 110
59 93 128
59 92 121
58 91 118
58 92 114
58 91 117
55 87 108
56 90 105
58 91 107
56 89 100
58 91 120
58 92 111
57 89 107
57 90 111
56 89 100
56 89 110
56 89 113
54 86 95
57 90 121
53 85 90
58 91 110
56 89 107
56 88 103
57 89 103
53 85 87
64 92 100
80 102 82
73 95 74
97 113 40
97 112 31
93 106 31
122 136 0
105 118 0
110 123 0
109 124 0
115 131 0
112 126 0
117 133 0
120 135 0
111 127 0
114 127 0
116 129 0
133 151 0
115 132 0
112 127 0
119 136 0
118 135 0
119 136 0
127 144 0
120 135 0
130 148 0
124 141 0
130 148 0
127 144 0
120 135 0
107 122 0
130 146 0
132 148 0
122 136 0
126 144 0
126 141 0
135 153 0
132 148 0
133 149 0
144 161 0
135 153 0
133 151 0
131 147 0
139 156 0
132 147 0
123 139 0
137 156 0
139 155 0
136 155 0
141 158 0
136 154 0
138 155 0
141 159 0
137 155 0
133 147 0
143 161 0
135 152 0
142 161 0
138 154 0
130 147 0
141 159 0
147 163 0
138 157 0
142 159 0
134 153 0
141 157 0
152 170 0
146 161 0
144 162 0
145 162 0
149 165 0
134 151 0
143 161 0
151 168 0
150 166 0
144 163 0
144 162 0
146 164 0
152 171 0
144 161 0
141 158 0
141 157 0
147 162 0
147 163 0
145 161 0
152 169 0
144 162 0
155 173 0
151 167 0
156 174 0
147 166 0
151 167 0
152 170 0
149 166 0
157 176 0
152 168 0
142 159 0
153 171 0
153 169 0
155 173 0
154 171 0
154 169 0
154 173 0
152 170 0
152 167 0
154 172 0
159 178 0
154 173 0
154 171 0
153 170 0
153 170 0
152 171 0
151 168 0
154 173 0
159 174 0
156 174 0
157 176 0
157 175 0
151 168 0
156 173 0
156 174 0
158 176 0
162 180 0
159 176 0
161 179 0
159 177 0
153 171 0
156 173 0
160 177 0
159 177 0
158 175 0
153 170 0
156 174 0
155 175 0
160 177 0
161 179 0
158 177 0
158 177 0
157 177 0
159 177 0
161 177 0
163 182 0
164 182 0
160 181 0
158 179 0
161 182 0
157 177 0
162 183 0
163 183 0
163 181 0
161 178 0
161 180 0
156 173 0
161 180 0
160 180 0
161 181 0
163 182 0
159 179 0
160 178 0
163 181 0
161 181 0
166 185 0
166 185 0
167 186 0
161 179 0
162 181 0
162 182 0
166 188 0
167 187 0
162 182 0
165 186 0
170 191 0
159 180 0
163 185 0
162 181 0
171 196 88
171 194 67
173 197 80
168 192 67
171 195 67
170 194 72
169 194 72
169 193 76
166 190 51
171 196 84
168 193 72
167 191 72
170 195 80
169 194 80
168 191 51
172 196 105
169 193 88
166 190 57
168 191 72
166 190 72
174 198 84
165 189 72
163 187 67
168 193 80
170 194 84
175 198 95
166 191 84
166 190 80
172 196 92
171 195 84
173 198 99
166 189 80
169 192 95
164 187 88
171 195 62
167 192 105
170 193 72
166 190 76
164 188 108
164 187 108
163 186 88
163 186 88
168 191 84
166 190 92
171 194 114
171 194 76
168 192 95
167 190 84
168 192 108
165 189 105
164 187 84
166 190 92
168 191 99
169 192 102
166 188 102
160 183 88
166 189 92
165 188 105
158 181 99
164 187 102
165 188 102
155 179 92
155 178 88
171 194 95
161 182 84
152 175 76
161 183 102
159 182 92
159 182 84
158 180 84
154 177 67
165 188 95
156 179 72
157 180 72
152 174 99
156 179 95
151 173 57
153 176 67
149 171 99
146 166 76
145 168 72
150 173 84
156 177 88
148 169 80
152 173 84
143 164 67
158 180 95
153 174 67
148 170 76
148 169 117
144 165 76
147 168 102
136 157 80
141 162 80
145 166 82
143 164 67
130 151 107
114 136 82
103 126 100
82 108 104
85 110 104
83 110 103
96 121 113
91 117 120
106 129 127
98 123 125
89 115 120
92 117 122
85 110 124
99 123 118
98 123 135
85 111 123
85 113 133
85 112 120
90 116 113
103 126 134
98 122 119
86 112 113
117 139 133
98 122 129
108 132 129
95 121 136
103 129 131
81 109 136
92 118 126
95 120 141
74 105 124
89 115 133
80 106 128
80 107 125
85 111 124
84 106 126
94 114 122
83 108 144
79 103 121
76 100 109
82 104 118
80 104 127
71 99 127
79 105 121
73 102 124
67 98 123
73 102 115
74 103 112
70 101 113
67 97 107
68 98 122
63 94 108
64 96 118
71 99 104
58 91 121
60 91 113
62 94 121
58 90 107
63 95 110
58 91 120
57 90 113
55 88 107
56 90 105
58 91 118
57 91 121
57 91 115
59 94 125
57 91 105
58 92 115
56 88 103
57 90 120
58 91 115
56 90 114
58 92 118
56 90 114
59 93 117
56 89 103
58 92 117
57 90 108
56 90 111
58 92 124
58 91 116
58 91 111
59 94 128
58 92 110
55 87 110
55 88 94
58 92 122
57 91 107
56 90 110
58 91 118
58 91 121
58 92 121
59 93 117
58 92 122
59 93 121
57 91 110
59 93 126
57 91 111
57 91 113
57 91 117
57 90 111
57 89 110
57 90 111
57 90 102
57 91 113
57 90 108
58 92 117
57 90 105
57 91 115
55 88 105
57 91 105
57 90 114
56 89 105
54 86 88
58 91 111
56 89 115
57 90 114
56 88 110
58 91 110
56 89 100
56 89 115
55 87 92
56 88 111
56 88 110
53 85 95
56 88 99
61 89 84
71 97 86
90 111 76
95 115 62
95 112 40
108 124 18
111 125 0
106 122 0
110 125 0
107 120 0
108 123 0
114 129 0
124 140 0
109 124 0
100 115 0
114 130 0
113 128 0
134 149 0
120 136 0
114 128 0
120 136 0
126 142 0
115 131 0
126 144 0
121 138 0
129 146 0
125 141 0
117 135 0
117 133 0
121 137 0
129 147 0
129 148 0
124 140 0
127 143 0
126 143 0
126 143 0
122 138 0
131 148 0
132 148 0
123 138 0
128 145 0
132 150 0
131 148 0
131 149 0
140 159 0
135 152 0
132 147 0
125 142 0
135 152 0
133 149 0
139 157 0
136 152 0
138 155 0
138 155 0
143 159 0
145 162 0
144 163 0
141 159 0
140 158 0
144 162 0
135 153 0
144 158 0
141 159 0
135 153 0
141 159 0
139 159 0
148 166 0
145 164 0
135 151 0
145 163 0
144 162 0
134 152 0
147 166 0
145 163 0
140 159 0
153 172 0
136 154 0
149 167 0
151 168 0
150 169 0
140 158 0
152 170 0
144 160 0
146 164 0
154 174 0
141 159 0
147 164 0
142 158 0
149 164 0
144 161 0
148 166 0
157 174 0
147 164 0
148 166 0
150 165 0
144 163 0
144 160 0
148 164 0
153 170 0
146 163 0
152 170 0
153 170 0
150 167 0
153 170 0
155 172 0
155 173 0
155 170 0
148 166 0
162 181 0
156 173 0
151 169 0
152 170 0
152 169 0
158 176 0
156 173 0
152 168 0
156 175 0
159 177 0
154 172 0
159 179 0
157 174 0
151 169 0
157 175 0
159 177 0
157 177 0
156 174 0
163 183 0
147 165 0
163 184 0
154 169 0
162 182 0
159 178 0
155 175 0
154 173 0
155 173 0
164 184 0
159 179 0
160 181 0
166 184 0
164 183 0
162 183 0
157 174 0
163 182 0
157 176 0
156 174 0
162 181 0
157 175 0
167 188 0
161 180 0
158 178 0
163 183 0
160 179 0
165 185 0
165 186 0
165 185 0
165 184 0
161 179 0
164 184 0
162 182 0
160 178 0
165 184 0
165 185 0
164 183 0
165 184 0
168 188 0
162 182 0
165 185 0
162 181 0
160 178 0
166 186 0
163 183 0
163 184 0
172 192 0
163 184 0
164 185 0
167 187 0
167 187 0
168 191 80
167 191 67
170 194 72
170 194 80
171 195 95
172 197 80
173 196 72
168 192 72
167 191 80
168 192 62
170 195 72
166 190 67
169 193 62
172 196 67
171 196 84
169 193 67
167 191 67
170 194 95
168 192 67
164 188 57
167 191 99
163 188 88
171 195 92
169 192 76
174 197 95
168 193 84
173 197 102
168 192 99
173 197 111
168 192 57
171 195 92
163 188 92
167 190 76
169 192 95
174 197 99
168 192 95
166 190 95
172 195 67
165 189 92
165 188 72
165 187 80
174 197 105
166 189 80
166 189 95
166 189 92
166 189 102
176 199 108
166 189 92
169 193 105
173 196 120
166 189 80
169 192 92
167 190 99
165 189 92
160 182 86
168 191 114
168 191 95
164 185 95
162 185 99
164 187 92
168 191 72
164 186 80
165 189 95
169 192 108
155 179 80
162 185 95
166 188 95
161 184 95
159 182 117
151 174 80
163 185 92
157 180 84
161 182 92
149 171 99
156 177 92
156 178 84
153 175 95
157 178 95
155 177 88
157 180 62
164 186 102
156 178 86
155 176 84
157 179 84
148 169 67
154 176 80
158 180 99
147 169 72
149 171 99
151 173 95
148 170 99
147 168 72
148 167 80
152 173 95
135 154 88
137 157 72
132 152 82
132 153 78
115 136 102
98 122 102
91 115 115
79 108 113
88 114 115
95 119 120
98 122 125
98 122 130
82 109 108
75 102 105
99 124 131
95 119 135
91 116 116
98 123 132
96 121 124
85 111 123
99 125 129
88 114 120
86 112 113
97 122 126
87 114 122
100 124 138
84 111 119
100 123 139
92 119 135
80 107 122
98 123 138
96 121 140
86 112 126
87 113 133
83 108 117
90 113 125
84 107 126
83 108 130
93 113 117
101 121 134
97 118 129
83 105 120
76 101 116
76 102 117
75 102 129
80 104 110
66 96 106
70 101 126
75 103 120
71 101 114
76 104 112
71 101 128
68 99 107
65 95 104
69 97 91
74 103 114
61 93 107
55 87 105
63 94 111
59 92 97
57 90 117
59 91 100
58 91 120
55 88 110
58 91 116
56 89 110
54 86 95
56 89 113
56 89 110
57 90 111
56 89 105
56 89 92
56 89 110
59 93 117
58 91 115
58 92 126
58 91 118
58 91 111
60 94 117
57 90 117
56 89 113
57 91 115
59 92 122
56 89 110
57 90 100
57 91 108
57 90 108
57 91 115
58 92 113
56 89 111
58 91 115
58 91 118
58 92 117
58 92 113
58 91 113
56 88 110
55 87 106
59 92 107
57 91 117
57 90 110
57 90 115
57 90 107
60 94 126
58 91 120
57 90 108
57 91 114
56 90 107
57 91 108
57 90 102
58 91 110
56 88 104
58 91 115
58 91 120
56 89 108
52 83 105
55 88 102
56 89 103
59 92 118
58 91 113
56 89 110
55 87 102
54 86 108
55 87 94
53 85 100
55 87 102
55 88 88
54 85 94
56 86 92
57 85 86
75 99 67
91 110 57
83 103 54
101 119 47
100 117 18
108 123 18
111 125 0
115 130 0
100 115 0
110 126 0
113 130 0
111 127 0
113 128 0
110 126 0
105 120 0
130 147 0
111 126 0
121 137 0
121 139 0
116 133 0
118 134 0
116 132 0
121 139 0
124 140 0
119 136 0
127 145 0
125 143 0
133 151 0
122 139 0
132 149 0
137 154 0
131 148 0
129 146 0
126 144 0
129 144 0
135 151 0
125 140 0
137 155 0
126 143 0
129 145 0
124 140 0
121 136 0
124 141 0
138 155 0
133 149 0
136 153 0
134 153 0
129 146 0
139 154 0
135 152 0
135 151 0
144 161 0
133 151 0
142 160 0
131 150 0
144 163 0
135 151 0
143 161 0
146 164 0
145 163 0
136 152 0
139 156 0
141 160 0
140 157 0
140 158 0
148 164 0
147 164 0
139 155 0
140 159 0
142 160 0
143 161 0
149 165 0
133 150 0
150 166 0
144 162 0
147 166 0
152 168 0
139 157 0
145 162 0
155 173 0
148 165 0
143 162 0
147 164 0
147 164 0
145 164 0
150 167 0
141 159 0
146 163 0
149 167 0
152 171 0
154 169 0
148 164 0
153 170 0
149 167 0
158 175 0
148 167 0
151 166 0
148 167 0
145 162 0
149 168 0
149 167 0
153 170 0
157 176 0
153 171 0
145 160 0
155 173 0
150 169 0
151 170 0
155 175 0
155 172 0
153 170 0
156 173 0
156 175 0
156 172 0
154 172 0
161 177 0
152 169 0
150 169 0
154 172 0
161 181 0
158 176 0
154 171 0
157 175 0
158 175 0
157 175 0
157 176 0
149 166 0
159 177 0
156 173 0
159 177 0
157 174 0
161 178 0
161 180 0
160 178 0
159 179 0
155 172 0
165 182 0
162 180 0
157 176 0
164 184 0
160 178 0
161 181 0
157 175 0
149 169 0
158 175 0
163 183 0
167 186 0
157 175 0
167 187 0
159 177 0
160 179 0
160 179 0
160 180 0
162 181 0
165 183 0
161 180 0
164 183 0
164 183 0
163 182 0
165 186 0
163 182 0
160 180 0
162 181 0
163 182 0
162 184 0
167 188 0
165 185 0
164 183 0
165 185 0
160 181 0
166 186 0
165 184 0
163 181 0
166 185 0
163 183 0
162 181 0
165 186 0
167 191 57
170 194 76
172 196 80
169 193 72
171 195 67
167 190 72
175 199 92
169 193 88
162 186 44
168 192 67
170 194 84
170 194 80
170 193 51
172 195 84
169 193 76
168 191 84
170 194 57
170 194 92
169 193 88
172 195 67
170 193 84
171 195 88
168 192 92
172 196 76
166 189 84
169 193 99
172 196 92
166 189 67
166 190 76
168 192 95
170 193 88
171 194 76
168 192 114
172 196 111
163 186 88
172 196 105
164 187 92
163 187 88
167 191 95
174 197 111
164 188 117
165 188 99
169 192 105
162 186 92
167 189 102
166 189 88
166 189 84
162 185 62
166 189 88
162 185 92
159 182 72
163 186 84
174 197 114
163 186 92
159 182 88
161 184 97
163 185 99
158 181 80
163 185 84
159 183 88
159 183 88
167 189 99
165 187 76
160 183 86
161 184 102
155 177 88
162 184 80
163 186 108
153 175 72
158 182 99
163 186 99
160 182 99
153 175 92
151 173 92
158 180 67
155 177 92
157 180 88
162 184 99
161 184 117
157 178 92
152 174 84
153 176 105
162 183 95
149 171 92
156 178 95
154 177 95
144 166 88
149 170 76
147 168 72
151 171 99
146 167 67
146 168 67
149 170 67
140 161 57
143 164 76
140 160 76
146 166 72
143 164 82
131 151 92
118 140 126
96 120 92
86 112 99
89 114 103
100 124 114
95 120 117
100 124 136
83 111 110
95 121 122
95 119 117
73 101 95
91 117 120
84 111 107
102 125 135
97 121 125
82 108 115
108 132 143
88 114 131
94 119 132
98 123 112
107 130 133
98 122 128
81 108 120
86 113 128
97 123 135
82 110 131
91 117 137
87 112 131
80 109 138
95 118 138
96 119 137
90 112 137
91 114 121
92 116 129
96 118 138
92 114 131
85 108 109
91 110 120
80 104 112
71 99 114
76 101 114
67 96 112
68 98 114
77 105 120
69 99 111
80 106 103
69 98 113
67 97 100
67 96 110
60 92 102
65 97 124
63 93 103
59 90 99
58 90 113
59 91 114
60 91 102
60 93 113
54 87 102
62 92 89
57 90 113
54 86 99
57 90 108
58 91 111
58 91 107
57 91 117
56 89 110
57 91 102
58 92 124
59 93 131
57 89 113
57 91 115
57 91 111
59 92 113
54 87 97
57 90 113
59 92 111
55 88 110
58 92 117
56 89 105
57 90 113
58 92 113
57 91 107
58 92 120
56 90 105
57 91 113
57 90 115
57 91 108
57 91 108
57 90 113
56 89 110
59 93 124
57 91 113
57 90 110
59 93 122
56 89 108
56 89 97
55 88 105
58 92 118
56 89 113
58 91 114
57 90 103
56 88 107
57 90 102
56 89 105
55 87 105
57 90 111
57 90 118
56 89 105
57 90 114
55 87 102
57 90 117
56 89 99
55 88 110
56 89 99
55 86 95
56 90 99
55 87 95
56 89 108
54 85 94
55 87 88
58 91 100
57 86 94
75 99 82
79 100 57
82 102 62
107 124 47
105 119 25
111 127 0
104 119 0
109 123 0
98 115 0
114 127 0
104 120 0
117 131 0
121 137 0
113 128 0
105 120 0
116 130 0
113 129 0
115 133 0
106 120 0
108 124 0
119 133 0
128 144 0
126 140 0
115 130 0
127 143 0
125 140 0
121 138 0
125 140 0
128 144 0
125 141 0
120 137 0
133 150 0
125 142 0
122 138 0
125 143 0
123 140 0
130 147 0
131 147 0
128 145 0
137 155 0
129 146 0
144 164 0
136 153 0
136 154 0
138 156 0
129 147 0
137 154 0
141 161 0
132 149 0
130 147 0
136 155 0
131 150 0
134 151 0
132 149 0
131 147 0
133 150 0
140 156 0
138 158 0
143 159 0
130 147 0
144 163 0
134 153 0
143 161 0
144 161 0
138 158 0
147 164 0
136 153 0
147 165 0
133 150 0
142 158 0
152 170 0
139 157 0
152 171 0
148 167 0
141 158 0
140 157 0
148 165 0
143 161 0
141 158 0
145 164 0
141 158 0
144 162 0
150 168 0
145 162 0
152 170 0
142 159 0
149 168 0
141 156 0
146 165 0
148 165 0
152 170 0
153 170 0
150 167 0
156 173 0
152 171 0
154 172 0
147 165 0
151 170 0
153 172 0
152 166 0
155 173 0
152 171 0
151 167 0
149 166 0
152 170 0
156 175 0
150 167 0
153 171 0
147 163 0
151 169 0
155 173 0
152 170 0
151 168 0
158 175 0
154 173 0
158 177 0
152 171 0
156 174 0
156 173 0
156 173 0
157 174 0
157 176 0
160 180 0
155 171 0
155 175 0
160 177 0
157 175 0
146 163 0
161 180 0
155 172 0
155 171 0
159 177 0
161 182 0
158 179 0
160 179 0
157 175 0
160 178 0
161 179 0
162 180 0
157 175 0
163 182 0
158 177 0
160 179 0
164 183 0
165 183 0
160 180 0
166 186 0
157 172 0
160 177 0
158 177 0
163 181 0
163 183 0
164 185 0
163 182 0
167 188 0
157 176 0
154 173 0
163 182 0
162 181 0
165 185 0
166 185 0
159 177 0
159 179 0
163 184 0
159 179 0
166 186 0
166 186 0
167 187 0
167 188 0
164 184 0
158 176 0
159 178 0
162 181 0
168 187 0
161 182 0
165 186 0
165 185 0
167 187 0
164 183 0
170 193 57
171 195 67
172 197 88
172 196 76
165 189 36
173 197 95
170 195 67
170 194 67
170 194 88
172 197 88
165 188 80
170 195 80
163 187 92
171 195 92
169 192 57
165 189 72
169 193 57
172 196 76
166 189 92
169 193 72
173 197 80
171 195 84
171 195 95
176 199 88
170 195 105
170 193 88
167 190 80
169 192 72
170 194 84
167 190 76
168 193 99
171 194 95
170 193 80
167 190 99
172 194 84
170 194 99
167 191 84
171 193 102
168 191 92
167 189 80
166 190 88
169 192 80
167 190 76
167 190 84
162 185 88
175 198 108
169 191 108
166 187 92
163 187 84
171 194 105
169 193 105
168 190 102
159 183 95
163 186 105
165 188 80
164 187 80
164 187 67
164 187 95
158 181 102
163 185 92
163 186 95
164 186 102
160 182 80
168 191 105
165 188 102
163 186 88
169 192 95
167 189 102
154 175 72
163 186 105
155 178 80
159 181 99
158 181 95
153 175 102
162 184 88
160 182 72
161 184 108
160 182 95
163 185 92
161 183 114
155 177 88
148 169 80
160 182 122
157 178 80
160 181 92
150 172 80
155 176 88
148 169 80
148 170 67
137 157 51
143 163 82
134 155 72
135 155 57
145 165 84
145 165 72
139 159 80
136 158 76
146 167 102
120 140 76
139 160 86
117 139 102
89 114 103
97 121 124
91 115 113
93 117 110
88 113 108
92 117 115
102 127 122
102 125 126
105 128 132
94 119 122
89 114 121
91 116 135
105 130 136
82 109 101
89 115 127
93 120 120
89 115 132
94 118 108
94 119 127
98 122 141
90 116 117
88 115 124
95 120 121
96 120 129
94 120 142
91 116 116
91 114 133
95 116 132
88 113 140
74 101 129
90 112 120
92 113 119
81 104 117
93 115 123
93 115 116
94 116 127
91 113 124
77 103 123
74 101 114
75 102 123
71 99 116
72 100 109
71 100 111
72 99 103
69 99 110
69 100 120
68 97 99
64 96 115
61 92 103
67 98 105
57 88 97
64 94 100
68 98 114
57 90 114
63 94 100
58 90 92
60 91 111
58 91 110
58 89 95
57 90 105
57 90 110
57 90 103
58 91 115
55 88 107
58 92 114
58 91 113
59 93 122
56 89 117
58 92 114
58 92 110
57 91 110
57 91 108
57 90 108
56 89 100
57 91 122
55 87 94
58 92 122
58 91 117
57 91 105
57 90 113
56 89 99
57 91 110
58 91 99
57 91 115
57 90 105
59 93 117
55 88 110
58 92 120
55 87 107
57 90 105
58 92 114
59 93 121
58 91 114
57 91 117
56 89 90
56 88 100
55 88 107
58 91 110
57 90 110
57 90 113
57 90 108
56 89 103
55 88 100
56 89 110
57 90 107
57 91 108
54 86 88
54 86 95
55 88 95
56 89 105
55 88 102
55 87 100
53 85 90
55 88 100
53 84 90
54 86 95
55 87 107
54 83 74
75 100 97
82 103 70
90 112 54
86 104 31
95 112 40
105 121 31
104 119 0
105 120 0
117 132 0
108 122 0
109 124 0
112 125 0
120 136 0
110 124 0
125 141 0
108 123 0
105 121 0
121 137 0
113 128 0
117 133 0
120 137 0
113 129 0
118 134 0
112 128 0
128 144 0
117 135 0
121 138 0
122 138 0
126 142 0
124 140 0
124 142 0
129 144 0
110 127 0
130 147 0
130 147 0
125 143 0
127 144 0
119 134 0
129 146 0
135 151 0
134 150 0
128 144 0
135 152 0
128 144 0
135 151 0
124 140 0
123 141 0
138 154 0
146 164 0
143 162 0
137 155 0
139 157 0
140 159 0
140 159 0
135 152 0
143 161 0
135 152 0
142 159 0
137 152 0
149 169 0
136 155 0
136 154 0
131 148 0
137 155 0
143 162 0
145 163 0
148 165 0
135 152 0
138 156 0
146 164 0
144 161 0
133 151 0
150 167 0
139 155 0
150 168 0
142 160 0
146 163 0
148 164 0
138 155 0
142 160 0
147 165 0
143 160 0
138 155 0
143 161 0
144 161 0
152 171 0
145 163 0
146 166 0
148 165 0
151 167 0
148 165 0
148 167 0
151 170 0
151 169 0
155 174 0
147 162 0
149 167 0
146 163 0
145 164 0
149 168 0
160 179 0
150 168 0
147 166 0
152 169 0
148 164 0
156 175 0
145 164 0
155 173 0
149 166 0
153 174 0
149 168 0
156 175 0
156 175 0
151 169 0
157 176 0
154 171 0
158 178 0
154 171 0
155 174 0
153 168 0
146 164 0
155 174 0
157 175 0
159 178 0
158 178 0
159 179 0
152 171 0
154 170 0
153 172 0
155 173 0
159 177 0
159 178 0
158 175 0
160 179 0
156 174 0
151 169 0
159 179 0
151 168 0
159 179 0
163 183 0
159 177 0
163 182 0
159 175 0
162 179 0
159 175 0
162 178 0
155 172 0
165 183 0
152 170 0
161 180 0
155 175 0
158 177 0
162 181 0
160 178 0
159 180 0
162 181 0
161 180 0
167 188 0
161 181 0
157 176 0
159 180 0
167 187 0
162 181 0
163 180 0
160 179 0
162 182 0
163 182 0
163 183 0
167 188 0
164 185 0
164 185 0
161 180 0
167 186 0
163 182 0
166 186 0
164 185 0
165 186 0
163 183 0
167 186 0
167 187 0
160 181 0
172 197 80
168 192 51
172 195 72
169 193 67
168 192 80
171 196 95
170 194 76
168 192 57
168 192 80
168 192 62
167 192 67
169 192 88
168 191 99
168 192 72
165 190 67
169 193 57
170 194 80
170 193 88
168 191 57
167 191 72
171 194 88
172 194 80
173 197 95
175 198 105
170 193 76
169 192 88
169 193 84
164 187 67
170 194 92
169 193 84
172 195 76
172 195 95
174 197 102
171 194 92
169 192 105
169 193 99
170 193 105
172 196 111
168 191 92
167 192 99
168 192 95
173 197 117
166 188 84
170 193 99
169 192 102
168 190 80
170 193 88
164 186 62
172 195 128
172 195 111
163 185 92
162 185 80
165 188 102
162 185 102
164 188 92
165 188 92
166 188 124
162 185 84
171 193 117
158 181 99
167 190 108
165 189 108
167 189 88
157 179 88
160 183 88
158 180 99
159 182 108
157 180 84
157 179 108
158 181 108
166 187 99
160 181 88
153 176 105
155 177 67
164 186 102
161 183 92
154 176 92
162 183 105
151 174 95
153 175 84
161 182 111
146 167 92
154 175 80
150 172 84
150 172 92
149 170 88
144 164 88
149 170 76
142 163 92
149 170 76
147 167 76
147 168 95
154 175 88
141 163 76
135 156 67
139 159 92
131 152 72
138 158 67
132 151 72
132 151 100
126 146 76
110 131 84
107 129 111
93 117 115
94 118 115
93 118 107
92 117 102
78 104 102
96 121 128
78 104 90
96 120 131
92 118 126
100 125 120
92 117 122
94 118 121
98 123 131
98 123 108
101 124 119
75 103 110
79 106 120
93 118 133
102 127 125
96 122 131
94 118 139
89 114 117
92 116 120
90 115 119
95 117 118
87 112 125
88 112 131
96 120 122
93 114 109
91 114 128
101 123 110
82 108 121
96 118 109
104 124 109
73 98 110
91 116 125
95 120 118
74 99 110
79 106 115
73 102 125
59 90 110
70 99 109
67 97 115
70 99 115
70 99 105
72 100 112
60 91 103
64 93 100
59 91 113
65 95 84
66 95 102
60 91 105
57 89 82
57 90 103
56 89 95
57 90 113
56 89 99
55 87 97
56 88 102
56 89 110
56 89 111
54 86 94
56 89 111
57 90 108
55 88 99
55 88 115
56 89 100
56 89 111
57 90 100
56 90 107
57 91 114
57 91 112
56 90 108
56 89 111
55 87 92
56 89 113
56 89 103
59 93 115
57 89 108
56 89 107
56 89 107
58 91 121
59 92 117
56 89 103
57 90 113
57 90 117
58 92 125
55 88 108
58 92 113
54 86 100
57 91 105
57 90 110
59 93 122
56 89 105
56 89 107
57 91 113
55 88 103
56 89 108
57 90 114
55 88 100
56 89 110
57 90 114
58 92 114
56 88 107
56 88 102
55 88 110
56 89 107
54 85 90
57 89 110
53 85 90
52 84 88
54 87 88
55 88 103
61 89 86
65 94 86
64 88 65
65 89 60
93 112 51
89 106 54
97 113 31
98 112 0
100 116 0
97 112 0
110 126 0
110 126 0
105 121 0
107 123 0
104 119 0
117 133 0
93 107 0
115 129 0
111 126 0
117 133 0
116 131 0
104 119 0
124 139 0
119 135 0
111 126 0
114 131 0
127 143 0
125 142 0
126 143 0
119 136 0
127 144 0
128 144 0
120 136 0
132 148 0
127 143 0
123 137 0
134 155 0
132 151 0
118 135 0
126 145 0
127 144 0
124 141 0
127 144 0
127 144 0
127 143 0
128 146 0
129 146 0
127 145 0
141 158 0
128 147 0
136 155 0
138 156 0
135 152 0
142 161 0
133 151 0
136 155 0
131 148 0
137 154 0
134 152 0
130 148 0
146 164 0
130 147 0
144 162 0
143 162 0
144 161 0
142 158 0
136 154 0
148 166 0
134 152 0
137 155 0
145 163 0
148 166 0
147 165 0
148 163 0
144 163 0
140 158 0
139 157 0
144 162 0
154 170 0
142 162 0
133 148 0
146 162 0
150 168 0
147 166 0
151 170 0
136 152 0
150 169 0
149 166 0
143 160 0
149 165 0
141 160 0
153 172 0
147 168 0
149 166 0
151 169 0
154 172 0
145 163 0
144 160 0
141 158 0
152 171 0
150 169 0
153 171 0
147 163 0
149 168 0
151 168 0
157 176 0
151 170 0
152 170 0
149 167 0
150 167 0
154 172 0
151 169 0
148 163 0
150 167 0
153 171 0
158 177 0
157 177 0
150 167 0
152 170 0
154 172 0
152 169 0
153 171 0
156 174 0
160 179 0
158 177 0
158 177 0
151 170 0
156 175 0
156 174 0
158 178 0
152 170 0
152 168 0
158 174 0
155 174 0
156 174 0
154 172 0
160 180 0
157 174 0
160 180 0
159 178 0
163 183 0
156 175 0
161 180 0
159 176 0
165 185 0
159 178 0
160 181 0
158 179 0
167 188 0
162 182 0
161 179 0
165 185 0
160 178 0
165 186 0
162 181 0
166 187 0
169 189 0
161 178 0
159 178 0
161 181 0
161 180 0
162 183 0
163 181 0
164 184 0
160 178 0
165 185 0
164 186 0
163 185 0
166 186 0
165 184 0
168 189 0
165 185 0
163 181 0
166 186 0
168 187 0
164 184 0
163 181 0
163 184 0
162 183 0
161 181 0
167 189 0
169 190 0
165 185 0
164 181 0
168 193 99
172 196 67
167 191 67
168 192 80
169 193 57
169 193 80
170 194 80
170 195 84
169 193 57
170 193 88
171 194 84
174 198 84
169 194 84
168 193 67
171 195 92
168 192 72
171 196 95
168 192 76
170 194 80
166 190 88
172 195 95
170 192 92
172 196 95
173 197 92
166 190 57
175 198 99
167 191 76
168 191 57
168 191 76
170 194 92
169 194 114
164 187 84
167 190 102
168 191 95
169 194 95
169 193 108
169 192 99
167 191 99
167 190 88
167 191 84
167 189 95
163 187 95
168 192 108
170 193 108
173 196 111
171 193 108
167 191 88
164 187 84
171 194 114
169 192 111
165 188 95
168 192 105
167 190 95
164 187 92
159 182 80
158 180 86
163 187 117
159 182 88
162 184 102
165 188 99
164 186 92
163 185 88
169 191 113
160 182 105
159 180 111
162 185 99
166 188 102
162 185 95
167 190 114
155 178 92
162 185 86
155 177 117
156 179 95
156 179 88
165 187 120
163 186 99
146 167 84
154 176 72
157 180 105
157 179 84
156 178 95
149 170 92
159 181 108
158 180 95
151 173 95
153 175 80
168 189 125
147 168 80
150 171 72
144 166 72
139 160 95
146 166 76
145 165 88
141 162 84
147 167 95
137 156 76
128 148 44
148 169 108
139 159 80
134 154 70
126 146 78
110 130 80
116 139 97
109 130 108
90 114 114
88 113 102
82 108 116
82 108 107
101 125 124
87 113 115
96 119 101
88 113 120
89 114 97
86 112 112
82 110 115
94 120 133
90 115 118
92 118 121
98 120 115
93 118 100
81 109 126
90 116 118
89 115 131
101 124 112
88 115 133
80 108 124
91 117 133
90 114 111
100 121 110
97 121 140
96 119 131
102 120 123
83 108 115
95 119 128
83 107 114
91 116 119
101 123 111
103 124 110
84 110 111
85 110 104
85 109 103
73 100 113
86 110 110
78 107 112
79 108 120
80 108 100
76 103 94
69 99 97
73 100 99
63 93 99
79 106 95
66 96 113
63 91 100
73 101 103
59 91 107
63 93 107
59 91 92
58 91 108
59 90 94
56 88 99
55 88 97
56 88 103
57 90 99
57 90 108
56 89 108
55 87 108
54 87 88
56 88 103
57 90 107
56 89 102
57 91 118
55 88 105
55 88 99
57 90 102
57 90 113
59 93 122
56 89 110
56 89 107
57 91 105
58 92 115
59 93 117
54 85 86
54 86 92
57 89 108
57 90 108
57 89 107
55 88 100
54 86 94
55 88 105
58 92 121
56 88 102
57 90 114
57 90 100
55 88 100
56 89 102
58 91 108
55 88 99
58 92 114
58 91 117
55 87 90
57 91 114
56 88 103
55 88 105
56 89 103
56 88 108
56 89 102
56 89 114
57 90 105
53 85 88
56 88 115
53 84 94
56 88 94
56 89 102
56 86 82
54 87 108
66 94 86
69 94 67
74 93 57
85 105 57
90 107 44
100 116 44
94 111 18
91 106 18
96 111 0
102 117 0
103 118 0
107 124 0
117 131 0
115 131 0
101 118 0
106 122 0
116 132 0
109 124 0
112 128 0
102 118 0
124 141 0
114 130 0
107 122 0
123 139 0
108 124 0
120 136 0
128 144 0
120 136 0
131 148 0
128 147 0
132 149 0
113 129 0
126 143 0
126 142 0
121 138 0
122 140 0
125 142 0
133 150 0
126 143 0
125 143 0
130 148 0
127 145 0
130 146 0
132 149 0
128 146 0
130 146 0
121 137 0
143 161 0
131 148 0
126 143 0
129 146 0
138 157 0
133 150 0
131 148 0
138 157 0
132 151 0
144 161 0
145 162 0
135 153 0
130 148 0
146 164 0
136 154 0
139 159 0
140 156 0
144 163 0
138 156 0
144 161 0
136 155 0
140 156 0
137 152 0
144 161 0
147 166 0
149 165 0
152 171 0
136 151 0
144 160 0
141 158 0
148 166 0
141 160 0
149 167 0
151 172 0
147 165 0
145 163 0
151 170 0
155 174 0
151 171 0
142 158 0
151 168 0
150 169 0
146 164 0
140 159 0
152 173 0
147 164 0
143 161 0
146 165 0
149 167 0
152 170 0
152 170 0
142 158 0
153 172 0
149 167 0
151 169 0
151 168 0
149 169 0
151 171 0
148 164 0
152 169 0
150 168 0
152 169 0
147 161 0
152 168 0
156 174 0
153 171 0
151 170 0
153 172 0
155 173 0
156 176 0
158 177 0
151 167 0
152 171 0
152 169 0
155 174 0
158 177 0
153 172 0
150 167 0
150 169 0
152 170 0
159 179 0
159 179 0
154 172 0
155 171 0
155 173 0
154 175 0
149 168 0
157 176 0
149 167 0
160 179 0
164 185 0
158 176 0
157 175 0
157 177 0
161 181 0
163 181 0
154 173 0
160 178 0
161 179 0
156 173 0
164 183 0
158 177 0
157 174 0
160 181 0
163 183 0
158 178 0
160 179 0
164 182 0
162 180 0
165 185 0
162 180 0
167 187 0
161 182 0
161 180 0
160 180 0
161 181 0
162 183 0
164 184 0
159 177 0
167 187 0
162 182 0
159 178 0
165 186 0
162 181 0
160 178 0
164 185 0
164 181 0
163 183 0
165 185 0
165 186 0
164 185 0
162 182 0
167 186 0
164 186 0
166 186 0
163 184 0
158 178 0
166 187 0
171 196 72
173 197 80
173 196 72
172 196 67
171 194 88
168 191 57
169 193 67
169 193 67
171 194 80
168 192 76
170 193 92
165 189 67
168 191 76
168 191 92
165 189 88
171 194 92
173 196 95
167 190 84
167 192 95
170 193 95
172 196 88
171 195 95
174 197 80
169 192 84
175 199 117
167 191 105
170 194 95
168 190 84
174 197 114
176 199 99
166 189 108
171 195 92
174 197 105
168 192 95
174 197 122
172 195 88
163 188 105
174 197 108
170 193 92
173 196 108
166 189 88
168 191 88
165 189 108
171 195 99
169 192 99
169 192 72
164 187 84
164 187 95
162 185 84
165 189 92
165 189 114
159 181 102
157 181 76
155 179 80
167 189 102
159 181 102
162 185 80
165 188 92
154 177 95
158 181 84
162 185 80
164 187 92
161 184 88
160 183 97
161 184 105
162 185 102
161 183 99
163 185 88
163 186 105
163 186 88
158 181 108
150 172 57
163 184 99
163 185 105
153 176 99
156 178 92
154 175 108
160 182 105
151 173 88
156 177 99
158 179 99
156 178 92
154 175 92
153 174 108
157 178 99
154 175 95
154 175 105
158 180 108
146 167 76
148 168 92
148 169 88
151 172 95
141 161 95
145 166 92
135 155 80
142 163 88
140 160 88
136 155 72
137 157 67
127 146 62
130 149 94
120 139 58
113 132 66
118 139 107
90 113 82
90 113 107
93 117 107
91 116 105
90 116 111
96 120 113
95 119 134
100 122 111
104 127 126
100 123 131
100 124 119
104 127 123
98 122 126
97 122 109
109 131 120
103 127 140
98 123 126
87 113 118
95 120 120
97 121 133
85 111 113
101 124 125
94 119 120
88 114 126
88 112 116
107 129 121
111 131 117
94 114 112
97 119 115
104 127 120
107 128 124
107 126 112
96 115 99
102 124 99
90 116 120
101 122 108
82 108 110
79 105 105
76 104 115
74 102 111
78 102 91
76 105 113
67 97 100
67 97 107
75 102 95
67 96 99
70 99 108
70 98 90
60 90 97
63 92 110
59 89 86
58 92 117
65 94 92
53 85 85
59 92 105
56 90 99
55 88 102
54 86 99
53 85 74
54 86 99
56 88 103
54 87 95
54 85 103
58 91 105
56 88 107
57 89 110
54 87 92
54 86 95
56 89 113
57 91 110
56 89 102
53 85 92
55 87 101
56 89 108
55 88 107
54 87 104
57 90 111
57 90 114
56 89 108
55 87 99
56 89 102
55 88 97
54 86 100
56 89 100
57 90 110
58 92 118
55 88 102
58 91 117
56 89 105
58 92 114
56 88 97
55 87 107
56 89 107
55 87 103
56 89 103
57 90 105
54 86 92
56 89 94
55 87 102
52 83 86
56 89 103
54 86 95
56 89 103
55 87 94
55 87 100
55 87 100
52 82 94
53 85 76
57 86 78
58 86 88
67 92 65
78 99 65
72 93 54
85 103 40
101 119 44
98 115 18
106 121 18
112 127 0
105 119 0
102 117 0
106 121 0
109 124 0
110 125 0
104 120 0
122 138 0
112 127 0
114 128 0
111 128 0
100 117 0
109 126 0
114 131 0
113 130 0
119 135 0
114 130 0
120 136 0
120 137 0
118 135 0
121 138 0
119 135 0
110 129 0
123 141 0
122 140 0
134 152 0
128 143 0
119 135 0
127 143 0
140 156 0
130 147 0
127 144 0
116 131 0
128 146 0
139 156 0
140 156 0
129 147 0
124 143 0
134 153 0
120 136 0
127 143 0
140 160 0
134 153 0
129 146 0
141 160 0
128 145 0
131 150 0
143 162 0
132 149 0
144 161 0
144 162 0
142 159 0
138 156 0
135 152 0
143 161 0
138 156 0
132 150 0
137 154 0
145 163 0
149 167 0
148 167 0
140 160 0
141 160 0
137 156 0
138 157 0
143 160 0
152 169 0
145 163 0
140 158 0
146 163 0
139 156 0
147 168 0
144 162 0
145 163 0
151 169 0
145 164 0
151 169 0
139 156 0
154 175 0
138 155 0
153 170 0
149 166 0
151 169 0
149 169 0
151 171 0
151 169 0
146 162 0
149 166 0
151 169 0
149 168 0
145 164 0
152 170 0
145 162 0
150 169 0
150 168 0
148 167 0
145 162 0
144 161 0
151 169 0
159 177 0
157 176 0
150 169 0
152 171 0
148 166 0
155 172 0
154 173 0
153 172 0
156 175 0
150 169 0
153 172 0
156 174 0
161 178 0
152 170 0
157 176 0
160 179 0
160 179 0
160 179 0
158 178 0
156 174 0
158 177 0
152 171 0
149 170 0
156 175 0
154 173 0
159 175 0
159 179 0
159 175 0
158 175 0
157 177 0
160 178 0
146 166 0
153 172 0
155 175 0
156 177 0
164 185 0
161 181 0
156 175 0
155 172 0
154 175 0
160 179 0
156 174 0
161 180 0
158 178 0
162 181 0
161 180 0
161 179 0
163 184 0
159 178 0
162 182 0
163 182 0
161 181 0
162 182 0
164 182 0
162 183 0
163 183 0
159 179 0
168 188 0
161 180 0
165 185 0
159 177 0
160 179 0
164 184 0
163 183 0
162 182 0
163 183 0
165 185 0
160 180 0
161 180 0
171 190 0
164 185 0
164 184 0
164 185 0
165 184 0
161 182 0
165 186 0
162 184 0
162 183 0
167 188 0
163 186 0
170 195 84
171 194 88
171 195 88
168 192 72
174 197 62
173 196 80
162 186 80
170 194 76
172 195 84
169 192 80
170 194 67
171 194 102
172 196 95
173 195 67
173 197 102
170 194 108
172 197 102
175 198 80
168 192 80
172 195 84
170 193 84
166 189 92
174 197 111
171 194 84
173 195 105
174 197 84
169 194 102
168 192 92
170 193 95
170 194 102
172 195 105
173 196 92
169 192 111
164 187 84
167 191 105
173 196 108
167 191 88
168 190 88
170 192 111
164 189 102
168 190 95
170 193 80
166 189 108
170 193 102
166 190 88
164 188 99
167 190 84
164 187 84
163 186 100
169 192 99
163 186 80
156 179 80
162 184 76
157 180 102
163 186 88
161 184 92
169 192 99
163 186 95
159 182 113
164 187 108
161 185 95
163 185 74
171 193 114
167 190 108
166 188 105
162 185 95
161 184 102
159 181 99
156 178 76
152 175 90
164 185 99
159 180 128
159 181 102
154 176 105
158 180 92
159 181 88
158 180 99
160 182 102
152 174 99
161 183 102
145 167 102
155 176 99
157 178 95
153 175 92
150 172 92
151 173 84
157 180 99
156 177 92
144 165 72
145 166 92
139 160 80
146 167 76
146 166 84
143 163 62
139 159 88
141 162 84
138 158 72
140 160 76
140 158 95
123 141 76
141 161 95
120 139 72
115 133 86
124 144 94
114 135 90
100 122 113
94 117 105
79 105 104
88 112 107
104 126 116
91 116 105
93 118 121
83 108 115
91 116 116
91 115 116
96 120 95
91 117 124
116 139 135
93 119 130
94 119 122
101 126 118
105 128 125
97 121 120
91 117 120
88 115 116
93 118 113
92 116 109
102 124 123
99 122 125
91 113 113
108 128 120
93 113 112
93 116 111
105 125 107
94 116 103
90 111 103
90 114 110
105 125 120
98 120 109
81 107 120
89 111 102
94 117 90
81 107 103
82 108 110
85 113 107
70 99 117
68 97 97
64 96 113
64 94 99
72 100 98
74 102 103
68 96 97
62 90 87
63 93 95
63 93 94
60 92 108
59 91 107
66 96 99
59 90 100
55 87 94
60 91 97
56 89 95
56 89 107
56 89 97
57 91 115
55 88 100
57 90 99
56 89 100
55 88 92
58 92 114
57 90 100
56 89 103
55 88 108
56 88 100
55 87 92
55 87 103
54 86 99
54 86 102
56 89 107
55 87 103
56 89 97
57 90 107
56 88 113
57 89 111
56 89 113
58 92 117
56 88 102
55 87 94
57 90 111
55 88 94
56 88 107
56 89 100
53 85 92
58 91 103
56 89 100
54 86 86
55 88 97
55 87 102
54 86 102
56 88 110
55 88 97
53 85 94
56 88 110
54 86 94
54 86 92
55 87 97
56 89 108
53 84 78
55 87 107
57 88 95
56 87 88
69 94 90
59 87 76
76 97 67
80 99 51
86 103 44
91 108 36
83 99 31
83 99 18
108 124 0
114 127 0
107 122 0
102 118 0
113 128 0
110 124 0
103 119 0
108 123 0
119 135 0
112 126 0
111 126 0
109 125 0
110 126 0
107 123 0
129 145 0
113 128 0
107 124 0
128 144 0
109 125 0
122 139 0
129 146 0
127 143 0
115 131 0
136 153 0
122 138 0
120 138 0
123 141 0
116 133 0
131 147 0
125 144 0
129 149 0
126 144 0
132 150 0
129 147 0
131 148 0
127 145 0
131 146 0
129 146 0
140 158 0
124 142 0
134 150 0
127 144 0
134 154 0
132 152 0
137 156 0
123 142 0
136 155 0
139 158 0
131 149 0
132 148 0
133 150 0
137 155 0
133 151 0
145 163 0
140 158 0
139 157 0
138 157 0
141 158 0
141 158 0
147 166 0
138 156 0
136 152 0
140 158 0
142 160 0
138 156 0
141 158 0
142 160 0
135 152 0
144 161 0
141 160 0
150 167 0
145 164 0
154 173 0
144 162 0
148 167 0
150 168 0
150 170 0
142 159 0
150 167 0
145 164 0
135 152 0
145 163 0
152 170 0
144 162 0
146 166 0
152 172 0
152 171 0
143 161 0
149 166 0
150 168 0
157 177 0
145 164 0
149 168 0
153 173 0
155 173 0
149 168 0
156 175 0
155 174 0
151 169 0
163 182 0
154 172 0
151 170 0
152 170 0
145 164 0
155 174 0
157 177 0
153 170 0
150 169 0
160 180 0
152 169 0
151 169 0
156 176 0
158 177 0
161 181 0
158 175 0
152 173 0
157 176 0
154 175 0
155 174 0
159 179 0
150 170 0
159 177 0
150 170 0
156 174 0
158 177 0
161 179 0
155 174 0
154 170 0
154 173 0
159 179 0
159 180 0
156 176 0
158 178 0
158 177 0
144 162 0
156 174 0
163 183 0
164 184 0
161 181 0
157 178 0
163 181 0
156 174 0
158 179 0
163 182 0
157 177 0
162 181 0
161 180 0
164 182 0
163 182 0
163 183 0
162 182 0
163 183 0
164 184 0
169 189 0
160 179 0
163 183 0
163 182 0
163 182 0
154 173 0
160 179 0
162 183 0
164 184 0
161 181 0
160 180 0
164 186 0
166 185 0
160 180 0
164 184 0
165 186 0
163 183 0
162 182 0
163 184 0
164 186 0
167 187 0
161 180 0
161 179 0
167 187 0
169 190 0
165 186 0
163 183 0
166 187 0
171 195 57
167 190 67
170 194 76
168 192 76
167 191 76
175 198 88
169 193 62
170 194 76
172 196 67
174 197 95
169 194 84
168 193 102
170 194 92
168 192 80
170 194 95
173 196 105
169 193 95
171 195 84
170 194 80
171 194 99
173 197 102
165 189 62
165 189 84
169 192 102
169 192 88
168 192 88
172 195 88
174 197 102
172 197 105
170 193 92
171 195 80
174 198 105
172 196 108
171 194 105
175 198 105
173 196 117
167 190 80
174 196 114
168 191 99
170 193 99
171 193 117
167 190 95
167 190 84
167 191 84
169 193 105
167 189 114
165 188 88
163 186 94
163 187 99
168 190 100
165 188 95
166 189 80
171 193 95
164 187 102
166 190 84
164 188 80
162 185 99
165 188 92
160 182 102
161 183 103
169 192 107
162 185 94
165 188 86
153 176 95
155 178 95
155 177 88
165 187 105
162 185 99
165 187 102
164 187 102
160 181 92
162 186 102
158 180 95
155 177 88
162 183 92
161 183 108
159 182 99
155 176 102
158 180 92
153 175 95
163 184 125
151 173 95
153 174 84
157 178 99
157 178 84
152 173 102
140 161 62
157 177 102
150 171 114
148 169 84
151 172 102
149 169 84
147 167 84
135 155 80
144 165 92
142 162 76
150 170 95
143 161 95
139 158 88
137 157 57
137 155 80
127 145 84
129 148 90
132 150 102
132 152 92
110 131 102
100 123 103
89 113 110
93 117 110
93 116 121
94 119 107
99 124 111
102 126 111
102 126 118
97 120 102
87 113 110
93 117 110
102 126 114
101 124 118
91 118 105
98 122 133
89 114 115
86 112 112
109 132 133
89 114 109
72 101 112
95 119 126
101 122 103
105 126 120
98 121 115
91 114 103
104 124 105
101 125 117
97 118 89
96 117 113
102 124 105
105 126 102
109 130 95
103 124 95
89 113 92
89 115 115
84 110 102
89 113 100
89 114 100
76 103 99
90 114 92
76 104 97
79 106 86
66 93 84
70 99 94
66 96 108
66 93 95
66 94 95
60 90 103
62 92 84
56 87 92
58 90 102
62 93 102
55 88 97
58 89 96
53 84 88
55 88 99
56 88 97
57 91 110
55 87 84
57 90 108
55 87 92
56 88 103
56 89 102
56 90 110
54 86 92
55 87 99
55 87 103
56 89 97
57 90 113
58 91 117
58 92 117
56 88 107
57 91 105
56 89 97
54 86 92
55 88 97
56 89 102
55 87 95
55 88 92
57 90 103
56 89 100
57 90 100
57 90 117
59 92 113
54 85 103
57 91 108
54 86 99
53 84 84
56 88 92
54 86 88
57 90 110
55 87 102
55 87 99
54 87 102
54 85 92
55 86 103
53 85 86
54 86 95
54 85 94
49 79 80
53 84 105
56 85 80
56 86 88
76 100 67
57 84 57
80 103 72
87 106 60
88 105 31
89 106 31
95 110 18
96 113 0
104 120 0
96 113 0
114 130 0
117 132 0
106 122 0
97 113 0
101 116 0
109 125 0
111 127 0
122 140 0
104 120 0
117 133 0
115 132 0
108 123 0
122 138 0
115 131 0
120 136 0
113 130 0
119 135 0
112 126 0
116 132 0
108 123 0
121 139 0
123 141 0
107 125 0
125 143 0
111 127 0
122 141 0
132 150 0
120 137 0
134 154 0
125 143 0
127 146 0
121 137 0
130 149 0
136 152 0
126 144 0
130 147 0
117 133 0
122 140 0
132 150 0
130 149 0
130 148 0
133 152 0
136 156 0
130 148 0
128 146 0
144 162 0
138 158 0
130 146 0
135 153 0
134 152 0
134 153 0
133 151 0
135 152 0
137 154 0
138 154 0
153 173 0
134 153 0
138 157 0
146 164 0
139 157 0
144 163 0
140 158 0
153 172 0
134 150 0
146 163 0
126 142 0
144 162 0
136 153 0
135 151 0
138 156 0
145 165 0
145 163 0
145 162 0
146 165 0
147 166 0
147 168 0
140 158 0
151 171 0
145 163 0
152 172 0
147 166 0
145 164 0
153 173 0
152 172 0
150 169 0
140 157 0
154 173 0
152 172 0
151 169 0
149 169 0
144 161 0
153 171 0
141 159 0
146 164 0
155 175 0
151 170 0
150 168 0
145 164 0
156 175 0
152 170 0
151 170 0
148 164 0
152 170 0
152 170 0
155 174 0
152 171 0
152 172 0
153 172 0
149 167 0
149 169 0
153 172 0
149 166 0
151 170 0
149 168 0
148 166 0
157 175 0
159 177 0
153 172 0
159 179 0
155 173 0
158 177 0
151 170 0
156 176 0
157 175 0
150 168 0
163 182 0
155 173 0
158 176 0
151 168 0
161 180 0
159 180 0
160 180 0
158 179 0
157 176 0
155 173 0
154 174 0
163 183 0
165 187 0
159 178 0
163 183 0
161 180 0
162 183 0
161 180 0
156 174 0
164 182 0
155 173 0
166 186 0
163 182 0
170 191 0
162 183 0
165 186 0
161 181 0
168 189 0
165 185 0
163 183 0
159 179 0
165 184 0
165 185 0
165 185 0
165 186 0
162 184 0
164 185 0
167 187 0
164 184 0
163 181 0
162 183 0
161 181 0
164 184 0
163 181 0
165 184 0
164 181 0
166 186 0
163 185 0
164 183 0
162 183 0
163 184 0
168 189 0
166 188 0
168 189 0
164 183 0
159 180 0
165 189 80
171 195 84
171 196 72
170 194 102
172 195 92
164 188 36
170 194 67
173 196 76
173 197 102
170 194 92
173 196 99
174 197 95
171 194 105
171 194 88
173 197 99
169 194 76
170 193 80
168 192 57
174 197 105
177 200 92
167 190 84
170 193 84
171 195 92
167 191 99
172 196 108
169 193 84
176 199 102
175 199 102
172 196 111
170 192 88
176 198 117
169 191 99
168 192 99
169 193 105
170 192 92
173 197 102
174 197 114
172 195 122
169 192 108
168 191 92
165 188 99
167 190 102
162 186 84
171 194 120
165 189 105
165 189 108
165 188 105
168 192 114
165 189 99
170 194 128
173 196 122
171 194 111
166 189 111
159 181 99
155 179 88
163 186 108
163 185 107
159 182 111
163 185 84
162 185 92
164 187 105
159 182 76
167 190 105
164 187 99
153 175 95
155 178 88
159 181 111
163 184 102
163 186 105
166 188 105
159 182 108
155 177 110
162 184 102
162 184 92
156 178 102
163 184 95
153 174 88
160 181 95
151 172 88
155 176 102
155 176 108
159 181 88
156 177 102
148 170 88
144 166 57
141 161 84
144 165 88
148 169 99
151 171 108
156 176 102
148 169 102
156 176 102
148 167 102
132 152 51
138 157 80
129 149 80
145 165 72
146 166 80
149 168 95
126 145 76
133 151 88
130 150 84
128 147 72
130 148 80
127 145 86
117 136 72
118 139 103
93 114 102
100 121 105
90 114 99
83 108 102
98 122 117
101 124 125
99 122 115
89 115 108
97 121 103
94 118 122
101 125 129
108 131 121
96 120 126
100 125 114
105 128 130
99 123 114
101 124 128
100 124 122
106 127 117
87 111 110
97 120 136
105 125 125
91 113 86
109 129 104
104 127 107
115 135 103
104 125 84
102 122 103
102 123 100
118 139 113
96 117 105
100 123 102
101 121 84
92 117 99
88 111 95
74 103 95
94 116 88
95 119 99
81 105 99
70 99 92
80 107 86
71 99 91
73 102 102
71 99 103
74 102 82
67 95 88
60 89 92
59 90 100
64 93 99
55 85 82
51 82 86
56 89 110
54 87 87
59 91 103
55 87 84
55 88 107
54 85 90
56 88 100
55 88 97
54 86 93
55 87 94
53 85 86
56 88 99
54 86 99
56 89 99
55 87 98
56 88 97
55 88 100
58 91 103
57 90 108
54 86 88
55 87 88
53 85 92
55 88 105
53 85 92
55 88 100
54 86 94
55 87 95
56 88 99
58 91 107
55 87 99
54 86 99
56 90 95
55 87 99
54 86 94
58 91 114
55 87 100
54 86 95
55 87 90
54 86 90
54 85 97
53 84 90
54 85 88
54 86 86
56 88 107
54 85 95
54 86 86
51 82 80
55 87 100
58 85 78
50 80 78
61 84 72
76 96 67
84 103 40
89 107 36
93 109 36
87 102 25
96 114 25
108 124 0
101 117 0
103 120 0
107 122 0
98 113 0
115 131 0
113 129 0
108 124 0
78 95 0
103 117 0
105 121 0
114 129 0
101 118 0
119 135 0
120 137 0
115 130 0
116 132 0
120 137 0
114 130 0
115 130 0
118 135 0
130 147 0
109 127 0
123 141 0
129 146 0
121 139 0
123 139 0
116 133 0
135 152 0
126 145 0
124 141 0
118 135 0
130 149 0
133 150 0
121 139 0
126 145 0
123 139 0
136 153 0
129 147 0
132 150 0
123 142 0
138 158 0
133 153 0
127 143 0
131 149 0
137 155 0
140 159 0
125 142 0
136 154 0
126 143 0
140 159 0
136 155 0
132 149 0
149 168 0
134 151 0
139 156 0
146 163 0
141 158 0
143 163 0
132 152 0
150 168 0
137 155 0
138 156 0
137 157 0
146 165 0
132 150 0
143 163 0
143 163 0
137 155 0
141 160 0
142 160 0
151 167 0
145 164 0
147 164 0
148 168 0
150 169 0
143 162 0
149 169 0
148 166 0
147 167 0
142 161 0
150 169 0
151 169 0
149 167 0
147 166 0
149 168 0
151 171 0
148 168 0
148 167 0
150 170 0
148 168 0
154 174 0
149 167 0
149 168 0
147 166 0
148 168 0
156 174 0
152 170 0
153 174 0
147 167 0
155 175 0
155 175 0
153 172 0
148 164 0
153 172 0
159 177 0
157 178 0
158 180 0
151 170 0
147 166 0
157 176 0
157 175 0
152 171 0
144 163 0
154 172 0
158 179 0
155 175 0
158 177 0
156 175 0
157 177 0
156 174 0
159 177 0
152 171 0
152 171 0
157 176 0
159 176 0
157 177 0
161 180 0
158 176 0
162 181 0
154 172 0
155 172 0
156 175 0
161 179 0
150 167 0
159 179 0
157 176 0
158 177 0
160 179 0
156 173 0
157 176 0
153 172 0
157 176 0
160 181 0
163 184 0
157 176 0
163 181 0
158 176 0
158 179 0
159 180 0
163 184 0
168 188 0
157 176 0
162 183 0
158 176 0
158 178 0
161 180 0
164 185 0
164 185 0
164 183 0
159 179 0
157 177 0
160 179 0
159 179 0
159 179 0
168 188 0
165 186 0
163 182 0
162 183 0
163 184 0
163 182 0
162 183 0
161 181 0
167 187 0
165 184 0
168 189 0
165 185 0
166 186 0
165 185 0
161 182 0
164 183 0
161 181 0
168 189 0
168 189 0
166 186 0
171 195 76
171 194 62
168 192 76
170 195 95
171 196 76
168 192 88
169 193 84
176 199 99
168 192 92
170 193 44
171 195 84
171 195 72
165 188 84
170 194 84
171 194 92
167 191 80
172 196 88
169 192 95
174 197 99
174 197 108
169 192 108
171 194 92
177 201 114
169 192 95
168 192 76
171 195 102
172 194 76
169 193 99
173 197 108
165 188 88
173 196 114
165 188 76
170 193 122
168 190 108
169 193 88
160 183 76
169 192 102
173 197 108
173 196 117
166 189 72
169 193 111
173 196 88
165 188 88
170 193 108
171 194 111
167 190 99
166 190 111
167 191 111
169 193 114
162 185 76
167 190 105
164 188 108
168 192 84
165 188 90
167 190 88
163 186 108
165 188 95
164 187 92
165 188 95
162 185 114
166 188 99
158 181 99
163 185 99
160 182 95
158 181 92
168 190 102
162 185 117
162 185 95
159 181 114
153 175 84
152 174 88
157 178 125
158 180 95
166 188 111
156 178 95
158 180 102
151 173 95
160 182 80
164 186 108
155 175 117
148 170 95
155 177 111
146 167 95
157 179 102
153 174 102
154 175 102
142 162 76
152 173 76
147 169 92
157 177 108
142 163 76
155 175 114
137 157 67
145 165 99
159 180 108
140 159 95
138 158 72
136 156 84
135 155 80
134 153 84
134 153 62
126 145 67
127 146 67
129 148 84
116 135 74
117 136 67
125 144 92
118 139 102
101 122 100
89 112 90
101 123 108
88 112 108
91 116 110
85 110 103
88 113 114
89 114 107
91 115 113
107 129 120
98 122 115
106 129 131
101 124 114
93 118 90
81 108 102
95 119 115
108 133 120
92 116 108
99 123 113
91 113 100
97 120 107
107 128 108
106 128 103
114 134 95
104 124 89
105 127 97
94 116 94
117 139 92
109 130 90
112 132 100
112 134 105
84 109 90
109 129 65
79 107 105
96 119 103
78 103 111
81 103 84
72 98 99
79 106 100
67 96 90
80 105 76
68 97 94
80 108 95
68 94 74
71 99 92
65 94 83
61 89 86
64 93 90
61 91 88
63 95 103
56 89 105
56 87 105
64 94 103
57 90 102
52 83 95
55 88 102
53 85 86
54 86 80
56 88 95
56 88 105
54 86 102
53 85 88
53 85 76
54 86 82
55 86 99
54 86 92
55 87 82
53 85 94
57 90 111
54 86 88
55 86 99
56 88 103
56 89 90
53 84 97
56 89 114
55 88 95
56 88 107
56 89 97
55 86 95
55 87 94
55 87 100
54 86 82
54 86 97
56 89 97
57 89 110
54 86 97
55 88 90
56 89 95
54 86 95
54 86 84
56 88 114
52 83 88
53 85 95
51 81 80
55 85 88
60 90 92
67 93 86
73 98 65
72 95 70
83 99 40
86 105 44
72 90 36
88 105 54
79 95 18
103 118 18
94 109 0
104 121 0
112 128 0
93 108 0
93 109 0
103 118 0
106 122 0
99 115 0
94 111 0
95 110 0
114 130 0
104 120 0
107 121 0
114 132 0
104 119 0
109 124 0
102 119 0
111 129 0
106 122 0
120 136 0
116 134 0
111 126 0
122 140 0
116 132 0
116 132 0
110 127 0
118 136 0
124 142 0
128 147 0
119 136 0
123 141 0
129 146 0
119 138 0
131 148 0
128 144 0
127 145 0
121 140 0
126 144 0
130 148 0
129 147 0
132 150 0
127 145 0
134 152 0
126 143 0
131 150 0
135 154 0
122 139 0
134 152 0
133 150 0
141 159 0
137 154 0
135 152 0
133 152 0
147 166 0
135 153 0
130 150 0
133 150 0
141 159 0
139 156 0
140 159 0
139 157 0
142 162 0
148 168 0
138 158 0
145 163 0
141 160 0
154 173 0
140 157 0
152 171 0
144 161 0
147 166 0
142 160 0
139 158 0
149 168 0
149 167 0
142 160 0
130 147 0
137 154 0
142 160 0
148 168 0
147 166 0
154 174 0
151 171 0
147 166 0
143 161 0
152 171 0
147 167 0
146 165 0
155 174 0
149 168 0
146 165 0
150 170 0
145 163 0
150 169 0
150 169 0
147 167 0
156 174 0
148 165 0
159 180 0
151 168 0
155 174 0
151 171 0
152 172 0
158 178 0
152 169 0
153 173 0
151 171 0
158 178 0
149 169 0
155 174 0
152 170 0
153 171 0
164 184 0
141 159 0
151 170 0
152 172 0
157 176 0
160 179 0
153 171 0
153 172 0
150 168 0
158 178 0
155 170 0
157 175 0
150 167 0
145 165 0
151 170 0
157 176 0
158 178 0
159 179 0
160 180 0
160 178 0
156 174 0
158 176 0
160 180 0
152 171 0
159 180 0
156 175 0
168 187 0
160 181 0
159 175 0
159 179 0
158 177 0
155 173 0
161 182 0
157 175 0
159 179 0
157 178 0
157 178 0
163 182 0
158 177 0
160 181 0
164 185 0
160 180 0
160 180 0
164 185 0
164 183 0
161 180 0
164 185 0
164 185 0
163 183 0
163 182 0
165 185 0
160 180 0
164 185 0
163 184 0
163 184 0
163 183 0
161 180 0
156 175 0
168 188 0
160 180 0
166 187 0
164 185 0
163 183 0
158 178 0
163 184 0
164 183 0
163 182 0
168 187 0
165 186 0
163 182 0
161 181 0
161 182 0
163 183 0
166 187 0
167 189 0
168 192 84
175 199 92
174 197 95
169 194 76
174 198 92
170 194 67
171 194 76
172 195 88
169 192 80
174 198 88
168 192 95
174 198 102
176 199 102
175 198 99
169 193 72
175 198 92
168 191 95
167 191 95
170 193 92
169 192 80
170 194 95
170 193 80
167 191 92
169 194 95
172 195 84
172 195 92
164 187 95
170 194 105
166 189 102
168 191 95
171 194 108
168 192 95
167 191 105
169 193 120
172 195 102
171 194 105
166 190 111
170 193 102
167 191 92
165 190 88
165 189 92
163 187 99
167 191 105
166 189 105
167 190 99
165 190 114
166 189 84
166 190 88
164 187 80
161 184 92
161 184 94
171 193 99
166 190 105
166 189 108
164 187 90
164 186 84
158 181 97
157 180 97
164 188 94
165 188 57
160 183 88
162 185 107
162 185 88
161 185 102
168 190 108
163 185 95
158 180 99
163 186 99
170 192 117
155 178 76
160 182 95
157 181 95
158 179 84
161 182 108
151 173 78
157 178 95
159 181 92
162 183 102
155 176 102
156 178 102
162 184 111
155 177 95
152 172 92
156 177 84
155 176 92
142 162 84
145 165 76
152 173 92
148 169 95
153 173 102
153 173 88
151 171 105
154 174 95
135 156 80
147 166 95
146 166 88
143 163 76
151 170 92
141 160 80
146 166 114
135 155 80
135 155 84
128 146 72
127 144 88
126 143 80
121 140 60
122 141 82
107 126 76
118 137 103
106 127 91
87 109 90
87 112 105
92 116 103
93 117 114
98 122 110
102 126 130
92 116 111
97 120 109
97 120 114
96 120 121
106 128 125
94 119 115
93 117 120
88 110 100
97 120 109
99 121 110
106 129 105
123 142 108
97 120 110
111 133 118
104 125 92
117 137 96
105 127 94
112 129 97
106 129 100
109 130 94
113 132 86
113 132 86
102 122 90
93 114 90
107 127 78
102 124 90
93 115 70
77 101 88
94 116 88
85 109 95
90 113 88
72 99 97
65 93 90
74 100 92
72 98 93
85 109 86
70 95 74
60 89 78
61 91 90
75 101 92
64 92 65
60 89 87
59 89 92
56 87 92
58 88 93
54 85 88
52 83 88
54 85 92
54 86 84
55 87 92
54 85 84
55 88 97
55 88 84
55 86 94
51 82 83
53 85 90
53 85 94
54 86 80
54 85 90
56 88 88
54 86 92
52 84 82
54 86 78
55 87 99
55 87 90
54 85 95
54 86 97
55 86 95
56 89 100
53 85 92
54 86 90
54 85 82
53 84 90
54 86 97
55 88 102
56 89 99
53 84 95
55 87 94
52 84 86
54 87 95
52 84 82
55 87 99
53 84 95
51 82 88
59 86 72
60 86 76
61 86 65
73 94 65
81 102 70
83 102 54
80 98 40
83 99 40
93 108 25
92 106 0
84 97 0
85 100 0
86 100 0
104 119 0
94 110 0
93 107 0
106 122 0
96 114 0
103 117 0
110 127 0
107 122 0
108 124 0
114 130 0
105 121 0
117 135 0
105 122 0
120 136 0
109 126 0
104 120 0
122 139 0
108 126 0
111 127 0
125 142 0
125 142 0
120 136 0
114 132 0
129 147 0
121 139 0
119 136 0
115 132 0
118 136 0
108 124 0
127 146 0
130 147 0
121 139 0
120 140 0
113 131 0
122 140 0
135 154 0
139 157 0
123 141 0
128 143 0
135 153 0
136 155 0
130 147 0
135 152 0
138 154 0
122 141 0
136 155 0
134 152 0
137 155 0
132 151 0
131 150 0
133 150 0
135 155 0
137 156 0
133 150 0
134 153 0
142 161 0
136 155 0
151 170 0
138 157 0
137 157 0
141 160 0
142 161 0
135 153 0
142 162 0
146 165 0
130 149 0
147 166 0
150 167 0
138 157 0
131 151 0
137 156 0
149 169 0
147 167 0
143 164 0
147 165 0
146 164 0
138 156 0
142 161 0
141 159 0
149 169 0
154 175 0
147 166 0
145 163 0
153 172 0
147 166 0
146 165 0
148 166 0
151 170 0
150 168 0
147 165 0
146 165 0
148 167 0
157 176 0
150 168 0
150 169 0
147 167 0
151 170 0
152 170 0
146 167 0
154 173 0
149 168 0
149 168 0
156 173 0
149 168 0
141 161 0
158 176 0
154 173 0
152 172 0
157 176 0
153 173 0
153 174 0
152 172 0
151 170 0
155 174 0
159 177 0
156 176 0
156 175 0
155 174 0
151 169 0
162 182 0
157 177 0
155 174 0
158 178 0
152 170 0
161 180 0
158 177 0
155 174 0
160 180 0
152 170 0
148 168 0
157 175 0
159 180 0
155 172 0
160 180 0
158 175 0
158 178 0
162 182 0
163 184 0
156 175 0
161 181 0
160 177 0
160 179 0
160 180 0
161 180 0
161 181 0
159 180 0
159 179 0
162 181 0
160 181 0
164 184 0
162 182 0
157 176 0
160 180 0
160 181 0
165 184 0
165 184 0
161 182 0
162 183 0
155 174 0
163 183 0
158 177 0
161 180 0
165 185 0
160 180 0
160 180 0
162 184 0
168 190 0
165 186 0
163 182 0
164 184 0
167 189 0
160 180 0
159 179 0
164 185 0
165 185 0
165 185 0
165 185 0
166 188 0
166 187 0
165 185 0
164 183 0
165 186 0
167 189 0
163 182 0
169 190 0
164 184 0
168 189 0
172 195 72
170 194 80
174 197 92
170 194 88
168 192 51
168 191 44
174 197 99
173 196 80
173 196 72
176 199 102
176 200 92
167 191 92
174 197 111
171 195 88
175 198 95
173 196 99
169 192 76
163 187 76
172 195 114
169 193 84
171 193 99
170 193 95
173 196 99
168 192 102
170 193 102
167 191 105
172 195 105
171 194 95
170 193 92
177 199 95
166 189 76
166 190 76
171 196 108
165 189 88
168 192 92
168 191 114
165 189 102
167 190 102
168 192 102
165 188 95
169 193 72
163 187 95
168 191 105
168 191 99
172 195 105
162 186 84
172 196 99
160 184 72
158 182 88
163 186 76
163 187 92
163 185 103
162 186 105
165 188 102
165 187 99
163 185 88
170 194 99
160 184 105
164 187 95
163 186 80
155 176 72
161 184 76
159 182 84
166 190 102
164 186 95
161 184 99
163 185 86
155 178 111
161 182 92
161 184 99
159 182 99
162 184 99
151 173 90
157 179 88
151 173 92
154 176 95
158 179 102
149 172 72
160 181 114
159 180 114
155 176 95
161 181 111
155 176 99
157 179 102
160 181 99
148 169 88
166 187 105
146 166 72
162 182 108
146 166 80
149 169 80
145 165 102
144 165 88
146 166 95
143 163 92
136 156 92
146 166 88
139 159 84
144 163 95
129 148 80
123 142 67
145 165 84
134 153 84
127 146 51
123 141 57
122 139 72
127 145 76
114 130 76
115 134 88
101 119 74
87 108 74
94 115 89
89 111 105
102 124 118
100 121 120
85 110 103
85 109 99
103 126 114
93 118 118
86 111 95
98 121 113
89 114 105
93 117 115
95 119 124
99 122 94
115 135 110
108 130 105
115 136 110
100 119 106
98 122 99
106 128 88
106 124 95
111 131 99
111 130 97
101 122 97
108 130 103
106 125 84
102 121 88
113 133 82
120 141 82
108 129 80
102 125 92
88 111 92
85 110 76
92 114 80
87 111 80
83 104 84
80 104 74
80 103 84
75 100 76
72 98 82
81 106 86
74 100 81
77 104 86
68 96 94
66 91 76
57 84 74
63 91 77
53 85 92
55 85 68
52 82 75
56 87 88
55 86 88
54 86 80
56 89 97
55 88 84
55 87 95
51 82 60
54 86 88
54 86 88
54 86 92
54 86 94
56 88 101
52 83 86
53 84 95
54 86 92
54 86 97
54 86 94
53 85 86
53 85 99
52 83 88
55 87 99
53 85 92
54 85 88
52 83 90
55 86 88
51 82 80
56 88 97
54 86 90
56 88 95
53 84 80
53 84 94
54 86 100
53 84 92
54 86 88
53 83 80
52 83 80
73 98 90
62 87 74
63 86 67
74 97 54
71 93 57
74 96 62
74 93 44
94 112 40
80 96 36
87 103 25
94 110 18
96 111 0
93 107 0
93 109 0
104 118 0
90 105 0
113 128 0
93 109 0
106 122 0
103 118 0
106 121 0
98 114 0
107 122 0
105 121 0
101 117 0
104 120 0
113 129 0
110 124 0
115 130 0
103 121 0
116 132 0
108 123 0
117 135 0
117 134 0
110 127 0
116 133 0
120 137 0
114 131 0
113 129 0
132 150 0
125 143 0
122 141 0
118 135 0
137 156 0
139 158 0
128 146 0
129 145 0
132 150 0
132 150 0
132 148 0
118 136 0
124 143 0
131 150 0
132 151 0
134 152 0
129 145 0
132 151 0
124 141 0
130 148 0
133 151 0
132 150 0
132 151 0
134 152 0
145 165 0
133 151 0
138 159 0
132 151 0
133 152 0
135 154 0
133 150 0
143 162 0
146 166 0
141 160 0
140 160 0
130 149 0
137 154 0
148 166 0
146 167 0
145 164 0
140 159 0
133 152 0
141 161 0
148 166 0
142 160 0
145 164 0
143 161 0
146 165 0
148 167 0
143 161 0
135 154 0
143 163 0
148 168 0
144 165 0
150 168 0
153 172 0
148 166 0
147 167 0
157 176 0
146 164 0
150 169 0
147 165 0
145 164 0
148 168 0
145 165 0
148 167 0
146 165 0
144 163 0
146 165 0
144 162 0
155 176 0
159 179 0
151 170 0
149 167 0
149 168 0
152 172 0
155 175 0
152 172 0
153 174 0
154 173 0
150 168 0
153 173 0
151 169 0
157 177 0
157 177 0
147 165 0
157 175 0
155 174 0
156 177 0
150 168 0
161 182 0
156 174 0
153 173 0
158 178 0
152 170 0
159 178 0
154 174 0
158 179 0
156 175 0
150 168 0
150 168 0
157 177 0
160 179 0
159 180 0
157 175 0
154 173 0
152 170 0
154 174 0
161 179 0
164 185 0
156 175 0
164 185 0
156 175 0
158 177 0
155 174 0
159 180 0
164 183 0
156 175 0
161 182 0
154 173 0
154 173 0
157 176 0
162 181 0
165 186 0
159 179 0
161 182 0
165 184 0
163 182 0
163 182 0
160 179 0
162 183 0
158 179 0
161 180 0
160 178 0
164 184 0
160 182 0
168 190 0
165 185 0
163 183 0
160 181 0
167 188 0
164 182 0
165 187 0
157 179 0
162 181 0
160 181 0
163 182 0
162 182 0
158 177 0
162 182 0
166 187 0
165 187 0
162 182 0
164 184 0
164 184 0
164 184 0
164 183 0
167 188 0
168 188 0
165 185 0
166 186 0
166 188 0
168 189 0
161 181 0
172 195 72
174 197 99
171 194 76
171 195 80
169 193 80
166 190 92
174 198 84
175 199 95
169 193 72
165 189 80
168 193 72
168 192 76
175 198 114
173 196 72
169 192 92
171 195 99
170 193 76
168 190 88
174 197 92
172 195 95
168 192 102
174 197 111
173 196 117
164 187 99
169 192 99
174 197 84
172 196 105
165 189 99
168 191 84
170 194 105
168 190 62
172 196 114
173 197 95
168 192 102
168 191 72
173 197 120
163 188 88
171 194 84
166 189 108
170 193 102
165 189 76
172 196 111
167 191 102
163 186 80
169 192 114
170 194 95
171 195 111
169 192 84
165 188 108
166 189 108
168 191 84
165 188 72
161 184 102
161 184 92
167 189 107
162 185 99
166 189 108
163 185 107
162 185 92
163 186 99
167 190 113
156 179 88
163 186 80
164 186 121
161 183 92
159 182 102
163 185 95
164 187 84
156 178 95
165 187 92
164 186 111
165 188 120
163 186 105
161 183 82
158 180 111
157 178 99
156 178 99
157 180 111
150 172 84
162 183 111
161 183 111
166 188 105
147 168 80
156 178 117
160 182 117
140 161 84
154 175 111
143 163 95
143 163 99
153 173 105
144 165 80
139 159 72
136 156 72
137 157 102
150 170 108
148 168 88
145 163 117
141 161 92
130 150 88
139 158 99
132 151 72
133 152 72
134 154 80
133 152 72
133 151 62
125 143 57
124 142 67
129 148 72
118 136 72
113 130 95
113 131 78
101 121 92
92 115 88
99 121 95
90 112 111
92 116 122
106 128 111
99 122 110
95 118 115
90 116 94
91 116 100
101 124 135
107 130 111
105 127 108
92 117 104
98 121 99
100 120 99
113 134 107
113 133 84
113 133 92
114 133 92
104 123 90
113 133 86
114 135 74
112 133 80
107 127 94
114 132 92
102 122 97
110 130 86
117 136 67
107 126 78
108 128 82
92 111 78
84 105 82
88 112 88
87 110 78
80 105 86
93 117 70
87 109 70
88 111 82
85 108 62
81 105 74
85 107 70
73 98 76
69 94 72
72 96 72
71 98 94
59 87 78
55 83 80
58 88 92
53 84 82
53 85 88
52 83 67
54 85 82
51 81 67
53 84 74
51 82 72
53 85 76
53 84 92
52 84 76
55 87 102
54 86 97
53 85 92
53 85 90
52 83 74
51 82 88
52 83 80
52 83 78
52 83 80
53 85 80
55 88 102
54 85 94
51 80 92
53 85 92
51 82 76
53 85 82
52 83 94
52 83 82
51 81 90
54 85 90
57 88 88
57 83 67
57 84 60
58 86 82
59 85 78
59 84 67
65 88 57
60 82 57
75 96 57
77 95 25
83 100 54
95 111 36
96 112 25
86 102 0
91 105 0
94 110 0
95 109 0
92 109 0
94 108 0
91 106 0
109 123 0
93 109 0
107 122 0
101 116 0
102 117 0
104 120 0
104 119 0
98 115 0
113 129 0
108 123 0
106 121 0
116 133 0
108 126 0
113 129 0
110 126 0
107 124 0
132 150 0
123 140 0
116 133 0
117 134 0
126 143 0
108 124 0
117 135 0
120 135 0
115 130 0
123 140 0
124 141 0
110 127 0
113 131 0
130 148 0
127 145 0
120 137 0
132 152 0
125 142 0
137 153 0
136 156 0
132 151 0
115 134 0
121 139 0
137 157 0
128 146 0
132 149 0
115 134 0
130 149 0
135 155 0
131 151 0
132 151 0
131 148 0
134 153 0
133 150 0
135 154 0
135 152 0
132 151 0
134 153 0
136 153 0
143 162 0
130 151 0
136 154 0
142 161 0
135 154 0
139 158 0
146 164 0
135 155 0
134 153 0
137 156 0
131 150 0
146 166 0
140 159 0
147 167 0
137 157 0
143 162 0
151 172 0
155 172 0
143 161 0
146 165 0
148 167 0
147 165 0
146 165 0
137 155 0
151 171 0
144 160 0
149 169 0
149 170 0
142 161 0
152 172 0
149 169 0
147 166 0
150 171 0
148 169 0
149 169 0
152 171 0
152 171 0
147 166 0
152 171 0
149 168 0
149 166 0
153 172 0
151 170 0
155 174 0
158 178 0
152 171 0
159 179 0
152 169 0
152 170 0
150 168 0
160 181 0
146 164 0
156 178 0
154 174 0
148 168 0
158 176 0
157 177 0
150 169 0
151 170 0
158 178 0
155 175 0
155 174 0
156 175 0
161 181 0
155 175 0
163 184 0
159 179 0
151 168 0
160 181 0
162 181 0
158 177 0
157 176 0
152 171 0
160 181 0
162 182 0
157 177 0
164 183 0
155 176 0
150 169 0
159 179 0
158 177 0
161 181 0
150 170 0
159 176 0
160 180 0
162 180 0
163 183 0
156 174 0
162 183 0
159 177 0
160 179 0
167 185 0
160 179 0
158 178 0
162 182 0
160 181 0
162 182 0
160 180 0
159 178 0
168 189 0
163 183 0
161 180 0
165 185 0
161 180 0
164 185 0
164 183 0
163 184 0
161 181 0
162 182 0
163 184 0
165 184 0
163 184 0
163 184 0
168 190 0
162 183 0
166 186 0
162 184 0
165 186 0
166 187 0
166 187 0
163 184 0
163 182 0
164 184 0
164 185 0
167 189 0
168 187 0
165 184 0
164 186 0
162 181 0
166 188 0
166 187 0
163 183 0
163 183 0
169 190 0
165 186 0
171 194 95
166 190 76
172 196 80
170 194 88
173 197 95
173 197 88
177 200 88
173 196 80
178 201 99
176 199 108
173 195 99
174 197 102
169 193 84
170 194 84
170 194 84
171 195 95
172 194 99
174 196 88
171 194 102
170 194 102
171 194 120
168 192 84
171 195 80
173 197 102
173 195 95
170 193 88
167 191 84
169 192 111
169 193 92
170 194 105
170 194 111
163 187 88
166 189 80
170 193 117
168 190 99
167 190 102
171 194 88
163 186 84
164 187 95
172 196 99
167 191 76
167 190 108
170 193 108
168 192 111
166 190 117
172 196 114
164 187 76
171 195 110
172 196 76
160 184 76
171 194 117
169 192 84
160 183 86
163 187 80
168 191 105
160 182 78
165 188 76
165 188 74
161 183 86
158 181 97
161 185 92
162 185 114
166 189 111
160 183 88
166 188 111
160 183 107
159 180 88
159 182 92
161 184 102
153 176 92
157 180 102
163 185 102
165 187 108
156 178 108
158 180 99
155 177 108
163 186 88
163 186 120
164 185 105
153 175 92
157 178 99
158 179 114
149 169 84
154 176 84
149 170 95
150 171 95
148 168 92
155 176 117
141 161 76
150 170 117
151 172 88
147 167 76
139 159 76
153 172 125
150 170 102
139 158 111
151 170 114
149 168 108
142 162 88
137 154 95
142 160 114
142 161 99
137 155 84
128 146 62
141 160 88
120 137 76
131 149 95
119 136 67
126 143 84
103 120 72
113 130 70
112 130 80
106 124 94
94 116 94
94 116 107
95 118 113
82 106 100
112 133 113
93 117 110
89 113 92
97 121 97
96 119 97
98 122 108
103 126 115
98 122 100
103 126 99
107 128 92
118 137 107
116 136 99
116 136 72
115 136 84
112 132 95
107 126 90
120 139 83
104 122 74
126 145 67
112 131 84
117 137 90
111 131 57
106 128 84
107 127 78
92 112 80
104 124 72
96 116 73
91 113 76
101 124 86
104 126 76
95 118 74
92 113 62
99 122 76
83 105 67
90 111 74
95 117 74
88 110 57
73 95 60
82 103 51
86 106 31
79 101 60
71 96 65
69 92 70
63 88 72
64 90 76
51 82 78
51 81 67
53 85 84
52 83 91
53 84 88
51 82 84
52 83 80
53 85 88
53 84 94
48 78 60
51 82 78
50 80 78
51 82 90
54 85 80
53 84 80
55 88 99
51 81 65
53 84 76
53 84 86
51 81 80
53 84 86
51 82 82
58 87 97
52 83 72
56 84 74
65 93 72
56 85 86
51 78 62
68 91 72
66 90 62
75 97 60
67 89 62
79 96 51
82 101 51
75 93 44
86 102 36
83 100 31
99 115 18
95 110 18
81 95 0
96 111 0
94 109 0
79 94 0
104 119 0
111 126 0
99 115 0
99 114 0
100 116 0
107 124 0
103 117 0
104 119 0
109 124 0
100 116 0
99 117 0
95 111 0
103 119 0
100 117 0
100 115 0
96 113 0
105 119 0
110 127 0
112 127 0
105 122 0
118 133 0
117 135 0
114 130 0
113 131 0
114 129 0
119 134 0
120 136 0
103 119 0
114 132 0
126 144 0
125 143 0
125 142 0
123 138 0
122 141 0
125 143 0
122 139 0
123 141 0
128 146 0
131 147 0
135 152 0
136 156 0
129 147 0
133 153 0
132 150 0
130 148 0
135 154 0
135 153 0
132 153 0
120 137 0
133 151 0
123 141 0
128 145 0
141 161 0
131 150 0
135 154 0
136 153 0
132 151 0
134 153 0
136 154 0
142 160 0
133 153 0
142 159 0
141 159 0
134 153 0
139 156 0
138 157 0
141 160 0
140 158 0
136 155 0
145 163 0
131 152 0
148 167 0
141 160 0
145 163 0
143 161 0
147 166 0
146 164 0
145 164 0
148 169 0
139 158 0
145 164 0
151 170 0
143 164 0
151 170 0
146 166 0
139 157 0
138 158 0
144 164 0
144 162 0
152 172 0
146 165 0
146 164 0
152 171 0
151 170 0
148 167 0
153 173 0
145 165 0
149 167 0
149 169 0
150 172 0
148 166 0
144 161 0
138 157 0
147 167 0
151 172 0
151 172 0
149 169 0
157 176 0
152 170 0
154 172 0
150 167 0
160 180 0
155 174 0
153 172 0
151 171 0
150 167 0
155 175 0
152 171 0
155 174 0
157 177 0
158 180 0
155 174 0
155 176 0
146 164 0
154 173 0
151 171 0
154 173 0
155 173 0
158 178 0
156 175 0
152 170 0
155 173 0
154 172 0
156 175 0
154 173 0
161 182 0
158 179 0
163 184 0
156 175 0
152 172 0
160 179 0
161 180 0
163 183 0
162 182 0
160 182 0
158 178 0
162 181 0
156 177 0
161 182 0
156 177 0
162 181 0
163 182 0
160 179 0
164 183 0
160 181 0
158 178 0
166 188 0
163 184 0
163 183 0
158 177 0
164 183 0
158 178 0
158 177 0
162 183 0
164 186 0
168 188 0
162 182 0
157 177 0
167 189 0
166 187 0
165 186 0
164 187 0
165 184 0
165 186 0
162 181 0
163 184 0
166 186 0
166 187 0
165 186 0
167 188 0
163 185 0
166 188 0
161 182 0
164 182 0
163 183 0
164 185 0
161 181 0
168 190 0
167 187 0
166 188 0
166 187 0
167 189 0
162 183 0
165 184 0
163 183 0
174 197 88
174 196 84
173 195 80
172 195 72
173 196 80
170 194 99
169 194 92
172 195 88
171 194 88
172 196 88
167 191 84
176 199 117
173 196 88
169 192 102
171 195 108
172 196 117
168 191 92
172 195 95
173 196 114
169 193 72
174 196 108
175 198 117
172 195 95
169 192 105
168 192 84
173 197 84
164 188 102
171 194 88
169 191 67
172 195 108
170 193 92
164 188 92
171 194 114
168 191 105
166 189 92
166 189 62
164 188 99
165 188 92
168 191 102
168 192 88
170 193 92
167 190 99
162 186 84
173 196 105
173 196 111
166 190 108
166 189 102
161 184 92
166 190 122
164 187 105
162 186 90
159 184 88
164 187 99
161 184 88
165 188 84
164 187 102
157 180 94
169 192 99
161 184 90
159 182 90
166 190 108
167 190 102
161 184 86
161 184 92
163 186 103
159 182 95
157 180 114
164 186 105
156 179 108
161 183 84
155 177 90
156 179 102
155 178 88
164 187 105
160 182 88
151 174 92
150 170 92
157 179 95
158 181 105
152 172 95
151 173 84
165 186 114
153 174 92
157 178 102
152 174 92
152 174 99
147 168 88
145 166 80
151 171 92
146 167 95
150 170 92
151 171 102
149 169 114
150 171 95
145 166 84
149 168 111
142 162 84
152 172 105
140 160 88
145 164 99
142 160 111
137 156 84
143 162 92
130 148 80
134 152 84
133 151 72
122 139 80
112 127 62
136 153 76
118 135 72
115 132 80
110 127 65
109 126 90
117 134 97
107 126 107
101 123 72
90 113 94
94 116 100
96 118 100
92 115 101
96 120 121
92 115 95
84 110 102
94 116 70
86 111 86
120 142 107
107 130 108
113 134 102
109 129 90
103 124 94
113 132 84
119 139 80
115 134 74
124 142 76
119 138 78
122 143 76
120 140 74
108 126 72
116 135 72
109 130 84
111 130 74
90 109 62
107 127 70
98 120 62
99 121 70
97 117 67
94 115 62
86 107 72
108 128 70
101 121 47
89 109 65
80 100 57
88 107 44
98 118 60
84 103 57
88 106 40
79 99 31
76 93 31
88 107 47
83 103 57
76 98 54
69 90 51
77 99 54
62 86 62
66 89 70
65 90 67
63 87 70
63 86 40
59 87 76
59 87 70
54 81 65
50 77 72
59 85 76
59 87 72
57 85 70
50 80 80
66 93 76
57 84 67
49 78 67
64 89 62
65 90 74
65 89 60
63 88 72
66 91 65
73 97 67
70 94 57
70 92 62
75 96 70
84 105 57
76 98 54
85 103 51
82 99 47
65 83 36
95 111 47
77 94 25
97 112 31
90 105 25
78 94 0
94 109 18
95 112 0
101 116 0
98 114 0
96 111 0
77 91 0
97 112 0
89 104 0
105 121 0
111 127 0
98 113 0
101 117 0
97 114 0
97 112 0
109 125 0
102 119 0
111 128 0
101 118 0
111 127 0
99 115 0
107 123 0
111 128 0
108 125 0
112 128 0
106 124 0
114 131 0
114 130 0
117 134 0
112 128 0
116 133 0
113 130 0
122 138 0
110 128 0
116 134 0
120 138 0
121 138 0
119 136 0
127 145 0
108 127 0
117 135 0
119 136 0
115 134 0
125 142 0
128 147 0
123 140 0
120 139 0
130 149 0
133 149 0
113 130 0
123 142 0
134 152 0
126 142 0
143 163 0
140 159 0
129 148 0
134 154 0
132 150 0
141 160 0
134 151 0
129 146 0
145 165 0
131 149 0
137 157 0
138 156 0
143 163 0
140 159 0
133 151 0
136 154 0
138 157 0
148 167 0
136 154 0
141 160 0
138 158 0
143 161 0
138 157 0
138 158 0
141 162 0
139 159 0
138 156 0
143 163 0
137 157 0
139 157 0
144 161 0
145 164 0
132 151 0
155 174 0
155 175 0
147 165 0
149 169 0
147 166 0
146 166 0
149 169 0
139 157 0
151 170 0
139 158 0
147 168 0
150 169 0
140 159 0
146 164 0
153 173 0
149 167 0
142 162 0
147 166 0
148 168 0
148 167 0
151 171 0
147 166 0
152 171 0
150 171 0
154 173 0
155 175 0
154 171 0
162 181 0
157 176 0
146 165 0
156 174 0
147 165 0
156 174 0
150 170 0
153 173 0
155 175 0
152 170 0
158 178 0
154 174 0
161 182 0
155 174 0
161 179 0
156 178 0
153 172 0
156 177 0
152 172 0
159 179 0
163 183 0
160 180 0
154 172 0
158 178 0
161 183 0
161 179 0
153 174 0
161 182 0
154 173 0
159 177 0
161 182 0
150 171 0
157 178 0
158 178 0
153 173 0
158 178 0
164 184 0
154 173 0
161 183 0
163 184 0
159 179 0
161 181 0
159 180 0
156 176 0
161 181 0
156 175 0
157 176 0
156 175 0
160 180 0
159 180 0
165 184 0
165 187 0
161 180 0
166 188 0
160 179 0
167 187 0
161 180 0
161 182 0
162 182 0
159 180 0
164 183 0
157 177 0
165 185 0
165 185 0
163 182 0
163 183 0
171 191 0
166 188 0
166 186 0
164 184 0
159 180 0
167 189 0
165 185 0
162 183 0
164 184 0
166 186 0
162 184 0
162 179 0
162 184 0
168 187 0
167 188 0
163 181 0
161 183 0
168 189 0
165 185 0
166 187 0
164 184 0
163 184 0
171 192 0
163 183 0
174 197 84
169 192 95
175 198 95
173 197 88
171 195 92
179 201 111
171 194 88
174 198 95
171 195 95
172 195 105
172 196 84
172 194 105
173 196 92
170 194 108
172 195 108
172 196 99
166 190 95
169 192 88
166 189 105
167 191 80
172 197 114
174 197 120
173 196 105
167 190 84
170 193 92
167 191 76
172 195 99
170 193 102
166 190 102
173 197 114
167 191 95
163 185 92
169 192 92
169 192 102
166 190 76
163 187 80
169 192 84
168 191 92
167 191 84
171 194 88
171 194 76
166 189 99
164 186 80
164 187 72
160 183 62
166 189 76
168 191 105
162 186 102
163 187 72
161 184 84
163 186 92
159 182 95
164 187 88
161 185 95
159 182 90
160 183 99
159 182 97
163 186 88
162 185 99
165 188 99
158 180 80
161 183 84
156 179 76
161 184 92
158 181 88
164 186 107
163 185 118
153 175 80
164 186 108
162 185 99
160 182 88
164 186 95
154 175 80
162 184 108
156 178 88
161 184 114
156 177 72
154 175 92
148 170 105
160 181 105
154 175 92
150 171 108
160 181 105
151 172 92
155 176 95
146 167 76
155 176 108
154 175 105
141 162 80
155 175 102
143 163 102
137 157 88
144 164 84
140 161 92
145 165 102
151 171 105
146 165 99
156 176 99
130 149 88
144 163 76
132 151 76
138 157 57
146 165 99
140 158 95
129 148 76
137 155 76
132 149 80
124 141 72
121 138 88
136 154 88
119 136 67
110 126 60
118 134 84
119 135 84
109 126 80
112 130 102
102 124 102
107 127 103
98 122 82
95 118 99
90 114 94
99 123 103
92 115 90
99 122 103
103 125 95
101 124 94
113 133 94
110 131 100
120 139 81
118 138 82
107 127 78
123 143 82
121 141 73
121 138 60
119 138 67
110 129 60
119 140 62
116 134 65
120 139 72
119 138 51
117 136 57
109 130 80
115 136 72
102 123 74
95 117 62
100 122 62
106 128 72
87 109 65
97 118 70
97 117 54
94 113 65
97 116 60
99 119 57
91 110 47
92 111 40
93 110 31
93 110 40
89 106 18
98 114 31
83 101 31
78 97 54
80 96 40
76 92 31
79 96 44
68 88 47
82 100 31
77 96 36
60 83 40
78 97 57
58 79 57
66 88 57
72 93 67
69 90 62
64 85 54
81 100 44
70 92 65
75 96 65
68 89 54
62 85 65
72 93 57
70 91 57
74 93 51
79 98 36
62 85 60
57 76 47
77 94 40
81 98 47
81 97 25
64 80 31
82 98 31
91 106 0
76 91 0
85 98 0
82 97 18
78 94 0
85 100 0
93 108 0
76 89 0
96 111 0
101 116 0
104 119 0
113 128 0
99 113 0
110 126 0
95 110 0
105 121 0
102 118 0
85 100 0
95 111 0
98 114 0
100 116 0
116 133 0
112 128 0
108 123 0
100 114 0
120 135 0
115 130 0
107 124 0
115 131 0
104 122 0
118 135 0
122 140 0
113 130 0
116 134 0
123 141 0
120 139 0
108 123 0
119 137 0
112 129 0
132 150 0
119 136 0
114 131 0
116 134 0
116 135 0
107 123 0
119 136 0
117 133 0
122 140 0
121 139 0
133 152 0
133 150 0
132 151 0
127 145 0
134 152 0
134 154 0
131 150 0
123 142 0
129 148 0
132 150 0
131 151 0
134 152 0
132 149 0
128 147 0
136 154 0
134 152 0
125 142 0
139 158 0
139 158 0
127 147 0
135 153 0
132 151 0
131 151 0
133 152 0
140 158 0
140 160 0
134 152 0
136 156 0
147 165 0
144 163 0
135 154 0
141 160 0
137 156 0
132 151 0
140 158 0
148 167 0
151 171 0
148 169 0
149 169 0
143 163 0
138 159 0
145 165 0
141 159 0
150 169 0
152 172 0
147 167 0
143 163 0
156 176 0
148 168 0
143 162 0
147 165 0
149 170 0
148 168 0
144 162 0
147 167 0
151 170 0
147 165 0
148 168 0
159 180 0
145 165 0
150 170 0
146 166 0
155 175 0
152 173 0
148 169 0
140 160 0
153 171 0
159 179 0
152 171 0
154 175 0
152 170 0
154 174 0
154 172 0
159 178 0
152 170 0
153 173 0
152 173 0
158 178 0
153 173 0
151 170 0
152 171 0
152 172 0
159 179 0
149 169 0
153 174 0
155 174 0
153 174 0
156 175 0
161 181 0
151 170 0
158 178 0
154 173 0
155 175 0
151 171 0
160 177 0
159 179 0
160 179 0
156 177 0
157 176 0
158 179 0
156 176 0
157 177 0
159 179 0
158 180 0
158 178 0
162 183 0
157 178 0
153 173 0
163 184 0
159 178 0
151 170 0
160 182 0
165 186 0
163 184 0
164 184 0
161 183 0
161 182 0
165 185 0
162 183 0
163 182 0
161 181 0
170 193 0
159 179 0
163 183 0
163 183 0
161 180 0
164 183 0
159 179 0
165 184 0
161 181 0
158 179 0
157 177 0
162 182 0
163 182 0
165 186 0
163 184 0
158 177 0
162 182 0
165 187 0
160 179 0
166 187 0
163 183 0
163 185 0
164 184 0
162 183 0
163 183 0
163 184 0
164 185 0
160 181 0
163 183 0
160 181 0
165 185 0
162 185 0
166 186 0
163 185 0
164 185 0
167 187 0
165 186 0
166 188 0
163 184 0
169 190 0
175 199 95
173 197 84
172 195 88
178 200 99
170 193 80
174 197 117
172 195 84
170 194 80
172 195 84
168 191 76
172 195 114
171 194 76
171 195 102
171 194 102
172 195 95
175 198 108
176 200 105
173 196 108
174 197 92
170 194 114
171 195 95
174 196 120
170 193 92
171 195 92
176 199 105
167 190 72
167 190 111
167 191 108
174 197 111
169 191 88
167 191 80
162 185 84
169 193 99
169 193 92
170 193 99
164 187 84
169 193 111
172 195 108
166 190 99
166 189 95
170 194 92
163 187 108
169 192 102
168 191 88
166 189 117
164 187 80
162 186 80
162 186 86
164 188 92
162 186 80
159 183 88
167 190 105
168 191 102
160 183 95
160 184 95
166 189 99
169 192 114
162 185 99
163 186 108
169 192 105
162 185 95
170 193 105
170 192 99
161 183 100
158 180 88
164 187 115
158 181 76
161 183 88
157 180 84
160 181 99
155 177 114
158 180 80
168 190 114
157 179 84
162 185 105
157 179 108
154 175 84
167 189 105
156 177 99
163 184 99
148 169 67
157 179 92
158 180 108
150 171 92
152 172 108
150 170 105
149 170 108
152 172 88
150 171 92
158 179 102
152 171 95
150 170 95
160 181 99
155 174 105
147 167 95
145 165 84
142 161 84
134 154 80
140 159 92
143 162 84
140 158 108
144 163 88
138 156 95
138 156 114
142 161 99
121 139 62
137 154 92
134 153 67
132 149 84
126 143 76
121 137 67
124 140 88
99 116 51
109 125 86
116 131 70
104 122 92
97 116 78
111 131 80
94 116 84
92 114 88
81 106 95
93 116 102
99 121 100
90 115 82
94 119 78
102 124 94
94 116 86
105 126 90
115 134 94
123 143 62
109 129 72
118 137 72
120 139 86
125 144 80
121 140 65
117 135 47
136 156 70
125 144 54
122 141 74
121 138 57
122 141 51
121 142 78
102 125 70
110 129 57
106 126 47
112 133 67
104 123 40
108 128 54
104 123 51
94 114 60
88 105 44
102 121 40
94 112 44
102 120 36
108 126 36
89 106 25
85 104 25
86 103 18
88 103 0
86 102 18
90 105 0
94 108 18
93 109 31
90 106 25
85 100 18
84 100 18
85 101 36
77 93 36
80 96 25
90 107 36
74 91 31
73 89 44
82 99 31
82 98 0
72 91 47
84 101 40
80 98 25
80 97 36
88 105 36
84 100 25
83 100 25
78 93 36
88 104 18
79 92 18
95 111 36
91 106 25
86 101 0
83 96 25
82 97 18
89 105 0
84 98 0
90 105 0
77 92 0
73 89 0
92 107 0
94 107 0
87 101 0
85 100 0
89 103 0
91 107 0
84 100 0
112 128 0
90 106 0
107 123 0
104 121 0
90 106 0
104 118 0
101 117 0
103 118 0
112 129 0
112 128 0
99 115 0
108 123 0
94 111 0
104 119 0
106 122 0
109 127 0
102 119 0
108 125 0
110 127 0
109 126 0
112 131 0
119 136 0
108 125 0
107 126 0
118 137 0
119 137 0
122 139 0
120 138 0
115 132 0
118 136 0
125 142 0
135 153 0
112 130 0
125 144 0
119 137 0
132 149 0
120 136 0
120 138 0
126 144 0
118 137 0
128 147 0
129 147 0
128 146 0
116 134 0
126 144 0
127 146 0
134 153 0
121 138 0
132 150 0
136 154 0
127 146 0
137 157 0
129 149 0
125 145 0
137 157 0
134 153 0
130 148 0
124 143 0
144 163 0
143 162 0
132 151 0
133 151 0
136 155 0
136 157 0
135 155 0
140 160 0
133 153 0
146 166 0
150 170 0
135 154 0
150 171 0
135 154 0
136 155 0
143 163 0
143 162 0
141 162 0
143 163 0
142 161 0
148 168 0
146 166 0
149 166 0
143 160 0
152 172 0
152 171 0
154 174 0
146 165 0
151 171 0
150 170 0
150 171 0
140 160 0
156 176 0
146 166 0
147 167 0
149 168 0
149 170 0
146 166 0
144 161 0
152 173 0
150 168 0
147 167 0
152 170 0
148 167 0
154 173 0
152 173 0
148 167 0
155 175 0
155 175 0
154 175 0
153 173 0
156 177 0
150 168 0
154 173 0
152 171 0
160 180 0
152 171 0
156 175 0
157 177 0
154 175 0
158 177 0
153 172 0
153 172 0
154 173 0
158 178 0
163 182 0
150 169 0
156 174 0
159 179 0
158 178 0
156 176 0
152 170 0
153 174 0
156 177 0
158 177 0
156 175 0
160 181 0
154 173 0
153 171 0
166 187 0
160 179 0
159 180 0
160 180 0
157 177 0
163 185 0
154 175 0
160 178 0
162 183 0
159 177 0
160 180 0
164 183 0
166 185 0
161 180 0
162 184 0
162 182 0
167 188 0
160 181 0
158 178 0
160 179 0
157 177 0
159 179 0
162 183 0
155 175 0
164 183 0
164 185 0
164 184 0
165 184 0
156 177 0
163 185 0
163 184 0
163 182 0
160 182 0
159 176 0
164 185 0
164 186 0
158 177 0
165 186 0
164 184 0
165 185 0
160 180 0
161 181 0
161 184 0
167 189 0
162 183 0
163 184 0
163 182 0
164 187 0
167 188 0
164 185 0
166 186 0
169 189 0
157 177 0
171 192 0
162 183 0
161 181 0
166 186 0
165 186 0
162 184 0
163 183 0
168 190 0
165 186 0
173 197 80
171 195 95
173 196 95
172 196 80
173 195 105
175 198 88
172 195 88
176 199 92
171 195 80
166 190 80
171 195 102
168 191 99
175 198 99
177 200 111
173 196 102
171 194 117
178 201 114
171 195 99
174 197 111
171 195 88
169 193 114
171 195 105
169 193 95
173 196 88
167 191 102
171 195 108
171 194 99
169 194 105
174 198 108
172 194 88
169 192 76
166 189 102
167 190 84
167 189 88
167 190 95
167 190 92
170 193 105
169 193 92
169 193 111
173 196 105
165 189 102
170 193 102
161 185 95
170 193 88
166 189 111
166 189 102
160 183 92
164 186 95
163 186 86
166 190 111
166 189 99
168 191 108
168 192 122
161 185 72
158 180 70
156 180 102
167 190 82
170 192 105
156 179 84
167 191 111
165 189 95
160 182 84
163 186 111
161 185 80
165 187 102
159 181 92
162 184 88
161 183 97
155 178 84
161 184 95
165 188 102
160 183 80
159 181 88
156 178 92
164 186 105
152 175 95
153 174 108
161 183 102
161 183 102
160 183 92
155 177 76
159 181 108
157 179 92
158 179 99
151 172 108
152 172 84
153 174 92
156 176 114
152 172 108
147 168 88
141 161 99
147 168 80
147 166 95
141 161 95
143 164 99
149 169 117
147 168 76
138 157 88
135 155 76
133 153 84
144 163 84
136 154 92
133 153 80
137 156 76
126 144 57
126 145 62
132 150 76
131 150 88
134 151 88
132 150 76
124 141 80
120 136 72
128 146 67
122 138 86
111 128 70
107 124 78
99 116 60
88 105 57
105 125 92
107 126 92
103 125 94
85 108 95
96 118 88
92 117 85
105 127 90
112 133 100
108 128 80
104 124 86
112 131 88
112 133 80
116 134 82
128 147 65
125 143 74
132 150 78
124 142 54
125 141 54
127 146 60
123 142 60
123 139 47
123 141 60
121 139 54
114 131 60
114 136 67
103 122 57
106 125 40
90 110 60
112 130 47
96 115 47
100 120 54
90 110 51
89 108 54
105 124 44
99 116 25
90 108 40
94 113 40
96 111 18
95 111 0
94 108 31
88 103 0
87 102 0
95 110 0
93 108 0
84 98 0
94 110 0
85 101 0
104 119 0
72 86 0
92 107 0
77 91 0
78 94 25
77 91 0
91 104 0
95 109 0
81 94 0
97 113 25
90 107 18
80 96 18
105 120 0
83 96 0
90 105 0
91 103 0
79 94 0
77 91 0
90 104 0
85 99 0
81 97 0
93 107 0
93 108 0
92 106 0
102 116 0
96 111 0
78 94 0
87 102 0
107 123 0
88 103 0
102 118 0
99 115 0
109 124 0
97 113 0
89 104 0
99 116 0
104 120 0
96 112 0
100 116 0
101 115 0
95 110 0
107 123 0
108 125 0
101 118 0
117 133 0
101 116 0
110 127 0
105 120 0
105 121 0
113 130 0
114 133 0
108 126 0
110 127 0
118 135 0
118 136 0
119 135 0
113 129 0
111 129 0
123 140 0
113 131 0
119 135 0
120 138 0
114 131 0
130 150 0
110 128 0
124 139 0
124 141 0
115 133 0
125 141 0
133 150 0
128 145 0
126 145 0
119 137 0
135 153 0
134 153 0
130 147 0
129 148 0
131 147 0
133 153 0
119 137 0
127 145 0
125 142 0
129 147 0
136 154 0
128 147 0
128 147 0
127 145 0
127 146 0
139 159 0
134 154 0
124 144 0
133 152 0
147 167 0
135 155 0
135 154 0
134 154 0
143 163 0
135 154 0
140 159 0
144 164 0
134 154 0
139 159 0
142 161 0
138 158 0
149 168 0
152 173 0
138 156 0
142 160 0
147 167 0
139 158 0
145 166 0
142 162 0
145 166 0
135 153 0
144 163 0
147 168 0
144 161 0
150 170 0
149 168 0
145 166 0
143 160 0
140 160 0
148 167 0
146 165 0
149 167 0
155 174 0
149 169 0
148 167 0
143 161 0
155 177 0
139 157 0
150 170 0
151 171 0
149 169 0
151 171 0
151 171 0
153 173 0
154 175 0
149 169 0
151 171 0
155 174 0
154 174 0
156 176 0
153 172 0
146 164 0
155 176 0
152 170 0
159 180 0
153 173 0
156 178 0
158 177 0
151 169 0
154 173 0
155 175 0
160 179 0
155 176 0
159 179 0
161 181 0
157 178 0
144 162 0
157 177 0
163 182 0
155 173 0
154 174 0
158 180 0
157 176 0
160 179 0
161 179 0
155 175 0
165 185 0
157 179 0
154 175 0
155 175 0
163 184 0
157 178 0
156 174 0
156 176 0
161 180 0
162 182 0
162 182 0
156 175 0
160 180 0
155 176 0
163 182 0
161 179 0
164 185 0
157 176 0
160 182 0
164 186 0
160 179 0
163 184 0
164 185 0
163 184 0
163 183 0
162 183 0
162 182 0
162 182 0
159 180 0
159 182 0
168 189 0
162 182 0
160 179 0
155 175 0
162 181 0
162 181 0
167 187 0
159 180 0
159 181 0
162 184 0
162 184 0
163 184 0
164 185 0
167 189 0
163 184 0
166 187 0
165 187 0
157 177 0
164 185 0
166 185 0
163 184 0
163 184 0
165 187 0
163 183 0
160 182 0
165 185 0
163 184 0
161 183 0
163 184 0
167 189 0
164 186 0
166 188 0
164 185 0
167 189 0
167 188 0
165 186 0
170 193 95
169 193 51
175 198 102
174 196 99
172 194 102
170 193 76
175 197 88
168 192 88
172 195 84
172 196 105
172 195 117
174 197 105
172 195 105
175 198 92
176 198 102
170 193 95
171 194 76
171 194 95
169 193 114
167 190 80
173 196 84
169 193 102
171 194 95
170 193 117
172 195 95
175 198 88
167 191 111
174 197 99
168 191 95
178 201 105
165 188 99
169 192 84
174 197 108
167 191 95
173 196 99
162 186 80
168 191 105
161 185 102
160 182 99
171 194 92
167 191 108
164 187 95
164 189 99
164 187 80
170 193 99
171 195 88
165 188 92
161 184 80
164 188 88
166 190 102
167 190 102
167 191 92
165 188 113
171 195 95
161 185 120
159 183 90
155 179 92
154 177 84
161 184 95
166 190 100
165 187 99
163 185 95
156 179 84
159 182 88
163 186 108
157 179 80
160 183 95
155 178 84
157 179 99
165 187 111
156 178 88
162 184 117
159 181 76
155 177 67
159 182 99
152 175 92
150 173 62
161 184 84
152 174 88
150 173 99
155 177 84
159 181 111
157 178 80
147 168 111
159 180 108
159 180 99
155 176 111
155 176 92
151 172 84
155 176 105
153 174 102
156 177 114
150 171 92
150 170 99
155 175 114
156 177 99
139 157 95
146 166 88
146 166 99
148 167 102
144 163 95
146 165 76
138 157 84
149 168 92
132 151 67
136 154 80
138 156 84
139 156 102
137 155 92
123 139 84
124 142 72
129 146 76
115 131 62
118 135 57
108 124 67
111 128 74
96 114 60
112 129 82
99 116 76
91 109 60
103 123 80
99 119 95
86 108 88
91 114 76
98 120 78
101 122 92
106 126 65
108 128 74
107 129 74
109 129 67
124 143 84
118 137 72
126 141 47
130 148 57
131 149 44
129 147 40
119 138 25
131 148 47
122 142 47
113 131 57
123 141 40
113 132 40
118 138 40
116 133 31
105 122 57
111 129 31
110 127 44
113 131 31
101 121 47
115 134 36
89 108 36
98 115 25
88 105 0
109 126 18
96 114 25
109 125 0
100 116 0
102 118 0
93 111 0
84 100 0
95 111 0
104 120 0
95 109 0
106 121 0
98 112 0
95 109 0
89 104 0
102 118 0
94 109 0
80 95 0
98 113 0
88 102 0
93 107 0
96 111 0
89 103 0
81 97 0
91 105 0
83 97 0
93 108 0
94 109 0
96 110 0
102 116 0
99 114 0
89 104 0
97 113 0
93 108 0
91 107 0
86 101 0
92 106 0
88 104 0
90 106 0
90 105 0
108 124 0
92 106 0
106 122 0
82 97 0
89 104 0
88 103 0
91 106 0
105 121 0
92 108 0
112 126 0
101 117 0
110 127 0
106 121 0
104 120 0
112 128 0
96 113 0
113 130 0
101 119 0
114 131 0
109 125 0
105 122 0
101 118 0
112 130 0
111 129 0
113 130 0
118 136 0
119 136 0
123 142 0
118 135 0
123 140 0
103 121 0
112 129 0
118 136 0
111 128 0
122 139 0
121 139 0
125 142 0
129 146 0
124 141 0
120 137 0
116 133 0
116 133 0
120 137 0
127 144 0
133 152 0
135 154 0
131 150 0
132 151 0
126 146 0
129 147 0
137 157 0
139 157 0
127 146 0
117 134 0
135 154 0
133 151 0
135 154 0
137 156 0
129 147 0
135 155 0
136 154 0
140 158 0
142 161 0
125 144 0
140 159 0
140 160 0
131 151 0
134 153 0
136 157 0
140 160 0
139 158 0
136 156 0
141 160 0
143 162 0
137 156 0
137 156 0
131 151 0
145 163 0
149 168 0
153 173 0
140 160 0
140 159 0
137 157 0
138 157 0
146 166 0
145 164 0
137 157 0
144 162 0
145 164 0
149 168 0
137 155 0
151 170 0
147 168 0
145 165 0
148 168 0
142 161 0
147 167 0
156 176 0
151 172 0
145 163 0
159 178 0
156 176 0
142 160 0
150 170 0
143 162 0
150 169 0
154 173 0
157 177 0
152 172 0
154 174 0
155 176 0
152 171 0
149 169 0
153 174 0
153 172 0
152 173 0
159 178 0
149 168 0
157 178 0
153 174 0
152 171 0
156 177 0
154 175 0
153 174 0
159 178 0
160 180 0
155 174 0
158 178 0
153 173 0
156 177 0
153 173 0
157 179 0
158 178 0
159 179 0
160 180 0
158 177 0
157 178 0
153 171 0
160 181 0
162 183 0
151 172 0
160 180 0
153 171 0
161 182 0
160 182 0
163 183 0
162 184 0
158 178 0
162 182 0
157 177 0
157 177 0
162 182 0
160 181 0
161 182 0
160 181 0
158 178 0
158 177 0
163 183 0
159 180 0
157 177 0
162 182 0
161 183 0
161 180 0
164 185 0
161 181 0
163 182 0
165 186 0
158 181 0
162 183 0
168 191 0
159 179 0
162 182 0
162 184 0
162 184 0
155 175 0
162 181 0
161 181 0
162 183 0
163 183 0
167 189 0
159 179 0
159 177 0
165 187 0
157 177 0
166 186 0
160 181 0
166 187 0
163 184 0
166 187 0
165 184 0
164 185 0
163 184 0
166 188 0
163 184 0
162 183 0
164 186 0
164 185 0
161 183 0
168 189 0
166 188 0
161 182 0
168 189 0
166 185 0
165 187 0
161 181 0
166 187 0
167 188 0
164 186 0
177 199 105
172 195 102
173 196 105
176 199 111
171 194 105
173 196 80
177 199 122
171 195 102
173 196 102
173 196 102
174 197 105
171 195 95
170 194 62
174 198 92
171 195 88
174 198 105
168 191 95
172 195 95
170 193 84
170 193 102
167 191 102
168 192 99
169 193 108
167 190 99
164 187 88
169 193 80
171 194 99
168 191 84
170 193 95
167 191 95
166 190 84
172 195 88
169 192 92
169 192 92
166 189 99
168 190 102
167 190 102
167 190 72
170 193 92
171 194 92
165 189 99
167 191 114
161 184 84
163 187 92
161 184 99
165 188 105
165 188 92
171 194 108
166 189 80
165 188 84
168 193 99
166 189 103
164 187 92
165 189 84
162 185 103
166 189 105
163 186 102
167 190 120
168 191 88
158 180 80
162 184 92
160 183 80
161 185 90
168 191 111
162 185 107
164 187 105
165 187 120
152 175 103
162 185 111
163 185 94
150 173 92
163 186 122
163 185 102
155 177 95
159 180 102
153 175 103
154 177 105
160 182 102
163 185 99
149 171 99
159 181 108
157 179 84
166 186 105
152 174 80
147 168 72
153 175 67
151 173 84
148 168 92
142 162 88
157 178 105
150 170 80
157 178 108
155 174 114
157 177 102
151 170 105
147 167 76
156 175 111
147 167 80
145 164 95
133 154 72
144 163 84
142 162 88
141 160 95
143 162 88
131 149 62
120 137 67
138 156 88
129 146 92
134 152 72
125 141 76
118 136 57
122 140 51
125 142 67
115 132 57
124 141 72
123 139 84
120 137 76
106 121 54
107 122 74
105 122 65
96 114 62
110 128 76
102 122 70
110 129 82
99 119 84
97 118 72
103 123 86
97 119 74
115 134 44
115 134 80
112 129 57
121 140 67
122 139 47
128 145 51
135 153 65
125 143 31
132 149 18
134 153 36
128 145 54
129 148 31
118 135 18
122 139 18
116 133 18
117 134 0
114 132 25
127 145 25
106 124 25
103 120 18
115 134 25
112 129 18
98 115 18
117 133 0
110 127 0
108 125 0
110 128 0
107 124 0
103 121 0
98 115 0
101 118 0
91 107 0
107 122 0
99 116 0
88 102 0
90 104 0
95 111 0
93 109 0
85 100 0
95 110 0
91 107 0
85 100 0
98 113 0
100 115 0
88 101 0
91 105 0
83 97 0
86 101 0
89 103 0
97 113 0
104 120 0
93 108 0
95 109 0
90 105 0
93 108 0
84 99 0
77 92 0
97 112 0
103 119 0
103 117 0
94 109 0
98 113 0
84 99 0
81 97 0
100 116 0
93 108 0
101 117 0
92 108 0
109 125 0
97 112 0
94 109 0
101 116 0
98 114 0
111 128 0
101 116 0
95 111 0
113 128 0
113 128 0
109 125 0
115 131 0
104 119 0
101 117 0
116 134 0
105 123 0
112 130 0
114 132 0
107 124 0
109 127 0
104 119 0
117 133 0
120 139 0
122 140 0
107 124 0
117 134 0
118 136 0
121 139 0
126 144 0
120 138 0
120 138 0
121 138 0
122 141 0
110 128 0
126 144 0
128 146 0
114 132 0
127 146 0
121 138 0
138 158 0
120 138 0
129 147 0
138 157 0
135 153 0
129 148 0
131 149 0
129 147 0
131 152 0
121 140 0
127 145 0
130 150 0
131 148 0
132 150 0
130 150 0
130 149 0
133 153 0
134 150 0
135 155 0
139 159 0
135 156 0
141 161 0
140 160 0
133 151 0
136 155 0
138 156 0
144 163 0
142 161 0
138 158 0
134 153 0
138 158 0
150 170 0
136 155 0
144 165 0
137 156 0
143 162 0
136 157 0
136 156 0
142 162 0
138 158 0
136 153 0
150 169 0
146 165 0
147 167 0
143 161 0
141 162 0
143 164 0
145 164 0
151 170 0
146 166 0
153 173 0
146 166 0
153 174 0
155 174 0
154 173 0
149 167 0
157 178 0
153 172 0
153 173 0
144 162 0
140 160 0
144 164 0
150 170 0
157 178 0
151 172 0
150 171 0
150 170 0
140 159 0
157 177 0
157 177 0
153 171 0
148 168 0
158 178 0
154 176 0
157 176 0
149 169 0
149 167 0
147 166 0
154 174 0
150 170 0
156 177 0
152 172 0
153 172 0
154 172 0
158 177 0
155 174 0
158 179 0
159 179 0
156 177 0
157 178 0
155 176 0
153 171 0
159 181 0
157 178 0
159 179 0
157 178 0
164 185 0
164 184 0
159 179 0
157 175 0
158 176 0
151 172 0
164 186 0
159 178 0
156 177 0
161 182 0
160 180 0
159 179 0
157 177 0
155 177 0
155 176 0
162 182 0
160 180 0
160 180 0
162 183 0
158 177 0
155 175 0
167 186 0
162 181 0
158 178 0
159 182 0
160 177 0
160 180 0
159 180 0
158 176 0
161 183 0
162 182 0
158 179 0
163 184 0
165 186 0
166 187 0
162 183 0
164 185 0
166 187 0
163 183 0
154 174 0
163 183 0
165 185 0
166 188 0
164 186 0
163 182 0
159 178 0
162 181 0
166 187 0
163 184 0
162 182 0
166 186 0
162 183 0
164 184 0
162 184 0
166 186 0
162 183 0
167 187 0
164 183 0
167 188 0
166 186 0
164 184 0
165 187 0
168 189 0
161 182 0
166 188 0
161 182 0
164 186 0
164 187 0
168 190 0
172 194 102
172 196 80
171 195 111
176 199 114
174 198 99
174 197 108
172 195 88
174 198 105
170 192 76
175 197 84
174 196 99
173 196 102
170 193 88
166 190 102
177 200 111
174 198 102
168 192 108
173 197 117
171 194 88
175 198 108
173 197 117
166 190 84
167 190 84
164 188 80
167 191 92
172 195 92
171 194 95
166 190 95
170 194 114
172 196 88
171 195 114
166 189 99
167 190 102
169 193 92
171 194 88
162 186 76
165 188 92
171 195 122
164 187 80
168 193 102
165 189 102
169 192 108
165 188 99
167 189 88
166 190 99
161 184 84
163 186 70
168 192 105
167 189 92
161 185 84
163 187 105
169 193 108
162 185 99
163 186 86
165 188 99
166 189 117
164 187 105
163 186 111
172 195 115
158 181 88
167 189 93
169 192 105
158 180 72
167 190 113
162 185 92
152 175 84
160 183 114
153 175 72
164 187 92
163 186 105
165 187 102
157 180 95
154 176 95
163 185 108
156 178 80
153 176 95
158 181 95
158 181 92
155 177 72
155 176 88
150 172 84
163 184 111
152 174 95
146 167 72
160 181 117
154 175 125
157 178 108
156 176 92
140 162 76
152 173 92
145 166 95
158 178 125
148 168 111
141 161 84
153 173 105
154 174 117
145 165 105
145 164 95
145 164 99
139 158 67
147 167 99
142 161 111
147 165 105
142 161 88
141 160 92
140 158 76
144 163 105
140 158 92
142 160 92
118 136 62
127 144 76
126 142 72
131 147 80
117 133 72
130 146 80
127 143 80
120 136 80
119 135 72
114 131 62
107 124 74
112 129 65
105 123 92
113 132 76
107 125 78
105 124 67
114 134 84
118 135 65
117 135 78
105 124 65
120 141 62
123 141 67
128 146 51
134 153 44
129 147 57
138 156 44
133 151 18
125 141 40
128 147 40
125 143 25
132 151 18
134 151 18
132 149 18
125 143 18
117 135 18
113 128 0
120 137 18
109 126 0
114 131 0
111 127 0
123 141 0
113 130 0
123 139 0
106 122 0
105 122 0
113 131 0
96 113 0
100 117 0
103 118 0
100 115 0
99 115 0
107 124 0
95 111 0
95 111 0
95 111 0
88 103 0
97 112 0
101 117 0
102 117 0
104 120 0
84 100 0
97 113 0
84 99 0
90 105 0
82 98 0
96 110 0
101 116 0
92 109 0
85 100 0
92 108 0
89 104 0
108 124 0
107 123 0
94 110 0
101 115 0
105 120 0
92 107 0
91 107 0
102 119 0
89 105 0
102 118 0
90 104 0
106 121 0
115 132 0
105 122 0
86 100 0
92 108 0
92 108 0
85 101 0
106 123 0
103 120 0
109 125 0
109 125 0
101 118 0
100 118 0
109 126 0
96 113 0
112 130 0
108 126 0
113 130 0
107 122 0
116 132 0
112 129 0
108 125 0
122 140 0
111 127 0
106 123 0
102 120 0
124 142 0
118 136 0
108 125 0
118 136 0
119 136 0
114 130 0
127 145 0
110 129 0
119 137 0
127 144 0
118 135 0
125 144 0
124 142 0
128 147 0
125 143 0
119 138 0
135 153 0
117 136 0
125 144 0
134 153 0
119 136 0
138 156 0
131 151 0
133 151 0
137 156 0
122 142 0
127 145 0
133 152 0
127 143 0
130 148 0
128 146 0
135 155 0
142 162 0
140 160 0
120 139 0
140 159 0
140 158 0
135 155 0
142 161 0
137 158 0
134 153 0
139 159 0
137 157 0
139 160 0
143 163 0
138 158 0
144 165 0
146 165 0
131 150 0
132 152 0
146 165 0
136 157 0
143 162 0
139 160 0
154 174 0
144 163 0
133 152 0
147 167 0
152 170 0
150 170 0
149 169 0
150 169 0
144 162 0
145 166 0
157 177 0
144 162 0
140 160 0
141 159 0
146 166 0
145 166 0
148 168 0
147 168 0
145 165 0
146 166 0
151 171 0
150 170 0
147 167 0
157 177 0
151 173 0
153 174 0
143 164 0
156 176 0
156 177 0
158 179 0
159 179 0
153 173 0
147 169 0
151 170 0
149 170 0
148 169 0
151 170 0
149 168 0
158 178 0
155 175 0
149 167 0
152 172 0
153 173 0
149 168 0
151 170 0
155 175 0
156 176 0
147 167 0
155 175 0
157 176 0
160 182 0
152 173 0
150 172 0
156 175 0
153 173 0
162 183 0
161 181 0
158 177 0
160 181 0
159 180 0
156 176 0
154 176 0
158 177 0
155 175 0
156 178 0
155 177 0
162 182 0
160 180 0
162 182 0
155 174 0
162 183 0
160 180 0
157 177 0
158 179 0
160 180 0
160 181 0
156 176 0
159 180 0
156 177 0
162 183 0
158 178 0
159 177 0
158 177 0
162 184 0
163 185 0
163 184 0
160 180 0
160 182 0
161 181 0
161 183 0
162 182 0
156 178 0
160 181 0
156 178 0
161 181 0
158 178 0
163 182 0
164 186 0
164 184 0
167 188 0
159 180 0
163 183 0
164 185 0
162 183 0
165 186 0
167 188 0
165 186 0
165 187 0
164 185 0
161 180 0
164 184 0
164 186 0
164 187 0
169 191 0
160 181 0
161 183 0
167 188 0
167 188 0
165 185 0
159 179 0
167 188 0
166 187 0
164 186 0
159 179 0
166 187 0
162 183 0
163 185 0
166 189 0
166 187 0
172 195 88
174 198 99
169 192 92
171 194 84
174 197 95
172 195 117
172 196 122
171 194 102
179 202 117
175 198 102
171 195 105
169 192 84
170 193 92
173 197 88
173 196 114
169 193 92
174 196 108
174 196 114
176 199 114
174 198 105
165 189 88
172 195 105
169 193 88
174 197 108
177 200 88
168 191 88
168 191 88
170 193 92
167 191 95
170 193 80
169 192 105
170 194 105
165 188 76
169 192 92
166 188 88
169 192 76
172 196 99
168 192 99
167 191 99
163 186 80
167 191 99
168 191 84
167 190 120
168 190 84
160 183 80
169 192 84
161 185 114
162 185 92
166 189 102
168 191 88
164 188 95
162 186 100
168 191 125
170 194 128
166 189 84
167 190 103
163 186 105
162 184 84
164 188 108
164 187 88
159 183 88
158 181 84
160 183 115
154 176 88
162 186 95
155 178 90
169 192 108
169 191 92
161 184 113
163 186 111
164 188 111
161 183 84
152 174 102
159 181 120
164 186 105
155 177 97
161 183 102
161 183 114
159 181 95
157 178 84
144 165 99
156 176 95
156 178 105
157 179 105
156 177 95
151 172 76
147 168 92
157 178 102
147 168 88
154 174 95
160 181 84
148 169 92
153 174 102
151 171 92
151 171 99
144 164 95
153 172 111
154 174 95
150 170 92
150 169 114
152 171 105
149 168 114
144 163 102
146 165 76
139 158 84
141 160 84
139 159 72
136 154 105
138 157 92
140 158 92
138 157 57
124 142 62
129 147 80
124 140 67
114 131 57
123 140 57
127 144 67
113 128 76
116 133 65
115 130 67
90 106 51
119 137 72
97 116 36
109 126 51
108 126 54
89 108 57
116 134 67
132 149 86
125 144 47
125 143 57
128 145 67
131 149 47
123 142 36
136 153 36
129 146 0
139 157 25
125 144 18
134 152 18
144 161 25
134 151 36
131 149 25
129 147 0
116 134 0
130 147 0
130 149 0
120 136 0
113 131 0
108 124 0
125 142 0
119 137 0
117 132 0
116 132 0
103 120 0
112 129 0
116 133 0
97 115 0
110 127 0
113 129 0
105 122 0
103 119 0
101 117 0
101 117 0
97 115 0
89 104 0
104 119 0
99 115 0
96 112 0
101 115 0
102 119 0
105 121 0
85 100 0
98 115 0
93 108 0
122 139 0
92 107 0
81 96 0
96 112 0
89 105 0
95 110 0
96 111 0
96 111 0
89 106 0
90 107 0
101 116 0
83 100 0
106 121 0
90 106 0
94 110 0
93 109 0
106 121 0
96 112 0
111 128 0
88 104 0
100 116 0
103 118 0
88 105 0
108 125 0
99 114 0
102 116 0
104 122 0
99 115 0
109 125 0
114 130 0
107 125 0
104 121 0
100 117 0
113 130 0
110 128 0
107 125 0
99 117 0
120 137 0
110 127 0
117 135 0
121 139 0
116 132 0
113 131 0
116 134 0
111 128 0
120 139 0
123 141 0
113 131 0
132 151 0
116 134 0
135 154 0
118 137 0
134 152 0
122 140 0
121 140 0
122 139 0
122 140 0
118 133 0
128 148 0
121 139 0
127 145 0
121 138 0
136 155 0
136 153 0
133 154 0
130 149 0
132 151 0
134 153 0
119 137 0
126 145 0
141 161 0
127 145 0
140 160 0
139 158 0
122 140 0
123 142 0
138 159 0
138 155 0
136 154 0
136 155 0
129 149 0
139 159 0
143 162 0
140 161 0
137 157 0
139 159 0
142 161 0
145 163 0
138 158 0
139 157 0
140 161 0
149 169 0
139 159 0
136 156 0
136 154 0
142 163 0
133 152 0
140 160 0
156 176 0
146 167 0
146 166 0
139 158 0
142 161 0
137 156 0
151 170 0
150 170 0
151 170 0
146 164 0
153 173 0
148 166 0
146 167 0
148 167 0
146 167 0
144 163 0
151 171 0
153 173 0
150 170 0
147 166 0
150 171 0
143 163 0
153 172 0
147 166 0
150 169 0
151 171 0
155 174 0
152 172 0
156 177 0
153 174 0
155 177 0
150 169 0
151 171 0
153 173 0
143 162 0
157 178 0
156 177 0
159 179 0
160 180 0
153 174 0
162 182 0
162 181 0
154 176 0
151 171 0
156 178 0
159 179 0
158 179 0
158 178 0
153 174 0
159 180 0
161 181 0
160 181 0
155 175 0
156 176 0
155 176 0
151 170 0
159 179 0
158 179 0
157 176 0
159 179 0
161 181 0
155 175 0
163 184 0
156 176 0
158 180 0
156 177 0
162 183 0
157 180 0
158 178 0
165 187 0
162 182 0
160 181 0
157 177 0
152 172 0
158 178 0
154 172 0
166 186 0
153 173 0
159 180 0
158 180 0
159 181 0
151 171 0
163 184 0
161 181 0
158 178 0
157 177 0
159 178 0
160 180 0
161 181 0
163 183 0
162 183 0
159 179 0
161 182 0
165 187 0
162 183 0
163 184 0
167 189 0
160 181 0
166 186 0
161 181 0
159 181 0
163 185 0
162 181 0
161 183 0
159 179 0
162 183 0
164 183 0
162 181 0
165 185 0
163 183 0
170 191 0
167 189 0
167 189 0
168 190 0
169 193 0
166 187 0
166 188 0
164 185 0
168 189 0
168 189 0
166 187 0
166 186 0
166 187 0
167 186 0
169 191 0
165 187 0
162 183 0
167 189 0
170 191 0
171 195 95
177 200 99
172 196 108
175 198 80
170 193 95
177 200 105
173 196 92
171 195 95
172 195 99
170 194 72
168 191 99
172 195 105
173 196 102
176 199 105
173 197 120
171 194 102
177 200 108
168 191 92
165 189 92
170 193 99
173 196 108
170 193 108
172 195 80
173 197 88
168 191 92
165 188 92
167 191 95
170 194 95
165 188 95
173 196 92
167 191 99
176 199 105
167 191 120
169 193 99
163 187 72
167 191 102
165 188 111
164 188 84
164 189 102
164 188 88
159 182 62
167 190 99
161 185 92
168 192 108
168 191 105
161 184 99
163 186 100
162 186 92
166 188 80
167 190 99
165 189 84
159 182 84
163 187 80
169 192 108
159 182 67
166 189 108
163 186 108
162 185 105
162 184 98
158 181 99
159 182 84
165 187 95
157 180 95
163 185 95
162 186 92
160 183 114
160 182 95
160 183 94
159 181 108
155 178 80
159 181 107
151 173 99
162 184 95
156 178 84
160 182 110
161 182 92
167 189 111
160 182 105
163 185 117
161 183 114
151 172 108
154 175 95
159 180 102
155 176 95
151 172 80
155 176 84
156 178 76
137 158 88
157 179 111
158 178 99
152 171 99
155 176 114
153 173 95
152 172 108
159 178 102
150 170 95
144 165 102
150 170 114
143 162 88
161 180 125
148 167 92
148 166 108
136 155 80
145 164 92
136 155 111
135 154 72
129 148 80
127 145 72
119 137 62
135 153 72
143 162 84
129 146 76
138 155 95
137 154 76
131 149 76
122 139 62
127 144 67
123 140 62
116 131 67
119 135 82
110 127 57
124 141 47
115 131 54
101 117 62
120 137 65
114 130 47
111 128 62
124 141 60
123 139 51
127 143 44
129 144 36
132 151 36
128 147 31
133 150 36
133 151 25
141 158 25
137 155 25
133 149 25
130 149 0
132 148 25
124 140 0
129 147 0
134 151 0
124 141 0
123 141 0
113 129 0
119 134 0
116 134 0
117 134 0
110 128 0
120 138 0
123 141 0
110 127 0
109 127 0
110 127 0
115 131 0
105 122 0
102 119 0
109 127 0
105 122 0
108 125 0
100 115 0
106 123 0
102 118 0
93 110 0
114 129 0
100 116 0
99 116 0
94 110 0
111 127 0
112 129 0
94 111 0
101 117 0
91 106 0
105 122 0
105 122 0
91 107 0
89 104 0
107 123 0
109 126 0
100 117 0
107 123 0
101 118 0
110 125 0
93 109 0
97 113 0
108 125 0
104 120 0
104 120 0
108 124 0
99 116 0
95 112 0
109 126 0
110 127 0
110 125 0
99 116 0
106 123 0
100 116 0
100 117 0
119 137 0
115 131 0
98 113 0
116 134 0
113 130 0
109 127 0
101 120 0
108 126 0
108 125 0
102 119 0
104 121 0
122 139 0
106 124 0
115 134 0
118 135 0
120 138 0
121 139 0
129 148 0
122 140 0
124 141 0
117 135 0
119 137 0
118 138 0
118 136 0
121 140 0
127 145 0
119 137 0
130 150 0
123 142 0
129 149 0
125 142 0
117 137 0
127 146 0
135 154 0
112 130 0
126 145 0
132 153 0
124 143 0
121 140 0
135 155 0
118 136 0
136 155 0
136 157 0
126 145 0
124 143 0
123 141 0
137 155 0
129 147 0
137 154 0
132 151 0
133 152 0
132 151 0
140 160 0
132 149 0
137 154 0
138 159 0
138 158 0
139 159 0
133 152 0
140 159 0
141 160 0
137 157 0
148 170 0
144 165 0
139 158 0
149 169 0
142 162 0
145 165 0
134 154 0
147 168 0
141 161 0
141 159 0
145 165 0
141 161 0
148 169 0
146 167 0
155 174 0
144 164 0
146 165 0
148 169 0
138 158 0
146 168 0
143 162 0
149 168 0
148 168 0
158 177 0
151 170 0
154 174 0
153 174 0
148 167 0
147 169 0
160 180 0
146 166 0
154 175 0
150 170 0
151 171 0
152 172 0
154 175 0
154 174 0
155 177 0
153 174 0
154 174 0
155 177 0
152 172 0
155 177 0
151 171 0
150 170 0
158 181 0
157 179 0
156 178 0
153 174 0
156 176 0
160 181 0
155 174 0
149 168 0
152 172 0
161 182 0
153 174 0
154 173 0
161 182 0
155 175 0
159 180 0
152 171 0
147 167 0
158 178 0
158 178 0
158 179 0
161 182 0
160 179 0
156 175 0
156 176 0
150 170 0
156 175 0
159 180 0
160 182 0
159 180 0
162 181 0
152 172 0
154 173 0
159 180 0
160 181 0
161 180 0
156 176 0
159 181 0
159 179 0
161 181 0
164 185 0
162 184 0
160 180 0
159 178 0
166 186 0
160 180 0
165 187 0
161 183 0
158 179 0
160 181 0
158 179 0
162 184 0
164 186 0
160 180 0
160 179 0
163 183 0
159 180 0
162 185 0
163 183 0
161 184 0
165 184 0
165 186 0
165 184 0
167 187 0
163 182 0
162 182 0
165 185 0
164 186 0
163 184 0
163 183 0
161 183 0
165 186 0
161 180 0
166 186 0
160 181 0
162 184 0
164 185 0
167 187 0
163 186 0
166 186 0
155 175 0
168 190 0
166 189 0
162 185 0
161 183 0
166 188 0
166 188 0
160 180 0
167 188 0
167 188 0
164 184 0
161 179 0
167 188 0
165 188 0
168 191 0
172 195 76
166 190 88
170 193 88
174 197 88
174 197 84
173 195 80
173 196 80
172 195 105
169 193 102
174 197 108
175 198 105
170 194 84
170 194 84
173 196 105
171 195 76
171 195 108
172 196 102
168 191 76
170 193 105
170 193 84
170 194 92
168 191 88
163 188 88
167 190 84
161 184 67
172 194 99
170 194 105
168 191 102
162 185 67
167 190 105
167 191 105
173 197 99
171 195 105
167 190 88
159 183 84
164 188 80
165 188 76
166 189 88
166 190 108
164 187 76
168 192 114
168 191 99
166 190 99
170 194 117
167 191 114
167 190 88
159 182 92
167 191 108
166 189 76
168 190 102
164 188 108
166 188 84
168 190 120
166 189 99
157 179 57
165 187 88
164 188 111
170 193 105
157 180 94
161 185 88
157 180 88
164 187 95
164 187 99
158 181 80
162 185 99
167 190 111
167 189 108
165 188 92
155 176 100
161 183 92
160 182 114
163 186 92
161 183 102
163 185 92
161 183 102
157 179 102
158 180 108
159 181 95
153 175 99
157 178 117
152 174 95
161 183 108
161 182 76
156 177 111
153 174 76
145 166 84
151 171 88
153 174 102
160 181 105
143 163 72
153 173 92
150 170 99
161 181 114
152 172 105
150 170 88
157 177 108
156 176 88
153 173 102
138 158 84
151 171 95
145 165 80
142 160 92
150 169 102
137 157 72
151 169 92
141 158 102
146 165 95
133 150 92
141 159 76
130 148 67
134 152 88
134 151 84
138 156 88
130 148 84
127 145 80
124 142 72
128 146 67
120 138 44
125 142 80
116 132 51
118 134 62
113 129 36
132 148 78
125 142 47
133 152 57
110 127 36
134 152 65
114 130 51
131 148 44
117 135 40
129 146 36
142 160 36
134 151 36
141 159 25
138 156 36
143 160 25
142 161 0
130 146 25
122 140 0
131 149 0
135 154 0
128 145 0
122 139 0
122 141 0
115 131 0
126 144 0
117 133 0
118 136 0
120 138 0
106 123 0
118 137 0
124 141 0
113 128 0
108 126 0
110 127 0
99 116 0
102 119 0
117 134 0
112 130 0
114 131 0
115 132 0
113 129 0
110 127 0
122 138 0
107 123 0
91 108 0
90 107 0
99 114 0
100 117 0
101 119 0
95 111 0
122 139 0
94 111 0
106 122 0
92 108 0
107 124 0
110 126 0
119 136 0
92 109 0
115 131 0
117 133 0
98 114 0
106 123 0
94 111 0
110 125 0
109 128 0
106 123 0
101 118 0
94 111 0
98 115 0
112 130 0
109 127 0
106 123 0
107 125 0
103 119 0
112 129 0
115 131 0
110 127 0
105 122 0
110 128 0
106 123 0
113 130 0
118 134 0
107 125 0
117 135 0
112 131 0
111 128 0
109 126 0
126 145 0
115 132 0
113 130 0
126 143 0
113 131 0
106 123 0
117 134 0
114 132 0
112 129 0
123 143 0
128 147 0
110 128 0
116 134 0
121 139 0
113 130 0
127 145 0
118 136 0
127 145 0
116 135 0
121 139 0
137 156 0
125 143 0
125 144 0
127 146 0
133 151 0
132 151 0
133 153 0
127 146 0
131 150 0
135 154 0
133 152 0
129 145 0
132 151 0
132 153 0
125 144 0
136 154 0
125 144 0
130 151 0
130 150 0
138 159 0
136 155 0
145 163 0
129 150 0
146 165 0
137 156 0
140 158 0
134 154 0
144 162 0
142 162 0
138 157 0
142 162 0
142 163 0
141 161 0
132 152 0
134 152 0
137 156 0
142 162 0
148 167 0
135 156 0
145 166 0
136 156 0
139 158 0
140 160 0
147 166 0
150 171 0
139 158 0
146 166 0
145 164 0
154 175 0
142 162 0
151 171 0
150 172 0
135 154 0
146 168 0
146 167 0
154 174 0
148 171 0
151 172 0
150 171 0
147 169 0
148 168 0
149 169 0
148 167 0
155 176 0
152 173 0
146 166 0
145 165 0
145 165 0
151 171 0
147 166 0
149 170 0
156 177 0
150 168 0
148 168 0
150 170 0
157 177 0
157 178 0
152 171 0
152 173 0
148 167 0
157 178 0
155 174 0
153 175 0
153 172 0
159 180 0
154 175 0
156 176 0
157 178 0
152 172 0
151 173 0
162 182 0
156 175 0
152 172 0
159 180 0
161 181 0
156 174 0
155 175 0
159 178 0
158 178 0
152 172 0
164 186 0
159 180 0
154 174 0
162 183 0
158 178 0
157 177 0
157 178 0
161 182 0
160 180 0
156 177 0
156 176 0
157 177 0
163 182 0
157 175 0
156 176 0
155 175 0
162 184 0
156 176 0
163 185 0
159 180 0
167 189 0
158 179 0
161 182 0
156 177 0
163 184 0
163 183 0
159 178 0
160 182 0
158 177 0
165 186 0
163 183 0
159 179 0
166 187 0
164 186 0
161 181 0
159 179 0
165 187 0
163 183 0
166 187 0
163 185 0
166 187 0
160 180 0
166 188 0
160 180 0
159 180 0
163 184 0
164 186 0
159 182 0
163 184 0
158 177 0
164 184 0
161 181 0
163 183 0
161 183 0
166 186 0
166 187 0
167 189 0
166 189 0
167 188 0
164 185 0
168 190 0
168 190 0
160 181 0
166 188 0
168 188 0
169 190 0
162 183 0
167 188 0
170 191 0
166 188 0
167 188 0
167 189 0
175 197 92
170 194 95
174 197 105
174 197 95
173 196 84
174 197 105
173 197 102
174 198 105
170 193 105
170 193 99
176 199 125
170 193 102
172 196 92
174 197 95
174 197 92
172 196 111
174 197 102
166 189 88
171 194 114
172 196 102
167 190 80
172 195 92
167 191 80
170 193 88
165 188 95
168 193 125
168 192 88
171 195 117
165 189 99
169 192 117
168 192 120
163 186 84
168 191 102
167 190 108
165 188 92
173 198 114
167 190 84
168 191 105
167 190 88
164 187 102
172 196 117
166 190 92
166 191 92
167 190 92
165 188 99
168 191 88
166 188 72
168 192 105
172 196 92
171 194 108
159 183 70
166 189 111
170 194 99
170 193 92
163 186 88
161 184 88
159 181 92
160 182 88
158 181 97
159 182 88
164 187 114
160 182 76
165 188 99
161 185 92
149 172 99
159 182 105
164 186 102
161 184 92
162 185 102
156 178 103
160 182 92
162 184 108
155 177 95
156 178 88
159 181 95
155 177 80
161 183 111
159 180 102
158 180 80
162 184 84
156 178 88
162 185 105
157 178 84
153 174 92
164 185 99
162 183 102
163 184 120
151 172 108
159 180 102
156 177 76
155 176 95
164 184 117
153 173 102
162 182 130
146 166 95
152 171 88
145 166 88
148 168 84
151 171 88
134 153 67
146 165 108
141 161 76
150 169 108
136 155 88
148 166 92
147 165 105
138 156 99
143 161 84
129 147 80
141 159 88
141 159 88
123 141 72
132 150 92
131 148 67
123 141 51
132 150 57
138 154 88
128 146 51
133 152 67
118 135 57
128 146 72
113 130 57
114 131 67
121 138 67
123 139 44
119 136 51
125 142 57
118 135 0
128 146 51
125 144 25
138 157 44
122 140 25
145 165 44
131 151 25
132 150 36
148 168 25
139 158 0
139 155 0
139 156 0
126 144 0
145 162 0
129 147 0
126 144 0
126 144 0
126 145 0
117 135 0
113 131 0
127 146 0
118 136 0
118 137 0
122 139 0
118 137 0
115 134 0
124 142 0
113 130 0
101 119 0
115 132 0
101 119 0
110 128 0
111 129 0
116 133 0
105 121 0
97 115 0
102 120 0
92 110 0
101 119 0
110 128 0
104 120 0
112 128 0
101 116 0
95 111 0
116 131 0
106 124 0
103 120 0
102 121 0
105 122 0
91 107 0
99 116 0
98 114 0
96 113 0
106 123 0
107 125 0
101 119 0
110 127 0
98 115 0
114 131 0
103 121 0
108 125 0
113 130 0
106 122 0
108 125 0
116 132 0
117 133 0
97 113 0
110 128 0
112 128 0
107 123 0
106 123 0
111 129 0
116 134 0
111 130 0
112 128 0
108 126 0
121 138 0
108 126 0
109 126 0
111 129 0
113 130 0
115 133 0
119 137 0
112 129 0
112 129 0
117 136 0
119 138 0
117 136 0
126 144 0
119 137 0
121 140 0
121 140 0
125 143 0
120 139 0
123 141 0
112 130 0
120 140 0
128 145 0
131 151 0
130 148 0
124 142 0
134 152 0
122 142 0
134 154 0
132 151 0
120 138 0
138 156 0
118 136 0
131 151 0
130 150 0
131 149 0
131 151 0
131 149 0
134 154 0
124 142 0
132 152 0
129 150 0
134 153 0
131 150 0
137 157 0
133 153 0
141 161 0
143 163 0
136 156 0
138 157 0
138 158 0
130 149 0
139 159 0
136 156 0
143 162 0
138 157 0
142 163 0
140 160 0
141 162 0
139 159 0
142 161 0
138 159 0
139 159 0
139 158 0
141 161 0
150 172 0
137 157 0
142 163 0
150 171 0
137 157 0
152 173 0
145 166 0
149 168 0
152 172 0
151 171 0
145 164 0
135 156 0
146 168 0
147 169 0
146 165 0
148 168 0
139 160 0
153 174 0
143 162 0
147 168 0
146 167 0
145 164 0
144 165 0
151 171 0
144 166 0
154 175 0
144 164 0
150 169 0
150 171 0
159 182 0
152 173 0
152 173 0
150 169 0
152 173 0
148 168 0
153 174 0
150 169 0
156 177 0
150 169 0
160 182 0
146 166 0
157 176 0
156 177 0
156 176 0
157 178 0
150 171 0
154 175 0
158 180 0
152 171 0
155 176 0
157 178 0
160 180 0
155 175 0
158 179 0
154 174 0
159 180 0
163 184 0
166 188 0
157 178 0
156 177 0
158 178 0
156 177 0
162 185 0
157 176 0
158 178 0
161 181 0
158 180 0
157 178 0
156 176 0
156 177 0
162 183 0
157 179 0
163 183 0
159 180 0
157 177 0
162 183 0
162 182 0
160 181 0
154 175 0
165 187 0
163 183 0
157 177 0
161 180 0
157 176 0
162 182 0
164 185 0
163 185 0
162 185 0
161 182 0
164 183 0
163 184 0
165 185 0
161 182 0
164 185 0
158 178 0
162 183 0
160 181 0
164 186 0
163 184 0
162 182 0
163 185 0
166 188 0
155 176 0
164 186 0
164 184 0
168 191 0
165 185 0
158 179 0
163 183 0
166 188 0
163 185 0
165 187 0
167 189 0
162 183 0
165 186 0
166 187 0
165 186 0
165 186 0
165 186 0
166 187 0
160 181 0
165 187 0
165 187 0
166 188 0
165 186 0
167 188 0
165 186 0
169 191 0
164 186 0
168 191 0
167 188 0
165 185 0
164 184 0
170 193 80
176 198 102
164 188 76
171 195 108
168 191 95
168 191 92
172 195 108
173 196 88
174 198 99
172 195 102
173 197 88
171 194 99
173 196 95
170 193 95
165 187 80
172 195 99
171 194 80
167 190 111
173 195 99
169 193 88
164 187 95
169 192 80
168 191 108
165 189 92
166 189 95
166 190 99
172 196 95
172 195 80
173 198 117
172 196 84
169 192 92
170 193 84
166 191 102
167 190 95
165 188 88
168 191 88
172 196 108
159 182 76
168 192 105
166 190 102
165 188 95
169 191 114
164 187 102
160 184 88
168 191 108
165 189 80
160 184 105
159 181 95
161 185 99
164 188 95
159 182 108
162 185 88
161 183 76
171 193 95
165 188 117
166 189 99
167 190 99
162 185 108
170 193 102
160 182 92
162 185 84
156 179 76
164 187 102
162 185 99
159 182 99
159 181 95
161 184 111
159 181 99
165 187 108
156 178 84
161 184 114
161 184 108
157 179 92
166 188 102
159 181 105
159 181 117
154 177 76
159 181 92
156 177 88
154 176 76
149 171 88
146 168 92
154 176 84
157 178 108
151 173 105
147 168 99
155 177 88
150 171 99
145 166 114
162 183 99
150 170 99
154 174 102
155 175 88
155 177 84
155 175 92
147 167 80
157 177 111
151 171 99
150 169 76
152 172 99
151 171 99
150 170 99
158 177 99
144 162 95
145 163 102
143 162 80
149 168 95
140 160 88
145 164 84
144 163 92
137 156 76
139 157 62
122 140 57
140 158 72
132 151 67
125 143 51
116 133 67
131 149 76
127 146 57
130 148 57
114 132 25
126 143 57
115 131 44
124 140 76
129 145 44
121 139 25
124 142 36
129 144 51
126 143 62
128 147 36
135 152 44
131 149 0
132 150 25
132 151 25
134 152 0
140 159 0
131 151 0
135 155 0
138 156 0
143 163 0
138 157 0
137 156 0
137 156 0
129 148 0
132 152 0
119 137 0
129 148 0
121 139 0
129 146 0
122 141 0
117 134 0
121 137 0
118 134 0
107 124 0
109 127 0
108 126 0
104 123 0
104 122 0
115 134 0
103 121 0
109 126 0
97 115 0
107 126 0
112 129 0
96 113 0
101 119 0
119 137 0
113 129 0
97 115 0
109 127 0
104 121 0
105 122 0
106 124 0
108 124 0
112 129 0
116 133 0
107 124 0
113 130 0
108 127 0
109 125 0
113 130 0
115 132 0
110 126 0
102 119 0
102 120 0
110 128 0
85 99 0
120 137 0
116 133 0
117 134 0
106 124 0
115 132 0
114 130 0
107 124 0
97 114 0
113 131 0
103 121 0
103 120 0
111 128 0
123 141 0
114 132 0
115 134 0
112 131 0
103 120 0
117 136 0
116 135 0
110 127 0
113 131 0
124 143 0
114 134 0
113 130 0
119 138 0
121 140 0
107 126 0
128 146 0
117 134 0
92 110 0
132 151 0
112 130 0
123 142 0
118 135 0
123 140 0
120 139 0
133 152 0
132 151 0
116 135 0
126 145 0
120 139 0
119 138 0
108 127 0
123 143 0
127 146 0
123 140 0
123 142 0
139 160 0
132 150 0
130 150 0
130 150 0
137 158 0
135 154 0
137 158 0
147 167 0
136 156 0
138 158 0
149 169 0
136 156 0
135 154 0
137 156 0
133 152 0
140 160 0
141 162 0
128 147 0
141 161 0
146 166 0
148 168 0
134 154 0
137 156 0
144 164 0
145 166 0
141 161 0
146 167 0
142 163 0
150 171 0
143 163 0
138 158 0
152 172 0
139 160 0
146 167 0
143 163 0
146 165 0
147 166 0
145 166 0
146 166 0
143 163 0
143 162 0
140 160 0
146 166 0
153 174 0
146 166 0
144 165 0
149 169 0
147 168 0
145 166 0
149 169 0
143 163 0
147 166 0
146 167 0
153 174 0
145 163 0
146 166 0
152 173 0
157 177 0
160 181 0
151 173 0
152 173 0
156 177 0
159 180 0
148 169 0
150 171 0
155 177 0
155 177 0
152 173 0
150 170 0
151 171 0
158 179 0
146 167 0
153 173 0
154 174 0
151 172 0
156 178 0
157 177 0
161 183 0
153 173 0
157 177 0
152 173 0
149 169 0
157 177 0
157 177 0
159 179 0
148 167 0
154 175 0
160 180 0
156 175 0
157 179 0
155 175 0
159 179 0
157 178 0
151 170 0
158 178 0
153 174 0
157 179 0
153 174 0
166 188 0
165 187 0
158 177 0
163 183 0
163 184 0
163 183 0
161 184 0
165 186 0
159 180 0
159 181 0
163 185 0
164 184 0
162 182 0
160 181 0
156 176 0
164 185 0
161 182 0
165 186 0
163 184 0
155 176 0
155 176 0
153 172 0
160 180 0
159 180 0
163 183 0
156 178 0
162 183 0
163 184 0
165 187 0
160 182 0
161 180 0
163 185 0
165 184 0
164 185 0
163 183 0
164 185 0
163 183 0
163 184 0
163 185 0
161 182 0
163 184 0
160 181 0
162 183 0
164 184 0
164 184 0
165 186 0
161 181 0
158 178 0
165 187 0
160 181 0
161 182 0
162 182 0
164 185 0
166 187 0
163 185 0
163 184 0
162 182 0
164 186 0
170 193 0
163 185 0
168 191 0
166 188 0
165 186 0
166 187 0
169 192 0
168 191 0
163 185 0
167 188 0
178 201 105
175 197 84
176 198 102
173 196 105
177 201 117
172 195 95
169 192 67
171 194 80
173 196 102
176 199 114
172 194 84
168 192 92
169 192 84
176 198 111
175 199 125
167 190 84
173 197 111
171 194 105
168 192 72
168 192 84
172 196 76
173 197 111
173 196 105
171 195 105
173 195 111
174 197 105
170 194 111
170 193 95
167 191 88
168 192 99
170 193 99
166 190 102
171 194 108
170 193 95
165 188 92
171 195 99
166 190 92
166 189 72
160 184 102
171 194 102
168 191 95
166 189 102
170 193 108
171 194 108
165 188 99
170 193 80
165 188 114
167 190 80
167 189 88
163 187 110
169 192 99
163 186 99
162 186 88
162 185 100
169 192 108
162 185 97
166 189 105
161 184 105
166 189 111
169 193 108
163 186 102
167 190 99
154 177 90
165 188 92
152 175 95
161 184 111
160 183 95
169 192 108
161 183 102
163 185 105
162 185 95
154 176 76
157 180 80
160 183 102
166 187 95
154 175 108
155 176 84
154 177 102
158 180 105
155 176 72
140 162 67
161 182 102
156 177 108
147 169 80
161 183 108
163 184 122
153 174 92
152 173 88
153 174 105
152 173 102
147 168 99
156 177 72
157 177 84
149 170 88
160 181 102
152 172 102
152 172 108
152 172 84
154 174 95
150 170 105
148 167 84
147 167 95
141 160 92
151 171 120
153 172 80
148 167 95
138 157 80
149 168 95
142 161 88
147 164 95
146 165 80
135 154 67
130 148 80
138 155 84
134 152 67
130 148 72
129 148 72
127 144 62
131 148 72
126 144 36
109 127 44
114 132 51
134 151 67
123 141 36
106 124 44
133 152 36
119 138 0
119 136 0
129 147 57
131 149 0
134 152 0
144 163 51
136 155 51
144 165 36
149 169 0
149 168 0
143 162 0
138 157 0
136 156 0
123 142 0
133 152 0
134 152 0
135 155 0
129 149 0
126 143 0
135 154 0
118 137 0
118 135 0
115 135 0
117 136 0
127 148 0
118 136 0
123 141 0
113 129 0
119 137 0
117 136 0
125 143 0
108 126 0
108 127 0
111 128 0
110 127 0
102 119 0
111 129 0
112 130 0
108 126 0
109 127 0
112 129 0
114 131 0
95 113 0
99 116 0
106 124 0
101 117 0
109 126 0
103 120 0
111 129 0
113 131 0
113 131 0
108 126 0
92 108 0
104 121 0
107 125 0
113 131 0
114 131 0
101 118 0
105 123 0
106 124 0
106 123 0
109 127 0
109 126 0
103 121 0
109 126 0
107 125 0
118 136 0
110 129 0
114 131 0
116 133 0
108 126 0
112 129 0
111 129 0
104 122 0
110 128 0
114 131 0
115 134 0
115 132 0
116 133 0
106 124 0
133 151 0
118 135 0
128 146 0
133 151 0
119 138 0
120 138 0
123 140 0
118 135 0
112 130 0
126 144 0
122 141 0
123 143 0
118 135 0
120 139 0
128 148 0
122 141 0
126 144 0
126 147 0
131 150 0
125 145 0
127 145 0
120 139 0
127 147 0
128 147 0
128 147 0
142 162 0
129 148 0
132 152 0
132 152 0
129 149 0
134 153 0
130 150 0
130 149 0
130 149 0
138 159 0
137 157 0
137 158 0
137 157 0
124 143 0
137 158 0
134 153 0
137 157 0
142 163 0
134 153 0
136 157 0
142 162 0
133 153 0
141 161 0
144 163 0
141 162 0
148 170 0
141 162 0
148 167 0
145 165 0
137 155 0
144 165 0
141 161 0
134 152 0
148 168 0
145 166 0
144 164 0
138 160 0
143 163 0
144 163 0
149 169 0
144 165 0
147 168 0
146 167 0
146 167 0
145 165 0
145 166 0
147 168 0
146 167 0
151 172 0
146 167 0
148 169 0
147 167 0
154 173 0
153 174 0
152 170 0
157 177 0
149 170 0
155 176 0
153 175 0
153 173 0
158 179 0
155 176 0
151 172 0
152 173 0
152 172 0
159 179 0
152 174 0
153 172 0
154 175 0
158 179 0
154 176 0
159 180 0
152 172 0
158 178 0
156 177 0
153 175 0
153 174 0
153 175 0
156 176 0
151 171 0
154 175 0
156 177 0
153 174 0
156 175 0
153 174 0
153 173 0
154 174 0
160 180 0
152 172 0
152 171 0
157 176 0
162 183 0
163 182 0
155 177 0
162 180 0
154 175 0
152 172 0
157 178 0
154 175 0
154 174 0
156 175 0
156 178 0
162 184 0
151 172 0
161 184 0
155 176 0
157 179 0
158 179 0
164 186 0
158 179 0
161 184 0
156 176 0
162 184 0
161 183 0
159 180 0
167 187 0
161 183 0
166 187 0
160 181 0
164 186 0
162 182 0
164 185 0
163 184 0
160 180 0
162 182 0
160 183 0
160 181 0
162 184 0
160 182 0
164 186 0
158 179 0
165 186 0
160 182 0
159 180 0
163 184 0
161 183 0
167 187 0
163 184 0
166 187 0
163 186 0
165 188 0
162 182 0
164 184 0
169 191 0
156 176 0
169 190 0
161 181 0
161 181 0
164 185 0
160 182 0
167 188 0
168 190 0
162 185 0
167 189 0
165 186 0
167 189 0
164 186 0
166 186 0
166 189 0
167 189 0
166 188 0
164 186 0
168 190 0
164 185 0
168 189 0
168 190 0
163 185 0
168 188 0
162 181 0
176 198 99
174 197 102
173 196 99
173 196 120
169 192 99
173 197 105
172 195 80
170 193 80
170 192 80
170 194 88
170 193 114
175 199 125
174 197 105
173 196 99
172 195 99
174 197 92
172 195 111
171 194 108
170 193 117
171 195 108
170 194 92
169 193 88
168 192 84
172 196 92
169 192 88
165 189 88
167 191 76
165 188 95
169 193 105
168 192 80
167 190 99
164 187 92
168 191 92
163 186 92
164 187 95
164 187 108
165 189 80
163 187 88
168 193 105
164 188 92
155 178 62
167 189 88
166 189 84
166 190 76
168 192 108
161 185 99
167 190 80
172 195 122
160 183 95
170 194 105
168 192 108
162 185 80
167 189 72
168 191 111
162 185 76
168 191 114
169 192 120
159 181 88
163 185 102
162 185 84
161 184 72
163 185 105
159 182 76
159 181 102
160 182 92
163 187 122
160 182 102
162 185 114
161 184 92
160 183 90
159 182 80
153 176 95
167 189 128
157 179 95
158 180 84
148 169 84
160 183 88
156 177 76
156 178 99
164 185 128
163 185 117
158 179 102
155 176 102
152 174 84
157 179 102
162 183 95
153 174 102
144 165 80
157 178 102
160 181 99
152 173 102
158 179 92
144 165 92
151 171 99
156 177 99
147 167 92
148 168 84
141 162 76
148 168 92
150 170 99
150 170 108
156 175 114
146 166 95
145 163 105
143 162 88
155 173 114
137 155 88
141 160 92
139 158 72
145 163 88
147 165 92
139 157 72
146 163 102
139 158 84
146 164 88
137 155 76
133 151 62
136 154 57
124 141 57
132 148 67
126 143 62
125 142 51
122 139 72
124 142 51
123 141 62
119 139 36
126 145 44
135 153 57
129 148 44
143 163 36
136 154 36
129 148 0
138 156 25
132 150 36
145 164 36
138 157 0
138 159 0
145 164 0
144 165 0
142 162 0
139 158 0
140 160 0
141 161 0
128 146 0
122 142 0
130 149 0
128 144 0
121 140 0
122 141 0
114 133 0
129 149 0
125 145 0
121 138 0
124 143 0
129 148 0
119 136 0
119 137 0
109 128 0
123 140 0
108 127 0
112 130 0
107 125 0
110 128 0
101 119 0
115 132 0
114 131 0
107 124 0
115 133 0
105 122 0
118 136 0
113 130 0
101 117 0
108 124 0
106 123 0
115 133 0
115 134 0
123 140 0
112 129 0
109 127 0
112 130 0
113 130 0
109 126 0
110 126 0
108 125 0
115 133 0
105 123 0
98 116 0
121 138 0
100 118 0
112 129 0
114 132 0
108 126 0
112 129 0
103 122 0
123 142 0
107 123 0
118 135 0
102 119 0
116 133 0
112 130 0
108 125 0
124 142 0
114 133 0
117 135 0
121 139 0
130 149 0
116 134 0
114 131 0
124 143 0
113 131 0
119 138 0
114 132 0
126 146 0
128 148 0
129 146 0
134 152 0
114 131 0
129 149 0
130 148 0
131 150 0
120 138 0
130 149 0
134 153 0
121 140 0
120 139 0
129 148 0
139 159 0
129 148 0
130 150 0
138 156 0
128 146 0
129 149 0
129 149 0
131 152 0
131 151 0
124 143 0
145 164 0
125 145 0
129 150 0
135 155 0
140 159 0
140 160 0
135 153 0
142 163 0
130 149 0
138 157 0
141 163 0
134 155 0
136 159 0
142 163 0
127 148 0
136 156 0
148 168 0
139 157 0
146 167 0
137 156 0
139 158 0
136 156 0
137 157 0
138 158 0
135 154 0
143 164 0
138 157 0
128 149 0
140 159 0
142 163 0
145 165 0
145 166 0
144 163 0
138 157 0
142 162 0
147 167 0
145 166 0
148 167 0
144 162 0
146 165 0
144 164 0
147 168 0
149 169 0
143 163 0
144 164 0
154 174 0
147 168 0
147 168 0
153 174 0
150 171 0
151 171 0
151 171 0
144 166 0
156 176 0
149 168 0
149 169 0
152 172 0
149 168 0
148 167 0
146 168 0
158 177 0
152 174 0
152 174 0
150 171 0
151 171 0
157 177 0
153 173 0
153 174 0
151 173 0
149 169 0
152 172 0
161 183 0
161 182 0
161 181 0
156 176 0
156 178 0
157 178 0
165 188 0
148 168 0
151 171 0
154 174 0
156 177 0
154 174 0
156 178 0
156 176 0
160 180 0
154 175 0
155 176 0
159 180 0
157 179 0
157 179 0
158 179 0
156 176 0
156 177 0
163 183 0
155 174 0
157 177 0
160 180 0
164 186 0
154 175 0
155 176 0
158 180 0
155 174 0
162 183 0
160 181 0
150 171 0
162 182 0
159 179 0
157 178 0
156 177 0
164 185 0
165 185 0
162 182 0
159 180 0
162 182 0
160 180 0
162 182 0
155 177 0
168 189 0
168 190 0
165 187 0
165 185 0
160 181 0
166 188 0
163 185 0
167 188 0
161 182 0
165 185 0
166 187 0
163 183 0
163 185 0
162 183 0
164 186 0
165 186 0
162 182 0
162 183 0
161 182 0
163 185 0
167 190 0
162 184 0
164 184 0
165 186 0
165 186 0
164 184 0
160 181 0
165 185 0
165 186 0
164 186 0
161 183 0
162 183 0
165 187 0
162 184 0
164 186 0
167 188 0
167 189 0
164 186 0
167 189 0
163 185 0
163 184 0
165 187 0
164 186 0
163 186 0
165 186 0
168 190 0
173 197 80
175 197 114
175 197 92
168 191 84
171 194 99
176 199 114
168 191 80
170 193 84
175 198 92
175 198 117
173 196 114
169 192 102
173 196 88
170 193 108
175 198 111
173 195 95
175 198 92
175 198 105
170 193 95
171 194 92
171 194 102
172 196 111
165 188 102
171 195 105
170 193 99
170 194 99
173 196 95
167 190 95
167 191 108
166 189 99
171 194 88
171 194 92
170 194 99
168 191 92
164 188 95
166 189 72
175 198 111
164 188 72
171 194 128
165 188 84
170 193 114
171 194 99
166 189 102
169 192 95
162 184 102
160 183 92
157 180 72
163 185 92
161 185 80
165 189 102
167 190 95
166 190 105
163 187 76
167 190 99
167 189 99
159 181 92
166 189 84
167 189 84
164 187 84
160 183 102
158 181 102
157 180 99
166 189 105
166 188 84
167 190 105
163 186 86
160 184 102
157 179 102
160 182 111
160 182 99
155 178 95
160 183 88
157 179 84
156 178 92
155 176 105
160 183 95
160 182 105
154 177 84
152 174 92
165 187 105
160 182 84
149 170 80
159 182 105
148 170 88
157 178 120
159 180 95
149 171 99
152 173 84
158 179 99
160 181 102
157 177 95
155 175 95
148 168 92
150 172 92
153 174 84
157 177 108
156 175 114
151 170 105
154 174 92
151 171 111
157 176 105
146 166 92
157 177 92
154 172 114
143 161 84
141 161 72
146 164 102
146 164 105
139 159 95
147 165 92
140 159 76
151 170 80
135 154 72
145 164 80
134 152 92
143 160 99
125 143 44
118 136 57
126 145 44
131 151 44
115 132 25
129 148 44
123 141 44
119 137 44
132 150 57
136 154 57
124 143 25
131 148 36
132 152 36
131 150 36
142 161 36
145 165 25
135 155 36
141 161 0
132 152 25
141 162 0
129 149 0
141 162 0
143 163 25
136 155 0
141 160 0
137 158 0
139 159 0
130 150 0
132 151 0
132 150 0
136 154 0
126 144 0
120 140 0
117 136 0
138 157 0
123 143 0
120 139 0
118 136 0
121 140 0
116 135 0
121 140 0
119 138 0
124 143 0
115 132 0
124 143 0
121 139 0
113 131 0
112 130 0
107 125 0
115 133 0
125 142 0
118 135 0
113 130 0
108 126 0
121 139 0
104 122 0
106 123 0
103 120 0
113 131 0
108 125 0
103 121 0
111 130 0
108 126 0
116 135 0
118 137 0
112 131 0
117 135 0
109 128 0
117 136 0
111 129 0
116 134 0
125 143 0
110 128 0
113 130 0
116 135 0
108 126 0
113 131 0
128 147 0
112 128 0
108 127 0
109 127 0
118 136 0
118 137 0
121 139 0
113 132 0
113 132 0
120 139 0
118 136 0
117 137 0
126 144 0
121 139 0
124 142 0
121 140 0
118 135 0
123 143 0
127 145 0
118 136 0
125 143 0
116 136 0
127 145 0
125 144 0
137 155 0
116 134 0
113 133 0
121 141 0
129 148 0
113 133 0
131 150 0
127 145 0
135 156 0
133 152 0
133 153 0
132 151 0
129 149 0
135 155 0
129 148 0
133 153 0
138 159 0
133 153 0
126 146 0
134 154 0
122 141 0
134 153 0
133 155 0
126 146 0
132 153 0
140 161 0
141 161 0
135 155 0
140 159 0
144 164 0
136 156 0
132 152 0
144 164 0
139 159 0
142 162 0
137 158 0
139 160 0
143 164 0
135 155 0
138 159 0
141 161 0
149 170 0
147 169 0
146 166 0
143 165 0
146 165 0
150 169 0
148 169 0
145 165 0
148 170 0
149 170 0
136 156 0
150 170 0
147 168 0
142 162 0
148 167 0
148 168 0
150 170 0
153 174 0
148 168 0
145 165 0
143 164 0
150 172 0
151 172 0
155 176 0
147 169 0
150 172 0
145 165 0
152 173 0
152 172 0
159 180 0
149 170 0
149 170 0
152 173 0
149 171 0
150 171 0
148 169 0
154 175 0
155 175 0
154 175 0
147 168 0
152 172 0
150 171 0
159 180 0
159 178 0
158 179 0
158 179 0
153 173 0
157 177 0
151 173 0
158 179 0
156 177 0
157 177 0
152 174 0
156 178 0
157 179 0
155 175 0
158 178 0
163 184 0
159 179 0
155 177 0
159 180 0
156 177 0
159 180 0
158 177 0
163 184 0
159 181 0
160 182 0
163 184 0
158 179 0
158 178 0
154 174 0
160 181 0
155 175 0
159 180 0
160 181 0
161 182 0
157 177 0
157 178 0
159 180 0
164 185 0
156 178 0
164 185 0
159 181 0
163 186 0
161 182 0
162 184 0
160 179 0
161 182 0
159 179 0
161 183 0
162 183 0
161 184 0
163 186 0
165 188 0
163 183 0
162 183 0
162 185 0
163 184 0
162 183 0
164 185 0
162 183 0
159 180 0
167 188 0
166 186 0
164 185 0
166 187 0
162 183 0
163 184 0
163 183 0
159 179 0
171 192 0
162 184 0
167 189 0
163 183 0
158 179 0
162 183 0
160 183 0
161 182 0
163 186 0
164 185 0
165 187 0
166 187 0
164 186 0
165 187 0
165 185 0
165 188 0
162 184 0
165 188 0
168 190 0
161 182 0
168 190 0
162 184 0
165 186 0
160 180 0
166 189 0
161 183 0
164 188 0
164 185 0
164 186 0
165 185 0
167 189 0
166 188 0
169 193 88
175 198 105
172 195 80
172 196 95
175 198 108
177 200 108
172 195 99
175 198 108
167 190 88
169 192 99
175 199 99
172 196 102
172 195 99
171 195 105
171 194 95
167 190 62
163 186 95
168 190 72
170 193 88
166 189 95
172 197 120
175 198 99
170 193 95
165 189 88
170 194 88
170 194 92
168 192 105
162 186 80
170 194 88
162 185 84
169 192 95
166 189 111
172 196 92
168 191 99
170 193 99
165 188 95
159 182 95
169 192 95
168 191 108
173 197 105
164 188 105
165 188 84
169 193 105
172 194 99
167 190 80
167 190 108
163 187 76
169 192 88
169 193 99
167 191 99
161 183 95
157 181 84
168 191 102
164 187 95
159 181 90
165 188 99
162 186 105
164 187 92
158 180 72
166 189 130
166 188 88
158 182 88
167 189 88
161 183 80
162 184 117
158 181 92
158 180 99
160 183 105
152 175 84
157 180 88
157 179 97
151 173 72
156 178 111
166 188 102
166 187 92
159 181 80
159 181 99
159 181 99
159 181 80
161 182 117
162 185 120
157 177 92
145 167 88
151 173 84
156 177 99
158 179 102
159 180 67
161 182 99
169 190 105
156 177 67
158 179 122
158 178 102
149 171 67
149 170 84
152 173 84
155 175 88
143 164 88
162 182 128
147 168 84
161 181 120
152 170 84
153 172 120
151 170 102
147 167 80
149 169 92
146 165 99
147 166 92
140 160 72
140 158 88
143 161 76
151 171 84
137 155 102
145 164 67
148 165 92
142 160 88
133 152 57
130 148 67
141 159 80
133 151 76
140 159 57
134 152 76
136 155 57
121 139 36
122 140 51
130 148 44
132 150 57
139 159 36
133 153 25
140 158 36
141 162 57
133 153 51
138 159 36
140 159 25
141 162 0
142 161 36
149 170 0
146 167 25
144 161 0
145 167 0
144 165 0
138 157 0
127 148 0
137 157 0
134 153 0
133 153 0
125 144 0
133 152 0
125 144 0
127 146 0
124 143 0
117 137 0
110 127 0
124 143 0
120 138 0
121 139 0
127 146 0
112 130 0
110 128 0
113 131 0
122 141 0
98 116 0
137 156 0
108 128 0
112 130 0
116 133 0
128 146 0
115 133 0
107 124 0
106 124 0
113 130 0
107 127 0
103 122 0
118 136 0
127 145 0
108 126 0
113 132 0
112 131 0
112 130 0
115 133 0
114 131 0
123 141 0
106 124 0
113 132 0
110 127 0
117 136 0
122 140 0
120 139 0
116 133 0
121 139 0
116 134 0
107 123 0
114 132 0
124 143 0
107 127 0
110 130 0
122 139 0
114 131 0
119 138 0
118 136 0
111 129 0
127 146 0
115 135 0
113 131 0
121 140 0
119 138 0
121 139 0
131 150 0
119 138 0
120 140 0
128 148 0
115 134 0
130 149 0
124 142 0
122 140 0
124 142 0
121 139 0
121 142 0
120 139 0
129 150 0
131 151 0
121 140 0
129 150 0
135 155 0
128 147 0
121 138 0
127 146 0
125 144 0
131 149 0
129 149 0
136 156 0
137 156 0
131 150 0
127 147 0
132 151 0
136 156 0
129 150 0
139 160 0
137 157 0
127 146 0
147 167 0
138 159 0
141 161 0
132 153 0
135 154 0
138 158 0
136 155 0
121 141 0
143 163 0
139 160 0
139 159 0
146 167 0
125 145 0
137 158 0
139 160 0
136 156 0
143 163 0
142 162 0
142 163 0
138 158 0
147 168 0
141 161 0
139 159 0
141 162 0
148 167 0
143 164 0
145 165 0
141 163 0
141 161 0
151 172 0
148 169 0
152 173 0
151 172 0
144 164 0
144 166 0
143 163 0
152 173 0
152 173 0
147 167 0
150 171 0
150 172 0
157 178 0
149 171 0
148 168 0
147 169 0
147 168 0
153 172 0
153 174 0
156 176 0
155 174 0
148 169 0
148 170 0
152 173 0
152 172 0
150 172 0
150 172 0
153 173 0
150 171 0
156 178 0
156 176 0
155 177 0
155 173 0
157 178 0
147 167 0
156 176 0
153 173 0
159 181 0
147 168 0
147 168 0
162 184 0
159 180 0
149 170 0
155 177 0
158 180 0
157 176 0
156 177 0
159 180 0
155 175 0
161 182 0
155 177 0
158 178 0
149 169 0
161 182 0
161 184 0
157 178 0
155 176 0
163 183 0
157 177 0
160 182 0
160 181 0
155 175 0
158 180 0
160 181 0
164 185 0
155 175 0
165 186 0
167 190 0
166 187 0
163 184 0
156 176 0
162 182 0
160 181 0
166 186 0
162 183 0
156 176 0
158 179 0
164 185 0
162 184 0
161 182 0
163 183 0
159 180 0
161 182 0
161 182 0
161 181 0
160 180 0
164 185 0
154 175 0
161 181 0
155 175 0
165 187 0
160 180 0
160 182 0
168 189 0
164 185 0
160 183 0
161 184 0
165 188 0
159 178 0
167 189 0
164 186 0
165 186 0
164 186 0
166 187 0
167 189 0
162 180 0
167 188 0
159 180 0
161 183 0
164 185 0
164 185 0
166 188 0
162 184 0
167 187 0
164 186 0
167 190 0
161 182 0
166 186 0
166 188 0
167 189 0
169 191 0
166 188 0
168 191 0
167 187 0
162 183 0
163 184 0
166 187 0
165 188 0
168 189 0
167 188 0
164 186 0
166 187 0
169 193 99
178 201 111
175 198 108
170 194 88
174 197 88
174 197 102
169 193 88
167 190 88
173 196 108
172 195 99
168 192 111
168 190 102
173 196 99
176 199 99
171 194 108
173 197 99
170 193 88
170 194 108
176 198 111
172 195 88
169 192 88
167 190 108
166 189 84
168 192 111
171 195 102
167 191 92
166 189 102
169 192 99
168 191 99
168 191 88
170 192 84
168 192 84
175 199 120
170 194 111
169 192 99
166 190 80
164 187 108
167 190 92
160 184 105
167 191 108
170 193 105
167 190 84
168 191 84
162 185 95
169 192 108
168 191 95
169 192 102
166 189 105
164 187 72
157 180 84
165 188 102
168 191 92
166 189 99
167 191 99
160 182 84
167 190 95
159 182 114
162 185 95
156 179 88
161 184 99
160 182 88
155 177 102
163 185 105
164 187 76
169 192 99
164 187 111
159 182 99
164 187 102
164 187 111
161 184 84
165 188 105
161 184 111
163 186 105
161 184 105
156 178 84
161 184 105
151 173 57
161 182 105
164 186 128
158 180 92
163 185 92
151 173 114
156 177 99
156 179 102
156 179 95
152 173 88
153 174 72
155 176 95
159 180 99
157 179 105
154 174 92
151 172 102
158 179 102
156 177 95
156 176 102
151 171 108
152 172 99
149 170 88
147 167 102
145 166 88
147 166 88
152 171 92
143 162 95
155 175 76
147 167 84
156 176 99
152 171 105
146 164 80
152 170 95
149 167 102
137 155 62
136 155 62
142 161 92
132 151 62
142 161 76
145 163 72
140 159 72
138 157 67
131 150 57
137 157 44
130 148 57
125 144 44
128 147 44
131 150 36
130 148 57
140 160 44
127 146 57
137 155 0
140 160 25
146 167 36
140 160 25
141 160 25
154 175 44
140 161 0
141 162 0
145 165 0
150 170 0
143 163 0
136 155 0
138 159 0
142 161 0
139 159 0
138 157 0
132 152 0
135 155 0
135 154 0
137 156 0
137 157 0
121 139 0
128 147 0
129 149 0
123 142 0
122 142 0
121 139 0
119 138 0
131 151 0
111 130 0
124 142 0
122 140 0
110 127 0
119 137 0
105 124 0
122 140 0
123 141 0
124 143 0
112 130 0
128 147 0
120 138 0
117 135 0
103 121 0
113 131 0
115 133 0
119 138 0
108 127 0
112 131 0
116 134 0
114 134 0
115 134 0
114 131 0
117 135 0
117 136 0
114 133 0
110 128 0
119 137 0
118 138 0
107 126 0
116 135 0
117 135 0
114 131 0
130 149 0
103 121 0
121 138 0
118 136 0
109 128 0
119 139 0
114 132 0
120 140 0
113 130 0
105 124 0
118 137 0
110 128 0
121 139 0
123 143 0
123 140 0
111 130 0
111 130 0
125 144 0
122 141 0
132 150 0
124 143 0
125 144 0
127 147 0
120 138 0
118 137 0
131 149 0
135 154 0
123 142 0
125 144 0
120 138 0
126 146 0
133 152 0
123 141 0
129 149 0
134 153 0
132 152 0
124 143 0
139 158 0
136 155 0
141 161 0
123 144 0
141 161 0
138 159 0
123 143 0
124 144 0
134 155 0
129 149 0
135 156 0
141 163 0
135 155 0
133 151 0
134 155 0
139 158 0
140 160 0
140 162 0
132 152 0
137 158 0
140 160 0
136 156 0
137 156 0
132 153 0
137 158 0
141 163 0
135 155 0
135 157 0
146 165 0
138 158 0
139 160 0
144 165 0
138 158 0
146 169 0
142 161 0
149 169 0
145 167 0
143 165 0
148 168 0
143 162 0
144 165 0
145 166 0
148 168 0
156 176 0
143 165 0
137 156 0
145 166 0
151 173 0
147 167 0
145 164 0
146 166 0
150 171 0
150 172 0
150 171 0
144 164 0
145 166 0
151 171 0
146 166 0
147 167 0
153 174 0
154 176 0
145 167 0
154 175 0
154 174 0
150 172 0
158 178 0
146 166 0
153 174 0
148 165 0
155 177 0
152 174 0
152 175 0
158 180 0
161 182 0
157 177 0
159 180 0
154 175 0
151 173 0
156 177 0
152 172 0
157 179 0
157 179 0
156 177 0
158 178 0
154 177 0
156 177 0
156 176 0
166 186 0
155 177 0
156 177 0
157 179 0
156 176 0
161 182 0
163 183 0
156 177 0
161 183 0
146 167 0
158 179 0
163 184 0
157 178 0
163 184 0
159 181 0
162 182 0
156 177 0
159 181 0
157 179 0
157 176 0
152 174 0
162 183 0
157 178 0
150 170 0
163 184 0
162 182 0
161 183 0
164 184 0
161 183 0
160 180 0
158 179 0
163 183 0
164 185 0
159 178 0
162 184 0
159 179 0
163 184 0
160 182 0
160 182 0
163 185 0
159 181 0
160 181 0
160 180 0
155 175 0
165 186 0
167 187 0
160 181 0
163 182 0
164 184 0
163 185 0
163 184 0
165 187 0
168 188 0
166 188 0
165 187 0
163 184 0
162 183 0
162 184 0
166 187 0
165 185 0
167 189 0
162 184 0
163 184 0
161 182 0
162 184 0
169 190 0
165 186 0
164 188 0
169 189 0
167 189 0
166 187 0
168 189 0
164 187 0
169 189 0
164 186 0
164 186 0
165 187 0
166 188 0
164 185 0
169 190 0
167 188 0
166 188 0
168 189 0
166 189 0
165 186 0
169 191 0
168 190 0
171 194 102
175 198 95
174 198 92
176 200 114
173 197 92
176 199 108
176 199 111
175 197 92
172 194 114
171 194 95
170 194 102
173 196 102
166 189 92
168 191 84
170 193 99
170 193 84
172 196 84
167 191 92
171 195 92
170 193 105
167 191 88
174 198 105
171 194 108
170 193 76
169 192 102
168 192 95
169 193 108
169 191 95
166 189 88
168 191 76
164 188 102
168 191 99
165 189 80
170 193 88
167 190 67
168 191 88
166 190 105
165 189 105
159 183 99
164 186 92
162 185 92
166 190 111
165 188 88
163 187 95
169 192 99
169 193 99
163 186 76
163 186 108
160 183 76
168 191 88
165 188 80
166 189 95
165 187 99
155 178 67
155 178 95
161 185 99
170 193 105
164 187 111
167 190 108
165 188 108
165 189 111
162 185 108
152 175 72
166 188 95
159 183 111
162 185 102
155 177 80
157 179 67
155 178 95
165 187 120
164 187 95
160 182 99
158 180 80
156 179 72
164 187 80
153 174 92
163 184 117
160 183 102
155 176 80
160 182 95
161 183 88
159 181 105
158 180 95
157 179 92
155 176 88
155 177 88
161 182 105
158 179 102
150 172 76
156 178 99
151 172 88
150 171 92
156 177 108
147 167 95
149 170 72
157 177 88
149 169 92
140 160 88
156 176 99
152 171 92
148 168 88
154 173 95
151 171 88
159 177 125
149 168 95
149 169 67
151 171 92
138 157 88
138 157 80
152 171 105
137 157 76
144 164 76
147 166 62
143 162 84
132 152 57
130 149 36
134 153 67
139 157 67
134 153 51
141 160 80
129 149 44
133 152 51
135 153 57
134 152 62
122 141 51
141 161 51
138 158 44
134 154 25
138 157 36
141 161 0
138 158 25
135 154 25
136 154 25
147 168 25
130 151 0
138 158 25
142 162 0
141 161 0
146 165 0
124 143 0
130 149 0
134 153 0
133 153 0
131 150 0
127 147 0
131 150 0
120 139 0
134 155 0
129 149 0
127 147 0
127 147 0
133 152 0
127 146 0
135 154 0
114 133 0
128 146 0
117 135 0
119 139 0
123 142 0
124 143 0
110 129 0
124 141 0
109 128 0
110 128 0
120 139 0
115 131 0
133 153 0
115 134 0
119 137 0
114 133 0
125 144 0
115 134 0
106 125 0
126 144 0
123 141 0
118 136 0
108 127 0
109 127 0
109 127 0
110 128 0
112 130 0
112 131 0
123 142 0
113 131 0
115 133 0
124 142 0
104 123 0
105 123 0
116 135 0
119 138 0
115 133 0
116 136 0
102 120 0
119 138 0
117 136 0
119 138 0
111 129 0
124 143 0
119 138 0
126 144 0
117 136 0
123 142 0
126 145 0
123 141 0
127 148 0
116 135 0
122 141 0
127 147 0
131 151 0
117 136 0
126 146 0
119 139 0
135 154 0
123 141 0
125 144 0
121 141 0
123 142 0
130 150 0
119 138 0
129 149 0
131 152 0
122 142 0
138 157 0
130 150 0
126 145 0
127 146 0
138 158 0
131 150 0
130 149 0
135 156 0
127 146 0
126 145 0
133 152 0
140 160 0
140 159 0
128 147 0
132 153 0
135 157 0
139 159 0
146 166 0
135 155 0
143 165 0
136 155 0
144 163 0
142 163 0
138 158 0
148 169 0
140 161 0
144 163 0
145 167 0
142 162 0
141 163 0
138 159 0
143 162 0
135 155 0
141 162 0
146 166 0
139 160 0
141 162 0
140 161 0
147 168 0
147 168 0
144 165 0
146 167 0
148 169 0
145 165 0
149 170 0
152 173 0
147 167 0
153 172 0
143 164 0
154 175 0
150 171 0
147 168 0
140 162 0
142 162 0
134 153 0
150 172 0
146 167 0
144 165 0
142 163 0
142 161 0
150 172 0
147 168 0
158 180 0
151 173 0
153 174 0
144 165 0
155 175 0
151 171 0
150 172 0
150 172 0
154 176 0
152 173 0
157 179 0
149 169 0
157 179 0
154 174 0
156 176 0
149 169 0
152 173 0
153 174 0
146 168 0
153 174 0
153 172 0
161 183 0
157 179 0
155 176 0
157 178 0
154 174 0
147 168 0
159 180 0
154 176 0
155 176 0
149 169 0
160 182 0
160 182 0
157 179 0
153 174 0
158 176 0
151 172 0
154 175 0
160 181 0
161 182 0
151 172 0
163 184 0
160 182 0
165 186 0
156 176 0
161 182 0
160 180 0
156 177 0
163 186 0
162 181 0
166 188 0
160 181 0
162 184 0
154 175 0
165 186 0
159 182 0
162 186 0
158 179 0
157 179 0
158 180 0
158 180 0
160 183 0
160 182 0
167 189 0
159 181 0
162 184 0
159 179 0
161 182 0
162 182 0
164 185 0
165 186 0
165 188 0
160 181 0
164 185 0
163 184 0
171 193 0
160 182 0
158 179 0
164 184 0
162 181 0
158 180 0
163 184 0
169 190 0
164 187 0
161 183 0
166 188 0
166 186 0
166 189 0
167 190 0
159 180 0
164 184 0
166 188 0
166 187 0
165 185 0
161 181 0
164 186 0
165 186 0
163 185 0
167 188 0
167 189 0
168 190 0
168 191 0
167 189 0
161 183 0
163 185 0
164 186 0
167 189 0
165 187 0
169 191 0
167 189 0
166 189 0
163 184 0
165 186 0
167 187 0
165 186 0
166 188 0
173 196 95
169 192 80
172 195 108
171 194 80
178 201 95
176 199 99
172 196 105
173 197 80
172 195 99
173 196 108
170 193 76
169 193 92
174 198 111
169 193 88
171 194 105
176 200 114
175 198 111
169 193 88
174 197 111
167 190 80
172 195 95
167 191 72
173 196 114
168 191 102
172 194 88
169 193 114
167 190 102
165 188 102
171 195 92
168 192 95
166 189 76
169 192 108
171 194 92
170 193 92
169 193 105
164 187 92
168 191 95
161 185 92
169 192 99
165 187 99
167 190 102
159 183 99
169 192 108
168 192 84
169 193 88
164 187 92
164 187 84
168 191 111
166 189 111
166 190 111
157 180 84
170 192 105
168 191 80
170 192 84
167 190 95
164 187 76
163 186 105
163 185 92
162 185 95
163 187 111
161 185 92
166 188 88
156 179 88
167 190 108
158 181 84
160 183 92
163 186 95
159 182 105
167 189 105
165 187 114
164 186 95
158 181 88
168 190 102
166 188 99
154 176 84
162 184 105
167 188 102
156 177 80
160 182 99
153 176 95
162 184 95
157 179 105
163 185 92
159 180 111
162 184 88
160 182 84
152 173 105
154 175 99
153 174 95
160 181 111
155 176 120
160 181 95
142 162 88
149 169 95
156 177 105
155 176 95
155 176 102
152 172 88
157 177 111
154 176 108
148 168 88
149 169 95
142 161 88
150 170 88
147 165 95
146 165 80
147 167 102
154 173 114
141 161 84
140 159 76
156 176 76
137 156 80
131 150 67
133 153 62
142 161 51
130 150 51
146 164 72
139 159 51
127 146 0
133 152 57
134 152 76
136 155 25
130 148 44
137 157 36
134 154 25
134 154 25
146 165 57
147 168 51
141 161 36
142 162 36
148 170 36
140 161 36
132 154 25
148 168 0
149 169 36
151 171 51
151 172 25
137 157 25
139 161 0
136 155 0
148 168 0
139 158 0
139 159 0
138 158 0
132 152 0
127 146 0
138 158 0
138 159 0
125 144 0
141 161 0
124 143 0
130 149 0
123 143 0
111 131 0
123 142 0
134 154 0
121 139 0
125 145 0
116 135 0
122 141 0
120 138 0
133 152 0
114 132 0
120 140 0
127 147 0
123 143 0
112 130 0
121 140 0
117 135 0
132 151 0
115 134 0
122 140 0
121 141 0
114 133 0
119 137 0
115 134 0
110 129 0
115 133 0
124 142 0
102 121 0
112 131 0
112 129 0
117 137 0
125 144 0
115 133 0
114 132 0
129 148 0
113 130 0
116 135 0
119 138 0
119 138 0
137 157 0
123 142 0
126 145 0
125 144 0
120 138 0
113 131 0
120 139 0
112 131 0
134 153 0
114 133 0
118 137 0
130 150 0
134 155 0
129 150 0
123 143 0
113 134 0
126 147 0
125 145 0
118 138 0
135 154 0
130 151 0
127 147 0
131 149 0
128 146 0
129 148 0
140 159 0
134 153 0
126 146 0
130 149 0
127 147 0
132 152 0
127 147 0
133 153 0
137 157 0
131 149 0
128 147 0
130 149 0
129 149 0
132 152 0
142 161 0
141 161 0
128 148 0
138 157 0
133 153 0
144 163 0
132 152 0
130 151 0
144 164 0
138 159 0
146 167 0
137 158 0
144 164 0
140 158 0
146 167 0
143 162 0
141 161 0
140 159 0
143 162 0
144 165 0
141 163 0
138 160 0
144 164 0
131 152 0
135 155 0
143 163 0
144 163 0
145 165 0
143 163 0
150 172 0
150 169 0
141 162 0
152 174 0
147 169 0
149 170 0
149 170 0
153 174 0
149 170 0
151 171 0
148 168 0
148 170 0
145 165 0
149 170 0
147 168 0
145 166 0
148 169 0
144 165 0
147 168 0
141 163 0
160 182 0
153 174 0
149 170 0
142 162 0
140 162 0
150 171 0
151 171 0
155 176 0
151 171 0
157 177 0
158 181 0
152 173 0
151 173 0
154 176 0
153 174 0
155 175 0
149 170 0
152 174 0
147 168 0
152 173 0
155 174 0
152 173 0
156 176 0
155 176 0
158 180 0
157 177 0
160 180 0
158 178 0
159 180 0
154 175 0
151 173 0
155 175 0
155 177 0
159 181 0
159 181 0
160 182 0
156 178 0
160 182 0
158 179 0
158 180 0
161 183 0
157 177 0
158 180 0
164 185 0
155 177 0
159 181 0
159 180 0
156 177 0
164 185 0
163 184 0
161 182 0
157 176 0
160 180 0
159 182 0
161 180 0
160 182 0
161 182 0
157 178 0
161 182 0
163 184 0
158 180 0
163 185 0
162 182 0
166 187 0
164 185 0
161 184 0
158 178 0
163 185 0
164 185 0
161 183 0
161 182 0
164 185 0
160 182 0
161 183 0
169 192 0
160 181 0
166 188 0
164 186 0
162 180 0
166 187 0
162 184 0
161 183 0
159 180 0
162 185 0
168 189 0
167 190 0
160 182 0
163 185 0
168 189 0
161 181 0
167 190 0
166 187 0
167 187 0
167 190 0
167 187 0
158 181 0
166 187 0
161 183 0
166 189 0
163 185 0
163 186 0
165 186 0
168 190 0
168 190 0
164 184 0
167 188 0
163 184 0
167 188 0
169 189 0
163 183 0
167 190 0
163 185 0
165 187 0
163 184 0
165 185 0
164 186 0
167 189 0
164 186 0
166 187 0
168 190 0
166 187 0
174 197 108
174 197 99
175 198 117
166 189 62
171 194 111
176 198 108
170 194 80
171 195 84
168 192 99
175 198 108
172 195 105
171 194 92
169 193 108
168 191 95
169 192 95
172 195 102
177 200 102
173 195 84
168 191 92
164 188 92
174 197 102
167 190 99
166 190 92
172 196 99
172 195 88
166 189 105
169 193 95
164 187 95
166 189 92
167 190 111
169 192 92
171 195 92
167 191 108
167 190 76
171 195 95
166 190 92
163 186 92
166 189 111
169 192 92
167 191 102
170 193 105
164 187 102
165 188 76
168 191 108
165 189 99
163 186 102
166 189 105
161 184 76
169 191 88
170 194 111
161 184 105
167 190 99
162 186 72
165 188 84
159 182 102
161 184 88
168 191 99
172 194 84
164 187 84
163 186 108
159 182 84
159 182 88
162 184 111
160 183 102
158 181 92
152 173 67
155 177 84
164 186 105
162 184 99
160 182 99
159 183 95
160 183 99
161 183 92
159 180 76
163 186 102
160 182 76
149 170 62
166 189 88
162 183 99
160 183 114
159 181 105
158 179 76
165 187 120
156 177 111
159 181 88
160 181 99
164 186 111
165 186 117
158 179 102
157 177 99
156 177 105
154 174 102
148 169 80
149 171 80
159 180 111
148 168 92
150 170 92
154 174 117
152 173 95
150 169 102
151 171 95
161 181 95
155 175 84
150 171 84
146 166 95
160 180 99
139 160 67
148 168 88
150 169 80
153 172 80
142 162 76
137 156 80
135 153 76
151 171 72
144 163 62
141 161 76
136 155 51
145 166 44
136 156 51
147 166 57
126 146 51
138 158 44
136 156 36
138 158 51
141 162 51
129 149 36
138 157 36
138 157 25
144 163 36
139 160 25
133 154 36
137 158 25
143 164 0
148 169 0
142 161 0
143 163 36
148 169 0
143 163 0
148 170 0
141 160 0
147 166 0
143 164 0
131 151 0
131 151 0
143 163 0
145 165 0
138 156 0
125 145 0
134 154 0
135 155 0
125 146 0
130 150 0
126 145 0
123 143 0
129 149 0
130 151 0
130 150 0
120 139 0
126 146 0
116 134 0
129 149 0
124 143 0
117 136 0
116 135 0
127 146 0
125 145 0
129 147 0
119 139 0
124 142 0
111 129 0
124 143 0
105 124 0
104 122 0
116 135 0
126 145 0
131 149 0
128 147 0
118 138 0
125 143 0
120 138 0
119 138 0
123 142 0
111 129 0
122 141 0
121 139 0
130 148 0
128 148 0
118 137 0
121 140 0
110 128 0
121 140 0
128 147 0
116 136 0
118 137 0
125 144 0
122 140 0
124 144 0
121 140 0
123 143 0
127 147 0
136 155 0
127 146 0
125 145 0
128 146 0
126 145 0
127 146 0
125 144 0
124 144 0
126 145 0
124 144 0
124 143 0
129 149 0
128 149 0
128 147 0
130 150 0
124 142 0
128 147 0
131 151 0
134 154 0
130 150 0
127 147 0
129 149 0
133 153 0
127 146 0
135 155 0
131 151 0
129 150 0
130 150 0
132 153 0
136 156 0
127 147 0
141 161 0
134 155 0
141 161 0
137 156 0
141 161 0
146 167 0
137 155 0
142 163 0
136 156 0
133 154 0
139 159 0
142 163 0
139 160 0
147 168 0
140 161 0
141 162 0
146 168 0
142 162 0
150 172 0
144 165 0
140 161 0
145 165 0
151 170 0
139 159 0
135 155 0
147 168 0
149 170 0
149 168 0
147 168 0
148 170 0
146 167 0
139 160 0
149 168 0
148 167 0
143 163 0
155 176 0
145 166 0
143 163 0
143 163 0
148 167 0
149 170 0
143 164 0
150 171 0
149 171 0
155 176 0
144 165 0
153 174 0
151 170 0
152 173 0
150 171 0
149 170 0
153 174 0
139 158 0
145 165 0
153 174 0
152 174 0
153 174 0
151 173 0
159 179 0
155 176 0
146 167 0
151 171 0
152 174 0
144 164 0
157 178 0
155 175 0
160 181 0
159 182 0
163 184 0
154 174 0
158 180 0
155 175 0
159 180 0
155 175 0
160 183 0
158 179 0
159 180 0
160 182 0
163 185 0
156 176 0
160 180 0
151 172 0
156 177 0
159 180 0
161 182 0
155 177 0
154 175 0
159 180 0
150 170 0
161 182 0
159 181 0
155 175 0
156 177 0
157 177 0
155 175 0
163 185 0
154 175 0
157 177 0
164 186 0
159 178 0
157 177 0
159 180 0
163 184 0
158 178 0
159 181 0
156 178 0
162 184 0
162 182 0
164 184 0
160 181 0
158 179 0
158 178 0
159 181 0
154 175 0
162 183 0
165 187 0
162 182 0
162 183 0
160 182 0
165 185 0
163 185 0
157 178 0
165 186 0
162 183 0
161 180 0
163 187 0
160 180 0
163 184 0
164 186 0
162 182 0
166 188 0
164 185 0
164 186 0
168 190 0
163 185 0
156 179 0
166 188 0
163 185 0
164 186 0
166 189 0
169 191 0
164 184 0
166 188 0
163 186 0
166 186 0
168 187 0
168 191 0
165 186 0
167 189 0
164 184 0
166 188 0
164 186 0
168 191 0
162 183 0
168 188 0
164 183 0
165 187 0
161 183 0
169 193 0
165 187 0
167 190 0
167 189 0
169 192 0
170 193 0
166 188 0
170 191 0
162 184 0
170 194 0
168 190 0
174 197 102
173 196 95
171 194 95
173 195 105
171 195 76
176 198 111
167 191 72
175 198 105
170 193 99
174 197 102
174 197 95
171 194 102
171 194 102
172 195 88
172 196 95
175 199 120
175 199 105
168 191 105
170 193 88
168 192 95
164 188 99
168 191 88
169 192 84
171 194 92
166 189 99
168 192 92
163 186 76
167 191 102
169 192 102
169 193 111
168 190 92
168 192 102
168 192 99
167 190 102
170 193 102
169 192 105
162 186 99
171 194 88
165 188 67
166 190 105
164 187 99
164 187 88
159 182 102
165 188 88
165 188 62
167 190 88
165 188 102
165 189 84
161 185 88
157 180 92
165 188 88
160 182 88
161 185 108
164 187 92
167 190 92
155 178 80
164 187 88
158 181 80
170 193 120
164 187 92
161 183 80
158 181 80
162 184 88
163 186 84
164 186 92
160 183 99
160 182 105
167 190 117
158 181 88
158 180 88
155 177 84
162 185 88
162 185 99
158 181 105
163 185 108
158 181 92
159 180 84
152 173 80
159 181 95
162 183 108
167 189 95
154 176 105
156 178 80
162 184 105
150 172 102
156 178 92
148 169 80
155 176 95
162 182 99
166 189 105
159 179 108
153 175 92
157 178 99
164 185 92
159 178 122
163 183 105
158 179 122
163 183 111
156 176 114
156 176 102
155 175 88
159 179 111
159 179 117
155 175 88
150 168 92
142 162 84
146 165 99
161 180 76
146 166 84
146 166 76
150 168 84
137 157 72
154 173 92
147 167 62
147 167 76
138 158 57
145 165 67
146 167 57
145 165 67
140 160 57
146 166 62
149 169 67
144 163 57
146 166 36
133 153 44
141 162 25
146 167 36
138 158 44
144 164 0
140 161 0
144 165 36
144 165 25
143 163 25
145 165 0
146 166 25
150 170 0
136 156 0
135 156 0
146 167 0
154 173 0
143 163 0
142 163 0
140 162 0
138 158 0
136 155 0
136 157 0
139 160 0
126 146 0
129 148 0
128 149 0
126 145 0
134 154 0
129 149 0
133 153 0
130 150 0
122 142 0
123 141 0
128 147 0
109 127 0
128 149 0
127 147 0
128 147 0
125 143 0
133 152 0
126 145 0
120 140 0
121 139 0
122 142 0
119 138 0
118 138 0
124 144 0
122 139 0
125 144 0
121 140 0
124 142 0
123 142 0
127 145 0
121 140 0
120 138 0
129 149 0
116 135 0
116 135 0
116 134 0
118 138 0
122 141 0
120 137 0
118 137 0
123 142 0
129 148 0
128 147 0
112 132 0
125 145 0
125 145 0
120 139 0
121 141 0
125 144 0
115 133 0
126 145 0
129 148 0
135 154 0
124 143 0
118 136 0
127 147 0
114 133 0
127 147 0
125 145 0
121 141 0
126 146 0
120 140 0
129 149 0
115 136 0
138 159 0
129 148 0
117 137 0
132 151 0
121 142 0
125 144 0
131 151 0
131 152 0
135 156 0
134 154 0
136 156 0
133 152 0
140 160 0
123 143 0
130 150 0
125 146 0
136 157 0
125 146 0
137 155 0
130 151 0
134 154 0
139 159 0
147 168 0
143 163 0
136 156 0
141 160 0
137 157 0
131 152 0
133 154 0
138 159 0
143 162 0
137 157 0
137 156 0
147 168 0
141 160 0
140 160 0
140 159 0
152 173 0
141 161 0
136 157 0
140 159 0
147 168 0
145 166 0
145 164 0
140 160 0
147 166 0
133 154 0
141 163 0
137 157 0
144 166 0
147 169 0
151 172 0
145 166 0
147 169 0
145 166 0
152 175 0
148 169 0
149 171 0
148 168 0
149 170 0
144 166 0
148 169 0
148 170 0
142 162 0
147 168 0
147 168 0
148 169 0
157 179 0
151 171 0
145 166 0
143 163 0
154 174 0
154 174 0
145 166 0
152 173 0
154 174 0
155 175 0
151 172 0
153 174 0
159 180 0
156 178 0
155 177 0
159 182 0
155 175 0
158 180 0
156 176 0
158 178 0
146 167 0
157 179 0
154 176 0
147 169 0
152 172 0
162 184 0
154 176 0
162 184 0
156 178 0
151 172 0
152 173 0
154 172 0
152 173 0
160 182 0
155 177 0
151 171 0
157 180 0
154 176 0
156 177 0
161 182 0
160 181 0
159 179 0
159 179 0
156 178 0
153 173 0
154 175 0
158 180 0
161 183 0
162 182 0
164 184 0
155 176 0
163 184 0
156 178 0
157 178 0
161 181 0
161 181 0
161 182 0
163 185 0
157 176 0
162 185 0
162 185 0
158 179 0
164 184 0
162 183 0
162 183 0
164 185 0
161 181 0
163 183 0
166 188 0
158 180 0
166 187 0
160 181 0
167 189 0
160 183 0
157 178 0
160 181 0
165 187 0
164 187 0
164 185 0
162 184 0
164 186 0
167 189 0
162 185 0
169 191 0
163 183 0
165 188 0
168 191 0
167 189 0
160 180 0
170 191 0
163 184 0
165 186 0
164 185 0
160 181 0
162 183 0
164 186 0
166 186 0
169 191 0
161 182 0
166 188 0
162 182 0
169 191 0
164 184 0
167 189 0
165 187 0
162 183 0
167 189 0
164 184 0
167 188 0
163 186 0
165 186 0
164 184 0
161 182 0
165 187 0
163 184 0
166 186 0
164 186 0
169 193 0
170 192 0
163 185 0
166 189 0
165 187 0
173 196 102
173 197 111
174 196 95
172 195 88
175 197 99
177 200 105
173 195 108
170 192 80
177 199 108
171 193 99
174 196 80
168 192 76
166 189 76
173 196 111
169 193 99
160 183 67
170 192 88
171 194 82
175 199 111
170 193 88
172 196 122
172 195 80
170 192 99
167 190 99
168 191 95
165 189 88
172 195 88
171 195 108
166 190 88
168 191 92
170 193 125
165 189 76
168 191 111
168 192 95
169 193 84
168 191 102
167 190 108
169 192 92
168 192 105
169 191 95
172 194 102
157 180 76
166 189 84
170 194 117
166 189 84
162 186 92
165 188 95
168 190 108
166 188 95
168 191 117
163 186 76
161 185 76
166 189 125
167 190 108
161 184 102
166 190 88
165 188 76
163 186 92
165 188 102
165 188 102
165 189 102
163 186 102
162 185 88
161 184 76
162 184 72
168 190 95
163 187 99
159 182 99
164 187 120
160 183 102
158 180 111
161 183 95
158 180 95
159 181 95
154 176 102
161 183 80
157 179 99
155 176 95
163 185 88
149 170 57
150 172 92
156 177 99
151 172 80
154 175 92
167 189 114
147 169 72
154 176 62
156 177 62
165 186 122
160 181 99
152 173 92
149 171 84
158 177 80
161 181 114
151 173 95
154 175 108
160 180 92
157 178 88
161 182 99
151 172 88
150 171 88
158 178 84
152 172 92
159 178 108
150 169 88
158 177 88
156 176 105
152 172 84
156 176 102
154 174 102
153 172 84
144 163 84
146 166 62
150 169 72
152 172 67
135 154 44
138 159 62
143 162 76
139 159 57
143 162 62
145 165 67
135 156 44
141 161 25
135 155 44
142 162 36
138 159 0
138 158 44
142 163 25
149 169 57
144 165 25
140 161 25
146 166 0
146 167 25
139 160 36
150 173 0
150 171 0
143 164 0
140 162 0
159 181 0
142 162 0
141 161 0
147 168 0
143 165 0
138 159 0
140 160 0
141 161 0
125 147 0
128 149 0
140 160 0
124 144 0
128 148 0
132 152 0
134 153 0
131 151 0
129 150 0
134 154 0
132 151 0
132 151 0
124 144 0
126 146 0
124 142 0
121 140 0
134 154 0
136 155 0
138 159 0
135 154 0
124 144 0
124 143 0
127 146 0
123 142 0
129 149 0
119 138 0
112 131 0
128 146 0
126 145 0
127 147 0
111 130 0
118 137 0
131 150 0
114 134 0
123 142 0
123 143 0
121 140 0
125 145 0
139 158 0
131 151 0
122 141 0
103 121 0
125 145 0
117 136 0
108 128 0
111 131 0
125 144 0
120 139 0
130 149 0
133 152 0
131 151 0
121 139 0
115 134 0
126 146 0
128 148 0
122 142 0
131 150 0
122 140 0
121 141 0
131 151 0
126 146 0
137 157 0
131 151 0
129 148 0
134 154 0
130 148 0
129 149 0
141 162 0
130 149 0
141 162 0
130 149 0
123 144 0
125 144 0
141 162 0
126 147 0
137 158 0
140 160 0
125 145 0
134 154 0
147 167 0
136 156 0
133 154 0
144 165 0
134 154 0
147 168 0
136 157 0
137 158 0
137 159 0
129 148 0
147 168 0
136 157 0
145 165 0
143 164 0
140 160 0
140 159 0
132 153 0
143 164 0
142 163 0
146 166 0
135 154 0
133 153 0
144 163 0
144 165 0
135 155 0
144 166 0
148 168 0
141 160 0
144 166 0
147 169 0
146 165 0
144 166 0
145 164 0
147 168 0
146 168 0
141 163 0
141 162 0
140 161 0
148 170 0
150 170 0
142 163 0
149 170 0
148 169 0
141 163 0
151 172 0
145 166 0
142 162 0
155 176 0
151 172 0
155 177 0
150 172 0
149 170 0
154 174 0
153 175 0
152 172 0
150 172 0
156 178 0
149 170 0
143 163 0
152 173 0
152 173 0
144 165 0
152 173 0
156 176 0
153 174 0
151 173 0
151 172 0
153 175 0
155 176 0
152 174 0
157 179 0
151 172 0
152 173 0
159 180 0
148 169 0
159 180 0
153 173 0
157 178 0
151 172 0
158 179 0
157 179 0
152 172 0
158 179 0
162 183 0
158 180 0
159 180 0
157 178 0
161 183 0
153 175 0
153 175 0
161 184 0
154 175 0
165 186 0
157 178 0
150 171 0
157 179 0
151 171 0
162 184 0
158 180 0
159 180 0
158 178 0
157 179 0
159 180 0
156 176 0
159 181 0
151 171 0
161 183 0
162 183 0
158 179 0
160 182 0
161 181 0
157 179 0
163 185 0
164 185 0
158 179 0
159 181 0
165 186 0
166 189 0
158 179 0
164 185 0
162 183 0
163 185 0
159 180 0
164 185 0
160 180 0
164 186 0
164 186 0
159 180 0
162 185 0
165 185 0
159 179 0
162 183 0
169 190 0
153 172 0
158 180 0
165 186 0
162 183 0
165 187 0
169 192 0
163 186 0
164 186 0
166 188 0
166 188 0
164 184 0
163 185 0
168 188 0
168 190 0
163 185 0
163 184 0
168 190 0
164 186 0
166 187 0
164 186 0
164 186 0
167 188 0
161 182 0
162 184 0
159 180 0
164 184 0
169 191 0
165 186 0
168 190 0
163 184 0
169 191 0
167 188 0
166 188 0
162 184 0
166 187 0
164 187 0
168 190 0
165 187 0
166 189 0
165 187 0
168 191 0
165 186 0
176 199 105
177 199 114
172 196 108
174 197 92
176 199 99
177 200 99
167 190 72
172 196 84
173 196 80
169 192 76
171 194 80
174 197 105
173 197 99
168 191 88
167 191 88
171 193 80
168 191 76
172 195 95
172 195 99
170 193 99
166 189 67
172 196 92
169 193 99
170 194 84
167 190 88
171 195 88
171 194 99
166 190 84
171 194 92
169 194 108
166 189 108
169 192 84
176 199 99
165 189 92
174 196 122
170 192 92
162 186 92
164 187 95
167 190 84
166 190 111
164 187 80
165 189 92
164 187 72
167 191 99
161 184 111
165 188 88
171 193 99
162 185 88
165 188 111
166 189 114
166 188 72
167 190 117
166 189 95
164 187 88
164 188 117
169 192 95
164 187 108
161 184 95
160 183 80
158 180 92
166 189 88
168 191 102
162 185 92
166 188 99
158 180 84
165 186 88
170 193 108
154 177 80
167 189 99
162 185 72
155 177 84
160 183 95
168 189 99
160 183 92
160 181 84
162 184 102
152 175 80
167 189 108
168 190 108
166 189 105
161 183 99
163 184 99
157 179 99
164 186 95
158 179 99
159 181 95
157 178 95
161 182 99
156 177 102
157 179 102
151 172 92
161 182 108
151 172 99
157 178 88
151 172 108
148 168 95
159 180 114
166 186 99
157 177 99
154 174 92
158 178 99
152 172 95
146 166 88
161 181 99
145 165 84
145 165 95
140 161 62
148 168 76
162 181 108
148 168 76
146 166 84
145 164 76
142 162 57
145 166 84
151 171 72
143 162 57
139 159 51
146 165 62
140 161 44
134 155 0
139 159 62
151 172 57
142 162 62
148 169 62
137 157 51
138 160 36
141 160 36
141 163 51
139 161 0
150 170 0
141 163 0
149 170 25
154 176 25
155 176 0
147 168 25
141 163 0
142 163 0
148 170 0
142 163 0
143 165 0
146 167 0
143 164 0
147 168 0
139 161 0
142 163 0
132 152 0
141 162 0
133 153 0
139 160 0
134 153 0
127 147 0
128 149 0
119 139 0
122 141 0
134 154 0
136 156 0
129 148 0
135 154 0
131 150 0
134 154 0
115 134 0
139 158 0
129 149 0
127 146 0
126 145 0
116 136 0
131 150 0
121 141 0
121 141 0
123 142 0
118 138 0
129 148 0
126 145 0
116 135 0
114 133 0
129 148 0
126 145 0
138 158 0
125 144 0
127 147 0
123 142 0
123 143 0
125 145 0
129 149 0
132 152 0
126 144 0
127 146 0
125 144 0
133 152 0
122 140 0
125 144 0
131 151 0
128 147 0
122 140 0
127 147 0
114 135 0
120 141 0
116 136 0
114 133 0
117 137 0
127 145 0
112 132 0
128 148 0
133 153 0
131 151 0
134 153 0
136 155 0
136 156 0
131 152 0
119 138 0
131 151 0
127 147 0
127 147 0
134 154 0
131 151 0
125 145 0
126 144 0
140 160 0
139 159 0
132 151 0
129 149 0
119 139 0
139 159 0
134 153 0
135 155 0
135 155 0
135 155 0
137 158 0
138 157 0
146 167 0
132 152 0
140 160 0
133 154 0
140 162 0
131 153 0
144 164 0
136 156 0
135 156 0
149 169 0
139 160 0
142 164 0
138 157 0
145 164 0
143 163 0
141 161 0
142 162 0
141 161 0
140 160 0
135 156 0
144 165 0
142 163 0
147 168 0
147 167 0
138 158 0
145 165 0
153 173 0
137 157 0
147 169 0
148 169 0
151 171 0
140 162 0
147 168 0
151 172 0
151 173 0
146 167 0
149 170 0
152 172 0
146 166 0
151 173 0
147 167 0
151 172 0
149 170 0
146 168 0
151 171 0
147 167 0
152 173 0
155 177 0
152 170 0
152 174 0
147 169 0
152 173 0
148 170 0
159 180 0
154 175 0
152 173 0
156 177 0
155 176 0
151 172 0
148 170 0
159 180 0
145 168 0
155 177 0
150 172 0
151 173 0
147 170 0
149 170 0
155 174 0
157 179 0
160 182 0
159 179 0
156 178 0
159 182 0
163 183 0
154 174 0
164 186 0
158 180 0
158 179 0
157 179 0
156 177 0
157 178 0
152 173 0
156 177 0
151 171 0
158 179 0
154 175 0
160 182 0
162 183 0
156 178 0
156 177 0
156 178 0
161 182 0
162 183 0
155 178 0
160 182 0
160 183 0
154 176 0
161 184 0
154 176 0
159 181 0
162 184 0
162 183 0
161 182 0
156 178 0
159 181 0
160 182 0
157 178 0
155 176 0
154 174 0
157 179 0
160 181 0
163 183 0
159 181 0
163 183 0
161 183 0
168 189 0
159 180 0
161 183 0
157 178 0
165 187 0
163 184 0
163 185 0
166 188 0
166 186 0
163 185 0
157 179 0
168 190 0
158 178 0
164 184 0
161 182 0
162 183 0
167 189 0
161 183 0
160 181 0
162 184 0
159 179 0
163 185 0
166 186 0
165 188 0
166 187 0
168 189 0
162 184 0
162 186 0
167 189 0
164 185 0
164 185 0
164 185 0
170 192 0
162 184 0
164 187 0
163 184 0
162 181 0
164 188 0
162 185 0
162 185 0
164 186 0
169 191 0
165 185 0
165 186 0
163 185 0
161 183 0
164 186 0
166 188 0
167 189 0
167 189 0
168 190 0
168 191 0
165 187 0
165 187 0
169 191 0
165 185 0
170 194 80
175 198 92
170 193 111
174 196 108
179 201 114
173 196 88
170 193 57
170 193 88
175 198 102
173 196 105
173 197 114
169 193 92
170 193 102
166 190 84
175 198 95
172 195 92
172 196 102
173 196 99
168 192 88
172 195 72
168 191 95
166 190 102
168 191 84
167 190 88
171 194 108
176 199 105
169 192 80
164 186 88
168 192 95
168 192 92
164 187 102
171 195 95
167 190 92
169 192 88
167 190 102
166 190 99
162 186 111
163 186 88
166 189 92
165 188 99
167 190 84
168 191 88
164 187 105
162 185 95
161 184 76
171 194 105
171 193 92
161 184 84
160 183 62
168 191 95
170 192 120
164 187 105
167 189 114
165 187 92
168 191 111
171 194 117
168 192 114
163 186 95
160 183 102
165 188 88
165 187 108
163 186 111
162 185 108
165 188 111
168 191 108
165 188 99
165 188 105
162 184 99
156 179 88
170 192 105
158 180 80
162 184 95
159 182 88
161 184 99
159 182 80
152 174 95
158 179 105
152 174 76
163 185 108
157 178 88
167 188 117
154 175 95
158 178 95
154 175 99
154 175 72
157 178 84
153 174 92
153 174 92
158 179 95
161 183 102
156 177 88
156 177 99
155 176 88
160 181 88
157 178 102
146 168 72
152 173 99
162 183 102
153 173 102
152 172 105
145 166 76
158 179 88
161 182 84
152 172 80
161 181 102
143 162 80
155 174 102
146 167 72
142 162 84
142 162 62
147 166 88
152 171 88
152 173 88
148 168 80
146 166 62
142 161 51
140 160 72
145 166 67
145 164 62
140 160 51
142 162 57
137 156 51
140 161 36
141 161 36
143 164 57
153 175 25
135 157 0
140 161 51
147 168 36
150 171 0
136 157 36
151 172 36
148 170 0
143 165 0
150 171 0
132 154 25
153 174 0
148 170 0
150 172 0
150 171 0
144 165 0
140 162 0
143 164 0
146 168 0
143 164 0
135 155 0
140 161 0
140 161 0
134 155 0
127 148 0
135 154 0
131 152 0
129 148 0
129 149 0
135 155 0
135 155 0
130 150 0
133 152 0
134 154 0
127 146 0
124 143 0
126 145 0
128 147 0
127 146 0
119 138 0
120 140 0
129 149 0
124 144 0
115 134 0
115 135 0
127 146 0
140 159 0
130 150 0
121 142 0
121 141 0
126 146 0
112 130 0
136 156 0
135 155 0
134 152 0
129 149 0
122 142 0
123 142 0
123 143 0
127 147 0
126 145 0
129 149 0
123 143 0
129 149 0
126 145 0
123 142 0
125 144 0
123 143 0
122 142 0
133 153 0
116 136 0
135 156 0
129 148 0
132 150 0
120 139 0
129 149 0
125 145 0
126 146 0
131 152 0
124 144 0
127 147 0
128 148 0
132 152 0
135 156 0
127 148 0
133 155 0
133 152 0
125 144 0
132 153 0
134 153 0
135 155 0
127 147 0
136 156 0
132 153 0
134 155 0
138 158 0
132 152 0
132 152 0
135 155 0
135 157 0
125 145 0
138 159 0
139 160 0
132 153 0
140 160 0
142 163 0
140 160 0
137 156 0
142 162 0
137 157 0
142 162 0
135 156 0
150 172 0
138 159 0
138 160 0
146 166 0
138 157 0
142 162 0
137 158 0
141 161 0
147 169 0
144 165 0
147 168 0
134 154 0
134 154 0
150 170 0
145 165 0
138 159 0
148 168 0
141 162 0
149 171 0
150 171 0
150 171 0
141 162 0
141 162 0
148 166 0
145 165 0
148 169 0
146 167 0
151 172 0
149 170 0
145 167 0
150 171 0
149 169 0
146 168 0
146 167 0
149 172 0
151 172 0
157 178 0
150 171 0
157 178 0
146 167 0
149 169 0
151 172 0
146 168 0
148 171 0
151 171 0
152 173 0
148 168 0
155 176 0
153 175 0
143 164 0
155 177 0
154 175 0
153 174 0
161 183 0
152 173 0
150 171 0
152 172 0
150 172 0
145 166 0
156 178 0
151 172 0
160 182 0
155 178 0
157 178 0
158 179 0
154 174 0
158 181 0
153 173 0
155 177 0
153 175 0
159 180 0
157 177 0
161 181 0
156 178 0
152 172 0
159 179 0
160 181 0
159 182 0
156 177 0
162 184 0
159 180 0
158 178 0
158 179 0
161 182 0
162 182 0
164 185 0
155 176 0
156 178 0
152 174 0
164 186 0
150 170 0
160 182 0
159 180 0
160 182 0
156 177 0
165 186 0
162 185 0
158 179 0
158 180 0
163 185 0
163 185 0
161 183 0
156 175 0
162 185 0
160 182 0
157 178 0
167 190 0
161 181 0
158 179 0
165 186 0
164 186 0
157 179 0
165 186 0
154 175 0
163 184 0
157 178 0
165 187 0
161 182 0
158 179 0
162 184 0
164 185 0
163 183 0
164 187 0
161 183 0
163 186 0
160 181 0
168 190 0
168 191 0
163 185 0
157 179 0
162 183 0
162 183 0
167 189 0
160 181 0
161 183 0
164 184 0
168 189 0
165 187 0
167 189 0
163 184 0
166 189 0
165 188 0
167 189 0
162 183 0
163 184 0
163 184 0
162 183 0
166 188 0
170 192 0
170 193 0
166 188 0
164 186 0
166 189 0
165 188 0
160 181 0
163 183 0
163 184 0
168 188 0
168 191 0
165 187 0
168 190 0
166 189 0
166 188 0
175 198 120
175 197 105
175 197 84
170 193 95
177 200 111
164 186 76
176 200 114
171 194 105
172 195 99
171 194 105
169 192 80
172 196 99
170 194 108
175 198 111
172 195 88
172 195 95
174 198 108
172 196 108
166 190 105
171 193 108
166 189 84
169 192 99
170 193 92
170 194 88
174 197 105
164 188 102
171 192 80
170 194 102
170 193 92
169 192 105
168 192 88
171 194 130
166 189 84
171 195 102
164 187 92
168 192 99
170 193 99
164 188 84
162 185 92
170 193 105
166 189 92
167 190 88
164 187 95
169 193 117
163 187 105
170 193 102
168 191 88
168 191 88
165 188 108
168 190 102
166 190 88
167 190 92
164 187 72
163 186 88
161 184 99
157 180 72
165 187 88
161 184 92
159 182 105
162 185 102
160 182 80
164 186 84
166 189 108
168 190 102
164 187 80
165 187 102
161 183 72
173 196 130
159 180 92
162 184 95
165 187 105
159 181 88
166 189 120
167 189 108
164 186 95
165 186 92
158 179 102
163 185 99
164 186 99
154 175 108
155 177 84
153 174 92
161 183 88
155 177 84
164 185 117
157 178 102
158 180 95
166 188 105
163 184 117
154 176 99
156 178 84
159 180 102
164 185 99
158 179 76
154 175 92
159 180 95
153 173 92
148 168 99
152 173 95
150 171 92
157 177 95
146 166 84
163 182 108
161 181 84
161 182 84
159 179 99
153 173 84
154 174 88
145 164 88
159 179 88
157 176 80
137 157 67
149 169 76
144 165 67
146 166 80
138 159 44
137 156 57
141 160 57
141 160 57
144 164 51
140 160 57
152 174 62
145 165 25
149 168 36
141 162 36
148 168 36
148 169 25
142 163 44
145 166 51
148 169 0
140 161 36
155 175 36
146 167 0
143 163 0
149 170 36
153 175 25
148 168 0
135 157 0
151 172 0
148 169 0
148 169 0
145 167 0
140 161 0
142 163 0
135 156 0
139 160 0
135 156 0
129 149 0
136 156 0
137 157 0
134 155 0
139 159 0
133 152 0
132 152 0
123 143 0
131 151 0
131 153 0
122 142 0
131 152 0
135 155 0
119 140 0
133 153 0
119 139 0
111 130 0
124 143 0
114 133 0
125 145 0
122 142 0
136 155 0
135 154 0
127 146 0
127 146 0
116 136 0
130 150 0
124 143 0
137 158 0
115 135 0
138 158 0
126 144 0
129 149 0
131 151 0
127 146 0
125 146 0
125 144 0
133 152 0
123 143 0
124 144 0
137 158 0
125 145 0
120 139 0
134 154 0
134 154 0
120 138 0
123 143 0
126 147 0
129 148 0
124 144 0
126 146 0
123 143 0
129 149 0
124 144 0
125 145 0
120 141 0
136 156 0
131 151 0
132 152 0
129 149 0
125 145 0
127 146 0
121 141 0
134 154 0
132 153 0
132 151 0
127 146 0
135 156 0
130 150 0
138 160 0
138 158 0
138 157 0
136 157 0
131 152 0
133 154 0
136 158 0
133 155 0
134 156 0
142 163 0
139 159 0
137 158 0
136 156 0
144 164 0
137 157 0
135 155 0
135 155 0
133 153 0
143 164 0
145 164 0
148 170 0
147 168 0
140 162 0
144 165 0
139 159 0
140 162 0
142 165 0
143 163 0
137 158 0
151 171 0
144 164 0
137 158 0
142 163 0
143 165 0
140 160 0
150 172 0
147 169 0
143 164 0
153 175 0
141 163 0
144 165 0
148 169 0
144 165 0
150 171 0
150 171 0
145 166 0
150 171 0
145 166 0
143 165 0
151 172 0
155 175 0
152 174 0
147 169 0
152 174 0
146 167 0
148 170 0
159 180 0
148 169 0
152 174 0
150 173 0
150 171 0
151 173 0
150 171 0
153 174 0
157 178 0
149 171 0
151 172 0
153 175 0
155 176 0
151 173 0
159 181 0
156 179 0
149 170 0
153 174 0
157 178 0
154 176 0
148 170 0
157 178 0
156 178 0
152 172 0
157 178 0
156 177 0
157 178 0
159 180 0
157 178 0
156 179 0
158 179 0
149 170 0
151 172 0
154 176 0
160 183 0
157 179 0
157 177 0
159 181 0
155 177 0
157 178 0
159 181 0
154 175 0
162 184 0
155 176 0
157 176 0
161 184 0
163 185 0
159 179 0
164 186 0
159 179 0
157 178 0
159 182 0
165 186 0
164 185 0
162 183 0
166 188 0
159 180 0
159 183 0
160 180 0
151 173 0
165 187 0
160 183 0
163 184 0
159 182 0
165 186 0
157 179 0
164 185 0
161 182 0
161 183 0
160 182 0
166 188 0
160 183 0
164 186 0
162 183 0
161 183 0
163 185 0
164 185 0
165 187 0
165 187 0
166 187 0
161 181 0
165 186 0
165 188 0
163 184 0
158 179 0
166 188 0
159 180 0
162 182 0
165 186 0
161 183 0
164 187 0
159 180 0
167 190 0
163 185 0
168 190 0
166 187 0
162 183 0
162 185 0
166 189 0
166 187 0
163 184 0
165 186 0
167 190 0
163 184 0
163 186 0
168 191 0
165 186 0
158 180 0
165 185 0
162 184 0
167 189 0
161 184 0
163 186 0
166 189 0
166 188 0
164 186 0
165 187 0
163 185 0
166 189 0
165 187 0
162 185 0
164 184 0
168 190 0
162 185 0
164 188 0
166 188 0
166 187 0
168 191 0
172 195 84
177 199 111
177 200 105
172 195 102
176 199 102
172 195 88
177 199 102
170 194 76
170 193 88
171 194 95
172 195 84
170 193 95
169 192 72
177 199 120
172 195 108
167 190 99
170 193 84
171 194 92
170 193 95
164 186 84
171 194 95
168 192 88
170 193 95
171 194 111
167 190 88
169 193 92
169 192 99
168 191 111
169 192 92
168 191 95
164 187 88
168 191 99
162 186 84
168 192 108
168 192 99
171 195 120
170 194 117
168 191 95
167 190 105
172 195 95
167 189 88
164 187 92
167 190 88
160 183 111
166 189 88
169 193 111
171 194 108
170 193 99
169 192 99
165 188 95
164 186 95
166 190 111
158 181 95
166 189 105
162 185 84
162 184 92
163 186 88
166 189 99
163 185 92
166 189 102
160 182 102
154 176 84
165 188 99
164 187 108
165 188 105
159 182 105
164 187 102
158 181 111
161 183 92
158 180 95
161 184 111
160 182 108
159 180 80
161 183 108
165 187 117
159 181 80
159 182 105
159 181 88
160 182 99
153 176 92
158 178 76
154 175 102
158 180 95
153 175 95
159 181 102
157 178 95
154 176 84
161 182 102
163 184 88
149 169 92
158 179 92
162 184 99
153 174 80
154 174 105
155 175 111
164 185 95
154 175 84
148 168 80
159 179 92
155 175 105
155 176 67
159 180 99
150 170 88
153 173 95
156 176 76
152 172 99
154 174 84
160 179 114
150 170 76
155 174 67
148 169 67
152 172 80
148 168 51
149 169 72
142 162 25
147 167 72
151 171 57
147 169 51
145 166 51
145 165 57
143 164 51
136 156 36
137 158 51
143 164 51
135 156 44
144 165 25
147 169 36
145 167 0
148 169 25
154 175 36
145 166 36
153 174 25
148 170 25
151 173 25
148 170 25
148 170 0
144 166 0
148 171 0
142 164 0
149 170 0
150 173 0
149 170 0
137 158 0
146 167 0
142 164 0
132 152 0
129 150 0
115 136 0
141 162 0
127 146 0
128 148 0
132 151 0
121 142 0
134 155 0
124 144 0
139 159 0
137 157 0
132 153 0
140 161 0
137 157 0
132 152 0
127 148 0
128 148 0
126 146 0
135 156 0
120 140 0
126 147 0
109 129 0
124 144 0
122 143 0
128 147 0
126 146 0
134 154 0
134 154 0
123 143 0
137 157 0
134 154 0
129 149 0
131 152 0
128 148 0
129 148 0
130 150 0
133 151 0
113 133 0
128 147 0
124 143 0
130 149 0
133 154 0
122 142 0
137 155 0
140 160 0
128 149 0
136 155 0
129 148 0
128 149 0
120 140 0
139 160 0
125 145 0
124 143 0
128 148 0
131 151 0
122 141 0
128 148 0
141 161 0
126 146 0
133 154 0
143 163 0
149 170 0
134 154 0
129 150 0
138 160 0
132 153 0
140 159 0
131 152 0
134 155 0
138 158 0
137 156 0
132 154 0
131 150 0
134 155 0
132 153 0
126 145 0
140 161 0
136 157 0
130 150 0
139 160 0
148 169 0
136 155 0
137 159 0
134 156 0
140 159 0
142 162 0
145 165 0
141 162 0
145 166 0
144 165 0
142 165 0
138 158 0
135 154 0
146 168 0
139 159 0
141 160 0
138 158 0
139 160 0
137 158 0
147 169 0
145 166 0
136 156 0
139 161 0
142 163 0
138 158 0
144 164 0
145 166 0
146 167 0
143 164 0
140 161 0
148 168 0
151 173 0
152 174 0
148 168 0
145 166 0
154 175 0
155 178 0
151 171 0
152 174 0
155 175 0
150 171 0
149 170 0
151 172 0
151 172 0
146 167 0
156 179 0
154 176 0
149 170 0
146 167 0
154 176 0
147 169 0
148 169 0
152 173 0
154 175 0
156 178 0
153 174 0
155 176 0
150 172 0
150 172 0
153 174 0
147 170 0
156 177 0
157 179 0
160 182 0
156 179 0
157 178 0
157 179 0
156 178 0
160 183 0
154 176 0
159 179 0
155 176 0
157 178 0
153 175 0
155 176 0
155 177 0
165 187 0
158 180 0
159 181 0
150 171 0
159 180 0
159 180 0
152 173 0
158 180 0
156 177 0
160 180 0
159 181 0
158 179 0
155 178 0
158 181 0
160 181 0
161 183 0
162 184 0
153 173 0
163 183 0
159 181 0
157 178 0
153 175 0
160 180 0
160 182 0
158 179 0
155 177 0
160 183 0
160 181 0
159 181 0
160 182 0
158 179 0
160 181 0
160 182 0
164 185 0
162 182 0
158 180 0
158 180 0
163 185 0
165 186 0
162 184 0
162 183 0
164 187 0
157 180 0
162 184 0
162 184 0
164 185 0
162 183 0
162 183 0
160 181 0
163 184 0
166 188 0
161 182 0
159 179 0
160 182 0
161 183 0
163 186 0
166 188 0
161 183 0
162 183 0
167 188 0
156 177 0
167 188 0
166 188 0
165 186 0
160 182 0
166 188 0
163 185 0
169 191 0
162 184 0
166 187 0
161 185 0
164 186 0
165 186 0
167 191 0
161 181 0
164 185 0
169 190 0
169 191 0
168 190 0
167 189 0
169 191 0
162 184 0
169 191 0
165 186 0
168 191 0
166 189 0
167 189 0
166 188 0
165 187 0
163 185 0
166 187 0
169 189 0
167 190 0
169 191 0
168 191 0
165 188 0
170 193 0
166 189 0
173 196 76
175 197 95
175 198 122
175 198 92
175 198 99
175 199 95
175 197 108
175 197 105
170 193 88
169 192 102
172 195 102
172 196 102
172 196 88
171 195 90
166 190 95
168 191 88
168 192 102
169 193 95
167 190 76
173 196 128
170 193 95
176 199 111
168 192 84
170 194 102
165 188 76
166 191 108
166 189 88
174 198 114
169 192 80
170 193 105
165 188 92
173 196 102
167 191 108
166 189 105
169 192 99
168 191 102
167 190 92
173 195 88
164 188 76
165 187 92
163 186 84
167 189 80
170 192 92
161 185 88
171 194 95
163 185 80
157 180 84
165 187 88
170 193 128
160 183 88
158 181 84
165 188 92
170 193 99
164 187 99
168 191 102
165 187 111
166 188 102
167 190 95
169 192 88
163 186 105
155 178 72
162 184 84
166 188 92
160 182 102
162 185 84
160 183 122
166 187 102
164 187 95
155 178 76
170 192 99
163 185 114
163 185 99
166 187 92
162 184 95
159 181 88
162 184 92
166 188 114
166 187 105
157 178 88
160 181 102
159 180 84
163 184 105
158 180 95
163 185 111
161 181 114
165 186 99
160 181 76
151 172 88
162 183 102
161 182 102
154 176 92
156 177 88
157 177 92
158 179 88
161 181 105
164 185 95
147 168 84
163 183 105
166 186 120
153 173 88
158 178 95
167 186 95
158 179 95
151 171 80
154 174 92
153 175 76
155 176 80
154 174 62
156 175 84
148 169 62
153 172 88
142 163 62
150 170 88
147 168 57
151 171 51
151 172 67
153 174 62
143 164 72
147 168 25
151 172 57
143 165 36
141 161 57
156 178 36
142 163 44
141 163 25
149 169 36
149 169 25
144 165 51
150 171 44
151 173 25
137 159 36
149 170 0
146 168 0
144 166 25
153 175 0
154 176 0
149 169 0
140 161 0
143 164 0
146 166 0
146 167 0
148 169 0
141 164 0
144 164 0
146 167 0
136 157 0
131 153 0
140 161 0
142 163 0
137 158 0
121 140 0
140 160 0
138 158 0
139 159 0
138 159 0
134 153 0
132 153 0
127 147 0
113 134 0
131 151 0
119 139 0
131 150 0
129 149 0
131 151 0
129 149 0
124 143 0
137 157 0
134 156 0
148 168 0
121 141 0
126 147 0
125 145 0
129 149 0
126 146 0
130 150 0
137 157 0
124 144 0
128 149 0
131 151 0
123 143 0
144 165 0
130 151 0
139 159 0
128 148 0
129 149 0
128 146 0
120 139 0
123 142 0
128 148 0
124 144 0
137 157 0
134 153 0
126 144 0
122 142 0
132 152 0
130 150 0
126 147 0
136 155 0
136 156 0
132 153 0
138 159 0
133 153 0
138 156 0
135 154 0
137 159 0
133 153 0
140 160 0
148 169 0
134 155 0
138 157 0
135 156 0
145 166 0
132 153 0
134 154 0
138 159 0
140 161 0
126 146 0
135 156 0
135 156 0
125 147 0
141 162 0
139 160 0
135 156 0
132 153 0
141 162 0
140 160 0
146 167 0
133 154 0
146 167 0
137 158 0
148 168 0
136 157 0
144 165 0
142 161 0
141 162 0
138 159 0
140 161 0
134 156 0
131 151 0
139 160 0
148 169 0
148 170 0
142 164 0
150 171 0
145 166 0
139 160 0
148 169 0
152 174 0
145 166 0
144 163 0
147 168 0
145 165 0
151 171 0
144 164 0
150 172 0
152 174 0
143 165 0
145 166 0
143 164 0
139 160 0
144 165 0
148 169 0
148 170 0
155 176 0
144 166 0
149 170 0
145 166 0
151 172 0
152 173 0
148 169 0
157 179 0
153 175 0
154 177 0
146 167 0
155 177 0
150 171 0
144 165 0
151 173 0
154 175 0
157 179 0
153 173 0
152 174 0
150 171 0
155 177 0
157 179 0
154 176 0
146 166 0
151 172 0
159 181 0
147 168 0
154 176 0
152 174 0
159 180 0
146 167 0
156 178 0
156 179 0
160 182 0
159 182 0
160 182 0
156 177 0
158 178 0
159 181 0
147 168 0
161 181 0
157 178 0
155 177 0
160 180 0
156 177 0
159 182 0
152 173 0
154 176 0
158 181 0
163 184 0
168 191 0
158 179 0
161 184 0
158 177 0
158 180 0
157 177 0
161 181 0
161 183 0
159 181 0
157 177 0
165 187 0
160 181 0
163 184 0
165 188 0
159 180 0
156 177 0
159 180 0
161 182 0
160 182 0
163 185 0
154 175 0
160 182 0
160 182 0
161 183 0
161 182 0
165 186 0
159 182 0
165 187 0
164 186 0
157 178 0
160 181 0
164 186 0
160 181 0
166 186 0
163 184 0
167 189 0
161 182 0
162 183 0
163 184 0
162 183 0
162 185 0
161 180 0
162 184 0
164 186 0
162 185 0
168 191 0
161 184 0
167 188 0
165 186 0
167 188 0
165 188 0
167 187 0
168 190 0
165 188 0
164 187 0
167 190 0
162 183 0
169 190 0
164 185 0
166 189 0
161 183 0
167 189 0
163 185 0
167 188 0
167 189 0
166 189 0
163 185 0
166 188 0
167 189 0
171 193 0
165 186 0
168 189 0
167 188 0
163 184 0
167 189 0
165 188 0
164 187 0
167 188 0
165 188 0
169 191 0
166 189 0
164 186 0
166 189 0
167 189 0
166 189 0
162 184 0
162 186 0
173 197 108
172 195 92
170 193 102
166 189 84
170 194 95
169 192 57
171 194 88
173 196 102
176 199 108
175 198 95
174 197 92
170 193 99
166 189 102
174 196 99
171 194 72
170 193 92
167 191 84
167 190 105
169 193 80
172 195 102
174 197 102
161 185 80
168 191 88
166 189 88
168 191 84
166 188 76
172 195 105
168 191 111
175 198 102
176 199 120
167 190 99
173 196 105
164 187 99
169 192 111
165 188 88
165 188 92
169 191 84
170 193 108
168 190 117
162 185 92
167 190 88
166 189 120
159 182 72
168 191 84
169 192 99
165 188 105
166 189 111
164 186 88
165 188 84
168 190 105
166 189 102
166 189 99
166 188 99
166 190 99
164 187 88
166 190 105
158 181 76
161 183 92
166 190 95
164 187 80
161 184 102
163 185 76
163 186 88
161 183 95
163 186 92
167 189 95
158 181 88
164 187 84
165 187 95
162 184 102
162 184 114
159 181 95
161 183 67
165 188 111
165 187 88
163 185 108
158 180 95
159 180 102
161 184 92
159 181 88
156 177 88
159 180 99
156 179 67
158 180 80
155 177 117
161 183 102
167 188 99
166 186 111
149 171 80
160 181 102
165 185 99
155 176 122
157 178 99
153 173 84
165 185 130
154 175 99
156 175 102
164 183 108
166 185 117
153 174 84
149 170 67
160 181 92
156 176 84
146 166 80
151 171 84
148 168 88
149 170 88
153 174 92
150 170 84
148 167 95
145 165 62
160 181 84
150 170 88
150 170 72
146 167 51
144 164 72
149 170 36
150 171 67
152 173 62
145 165 62
152 172 51
143 164 44
150 170 44
148 168 62
132 153 44
151 171 44
144 166 44
141 162 25
148 169 67
148 170 25
148 169 44
147 169 36
151 171 25
148 170 0
158 180 25
144 165 0
152 173 0
148 170 0
158 180 0
148 169 0
150 172 0
149 171 0
144 166 0
147 168 0
152 173 0
141 161 0
135 157 0
152 174 0
135 157 0
125 145 0
134 155 0
137 157 0
146 166 0
137 158 0
126 147 0
123 143 0
134 153 0
133 153 0
131 152 0
141 161 0
133 153 0
118 139 0
135 154 0
132 152 0
133 154 0
133 153 0
125 145 0
124 143 0
125 146 0
131 151 0
122 143 0
138 158 0
131 151 0
125 145 0
136 156 0
138 159 0
130 151 0
132 152 0
136 157 0
120 139 0
126 144 0
130 150 0
123 143 0
115 134 0
133 153 0
125 145 0
124 145 0
124 144 0
129 151 0
129 149 0
132 152 0
136 157 0
141 162 0
133 153 0
130 150 0
130 151 0
127 147 0
135 155 0
126 146 0
124 144 0
128 148 0
137 157 0
143 163 0
126 146 0
134 153 0
135 156 0
135 156 0
127 148 0
123 143 0
131 152 0
138 159 0
138 159 0
142 163 0
134 155 0
141 162 0
129 150 0
133 154 0
138 160 0
137 157 0
140 161 0
136 156 0
143 162 0
140 161 0
137 156 0
141 164 0
139 161 0
146 167 0
138 160 0
150 170 0
143 164 0
131 150 0
139 159 0
138 160 0
147 168 0
140 162 0
144 165 0
138 159 0
141 162 0
141 161 0
140 161 0
145 166 0
153 176 0
138 160 0
140 161 0
143 165 0
146 168 0
140 161 0
149 169 0
151 172 0
145 166 0
144 165 0
145 166 0
143 164 0
140 160 0
147 168 0
147 169 0
149 170 0
142 163 0
146 167 0
154 175 0
148 170 0
148 170 0
149 172 0
147 167 0
142 162 0
142 163 0
155 176 0
145 166 0
152 174 0
145 167 0
150 172 0
150 170 0
153 175 0
147 169 0
145 167 0
156 176 0
155 176 0
154 176 0
153 175 0
145 167 0
154 176 0
153 174 0
150 172 0
154 175 0
156 177 0
160 181 0
156 177 0
149 170 0
153 175 0
151 171 0
147 168 0
148 168 0
158 179 0
153 173 0
156 177 0
158 179 0
157 179 0
158 180 0
156 177 0
157 178 0
153 175 0
157 179 0
155 176 0
159 181 0
159 179 0
152 173 0
158 179 0
159 180 0
158 179 0
156 177 0
161 182 0
158 179 0
160 182 0
159 182 0
165 188 0
154 176 0
162 184 0
158 180 0
163 183 0
161 181 0
163 184 0
162 183 0
161 183 0
164 185 0
161 182 0
158 181 0
158 180 0
163 185 0
166 188 0
159 180 0
160 181 0
162 184 0
155 177 0
167 189 0
161 182 0
159 181 0
160 182 0
162 183 0
159 180 0
160 182 0
159 181 0
163 184 0
161 182 0
165 187 0
163 185 0
163 186 0
161 183 0
156 177 0
166 187 0
162 184 0
162 184 0
164 185 0
160 182 0
165 188 0
164 186 0
166 189 0
165 187 0
165 186 0
165 185 0
165 188 0
168 190 0
160 182 0
167 190 0
160 184 0
161 183 0
166 190 0
166 189 0
162 184 0
164 186 0
166 188 0
165 186 0
166 189 0
167 188 0
168 192 0
164 185 0
162 183 0
163 187 0
164 186 0
167 187 0
167 190 0
164 184 0
165 188 0
163 187 0
165 186 0
169 191 0
168 191 0
165 186 0
165 188 0
164 186 0
165 186 0
167 188 0
162 182 0
168 191 0
163 185 0
169 193 0
164 185 0
166 187 0
163 185 0
165 187 0
169 192 0
171 194 88
171 194 95
176 199 105
171 194 88
171 193 76
176 199 102
172 195 108
177 198 120
171 195 102
172 195 99
168 191 117
172 195 108
174 197 105
167 190 84
174 196 102
173 195 95
158 181 88
172 195 102
167 190 102
172 195 99
166 189 84
173 196 95
172 195 102
167 190 84
165 188 84
170 192 76
168 191 102
164 187 88
166 189 95
166 189 95
169 192 99
166 189 102
167 189 84
172 195 99
168 192 95
166 188 84
165 188 88
172 194 95
164 187 105
167 191 102
167 189 84
163 188 99
168 191 84
170 193 95
166 189 108
167 190 105
164 187 99
162 185 108
169 192 105
162 185 80
166 189 102
167 190 111
166 188 114
163 185 76
169 191 84
170 192 108
169 191 95
163 185 92
168 190 102
158 180 84
166 188 99
169 191 95
152 175 88
161 183 99
165 188 99
165 188 114
159 180 99
155 177 99
163 185 92
166 188 105
163 185 84
158 180 88
160 182 88
165 187 99
156 178 72
163 185 111
161 183 95
164 186 92
158 179 88
160 183 111
166 187 117
160 181 105
160 181 102
165 186 95
163 184 105
160 181 105
163 184 95
158 179 105
158 180 108
146 167 80
160 181 102
153 173 99
158 179 102
154 175 67
165 185 111
160 181 117
159 180 76
155 175 99
157 177 88
163 184 95
154 174 67
157 177 92
158 179 72
151 170 92
153 172 88
153 173 92
159 179 99
151 171 92
163 183 95
153 173 67
157 177 95
156 177 76
155 175 88
145 164 62
152 172 76
143 164 62
147 168 25
148 169 57
145 165 57
153 174 57
142 163 44
137 157 51
154 176 57
140 161 51
148 170 0
144 165 36
147 168 44
140 161 25
146 167 0
153 175 25
148 170 25
146 166 0
156 177 0
152 174 0
147 168 0
150 170 25
148 170 0
149 171 0
149 169 0
149 171 0
144 165 0
145 167 0
139 161 0
139 160 0
148 170 0
140 161 0
140 161 0
142 163 0
137 158 0
141 162 0
139 159 0
134 155 0
127 148 0
137 159 0
147 168 0
135 155 0
137 158 0
134 153 0
144 164 0
135 156 0
133 153 0
140 160 0
131 151 0
134 154 0
136 157 0
132 153 0
131 152 0
142 162 0
125 145 0
129 150 0
136 157 0
134 154 0
131 152 0
135 155 0
135 156 0
135 156 0
139 159 0
137 157 0
135 155 0
135 156 0
122 142 0
131 152 0
137 158 0
133 154 0
131 152 0
128 147 0
120 140 0
138 158 0
130 151 0
130 152 0
128 148 0
139 159 0
125 144 0
129 149 0
137 158 0
132 153 0
134 156 0
140 161 0
141 161 0
135 156 0
135 155 0
133 153 0
131 152 0
145 165 0
135 156 0
125 145 0
135 157 0
135 154 0
142 163 0
126 147 0
136 157 0
138 159 0
144 165 0
125 145 0
139 160 0
136 158 0
132 154 0
134 154 0
144 166 0
133 153 0
137 157 0
140 161 0
138 159 0
135 156 0
134 155 0
146 167 0
150 173 0
141 163 0
141 160 0
142 163 0
142 163 0
135 156 0
146 167 0
149 172 0
140 161 0
139 160 0
141 162 0
143 164 0
148 170 0
149 170 0
145 167 0
153 174 0
147 170 0
150 172 0
146 166 0
146 169 0
148 168 0
145 165 0
145 168 0
138 158 0
144 166 0
142 163 0
146 167 0
147 168 0
151 173 0
150 172 0
146 166 0
146 167 0
150 172 0
143 162 0
139 161 0
148 169 0
138 157 0
150 171 0
149 172 0
145 166 0
160 181 0
145 167 0
148 171 0
153 174 0
151 171 0
149 172 0
148 169 0
149 171 0
158 181 0
146 168 0
151 172 0
148 168 0
155 176 0
148 168 0
158 180 0
159 180 0
160 182 0
155 175 0
154 177 0
151 172 0
151 173 0
152 174 0
150 173 0
154 175 0
154 176 0
159 180 0
160 181 0
152 175 0
150 169 0
158 180 0
148 168 0
161 185 0
155 176 0
161 183 0
155 177 0
159 180 0
151 171 0
156 177 0
158 180 0
161 183 0
153 174 0
151 173 0
156 178 0
162 185 0
159 183 0
160 182 0
154 176 0
162 183 0
164 186 0
157 178 0
155 176 0
161 182 0
153 172 0
157 179 0
156 177 0
164 185 0
161 182 0
157 181 0
164 186 0
160 182 0
160 182 0
160 181 0
162 185 0
161 182 0
163 186 0
163 185 0
160 182 0
164 185 0
162 182 0
162 184 0
162 183 0
163 186 0
162 182 0
158 180 0
163 186 0
162 183 0
161 183 0
161 183 0
167 189 0
163 184 0
158 180 0
163 184 0
162 182 0
162 182 0
157 179 0
165 188 0
161 183 0
167 190 0
163 185 0
166 189 0
167 190 0
165 187 0
161 184 0
162 183 0
168 191 0
165 187 0
166 188 0
164 186 0
165 186 0
167 188 0
169 191 0
161 183 0
163 185 0
158 179 0
164 186 0
162 183 0
167 191 0
160 181 0
161 183 0
169 190 0
167 188 0
164 187 0
166 188 0
170 191 0
164 187 0
165 186 0
163 184 0
164 185 0
165 187 0
165 187 0
166 188 0
166 187 0
170 191 0
163 183 0
167 190 0
164 185 0
167 189 0
168 190 0
165 187 0
168 189 0
167 189 0
165 188 0
167 189 0
166 187 0
174 196 102
175 198 108
174 197 114
170 194 102
170 194 84
167 190 80
172 195 105
175 198 130
172 195 111
171 194 67
172 194 92
174 197 99
175 198 102
169 192 105
172 195 88
169 192 80
172 196 99
164 188 57
169 191 88
171 194 99
167 190 84
169 193 76
172 196 105
165 188 95
168 192 92
165 189 84
173 197 99
171 194 92
165 188 102
169 192 80
166 189 72
170 193 88
170 193 122
165 188 88
168 192 92
163 185 72
169 192 99
167 190 102
167 190 95
167 190 84
170 192 84
170 193 117
169 193 95
163 186 88
165 188 84
170 193 122
165 188 80
167 190 99
164 186 102
166 189 111
169 192 117
166 188 92
165 188 105
164 185 92
166 189 84
161 183 95
164 187 99
159 182 102
172 195 108
157 179 102
169 191 95
160 182 88
166 188 88
161 184 84
163 186 108
162 184 95
160 182 92
163 185 102
165 187 108
163 185 84
163 184 76
160 182 114
159 181 99
157 180 105
160 182 99
161 182 95
159 180 92
161 183 99
164 185 92
159 180 108
162 183 99
156 178 76
165 186 111
158 179 92
164 186 99
163 184 102
157 177 99
163 184 92
158 179 99
154 175 95
154 175 72
155 175 88
166 187 95
163 185 105
151 172 92
152 173 80
155 176 92
163 183 102
159 181 76
157 178 92
149 169 95
149 169 105
159 180 88
158 179 88
155 175 102
162 182 105
153 173 95
149 169 80
157 177 80
152 174 84
150 170 76
147 167 76
157 177 67
148 169 72
153 174 67
160 180 72
150 171 72
155 175 62
155 176 67
142 163 36
150 171 51
143 164 44
146 167 51
153 174 25
142 163 36
154 176 44
146 169 0
157 178 0
157 179 36
148 169 25
151 173 0
146 167 0
143 164 0
152 174 0
155 177 0
149 170 0
147 169 0
148 170 0
149 170 0
153 175 0
145 167 0
151 173 0
146 169 0
143 165 0
147 169 0
149 171 0
140 160 0
139 160 0
142 162 0
140 160 0
144 165 0
126 147 0
141 161 0
138 159 0
134 155 0
138 158 0
148 169 0
137 158 0
137 157 0
136 156 0
134 155 0
128 148 0
125 144 0
140 161 0
124 144 0
133 154 0
132 152 0
132 153 0
129 149 0
135 155 0
131 150 0
138 158 0
128 148 0
135 155 0
135 156 0
134 154 0
139 160 0
135 155 0
138 158 0
131 151 0
130 150 0
131 151 0
137 156 0
127 148 0
134 155 0
126 146 0
128 147 0
136 155 0
135 155 0
129 148 0
135 156 0
132 152 0
134 152 0
124 144 0
134 154 0
123 145 0
138 159 0
133 153 0
131 152 0
131 151 0
134 155 0
137 157 0
122 142 0
140 161 0
138 159 0
136 157 0
133 153 0
133 153 0
139 159 0
143 163 0
144 166 0
139 160 0
144 166 0
137 159 0
139 161 0
149 170 0
138 160 0
141 162 0
141 162 0
134 155 0
142 163 0
147 168 0
141 163 0
140 159 0
143 163 0
131 151 0
137 158 0
138 160 0
139 161 0
141 161 0
141 162 0
138 159 0
137 158 0
147 167 0
137 157 0
142 163 0
144 165 0
148 170 0
149 170 0
144 165 0
144 166 0
146 167 0
152 173 0
147 168 0
147 170 0
153 174 0
142 162 0
141 163 0
149 172 0
140 160 0
146 166 0
148 169 0
149 171 0
152 173 0
149 170 0
144 166 0
150 171 0
154 175 0
138 159 0
146 166 0
146 168 0
148 170 0
148 170 0
154 177 0
145 166 0
150 170 0
159 181 0
153 175 0
145 167 0
152 173 0
150 172 0
146 167 0
152 173 0
149 171 0
149 169 0
155 177 0
152 174 0
158 179 0
154 175 0
155 177 0
161 183 0
156 179 0
157 180 0
155 175 0
148 168 0
152 174 0
152 174 0
152 173 0
154 175 0
153 176 0
152 175 0
153 175 0
156 178 0
151 173 0
158 181 0
155 176 0
157 179 0
163 184 0
158 178 0
160 183 0
155 176 0
156 178 0
159 180 0
155 177 0
154 175 0
156 177 0
158 180 0
154 175 0
156 177 0
159 180 0
156 178 0
155 177 0
156 178 0
158 178 0
160 183 0
154 176 0
156 177 0
163 185 0
160 181 0
159 181 0
163 186 0
155 176 0
156 177 0
156 178 0
164 185 0
161 182 0
158 180 0
158 179 0
160 181 0
161 183 0
159 181 0
156 178 0
166 188 0
161 183 0
155 176 0
163 186 0
161 183 0
161 182 0
161 183 0
158 178 0
164 186 0
159 181 0
166 188 0
166 188 0
160 181 0
165 186 0
158 180 0
164 186 0
162 186 0
163 184 0
160 182 0
165 187 0
162 185 0
160 182 0
162 184 0
159 180 0
164 185 0
165 187 0
168 189 0
160 182 0
162 184 0
167 189 0
161 183 0
163 185 0
163 183 0
165 187 0
166 188 0
161 183 0
167 188 0
166 188 0
166 190 0
166 187 0
165 187 0
165 188 0
165 186 0
167 189 0
167 189 0
165 187 0
163 184 0
168 189 0
166 187 0
166 188 0
167 190 0
166 189 0
166 188 0
164 187 0
168 190 0
164 186 0
168 190 0
165 187 0
164 186 0
169 190 0
169 191 0
165 187 0
167 189 0
166 189 0
167 188 0
167 189 0
166 187 0
169 192 0
171 194 84
175 198 99
176 198 105
178 200 114
173 196 84
173 196 105
174 197 80
177 199 102
175 198 102
172 195 111
170 193 105
172 195 84
170 193 95
175 198 114
172 194 111
167 190 92
169 192 88
175 198 105
175 198 108
168 191 92
173 197 105
165 188 102
165 188 99
164 187 102
170 194 111
166 189 100
170 193 88
173 196 102
166 189 92
166 189 62
173 196 105
166 190 99
167 190 130
166 189 88
169 192 84
164 186 84
161 184 84
171 193 111
165 188 95
171 194 105
167 190 108
168 190 88
163 186 102
167 190 99
165 189 95
161 184 95
166 189 102
166 189 111
169 192 111
166 190 88
167 189 99
162 185 102
166 188 92
158 180 80
166 189 105
165 188 99
161 184 92
163 186 99
162 184 72
163 186 102
155 177 80
163 185 76
168 191 102
163 185 72
167 189 105
159 181 92
159 182 99
156 179 99
157 179 108
163 185 88
161 184 120
163 184 114
158 181 108
161 183 95
165 187 95
156 177 76
166 187 108
165 188 88
161 183 92
158 181 84
162 183 92
170 191 105
167 188 105
161 182 72
151 172 80
158 179 95
155 176 80
160 181 80
163 184 105
154 175 105
156 177 88
162 184 108
160 182 102
162 182 105
161 181 92
158 179 88
160 180 102
158 178 92
157 177 72
159 180 88
154 175 84
159 180 99
156 177 80
163 183 95
150 170 80
161 181 72
162 182 95
155 176 80
155 175 88
149 170 72
155 174 95
152 173 72
155 175 57
149 170 67
148 170 51
143 163 51
152 173 51
148 170 36
151 171 62
149 170 51
146 167 44
147 168 44
152 172 44
148 169 44
149 170 51
152 173 25
157 179 25
147 168 25
146 167 0
151 173 25
146 168 0
155 177 36
152 175 0
157 179 0
150 172 0
153 174 0
143 165 0
152 174 0
147 169 0
147 169 0
151 173 0
155 176 0
153 174 0
150 171 0
144 166 0
139 160 0
143 164 0
148 168 0
138 159 0
138 157 0
134 156 0
138 160 0
144 164 0
143 164 0
127 147 0
141 161 0
139 160 0
150 171 0
140 160 0
126 146 0
131 151 0
130 151 0
133 154 0
132 153 0
135 156 0
133 153 0
129 149 0
141 161 0
128 148 0
132 152 0
137 157 0
126 146 0
138 159 0
131 151 0
136 158 0
133 152 0
135 155 0
134 154 0
139 160 0
123 142 0
144 165 0
142 163 0
133 154 0
142 164 0
136 155 0
131 151 0
133 153 0
135 156 0
136 157 0
130 151 0
130 150 0
127 148 0
130 151 0
139 160 0
135 157 0
136 155 0
120 141 0
128 148 0
124 145 0
137 158 0
129 149 0
144 164 0
135 156 0
129 150 0
141 162 0
140 160 0
143 164 0
133 153 0
135 154 0
138 158 0
131 150 0
137 156 0
140 160 0
136 156 0
142 162 0
128 148 0
137 157 0
143 164 0
143 165 0
144 166 0
151 173 0
143 163 0
136 156 0
137 158 0
147 167 0
145 167 0
139 161 0
142 163 0
141 162 0
140 160 0
138 160 0
127 147 0
146 168 0
133 152 0
151 173 0
145 166 0
147 167 0
148 168 0
156 177 0
147 168 0
145 167 0
148 170 0
145 168 0
154 176 0
137 157 0
146 167 0
142 164 0
142 161 0
150 172 0
146 167 0
151 172 0
148 169 0
146 168 0
144 165 0
147 168 0
156 177 0
146 168 0
150 171 0
151 174 0
146 167 0
154 176 0
156 178 0
146 168 0
150 170 0
151 173 0
148 170 0
155 176 0
155 175 0
145 167 0
155 177 0
146 167 0
148 171 0
146 166 0
149 170 0
154 175 0
145 166 0
150 171 0
150 171 0
150 172 0
157 179 0
152 172 0
151 172 0
158 181 0
160 183 0
155 176 0
157 179 0
154 175 0
159 181 0
159 181 0
149 170 0
153 174 0
154 175 0
153 174 0
163 185 0
161 183 0
160 181 0
156 178 0
156 176 0
159 182 0
153 175 0
159 181 0
164 185 0
157 178 0
156 179 0
160 181 0
158 178 0
156 178 0
159 181 0
161 183 0
161 182 0
158 180 0
157 178 0
156 178 0
161 183 0
156 178 0
156 178 0
161 183 0
160 180 0
159 179 0
157 180 0
164 187 0
166 188 0
163 184 0
161 183 0
152 174 0
154 176 0
165 189 0
161 183 0
162 183 0
163 184 0
157 178 0
159 182 0
163 184 0
156 177 0
160 182 0
164 187 0
157 179 0
160 181 0
165 187 0
158 180 0
158 179 0
157 179 0
164 187 0
165 187 0
161 183 0
166 188 0
157 178 0
163 183 0
163 186 0
161 184 0
160 182 0
160 181 0
160 181 0
166 187 0
161 182 0
166 188 0
160 182 0
165 187 0
164 187 0
164 184 0
165 187 0
165 187 0
164 186 0
163 185 0
161 183 0
166 189 0
161 182 0
164 185 0
162 183 0
166 188 0
162 184 0
164 186 0
166 189 0
165 187 0
163 185 0
169 191 0
164 186 0
167 189 0
166 188 0
169 190 0
166 189 0
168 191 0
168 191 0
164 185 0
165 186 0
172 194 0
166 188 0
164 186 0
169 192 0
166 189 0
166 188 0
161 182 0
164 185 0
164 187 0
167 187 0
165 187 0
169 192 0
168 190 0
168 191 0
167 190 0
177 199 111
174 196 103
175 198 99
173 196 95
171 195 67
175 196 95
172 195 92
172 195 111
173 196 88
175 199 92
169 192 84
173 196 92
169 192 88
170 194 95
172 195 95
172 194 84
171 194 99
169 192 111
168 190 95
170 194 95
168 192 99
170 193 80
174 197 111
168 192 72
175 198 120
176 199 122
169 192 92
168 191 92
170 194 99
169 192 114
164 188 88
164 187 88
166 189 95
167 190 67
171 194 111
168 191 88
171 194 99
163 186 72
174 197 88
166 189 84
172 195 108
165 188 88
168 191 105
161 184 84
161 184 95
165 188 76
166 189 95
170 193 99
172 194 108
170 193 122
169 192 105
167 189 84
165 187 105
165 188 105
160 183 84
162 185 99
166 189 80
163 186 99
159 183 80
165 187 99
162 185 72
158 181 72
164 186 99
162 184 62
152 173 72
161 183 102
161 183 80
166 188 84
161 184 108
159 181 88
159 181 105
158 180 88
167 189 105
158 181 108
158 179 111
156 178 105
166 188 105
160 182 105
155 177 99
170 191 111
157 178 99
157 178 88
164 185 95
159 180 95
162 182 102
155 175 92
164 186 105
161 182 108
162 183 111
160 180 99
158 178 88
159 180 102
156 177 102
158 179 95
163 184 95
151 172 72
155 176 80
165 185 117
153 174 92
164 184 111
157 177 84
150 171 80
164 183 108
161 181 111
152 173 99
159 178 95
156 177 76
145 165 67
161 183 80
155 176 76
157 178 95
154 175 67
149 169 57
147 168 62
155 175 72
151 171 62
157 179 44
144 166 44
150 171 57
152 172 36
148 169 44
147 168 51
149 170 36
152 173 36
143 164 0
144 166 44
147 169 0
153 174 0
137 157 0
148 169 44
146 168 0
148 170 0
144 165 0
154 176 25
150 172 0
147 169 0
155 178 25
151 173 0
146 167 25
155 177 0
154 175 0
141 162 0
148 169 0
144 166 0
146 169 0
151 173 0
147 168 0
144 166 0
140 161 0
139 160 0
146 167 0
143 165 0
136 158 0
143 163 0
133 153 0
142 163 0
134 154 0
144 166 0
138 158 0
137 158 0
134 154 0
134 154 0
145 166 0
130 150 0
141 162 0
135 156 0
130 149 0
133 154 0
141 161 0
144 166 0
120 141 0
133 153 0
137 157 0
132 152 0
133 152 0
130 152 0
132 152 0
131 152 0
122 141 0
125 146 0
132 153 0
134 154 0
138 159 0
141 161 0
131 151 0
133 154 0
134 154 0
138 159 0
137 158 0
136 158 0
143 164 0
123 144 0
137 158 0
137 157 0
132 153 0
144 165 0
140 161 0
137 158 0
132 154 0
139 160 0
135 156 0
133 153 0
130 150 0
142 163 0
137 158 0
135 155 0
125 144 0
131 151 0
144 164 0
139 161 0
140 162 0
130 149 0
134 156 0
138 158 0
148 169 0
139 161 0
140 162 0
139 160 0
144 166 0
137 158 0
138 159 0
144 167 0
140 161 0
142 164 0
145 167 0
149 170 0
138 160 0
139 160 0
139 160 0
150 170 0
140 160 0
143 164 0
140 160 0
148 168 0
147 169 0
135 155 0
136 156 0
154 175 0
143 164 0
143 164 0
137 158 0
142 163 0
150 172 0
144 166 0
147 170 0
151 173 0
147 168 0
148 169 0
150 170 0
147 168 0
145 166 0
150 171 0
145 167 0
142 163 0
146 166 0
153 174 0
147 168 0
145 165 0
140 161 0
145 167 0
151 173 0
158 180 0
149 170 0
148 171 0
154 175 0
146 167 0
155 176 0
152 174 0
156 178 0
154 175 0
157 179 0
156 178 0
156 177 0
152 174 0
151 171 0
161 183 0
151 172 0
158 181 0
152 173 0
155 177 0
141 162 0
148 168 0
149 171 0
151 172 0
149 172 0
157 179 0
152 173 0
158 180 0
146 167 0
155 176 0
148 171 0
157 177 0
150 171 0
163 186 0
155 176 0
159 182 0
156 178 0
158 178 0
157 180 0
150 172 0
159 179 0
155 178 0
158 179 0
155 176 0
156 176 0
161 184 0
155 176 0
153 175 0
156 177 0
155 177 0
157 180 0
155 176 0
153 175 0
161 180 0
158 179 0
155 177 0
162 183 0
158 180 0
159 180 0
159 182 0
162 184 0
161 182 0
158 180 0
162 185 0
161 182 0
162 183 0
164 187 0
160 182 0
165 188 0
164 187 0
162 184 0
157 179 0
166 188 0
165 188 0
161 183 0
156 179 0
160 181 0
156 179 0
165 187 0
165 187 0
165 185 0
161 184 0
166 189 0
161 182 0
163 186 0
164 187 0
159 181 0
160 181 0
161 183 0
163 186 0
166 187 0
164 186 0
167 188 0
163 184 0
164 187 0
164 186 0
159 181 0
167 190 0
163 185 0
161 182 0
164 187 0
165 188 0
165 186 0
159 180 0
170 192 0
163 183 0
166 188 0
163 185 0
161 184 0
168 191 0
167 190 0
166 189 0
163 183 0
168 192 0
167 189 0
167 189 0
166 188 0
167 189 0
164 186 0
164 186 0
163 186 0
164 186 0
167 189 0
167 190 0
165 186 0
165 187 0
165 188 0
167 190 0
167 189 0
164 187 0
164 186 0
166 188 0
170 193 0
166 189 0
167 188 0
165 187 0
166 189 0
166 188 0
167 188 0
172 194 0
170 194 99
175 197 95
173 195 99
174 198 80
173 196 88
173 195 105
169 192 95
178 202 114
171 193 88
172 195 88
172 196 84
168 190 88
171 193 84
174 197 105
174 198 92
177 200 102
170 193 102
170 193 88
172 195 95
171 193 99
174 196 105
169 192 99
168 192 102
167 190 95
173 196 99
170 193 88
168 191 92
170 193 95
166 189 76
169 192 84
168 190 88
165 188 99
166 189 67
170 194 111
170 193 105
167 190 105
166 189 105
169 191 92
168 191 99
165 187 92
167 189 95
161 184 102
171 194 114
171 194 99
167 190 84
161 183 92
169 192 80
167 189 102
168 191 117
167 189 72
162 184 92
167 188 84
166 189 99
161 184 80
169 191 102
162 184 108
156 179 88
167 189 92
164 186 108
163 185 84
167 189 88
164 187 92
162 184 92
169 191 114
160 183 88
165 187 105
160 182 95
150 172 80
165 187 108
162 184 92
160 182 99
164 185 80
162 183 99
163 185 102
170 192 105
157 178 84
162 183 105
157 179 72
162 183 108
166 187 102
156 177 88
166 187 99
168 188 111
157 179 76
167 188 105
163 184 111
161 182 95
163 183 99
157 177 92
169 190 102
149 170 72
162 184 99
152 173 84
161 182 105
158 179 84
152 172 67
148 169 88
155 176 67
160 181 102
155 175 62
157 177 72
162 182 84
162 183 114
156 176 72
157 177 80
153 174 95
156 178 84
158 179 76
151 171 80
146 167 62
158 179 84
160 181 84
154 175 76
155 176 76
152 172 76
147 167 62
151 172 44
153 174 57
154 175 36
157 178 51
147 169 25
149 170 25
149 170 25
155 177 36
156 179 36
152 174 25
151 174 44
143 164 0
149 171 36
147 170 25
154 177 44
150 172 0
151 173 0
158 180 0
157 180 25
152 172 0
154 176 0
157 180 0
149 170 0
149 171 0
151 173 0
147 169 0
147 168 0
149 170 0
153 174 0
142 164 0
146 168 0
147 169 0
139 160 0
138 159 0
140 160 0
140 160 0
133 154 0
130 151 0
131 153 0
135 156 0
130 151 0
138 159 0
130 152 0
139 161 0
140 160 0
137 158 0
134 155 0
134 155 0
136 156 0
120 140 0
141 161 0
138 159 0
139 160 0
144 165 0
136 156 0
141 162 0
148 169 0
140 161 0
131 151 0
141 162 0
137 158 0
137 159 0
137 159 0
138 158 0
148 168 0
140 161 0
134 155 0
131 153 0
142 162 0
132 152 0
140 162 0
142 163 0
143 163 0
128 149 0
138 160 0
126 146 0
144 165 0
133 154 0
138 159 0
133 154 0
140 160 0
136 157 0
130 151 0
133 153 0
128 148 0
136 157 0
141 161 0
141 161 0
137 158 0
144 166 0
141 162 0
144 164 0
140 161 0
135 155 0
154 174 0
138 158 0
142 164 0
143 164 0
142 164 0
139 160 0
146 168 0
141 162 0
143 164 0
136 157 0
132 152 0
133 155 0
144 167 0
149 172 0
138 159 0
141 163 0
146 166 0
143 163 0
144 165 0
146 167 0
143 164 0
147 167 0
147 168 0
146 167 0
145 168 0
144 165 0
142 163 0
138 159 0
140 162 0
146 168 0
138 158 0
148 170 0
143 165 0
144 165 0
150 171 0
145 166 0
139 161 0
161 182 0
156 177 0
149 171 0
147 169 0
142 164 0
146 168 0
142 162 0
147 168 0
145 166 0
147 170 0
144 166 0
145 167 0
151 173 0
152 173 0
152 175 0
145 166 0
152 174 0
148 169 0
152 174 0
148 171 0
154 177 0
156 175 0
151 173 0
153 174 0
151 172 0
158 180 0
154 176 0
151 173 0
153 173 0
158 179 0
154 176 0
152 175 0
149 171 0
153 173 0
158 180 0
149 171 0
147 167 0
160 182 0
156 179 0
153 174 0
157 178 0
155 178 0
155 177 0
150 170 0
154 175 0
161 183 0
154 175 0
155 177 0
159 180 0
157 179 0
159 180 0
153 174 0
156 178 0
156 178 0
157 178 0
161 183 0
155 176 0
163 184 0
153 175 0
162 183 0
162 184 0
160 183 0
156 179 0
161 183 0
155 177 0
160 181 0
157 179 0
159 181 0
156 179 0
152 173 0
161 183 0
158 179 0
155 176 0
156 179 0
162 184 0
162 186 0
161 183 0
160 183 0
160 182 0
160 181 0
162 184 0
166 188 0
163 185 0
162 184 0
165 187 0
161 183 0
165 188 0
162 183 0
161 181 0
162 184 0
164 187 0
163 185 0
164 185 0
159 180 0
164 186 0
164 186 0
161 182 0
162 183 0
164 185 0
164 186 0
167 189 0
163 186 0
162 185 0
167 188 0
164 186 0
161 183 0
163 186 0
159 180 0
166 188 0
161 182 0
167 189 0
166 189 0
165 187 0
165 187 0
166 189 0
165 187 0
164 186 0
162 184 0
167 191 0
160 182 0
166 190 0
163 185 0
161 183 0
170 192 0
168 192 0
162 184 0
163 185 0
165 188 0
161 184 0
167 190 0
168 188 0
163 186 0
164 185 0
165 187 0
165 187 0
166 187 0
166 187 0
165 188 0
164 185 0
166 188 0
168 190 0
168 191 0
165 188 0
165 188 0
169 192 0
168 190 0
167 190 0
164 187 0
168 191 0
170 193 0
165 187 0
168 190 0
167 189 0
174 196 102
170 193 57
173 196 80
169 192 80
174 197 95
169 191 84
166 190 72
178 200 117
172 195 92
168 191 84
173 195 102
176 199 102
173 195 84
174 196 105
174 196 108
172 195 117
170 193 117
174 197 92
168 190 95
178 200 125
166 189 92
171 195 120
165 188 92
167 190 105
169 192 95
171 194 120
174 196 94
164 188 84
172 195 108
168 191 99
168 191 76
173 195 84
166 188 80
165 188 80
165 188 62
166 189 88
173 196 92
171 194 95
170 193 102
170 193 108
164 186 108
170 191 80
164 187 108
169 191 84
165 188 95
170 193 108
168 190 95
167 191 108
165 188 105
163 186 95
165 187 95
170 192 95
162 184 92
165 188 108
169 192 95
165 187 88
162 184 102
168 191 102
167 189 76
166 187 105
164 187 102
167 190 95
167 189 117
155 178 95
166 188 99
171 193 105
163 185 92
158 179 92
156 178 88
158 179 84
160 182 76
165 188 102
161 182 51
159 180 80
169 191 92
164 185 102
161 183 84
168 191 111
165 186 102
156 177 84
161 183 102
164 184 95
159 180 92
165 186 84
160 181 92
159 180 92
155 177 80
157 179 84
157 177 80
164 185 92
164 185 95
161 182 88
149 170 67
152 173 67
158 179 67
159 179 99
159 180 88
152 173 67
159 180 105
156 176 80
160 181 88
157 178 72
158 179 72
152 173 72
157 178 92
157 178 92
160 180 92
160 180 95
159 179 92
154 175 72
160 181 80
154 174 95
159 179 76
150 171 51
157 178 76
154 176 67
149 169 44
156 178 72
150 172 51
139 160 0
152 173 51
151 172 62
157 179 25
153 174 44
159 180 36
152 174 25
151 172 36
155 176 36
142 164 0
149 172 25
151 173 0
160 183 0
154 175 0
157 179 36
145 168 0
147 169 0
154 176 0
156 178 0
152 175 0
148 171 0
152 173 0
152 173 0
151 173 0
147 169 0
151 173 0
146 168 0
144 165 0
155 178 0
138 159 0
145 166 0
147 167 0
140 161 0
143 164 0
141 162 0
147 167 0
139 160 0
148 169 0
150 171 0
140 159 0
141 162 0
131 152 0
131 151 0
142 162 0
137 159 0
132 153 0
126 148 0
142 163 0
135 155 0
131 152 0
138 160 0
136 157 0
139 160 0
144 164 0
136 157 0
136 157 0
125 147 0
126 146 0
136 157 0
137 158 0
143 164 0
134 156 0
122 142 0
142 162 0
141 162 0
149 171 0
134 154 0
133 153 0
137 157 0
135 155 0
131 153 0
134 155 0
140 161 0
140 161 0
133 152 0
132 154 0
141 163 0
141 161 0
128 150 0
125 145 0
136 158 0
141 163 0
141 162 0
133 154 0
133 155 0
136 157 0
145 166 0
141 160 0
140 161 0
142 163 0
146 168 0
133 154 0
137 158 0
135 157 0
142 163 0
145 168 0
152 173 0
137 158 0
145 166 0
145 166 0
139 161 0
143 165 0
140 161 0
151 173 0
131 152 0
140 161 0
139 160 0
139 160 0
146 167 0
144 165 0
137 157 0
148 168 0
143 165 0
147 168 0
143 165 0
146 168 0
150 172 0
144 166 0
149 170 0
146 168 0
134 155 0
152 173 0
147 169 0
145 167 0
143 166 0
147 169 0
148 169 0
147 169 0
145 166 0
150 171 0
150 172 0
142 164 0
150 172 0
145 166 0
157 179 0
144 164 0
149 169 0
150 171 0
149 171 0
148 171 0
161 183 0
150 172 0
145 167 0
146 168 0
151 174 0
146 167 0
152 174 0
158 181 0
149 171 0
145 167 0
144 167 0
157 179 0
150 170 0
159 182 0
151 174 0
154 175 0
160 180 0
148 169 0
148 171 0
152 173 0
158 180 0
150 172 0
155 176 0
155 177 0
155 176 0
150 173 0
154 175 0
159 180 0
159 180 0
156 177 0
157 179 0
151 173 0
156 177 0
152 174 0
158 179 0
164 187 0
156 178 0
154 176 0
151 171 0
161 181 0
159 181 0
156 177 0
157 179 0
158 180 0
157 178 0
160 183 0
163 186 0
156 178 0
155 178 0
152 173 0
155 178 0
160 183 0
158 178 0
153 175 0
155 177 0
161 183 0
153 174 0
155 176 0
159 181 0
158 180 0
159 182 0
152 173 0
163 187 0
156 177 0
158 180 0
165 187 0
161 182 0
163 185 0
161 184 0
161 183 0
161 184 0
160 183 0
162 185 0
165 188 0
161 183 0
163 185 0
163 185 0
163 186 0
158 180 0
164 186 0
162 184 0
166 189 0
164 185 0
160 182 0
163 185 0
164 185 0
166 189 0
157 179 0
163 186 0
162 184 0
159 181 0
169 191 0
161 183 0
164 186 0
166 187 0
165 186 0
161 184 0
167 190 0
164 187 0
169 190 0
163 184 0
167 189 0
167 189 0
163 185 0
168 190 0
165 188 0
167 188 0
166 189 0
166 189 0
169 192 0
164 186 0
160 182 0
168 190 0
165 186 0
165 187 0
163 185 0
165 189 0
165 187 0
161 183 0
166 190 0
164 186 0
162 184 0
167 190 0
169 191 0
166 188 0
166 187 0
163 184 0
164 186 0
169 190 0
170 192 0
164 184 0
168 191 0
165 187 0
170 193 0
168 189 0
165 186 0
164 186 0
167 191 0
170 193 0
165 187 0
168 191 0
173 196 95
173 196 76
173 196 99
174 197 88
173 195 92
177 199 88
173 195 102
171 194 102
170 192 84
175 197 108
171 192 95
176 199 117
169 192 84
173 196 99
169 192 72
174 196 95
171 194 108
173 196 92
174 196 99
172 195 92
171 194 84
168 191 76
167 191 108
175 198 122
168 191 108
175 197 102
172 195 99
171 193 88
154 177 88
173 196 92
166 189 108
169 192 67
163 186 99
166 188 84
165 188 88
173 195 108
165 188 80
165 188 117
169 191 105
167 190 92
169 192 88
164 187 111
169 191 102
166 189 99
161 183 84
167 190 114
171 193 108
167 191 120
166 189 95
169 192 99
166 189 108
165 188 88
163 186 114
162 185 92
162 185 84
165 187 95
170 192 88
166 188 88
157 180 84
164 185 84
166 189 95
162 185 92
163 185 80
162 183 105
167 189 108
170 191 105
155 177 84
158 181 88
162 184 88
166 187 88
158 180 99
168 190 117
164 186 120
164 186 92
163 184 72
160 182 84
164 185 105
164 186 95
161 183 102
158 178 95
162 184 95
159 180 95
169 190 114
160 181 102
159 181 95
162 183 92
160 181 105
154 175 84
163 184 84
160 181 95
161 183 76
164 184 95
158 179 108
158 180 76
151 171 88
162 183 102
159 179 84
152 174 80
162 182 80
161 182 92
158 180 72
159 180 84
160 181 76
146 165 80
161 183 108
157 178 62
161 181 84
153 174 62
155 176 76
171 191 99
159 180 84
148 170 57
155 176 57
154 175 62
158 179 57
152 173 51
152 174 57
163 185 51
141 162 51
146 167 44
152 174 25
150 172 44
148 170 0
154 176 51
146 168 36
152 175 25
152 175 36
158 180 0
143 164 0
157 179 25
156 177 0
155 178 0
151 172 25
158 179 0
145 167 25
154 176 0
154 177 0
152 174 0
154 177 0
148 170 0
152 174 0
150 172 0
151 173 0
154 176 0
152 175 0
148 169 0
131 153 0
151 173 0
135 157 0
138 159 0
140 161 0
135 156 0
141 162 0
143 165 0
139 160 0
140 160 0
145 167 0
130 151 0
136 157 0
132 153 0
135 156 0
148 168 0
140 162 0
139 160 0
135 156 0
143 164 0
137 157 0
126 147 0
145 166 0
135 156 0
143 164 0
128 148 0
137 158 0
136 156 0
126 147 0
139 160 0
141 162 0
142 162 0
148 169 0
139 161 0
139 160 0
142 162 0
142 162 0
137 158 0
137 158 0
145 166 0
137 157 0
131 151 0
135 157 0
142 164 0
134 155 0
143 164 0
144 165 0
135 156 0
137 157 0
145 166 0
130 152 0
143 164 0
149 170 0
139 160 0
138 159 0
138 160 0
139 161 0
144 166 0
139 160 0
132 154 0
147 169 0
140 160 0
142 163 0
139 162 0
133 154 0
134 155 0
136 157 0
138 159 0
145 167 0
136 157 0
144 165 0
137 159 0
140 162 0
138 157 0
142 163 0
139 160 0
149 170 0
143 164 0
145 166 0
145 167 0
144 165 0
148 170 0
148 170 0
146 167 0
145 165 0
145 167 0
148 169 0
150 172 0
142 163 0
145 165 0
145 167 0
147 168 0
151 172 0
151 172 0
147 167 0
147 169 0
149 172 0
157 178 0
153 177 0
147 168 0
154 176 0
149 172 0
153 174 0
151 173 0
145 165 0
151 172 0
144 166 0
155 177 0
143 165 0
149 170 0
147 169 0
146 166 0
157 179 0
149 171 0
144 164 0
152 174 0
153 174 0
152 172 0
153 174 0
149 171 0
142 163 0
153 174 0
151 173 0
149 170 0
149 172 0
156 179 0
153 174 0
150 172 0
154 175 0
156 179 0
156 176 0
158 180 0
154 177 0
152 172 0
153 174 0
160 182 0
157 179 0
153 176 0
152 173 0
161 183 0
154 176 0
153 174 0
151 174 0
154 175 0
158 180 0
157 180 0
159 181 0
153 175 0
157 177 0
158 179 0
159 181 0
159 180 0
158 181 0
157 180 0
159 181 0
151 172 0
161 183 0
158 181 0
157 179 0
154 175 0
162 184 0
151 173 0
157 179 0
160 182 0
151 174 0
163 186 0
152 171 0
162 184 0
163 184 0
158 179 0
161 183 0
153 174 0
161 182 0
160 182 0
165 187 0
161 181 0
163 185 0
157 178 0
157 179 0
159 181 0
160 182 0
162 184 0
160 183 0
163 186 0
166 188 0
151 171 0
163 184 0
159 182 0
167 190 0
165 188 0
162 183 0
159 182 0
158 180 0
158 180 0
165 187 0
160 182 0
155 178 0
164 186 0
159 180 0
162 184 0
160 183 0
162 185 0
163 185 0
164 186 0
166 188 0
160 182 0
165 187 0
162 186 0
162 183 0
164 187 0
165 186 0
165 187 0
161 183 0
160 182 0
162 184 0
170 192 0
160 181 0
164 185 0
164 186 0
169 191 0
156 176 0
167 190 0
165 187 0
164 187 0
161 184 0
169 191 0
170 193 0
168 190 0
166 188 0
168 188 0
166 188 0
169 191 0
160 181 0
169 192 0
167 189 0
164 186 0
167 189 0
164 186 0
166 188 0
167 190 0
165 187 0
164 186 0
168 190 0
167 189 0
168 190 0
168 189 0
168 190 0
164 185 0
165 187 0
163 184 0
167 189 0
166 188 0
167 190 0
162 185 0
173 196 82
175 198 105
173 195 80
174 197 99
176 199 105
173 196 80
172 196 102
172 195 114
171 194 111
177 199 102
171 194 105
174 197 92
174 196 117
167 190 80
175 197 99
176 200 128
174 196 105
173 196 88
171 195 99
170 193 95
172 195 105
173 196 108
171 194 105
170 194 105
172 195 95
165 188 102
168 191 99
166 189 108
172 195 99
168 191 82
170 194 92
170 193 102
171 195 105
168 191 99
167 191 99
166 188 72
169 191 99
170 192 80
167 189 88
169 192 102
168 191 88
170 193 95
163 185 105
165 187 92
171 193 105
173 196 114
169 191 92
171 195 117
161 184 95
169 191 102
165 188 102
168 190 105
165 187 92
166 189 95
173 195 105
167 189 92
164 187 88
168 191 122
160 183 92
163 185 88
165 188 114
163 185 95
170 192 95
163 185 95
169 191 108
158 180 111
163 186 102
162 184 92
160 182 92
165 187 111
166 189 105
157 179 92
167 189 88
163 184 105
172 194 105
159 181 88
163 185 99
162 183 88
158 180 88
156 178 95
161 183 99
164 185 99
162 183 99
153 175 95
164 184 102
169 190 114
161 182 99
158 178 88
165 186 76
157 178 99
162 183 95
154 175 72
159 180 72
159 180 99
163 183 99
158 179 92
157 178 80
168 189 108
170 190 95
158 179 99
159 179 99
159 180 88
156 176 95
152 173 84
158 179 76
157 176 84
161 182 88
152 171 80
159 180 76
153 173 84
154 175 51
158 180 80
161 182 72
160 181 67
156 177 25
148 170 62
156 177 72
152 174 44
144 164 36
146 167 36
149 171 44
152 174 25
150 172 36
152 174 0
158 180 36
154 176 25
151 174 0
149 171 25
149 171 0
161 183 25
149 170 25
152 173 0
157 180 25
151 171 0
155 178 25
156 177 0
156 177 0
156 178 0
149 171 0
150 172 0
155 177 0
148 170 0
154 176 0
153 176 0
146 167 0
147 169 0
149 171 0
148 169 0
151 171 0
140 162 0
148 169 0
138 159 0
142 164 0
144 166 0
148 170 0
134 155 0
132 153 0
146 167 0
144 165 0
145 167 0
136 157 0
150 172 0
143 163 0
146 168 0
144 166 0
140 161 0
139 160 0
143 164 0
138 158 0
131 151 0
144 164 0
131 152 0
136 157 0
126 146 0
137 158 0
144 165 0
142 164 0
140 162 0
143 165 0
144 166 0
140 160 0
134 155 0
142 163 0
131 152 0
136 157 0
131 153 0
125 146 0
139 160 0
139 159 0
138 159 0
134 153 0
142 162 0
137 158 0
136 158 0
141 163 0
139 159 0
136 157 0
141 162 0
135 157 0
148 169 0
137 158 0
141 163 0
145 168 0
135 157 0
147 168 0
145 166 0
136 158 0
142 163 0
140 160 0
146 166 0
140 160 0
141 162 0
139 162 0
144 166 0
142 163 0
144 165 0
141 161 0
144 165 0
143 164 0
145 166 0
142 163 0
149 171 0
141 161 0
148 168 0
148 170 0
151 172 0
147 168 0
149 171 0
141 163 0
139 160 0
144 164 0
151 173 0
135 156 0
141 162 0
142 163 0
144 167 0
141 163 0
145 167 0
136 158 0
147 168 0
140 161 0
148 170 0
147 168 0
147 169 0
146 167 0
152 174 0
148 169 0
142 164 0
151 173 0
149 171 0
157 178 0
152 173 0
151 173 0
149 170 0
146 168 0
154 175 0
153 174 0
152 175 0
148 169 0
151 174 0
155 177 0
152 174 0
144 165 0
154 174 0
151 173 0
152 174 0
144 166 0
155 177 0
148 170 0
150 172 0
144 165 0
150 170 0
150 172 0
147 167 0
157 179 0
156 178 0
161 184 0
155 178 0
146 166 0
155 177 0
154 177 0
154 175 0
156 179 0
148 170 0
149 169 0
160 182 0
153 176 0
147 169 0
160 183 0
158 180 0
156 177 0
152 175 0
157 179 0
159 180 0
156 177 0
155 177 0
157 180 0
158 179 0
158 180 0
161 184 0
155 177 0
157 179 0
163 185 0
160 183 0
153 175 0
158 181 0
161 184 0
156 179 0
162 185 0
158 179 0
162 184 0
161 184 0
158 180 0
159 181 0
162 184 0
156 178 0
162 182 0
157 179 0
164 186 0
161 185 0
166 188 0
160 182 0
162 182 0
159 181 0
161 182 0
164 186 0
163 183 0
162 184 0
167 189 0
157 179 0
163 185 0
161 183 0
161 182 0
159 180 0
165 187 0
165 187 0
163 185 0
160 182 0
164 187 0
157 180 0
165 187 0
158 179 0
159 181 0
164 186 0
160 183 0
161 184 0
162 186 0
164 187 0
155 177 0
163 186 0
160 182 0
166 189 0
164 186 0
167 188 0
165 186 0
162 183 0
161 183 0
162 183 0
162 184 0
164 185 0
163 186 0
164 185 0
161 184 0
162 185 0
162 184 0
165 187 0
162 182 0
166 189 0
171 192 0
166 187 0
167 187 0
168 189 0
163 185 0
167 191 0
165 187 0
162 184 0
166 189 0
167 190 0
166 189 0
164 186 0
163 185 0
170 193 0
165 189 0
168 190 0
167 189 0
166 187 0
168 191 0
165 188 0
167 189 0
167 188 0
164 186 0
164 186 0
168 190 0
167 189 0
169 191 0
167 188 0
167 190 0
170 193 0
170 193 0
168 191 0
173 195 88
175 197 97
172 195 105
170 193 72
178 201 111
177 200 108
177 200 105
175 198 102
177 200 95
169 192 80
173 194 108
175 197 105
176 199 88
170 192 99
169 193 95
174 196 92
169 192 92
167 190 92
175 197 92
174 197 120
167 189 95
170 192 102
166 189 80
173 196 108
174 197 108
174 197 95
173 196 108
169 192 95
169 192 88
170 192 92
174 196 111
163 187 88
164 187 92
170 194 99
169 193 120
164 186 80
168 191 80
169 191 95
165 188 99
166 188 99
168 191 99
167 190 111
164 186 92
170 191 76
163 186 62
167 190 99
167 190 114
163 185 88
164 186 99
165 187 99
166 188 105
164 187 76
168 190 84
169 192 88
171 194 105
161 183 92
161 183 92
163 185 105
172 193 105
166 189 99
164 186 80
166 189 111
167 189 84
166 188 95
163 185 111
160 182 111
154 176 67
167 188 88
160 182 84
162 184 76
164 185 102
164 186 84
162 184 99
158 179 76
162 184 111
168 189 102
155 176 99
161 182 102
164 185 84
155 176 84
163 185 92
169 189 99
164 186 80
155 176 99
158 178 95
162 182 102
152 173 72
161 183 76
164 186 99
157 179 102
159 181 88
156 177 105
165 186 99
146 168 80
163 183 105
160 181 76
159 180 84
163 184 88
159 179 92
160 181 99
163 184 84
163 184 88
161 182 76
157 178 76
163 185 88
157 178 92
150 172 72
155 177 67
164 185 92
156 176 62
151 172 80
152 172 76
160 180 62
159 180 57
148 170 57
157 178 44
157 177 44
153 174 51
150 171 36
147 168 25
159 180 36
151 173 25
156 177 36
148 170 36
158 179 25
156 178 51
151 173 25
152 174 25
153 175 0
151 173 25
152 173 0
148 171 25
151 173 0
155 177 0
149 170 0
156 178 0
155 177 0
157 179 0
158 181 0
158 179 0
151 173 0
150 173 0
159 181 0
151 174 0
151 172 0
148 171 0
151 172 0
136 156 0
141 163 0
134 156 0
141 162 0
143 165 0
143 163 0
142 165 0
146 168 0
144 165 0
143 164 0
139 159 0
135 155 0
132 153 0
139 161 0
144 165 0
131 152 0
134 154 0
152 173 0
143 164 0
143 164 0
136 157 0
143 163 0
142 163 0
140 161 0
140 161 0
129 151 0
138 158 0
138 159 0
138 158 0
137 159 0
137 157 0
136 157 0
146 167 0
129 150 0
144 164 0
132 151 0
136 156 0
149 171 0
131 153 0
136 157 0
137 158 0
136 157 0
137 158 0
144 166 0
135 156 0
140 161 0
138 160 0
140 160 0
149 171 0
141 164 0
137 159 0
143 165 0
144 167 0
135 157 0
140 161 0
140 162 0
138 159 0
141 162 0
138 160 0
140 160 0
139 159 0
141 163 0
148 170 0
142 165 0
143 164 0
143 164 0
148 169 0
143 165 0
149 169 0
137 159 0
143 165 0
150 170 0
131 153 0
141 163 0
139 160 0
150 170 0
139 160 0
151 174 0
148 170 0
133 154 0
144 166 0
139 161 0
149 171 0
145 168 0
151 174 0
152 173 0
148 171 0
143 164 0
149 170 0
148 169 0
147 168 0
146 168 0
147 169 0
157 179 0
143 164 0
148 171 0
152 173 0
149 171 0
153 175 0
147 168 0
146 168 0
155 175 0
150 171 0
146 167 0
146 169 0
155 177 0
157 179 0
149 170 0
149 170 0
153 175 0
152 173 0
147 168 0
157 179 0
153 176 0
149 172 0
150 172 0
155 177 0
156 179 0
158 179 0
147 169 0
153 175 0
148 169 0
154 176 0
149 170 0
154 177 0
154 176 0
151 172 0
157 179 0
153 175 0
154 175 0
151 174 0
158 181 0
152 174 0
155 177 0
150 172 0
153 174 0
152 173 0
156 178 0
162 183 0
157 179 0
155 176 0
163 185 0
159 181 0
157 179 0
151 173 0
143 165 0
150 172 0
148 169 0
164 187 0
157 179 0
155 178 0
160 183 0
158 180 0
156 179 0
160 181 0
159 181 0
155 176 0
158 179 0
160 181 0
158 180 0
160 182 0
165 187 0
160 182 0
160 183 0
159 182 0
160 182 0
158 180 0
160 181 0
161 182 0
160 182 0
158 179 0
160 182 0
158 181 0
162 184 0
162 184 0
159 180 0
157 180 0
166 187 0
158 180 0
154 175 0
160 182 0
160 182 0
159 182 0
161 183 0
165 187 0
167 189 0
167 188 0
160 181 0
159 181 0
157 178 0
166 189 0
161 183 0
159 180 0
165 186 0
157 177 0
165 187 0
163 184 0
167 189 0
165 187 0
164 185 0
162 185 0
164 185 0
161 183 0
162 183 0
166 188 0
166 189 0
160 182 0
163 184 0
164 186 0
162 184 0
161 182 0
161 185 0
162 185 0
163 185 0
166 187 0
162 184 0
165 187 0
167 189 0
168 190 0
165 188 0
170 195 0
165 187 0
167 190 0
166 188 0
169 191 0
165 188 0
163 185 0
169 191 0
168 190 0
167 190 0
166 188 0
168 189 0
161 182 0
169 191 0
165 188 0
163 184 0
169 190 0
165 188 0
167 190 0
165 187 0
166 189 0
169 192 0
166 189 0
166 188 0
171 193 0
165 187 0
168 190 0
164 186 0
165 186 0
164 187 0
164 185 0
168 189 0
169 191 0
176 198 92
172 195 99
171 193 80
174 197 84
172 194 76
171 194 111
175 198 111
174 197 92
176 200 114
166 187 105
176 198 99
169 192 92
173 197 111
169 191 80
172 195 105
174 197 92
173 195 99
169 192 95
171 193 102
169 191 84
171 194 84
166 189 80
169 191 102
169 192 72
170 193 102
168 189 88
169 192 105
164 187 88
170 193 102
170 191 80
167 190 76
173 196 114
167 191 92
168 191 102
169 192 105
167 190 99
165 187 80
172 196 108
168 190 95
164 187 88
172 195 105
166 189 111
167 189 84
157 180 84
166 189 120
174 195 114
168 191 108
168 191 105
165 187 92
167 190 108
167 189 105
169 191 102
166 190 99
160 183 80
167 188 108
163 185 95
163 186 102
164 186 95
165 188 105
171 193 111
163 185 95
156 178 92
166 188 102
163 185 99
164 186 108
169 191 95
160 182 95
169 191 88
168 190 105
164 186 95
161 183 105
162 184 99
167 189 120
168 189 102
167 188 95
159 181 88
163 184 95
160 182 102
168 189 95
165 186 108
165 187 88
163 185 95
167 189 99
161 182 111
155 176 80
167 188 108
159 180 99
153 174 72
162 184 92
164 184 105
158 178 95
165 186 95
155 176 99
165 186 88
160 180 88
161 182 76
162 183 84
163 184 72
161 182 62
158 179 76
160 179 95
164 184 108
155 175 80
154 175 57
167 188 84
160 181 80
155 175 80
155 175 72
164 184 80
159 180 76
156 178 80
156 178 72
143 164 62
157 178 62
158 181 67
156 177 67
152 173 67
153 175 36
151 173 25
142 163 25
152 173 44
152 173 36
156 179 36
149 170 25
157 181 0
145 167 36
153 175 36
153 174 0
153 175 0
156 179 0
155 179 0
151 173 0
152 174 0
159 182 25
151 174 0
158 181 25
160 183 0
152 174 0
146 168 0
156 178 0
150 172 0
150 173 0
151 173 0
138 159 0
149 171 0
139 160 0
138 160 0
145 166 0
150 172 0
135 157 0
146 168 0
146 168 0
155 176 0
140 160 0
135 155 0
130 152 0
147 168 0
138 160 0
144 165 0
137 157 0
140 161 0
137 158 0
143 164 0
145 166 0
137 157 0
139 161 0
142 163 0
146 168 0
132 153 0
129 150 0
136 157 0
133 155 0
144 165 0
141 163 0
137 158 0
133 154 0
134 155 0
136 158 0
137 157 0
139 160 0
143 165 0
138 159 0
146 167 0
145 166 0
138 160 0
144 165 0
148 170 0
142 163 0
141 162 0
142 163 0
141 163 0
137 159 0
150 171 0
139 160 0
141 163 0
148 170 0
142 163 0
127 149 0
137 159 0
145 168 0
145 166 0
138 161 0
143 165 0
139 160 0
145 167 0
149 170 0
150 171 0
130 150 0
138 159 0
145 167 0
143 165 0
129 149 0
147 169 0
135 157 0
151 173 0
131 153 0
147 169 0
145 167 0
147 168 0
153 174 0
141 163 0
145 167 0
139 160 0
148 169 0
148 170 0
147 168 0
140 162 0
149 170 0
143 163 0
145 167 0
146 168 0
149 171 0
148 170 0
152 173 0
143 164 0
139 160 0
144 165 0
153 174 0
145 165 0
150 171 0
149 172 0
145 167 0
157 179 0
139 160 0
146 169 0
151 173 0
153 174 0
154 176 0
152 174 0
154 176 0
151 172 0
156 178 0
147 169 0
156 178 0
152 174 0
156 179 0
150 172 0
150 172 0
146 167 0
154 177 0
152 173 0
149 170 0
152 173 0
156 177 0
147 167 0
150 171 0
152 174 0
155 176 0
151 173 0
157 180 0
151 173 0
157 178 0
154 176 0
155 176 0
158 179 0
154 176 0
153 175 0
152 174 0
157 179 0
151 173 0
153 173 0
156 178 0
158 178 0
157 178 0
160 181 0
148 170 0
158 181 0
164 187 0
157 179 0
161 182 0
158 181 0
155 176 0
154 177 0
153 175 0
153 175 0
154 176 0
158 181 0
163 185 0
161 182 0
163 184 0
160 180 0
147 168 0
162 184 0
151 173 0
159 181 0
158 180 0
162 185 0
161 184 0
159 180 0
159 181 0
155 177 0
162 184 0
156 177 0
161 184 0
156 178 0
162 185 0
161 182 0
160 182 0
164 187 0
160 182 0
163 185 0
161 183 0
163 185 0
163 185 0
167 190 0
159 180 0
163 186 0
164 188 0
161 182 0
156 178 0
160 182 0
157 178 0
164 187 0
166 189 0
162 183 0
163 184 0
164 186 0
164 185 0
166 189 0
165 187 0
157 180 0
158 180 0
170 193 0
168 191 0
161 183 0
156 178 0
164 185 0
162 184 0
165 186 0
157 178 0
164 187 0
161 182 0
160 181 0
164 184 0
171 193 0
166 187 0
165 188 0
165 187 0
161 184 0
160 183 0
169 191 0
167 190 0
166 187 0
164 185 0
165 187 0
164 188 0
167 187 0
162 183 0
160 184 0
165 187 0
166 188 0
167 189 0
165 188 0
170 193 0
167 189 0
168 190 0
165 186 0
160 183 0
164 187 0
168 188 0
164 185 0
165 187 0
171 193 0
164 186 0
163 186 0
166 189 0
167 190 0
167 188 0
161 184 0
162 185 0
165 187 0
162 184 0
166 188 0
166 187 0
165 187 0
163 185 0
167 189 0
167 188 0
170 194 0
166 187 0
178 200 107
171 194 107
172 195 102
175 198 103
172 195 76
170 193 80
175 198 114
169 193 94
172 195 99
168 191 72
171 193 102
172 194 95
175 197 92
172 195 99
173 195 92
171 194 92
169 192 76
175 198 114
169 191 76
166 188 57
167 190 80
170 192 88
163 186 80
171 194 102
172 194 111
170 193 99
172 194 102
170 194 99
165 186 80
170 193 117
173 195 95
169 192 110
167 190 76
171 193 99
167 190 99
170 193 95
166 189 92
173 196 114
164 187 95
169 192 117
165 187 102
168 191 76
168 191 95
167 189 105
168 190 92
167 190 105
170 192 102
169 191 88
170 192 111
167 189 105
165 187 95
164 186 92
163 185 88
166 189 95
165 188 111
163 185 72
161 183 95
171 192 108
170 192 99
168 190 102
160 182 80
167 190 111
160 182 95
158 180 80
160 182 80
168 189 80
162 184 111
158 180 105
161 182 95
171 193 114
163 185 80
169 191 105
157 179 92
165 186 80
161 182 72
156 177 84
160 181 80
163 184 102
167 188 88
156 178 92
161 182 95
167 189 72
160 181 80
161 183 102
153 175 76
159 181 88
156 177 80
160 182 92
165 187 102
159 181 92
158 178 95
156 177 88
163 183 95
158 179 88
162 182 84
161 182 92
154 175 88
163 184 80
156 176 76
152 173 80
162 183 99
159 180 80
158 179 76
158 178 67
156 176 84
160 181 72
155 176 51
156 177 51
150 171 67
148 169 62
153 174 57
160 181 62
150 172 62
166 188 67
150 171 36
155 177 51
151 172 51
148 169 44
155 177 25
153 175 44
150 171 25
151 173 25
150 172 25
156 179 0
153 174 25
153 176 25
152 174 25
159 182 25
156 178 25
156 177 0
159 182 25
158 181 25
157 179 25
155 177 0
160 183 0
158 180 0
150 173 0
152 175 0
157 177 0
161 183 0
152 175 0
153 174 0
153 174 0
153 175 0
157 178 0
138 160 0
153 175 0
153 174 0
143 165 25
148 170 0
157 179 0
143 164 0
147 168 0
143 164 0
142 163 0
151 172 0
144 165 0
140 161 0
142 164 0
136 157 0
146 168 0
140 161 0
145 167 0
145 165 0
140 161 0
146 167 0
143 165 0
146 167 0
138 158 0
142 163 0
138 159 0
138 158 0
147 169 0
151 172 0
139 161 0
147 168 0
142 164 0
146 168 0
143 165 0
156 177 0
140 161 0
146 167 0
133 154 0
144 166 0
132 152 0
136 157 0
140 162 0
138 160 0
137 157 0
146 167 0
140 162 0
141 163 0
145 166 0
146 168 0
143 164 0
138 159 0
143 165 0
141 164 0
134 155 0
148 170 0
133 155 0
134 157 0
145 166 0
147 168 0
137 159 0
137 157 0
147 169 0
140 161 0
147 169 0
147 168 0
144 165 0
152 174 0
146 168 0
139 160 0
147 168 0
142 164 0
143 164 0
150 171 0
141 163 0
139 160 0
146 168 0
150 173 0
141 162 0
148 169 0
150 172 0
147 169 0
146 169 0
146 168 0
147 169 0
147 168 0
146 167 0
147 169 0
145 166 0
141 161 0
140 163 0
150 171 0
153 176 0
149 171 0
140 160 0
152 173 0
156 177 0
143 165 0
149 171 0
149 170 0
145 166 0
149 169 0
135 155 0
151 172 0
153 175 0
149 172 0
154 176 0
141 164 0
152 174 0
148 169 0
150 172 0
156 178 0
147 167 0
146 167 0
152 173 0
151 172 0
154 176 0
154 177 0
152 173 0
154 176 0
152 172 0
149 172 0
149 171 0
157 178 0
161 184 0
150 172 0
152 174 0
158 180 0
160 183 0
156 177 0
161 183 0
158 180 0
151 173 0
157 178 0
155 177 0
155 177 0
151 174 0
153 173 0
154 177 0
162 184 0
155 177 0
146 169 0
162 186 0
156 178 0
157 178 0
156 177 0
153 175 0
157 178 0
160 182 0
157 179 0
161 184 0
161 183 0
155 178 0
153 176 0
155 177 0
154 176 0
155 178 0
160 182 0
165 187 0
159 181 0
155 176 0
158 180 0
159 181 0
164 185 0
160 182 0
157 179 0
166 188 0
158 180 0
157 179 0
160 181 0
165 186 0
158 180 0
161 183 0
161 184 0
158 180 0
158 180 0
160 181 0
160 182 0
165 187 0
162 183 0
167 188 0
160 181 0
162 183 0
161 184 0
160 182 0
165 187 0
162 185 0
163 186 0
168 190 0
165 187 0
157 178 0
161 183 0
161 183 0
162 183 0
159 181 0
158 179 0
166 189 0
165 187 0
165 188 0
163 185 0
165 186 0
165 186 0
161 182 0
161 183 0
164 187 0
164 185 0
163 186 0
166 189 0
163 185 0
167 188 0
161 182 0
163 186 0
160 182 0
160 182 0
165 188 0
163 183 0
163 184 0
161 183 0
164 186 0
165 187 0
168 190 0
165 186 0
165 187 0
168 191 0
167 189 0
162 182 0
164 186 0
166 189 0
166 189 0
163 185 0
166 188 0
169 190 0
164 185 0
165 187 0
162 185 0
168 189 0
166 189 0
163 184 0
167 189 0
167 188 0
167 190 0
170 191 0
160 182 0
168 191 0
170 193 0
166 189 0
169 191 0
165 187 0
166 189 0
165 188 0
166 189 0
170 192 0
170 193 0
171 194 0
166 189 0
165 188 0
